/* XPM */
static char *a[] = {
/* columns rows colors chars-per-pixel */
"60 60 169 2 ",
"   c None",
".  c #445A64",
"X  c #445B65",
"o  c #455B65",
"O  c #465B65",
"+  c #465C65",
"@  c #455C66",
"#  c #465C66",
"$  c #465C67",
"%  c #465D67",
"&  c #485E67",
"*  c #475D68",
"=  c #475E68",
"-  c #495E68",
";  c #495F69",
":  c #485F6A",
">  c #49606A",
",  c #49606B",
"<  c #4B626C",
"1  c #4A626D",
"2  c #4B626D",
"3  c #4B636E",
"4  c #4C636E",
"5  c #4C6470",
"6  c #4C6570",
"7  c #4D6570",
"8  c #4D6571",
"9  c #4D6671",
"0  c #4E6671",
"q  c #4F6874",
"w  c #4F6974",
"e  c #4F6975",
"r  c #506670",
"t  c #506874",
"y  c #506974",
"u  c #516A75",
"i  c #516A76",
"p  c #516B76",
"a  c #506B77",
"s  c #516B77",
"d  c #526B77",
"f  c #526C77",
"g  c #516B78",
"h  c #516C78",
"j  c #526C78",
"k  c #536C78",
"l  c #536D78",
"z  c #526C79",
"x  c #526D79",
"c  c #536D79",
"v  c #536D7A",
"b  c #536E7A",
"n  c #546D79",
"m  c #546E79",
"M  c #546E7A",
"N  c #556E7A",
"B  c #556F7A",
"V  c #546F7B",
"C  c #556F7B",
"Z  c #56707B",
"A  c #56707C",
"S  c #57707C",
"D  c #58717D",
"F  c #58727D",
"G  c #59727E",
"H  c #59737E",
"J  c #5A737E",
"K  c #5A737F",
"L  c #5C7580",
"P  c #5D7581",
"I  c #5E7681",
"U  c #5F7782",
"Y  c #607883",
"T  c #617984",
"R  c #627A85",
"E  c #647B86",
"W  c #667D88",
"Q  c #677E89",
"!  c #69808B",
"~  c #6B818C",
"^  c #6E848E",
"/  c #718690",
"(  c #728791",
")  c #748993",
"_  c #758A93",
"`  c #798D97",
"'  c #7A8E98",
"]  c #7C9099",
"[  c #7D9099",
"{  c #7D909A",
"}  c #7E919A",
"|  c #80939C",
" . c #81949D",
".. c #84969F",
"X. c #84979F",
"o. c #85979F",
"O. c #8698A0",
"+. c #8698A1",
"@. c #8799A2",
"#. c #889AA2",
"$. c #8FA0A8",
"%. c #90A0A8",
"&. c #91A1A9",
"*. c #93A3AB",
"=. c #99A8AF",
"-. c #9DACB3",
";. c #9EACB3",
":. c #A0AEB5",
">. c #A1AFB5",
",. c #A5B2B9",
"<. c #A6B3B9",
"1. c #A6B3BA",
"2. c #A8B4BB",
"3. c #AAB6BD",
"4. c #ADB9BF",
"5. c #AFBAC0",
"6. c #B2BDC3",
"7. c #B3BDC3",
"8. c #B4BEC4",
"9. c #B4BFC4",
"0. c #B7C1C6",
"q. c #BEC7CC",
"w. c #C1C9CE",
"e. c #C3CBD0",
"r. c #C4CCD1",
"t. c #C5CDD2",
"y. c #C6CDD2",
"u. c #C6CED2",
"i. c #C7CFD3",
"p. c #C8CFD3",
"a. c #C8CFD4",
"s. c #C9D0D5",
"d. c #CAD1D5",
"f. c #CCD3D7",
"g. c #CED5D9",
"h. c #D0D6DA",
"j. c #D1D7DB",
"k. c #D3D8DC",
"l. c #D6DBDE",
"z. c #D6DBDF",
"x. c #D8DDE0",
"c. c #D9DEE1",
"v. c #DADFE2",
"b. c #DDE1E4",
"n. c #DFE3E5",
"m. c #E0E4E6",
"M. c #E2E5E8",
"N. c #E3E6E8",
"B. c #E3E6E9",
"V. c #E4E7E9",
"C. c #E5E8EA",
"Z. c #E6E9EB",
"A. c #E7E9EB",
"S. c #E7EAEC",
"D. c #E8EAEC",
"F. c #E8EAED",
"G. c #E8EBED",
"H. c #E9EBED",
"J. c #E9ECEE",
"K. c #EAECEE",
"L. c #EBECEE",
"P. c #EBEDEE",
"I. c #EBEDEF",
"U. c #ECEDEF",
"Y. c #ECEEEF",
"T. c #ECEEF0",
"R. c #EDEFF0",
"E. c #EEEFF1",
"W. c #EEF0F1",
/* pixels */
"                                                                                                                        ",
"                                                                                                                        ",
"                                                                                                                        ",
"                                                                                                                        ",
"              G M M M M M M M M M M M M M M M M M M M M M M M M M M M M M M M M M M M M M M M M M M M S G               ",
"          P M M M M M M M M M M M M M M M M M M M M M M M M M M M M M M M M M M M M M M M M M M M M M M M i r           ",
"          M M M M M M M M M M M M M M M M M M M M M M M M M M M M M M M M M M M M M M M M M M M M M M M 8 o o           ",
"        G M M M M M M M M M M M M M M M M M M M M M M M M M M M M M M M M M M M M M M M M M M M M M M 4 o o o :         ",
"        M M M M M M M M M M M M M M M M M M M M M M M M M M M M M M M M M M M M M M M M M M M M M i : o o o o o         ",
"        M M M M M M M M 8 4 4 4 4 4 4 4 4 4 4 4 4 4 4 4 4 4 4 4 4 4 4 4 4 4 4 4 4 4 4 4 4 4 4 8 8 o o o o o o o         ",
"        M M M M M M M 4 o o o o o o o o o o o o o o o o o o o o o o o o o o o o o o o o o o o o o o o o o o o o         ",
"        M M M M M M M 4 o 8 q q q q q q q q q q q q q q q q q q q q q q q q q q q q q q q q 8 o o o o o o o o o         ",
"        M M M M M M M 4 o i M M M M M M M M M M M M M M M M M M M M M M M M M M M M M M M M i o o o o o o o o o         ",
"        M M M M M M M 4 o i M M M M M M M / O.X.X.` S M M M M M M M M M M M M M M M M M M M i o o o o o o o o o         ",
"        M M M M M M M 4 o i M M M M M M P r.H.H.H.v.^ M M M M M M M M M M M M M M M M M M M i o o o o o o o o o         ",
"        M M M M M M M : o i M M M M M M ` N.H.H.H.H.=.M M M M M M M M M M M M M M M M M M M i o o o o o o o o o         ",
"        M M M M M M M 4 o i M M M M M M <.H.H.H.H.T.r.P M M M M M M M M M M M M M M M M M M i o o o o o o o o o         ",
"        M M M M M M M 4 o i M M M M M R g.H.H.H.H.H.N.` M M M M M M M M M M M M M M M M M M i o o o o o o o o o         ",
"        M M M M M M M 4 o i M M M M M X.Z.H.H.H.H.H.T.<.M M M M M M M M M M M M M M M M M M i o o o o o o o o o         ",
"        M M M M M M M 4 o i M M M M M 7.T.H.H.r.N.H.T.h.R M M M M M M M M M M M M M M M M M i o o o o o o o o o         ",
"        M M M M M M M : o i M M M M ^ v.H.H.N.+.g.H.H.Z.+.M M M M M M M M M M M M M M M M M i o o o o o o o o o         ",
"        M M M M M M M 4 o i M M M M &.H.H.H.f.P 4.T.H.T.7.S M M M M M M M M M M M M M M M M i o o o o o o o o o         ",
"        M M M M M M M 4 o i M M M G q.T.H.T.2.M +.Z.H.H.v.^ M M M M M M M M M M M M M M M M i o o o o o o o o o         ",
"        M M M M M M M : o i M M M / n.H.H.Z.X.i W z.H.H.H.&.M M M M M M M M M M M M M M M M i o o o o o o o o o         ",
"        M M M M M M M 4 o i M M M ;.H.H.H.h.R i M 7.T.H.T.w.G M M M M M M M M M M M M M M M i o o o o o o o o o         ",
"        M M M M M M M 4 o i M M P f.T.H.H.f.+.+.O.7.H.H.H.m._ M M M M M M M M M M M M M M M i o o o o o o o o o         ",
"        M M M M M M M : o i M M { N.H.H.H.H.H.H.H.H.H.H.H.H.>.M M M M M M M M M M M M M M M i o o o o o o o o o         ",
"        M M M M M M M : o i M M 2.T.H.H.H.H.H.H.H.H.H.H.H.T.f.R M M M M M M M M M M M M M M i o o o o o o o o o         ",
"        M M M M M M M : o i M R z.H.H.H.H.Z.Z.Z.Z.Z.Z.H.H.H.Z.X.M M M M M M M M M M M M M M i o o o o o o o o o         ",
"        M M M M M M M : o i M #.H.H.H.H.<.' { { { { &.m.H.H.T.5.M M M M M M M M M M M M M M i o o o o o o o o o         ",
"        M M M M M M M 4 o i S 0.T.H.H.n.^ i M M M M G r.T.H.H.z.W M M M M M M M M M M M M M i o o o o o o o o o         ",
"        M M M M M M M 4 o q ^ n.T.T.W.r.G M M M M M M >.T.T.T.H.&.M M M M M M M M M M M M M i o o o o o o o o o         ",
"        M M M M M M M 4 o q X.r.r.r.p.$.M M M M M M M _ r.r.r.p.;.M M M M M M M M M M M M M i o o o o o o o o o         ",
"        M M M M M M M 4 o i S G G G G S M M M M M M M M G G G G G M M M M M M M M M M M M M i o o o o o o o o o         ",
"        M M M M M M M 4 o i M M M M M M M M M M M M M M M M M M M M M M M M M M M M M M M M i o o o o o o o o o         ",
"        M M M M M M M 4 o i M M M M M M M M M M M M M M M M M M M M M M M M M M M M M M M M i o o o o o o o o o         ",
"        M M M M M M M 4 o i M M M M M M M M M M M M M M M M M M M M M M M M M M M M M M M M i o o o o o o o o o         ",
"        M M M M M M M 4 o i M M M M M M M M M M M M M M M M M M M M M M M M M M M M M M M M i o o o o o o o o o         ",
"        M M M M M M M 4 o i M M M M M M M M M M M M M M M M M M M M M M M M M M M M M M M M i o o o o o o o o o         ",
"        M M M M M M M 4 o i M M M M M M M M M M M M M M M M M M M M M M M M M M M M M M M M i o o o o o o o o o         ",
"        M M M M M M M : o i M M M M M M M M M M M M M M M M M M M M M M M M M M M M M M M M i o o o o o o o o o         ",
"        M M M M M M M : o i M M M M M M M M M M M M M M M M M M M M M M M M M M M M M M M M i o o o o o o o o o         ",
"        M M M M M M M 4 o i M M M M M M M M M M M M M M M M M M M M M M M M M M M M M M M M i o o o o o o o o o         ",
"        M M M M M M M 4 o i M M M M M M M M M M M M M M M M M M M M M M M M M M M M M M M M i o o o o o o o o o         ",
"        M M M M M M M 4 o q M i i i i i i i i i i i i i i i i i i i i i i i i i i i i i i M q o o o o o o o o o         ",
"        M M M M M M M 4 o o o o o o o o o o o o o o o o o o o o o o o o o o o o o o o o o o o o o o o o o o o o         ",
"        M M M M M M M 4 o o o o o o o o o o o o o o o o o o o o o o o o o o o o o o o o o o o o o o o o o o o o         ",
"        M M M M M M i o o o o o o o o o o o o o o o o o o o o o o o o o o o o o o o o o o o o o o o o o o o o o         ",
"        M M M M M i * o o o o o o o o o o o o o o o o o o o o o o o o o o o o o o o o o o o o o o o o o o o o o         ",
"        M M M M M 4 o o o o o o o o o o o o o o o o o o o o o o o o o o o o o o o o o o o o o o o o o o o o o o         ",
"        M M M M 4 o o o o o o o o o o o o o o o o o o o o o o o o o o o o o o o o o o o o o o o o o o o o o o o         ",
"        M M M 8 o o o o o o o o o o o o o o o o o o o o o o o o o o o o o o o o o o o o o o o o o o o o o o o o         ",
"        S M q o o o o o o o o o o o o o o o o o o o o o o o o o o o o o o o o o o o o o o o o o o o o o o o o &         ",
"          i * o o o o o o o o o o o o o o o o o o o o o o o o o o o o o o o o o o o o o o o o o o o o o o o o           ",
"          4 o o o o o o o o o o o o o o o o o o o o o o o o o o o o o o o o o o o o o o o o o o o o o o o o :           ",
"              o o o o o o o o o o o o o o o o o o o o o o o o o o o o o o o o o o o o o o o o o o o o o o               ",
"                                                                                                                        ",
"                                                                                                                        ",
"                                                                                                                        ",
"                                                                                                                        "
};
