/* XPM */
static char *background[] = {
    /* columns rows colors chars-per-pixel */
    "100 100 33 1 ",
    "  c #000000",
    ". c #09091A",
    "X c #0D0D26",
    "o c #111131",
    "O c #17173C",
    "+ c #AD452E",
    "@ c #BF482D",
    "# c #C35328",
    "$ c #CE5A2D",
    "% c #F06935",
    "& c #278335",
    "* c #209E34",
    "= c #26AD3B",
    "- c #22B439",
    "; c #37A949",
    ": c #39BF4E",
    "> c #FBF236",
    ", c #F0E952",
    "< c #FFF86C",
    "1 c #FFF978",
    "2 c #3446B0",
    "3 c #344BD2",
    "4 c #3952E5",
    "5 c #4154C7",
    "6 c #4B64FB",
    "7 c #B4A9A9",
    "8 c #B1B1DA",
    "9 c #A5CBE1",
    "0 c #CBC1C1",
    "q c #DDDDF0",
    "w c #CAE4F4",
    "e c #E9E1E1",
    "r c #FFFFFF",
    /* pixels */
    "           ...................XXXXXXXXXXXXXXXXXXXXXXXXXXXXXXXXXXXXXXXXXXXXXXX11%$$@@@@@@@@@@@@@+++++",
    "          ...................XXXXXXXXXXXXXXXXXXXXXXXXXXXXXXXXXXXXXXXXXXXXXXXXX1%$$$$$#@@@@@@@@@@@@@+",
    "    q    ...................XXXXXXXXXXXXXXXXXXoooooooooooooooooooooooooXXXXXXX1%$$$$$######@@@@@@@@+",
    "        ...................XXXXXXXXXXXXXXXXooooooooooooooooooooooooooooooooooX1%$$$$$##########@@@@+",
    "       ...................XXXXXXXXXXXXXXXooooooooooooooooooooooooooooooqooooooo1%$$$$###########@@@+",
    "      ...............q...XXXXXXXXXXXXXXoooooooooooooooooooooooooooooooooooooooo1%$$$$$###########@@@",
    "      ..................XXXXXXXXqXXXXXooooooo8ooooooooooooooooooooooooooooooooo1%$$$$$$$$########@@@",
    "     ..................XXXXXXXXXXXXXXooooooo8q8oooooooooooooooooooooooooooooooo1%$$$$$$$$$$$#####@@@",
    "    .....8............XXXXXXXXXXXXXXooooooooo8ooooooooooooooooooqooooooooooooooo1%$$$$$$$$$$$####@@@",
    "    ....8q8..........XXXXXXXXXXXXXXXoooooooooooooooooooooooooooooooooooooooooooo1%$$$$$$$$$$$#####@@",
    "   ......8..........XXXXXXXXXXXXXXXoooooooooooooooooooooooooooooooooooooooooooooo1%$$$$$$$$$$#####@@",
    "   ................XXXXXXXXXXXXXXXooooooooooooooooooooooooooooooooooooooooooooooo1%$$$$$$$$$$#####@@",
    "  ................XXXXXXXXXXXXXXXoooooooooooooooooooooooooooooooooooooooooooooooo1%$$$$$$$$$#######@",
    " ................XXXXXXXXXXXXXXXXooooooooooooooooooooooooooooooooooooooooooooooooo1%$$$$$$$$#######@",
    "................XXXXXXXXXXXXXXXXooooooooooooooooooooooooooooooooooooooooooooqoooooo1%$$$$$$$#######@",
    "...............XXXXXXXXXXXXXXXXooooooooooooooooooooooooqoooooooooooooooooooooooooooo1%$$$$$$$######@",
    "..............XXXXXXXXXXXXXXXXXoooo<<<<<<<<<oooooooooooooooooooooooooooooooooooooooo1%$$$$$$$$#####@",
    ".............XXXXXXXXXXXXXXXXXooo>>>>>>>><<<<<ooooooooooooooooooooooooooooooooooooooo1%$$$$$$$$####@",
    "............XXXXXqXXXXXXXXXXXooo>>>>>>>>>>><<<<ooooooooooooooooooooooooooooooooooooooo1%$$$$$$$$###@",
    "...........XXXXXXXXXXXXXXXXXoo,>>>>>>>>>>>>>><<<oooooooOOOOOOOOOooooooooooooooooooooooo1%$$$$$$$$##@",
    "..........XXXXXXXXXXXXXXXXXoo,,>>>>>>>>>>>>>>><<<oooOOOOOOOOOOOOOOoooooooooooooooooooooo1%%$$$$$$$#@",
    "........XXXXXXXXXXXXXXXXXXoo,,,>>>>>>>>>>>>>>>><<oOOOOOOOOO8OOOOOOOooooqooooooooooooooooo11%$$$$$$#@",
    "......XXXXXXXXXXXXXXXXXXXooo,,,>>>>>>>>>>>>>>>><<<OOOOOOOO8q8OOOOOOOooooooooooooooooooooooo1%%$$$$#@",
    ".....XXXXXXXXXXXXXXXXXXXooo,,,,>>>>>>>>>>>>>>>>><<OOOOOOOOO8OOOOOOOOOooooooooooooooooooooooo11%%$$#@",
    "....XXXXXXXXXXXXXXXXXXXoooo,,,,>>>>>>>>>>>>>>>>><<<OOOOOOOOOOOOOOOOOOOoooooooooooooooooooooooo11%%%@",
    "...XXXXXXXXXXXXXXXXXXoooooo,,,,>>>>>>>>>>>>>>>>>><<OOOOOOOOOOOOOOOOOOOOoooooooo8oooooooooooooooo1111",
    "..XXXXXXXXXXqXXXXXXXooooooo,,,,>>>>>>>>>>>>>>>>>><<OOOOOOOOOOOOOOOOOOOOOoooooo8q8ooooooooooooooooooo",
    ".XXXXXXXXXXXXXXXXXXoooooooo,,,,>>>>>>>>>>>>>>>>>><<OOOOOOOOOOOOOOOOOOOOOooooooo8oooooooooooooooooooo",
    "XXXXXXXXXXXXXXXXXoooooooooo,,,,>>>>>>>>>>>>>>>>>>><OOOOOOOOOOOOOOOOOOOOOOooooooooooooooooooooooooooo",
    "XXXXXXXXXXXXXXXXooooooooooo,,,,>>>>>>>>>>>>>>>>>>><OOOOOOOOOOOOOOOOOOOOOOOoooooooooooooooooooooooooo",
    "XXXXXXXXXXXXXXXoooooooooooo,,,,>>>>>>>>>>>>>>>>>>><OOOOOOOOOOOOOOOOOOOOOOOoooooooooooooooooooooooooo",
    "XXXXXXXXXXXXXXooooooooooooo,,,,,>>>>>>>>>>>>>>>>>><OOOOOOOOOOOOOOOOOOOOOOOOooooooooooooooooooooooooo",
    "XXXX8XXXXXXXooooooooooooooo,,,,,,>>>>>>>>>>>>>>>>><OOOOOOOOOOOOOOOOOOOOOOOOoooooooooooooooooqooooooo",
    "XXX8q8XXXXXooooooooooooooooo,,,,,,>>>>>>>>>>>>>>>>OOOOOOOOOOOOOOOOOOOOOOOOOooooooooooooooooooooooooo",
    "XXXX8XXXXXoooooooooooooooooo,,,,,,,,,,,>>>>>>>>>>OOOOOOOOOOOOOOOOOOOOOOOOOOooooooooooooooooooooooooo",
    "XXXXXXXXooooooooooooooooooooo,,,,,,,,,,,,,,,,,,,,OOOOOOOOOOOOOOOOOOOOOOOOOOooooooooooooooooooooooooo",
    "XXXXXXXoooooooooooooooooooooo,,,,,,,,,,,,,,,,,,,OOOOOOOOOOOOOOOOOOOOOOOOOOOooooooooooooooooooooooooo",
    "XXXXXXoooooooooooooooooooooooo,,,,,,,,,,,,,,,,,OOOOOOOOOOOOOOOOOOOOOOOOOOOoooooooooooooooooooooooooX",
    "XXXXXoooooooooooooooooooooooooOO,,,,,,,,,,,,,OOOOOOOOOOOOOOOOOOOOOOOOOOOOoooooooooooooooooooooooooXX",
    "XXXXooooooooooooooooooooooooOOOOOOO,,,,,,,,OOOOOOOOOOOOOOOOqOOOOOOOOOOOOooooooooooooooooooooooooooXX",
    "XXXXoooooooooooooooooooooooOOOOOOOOOOOOOOOOOOOOOOOOOOOOOOOOOOOOOOOOOOOOoooqoooooooooooooooooooooooXX",
    "XXXooooooooooooqooooooooooOOOOOOOOOOOOOOOOOOOOOOOOOOOOOOOOOOOOOOOOOOOOoooooooooooooooooooooooooooXXX",
    "XXoooooooooooooooooooooooOOOOOOOOOOOOOOOOOOOOOOOOOOOOOOOOOOOOOOOOOOOOoooooooooooooooooooooooooooXXXX",
    "XXooooooooooooooooooooooOOOOOOOOOOOOOOOOOOOOOOOOOOOOOOOOOOOOOOOOOOOOoooooooooooooooooooooooooooXXXXX",
    "XXooooqooooooooooooooooOOOOOOOOOOOOOOOOOOOOOOOOOOOOOOOOOOOOOOOOOOOOoooooooooooooooooooooooooooXXXXXX",
    "XoooooooooooooooooooooOOOOOOOOOOOOOOOOOOOOOOOOOOOOOOOOOOOOOOOOOOOOooooooooooooooooooooooooooooXXXXXX",
    "oooooooooooooooooooooOOOOOOOOOOOOOOOOOOOOOOOOOOOOOOOOOOOOOOOOOOOOooooooooooooooooooooooooooooXXXXXXX",
    "ooooooooooooooooooooOOOOOOOOOOOOOOOOOOOOOOOOOOOOOOOOOOOOOOOOOOOOooooooooooooooooooqoooooooooXXXXXXXX",
    "oooooooooooooooooooOOOOOOO8OOOOOOOOOOOOOOOOOOOOOOOOOOOOOOOOOOOOoooooooooooooooooooooooooooooXXXXXXXX",
    "ooooooooooooooooooOOOOOOOO8OOOOOOOOOOOOOOOOOOOOOOOOOOOOOOOOOOOoooooooooooooooooooooooooooooXXXXXXXXX",
    "ooooooooooooooooooOOOOOOOOOOOOOOOOOOOOOOOOOOOOOOOOOOOOOOOOOOOoooooooooooooooooooooooooooooXXXXXXXXXX",
    "ooooooooooooooooooOOOOOOOOOOOOOOOOOOOOOOOOOOOOOOOOOOOOOqOOOooooooooooooooooooooooooooooooXXXXXXXXXX8",
    "ooooooooooooooooooOOOOOOOOOOOOOOOOOOOOOOOOOOOOOOOOOOOOOOOOooooooooooo8oooooooooooooooooXXXXXXXXXXX8q",
    "ooooooooooooooooooO111111OOOOOOOOOOOOOOOO8OOOOOOOOOOOOOooooooooooooo8q8oooooooooooooooXXXXXXXXXXXXX8",
    "ooooooooooooooooo11eeeeee11OOOOOOOOOOOOO8q8OOOOOOOOOooooooooooooooooo8oooooooooooooooXXXXXXXXXXXXXXX",
    "oooooooooooooooo1ee700eeeee1OOOOOOOOOOOOO8OOOOOOOOooooooooooooooooooooooooooooooooooXXXXXXXXXXXXXXXX",
    "ooooooooooqoooo1eee777eeeee1OOOOOOOOOOOOOOOOOOOOOoooooooooooooooooooooooooooooooooXXXXXXXXXXXXXXXXXX",
    "ooooooooooooooo1eeeeeeeeeeee1OOOOOOOOOOOOOOOOOOooooooooooooooooooooooooooooooooooXXXXXXXXXXXXXXXXXXX",
    "oooooooooooooo10eeeeee07eeee11OOOOOOOOOOOOOOOOooooooooooooooooooooooooooooooooooXXXXXXXXXXXXXXXXXXXX",
    "oooooooooooooo10eeeee007eeeee7OOOOOOOOOOOOOOooooooooooooooooooooooooooooooooooXXXXXXXXXXXXXXXXXXXXXX",
    "oooooooooooooo70eeeee07eee70e7OOOOOOOOOOOOooooooooooooooooooooooooooooooooooXXXXXXXXXXXXXXXXXXXXXXXX",
    "oooooooooooooo70ee70eeeeee77e7OOOOOOOOOOoooooooooooooooooooooooooooooooooooXXXXXXXXXXXXXXXXXXXXXXXXX",
    "oooooooooooooo70ee700eeeeeeee7OOOOOOOOooooooooooooooooooooooooooooooooooooXXXXXXXXXXXXXXXXXXXXXXXXXX",
    "oooooooooooooo70eee77eeeeeeee7OOOOOooooooooooooooooooooooooooooooooooooooXXXXXXXXXXXXXXXXXXXXXXXXXXX",
    "oooooooooooooo70eeeeeeeeeeeee7OOoooooooooooooooooooooooooooooooooooooooXXXXXXXXXXXXXXXXXXXXXXXXXXXX.",
    "oooooooooooooo700eeeeee70eeee7oooooqooooooooooooooooooooooooooooooooooXXXXXqXXXXXXXXXXXXXXXXXXXXXX..",
    "ooooooooooooooo70eeeeee77eee7oooooooooooooooooooooooooooooooooooooooXXXXXXXXXXXXXXXXXXXXqXXXXXXXX...",
    "ooooooooooooooo700eeeeeeeeee7oooooooooooooooooooooooooooooooqooooooXXXXXXXXXXXXXXXXXXXXXXXXXXXXX....",
    "ooooooooqooooooo7000eeeeee77ooooooooooooooooooooooooooooooooooooooXXXXXXXXXXXXXXXXXXXXXXXXXXXXX.....",
    "ooooooooooooooooo770000777oooooooooooooooooooooooooooooooooooooooXXXXXXXXXXXXXXXXXXXXXXXXXXXX.......",
    "ooooooooooooooooooo777777ooooooooooooooooooooooooqooooooooooooXXXXXXXXXXXXXXXXXXXXXXXXXXXXX.........",
    "oooooooooooooooooooooooooooooooooooooooooooooooooooooooooooXXXXXXXXXXXXXXXXXXXXXXXXXXXXXX...........",
    "ooooooooooooooooooooooooooooooooooooooooooooooooooooooooXXXXXXXXXXXXXXXXXXXXXXXXXXXXXX..............",
    "oooooooooooooooooooooooooooooooooooooooooooooooooooooXXXXXXXXXXXXXX8XXXXXXXXXXXXXXXX................",
    "ooooooooooooooooooooooooooooooooooooooooooooooooooooXXXXXXXXXXXXXX8q8XXXXXXXXXXXX...................",
    "oooooooooooooooooooooooooooooooooooooooooooooooooXXXXXXXXXXXXXXXXXX8XXXXXXXXXXX.....................",
    "oooooooooooooooooooooooooooooooooooooooooooooooXXXXXXXXXXXXXXXXXXXXXXXXXXXXXX....................q..",
    "oooooooooooooooooooooooooooqoooooooooooooooXXXXXXXXXXXXXXXXXXXXXXXXXXXXXXXX.........................",
    "ooooooooooooooooooooooooooooooooooooooooXXXXXXXXXXXXXXXXXXXXXqXXXXXXXXX.............................",
    "rrrrrr1111111oooooooooooooooooooooooXXXXXXXXXXXXXXXXXXXXXXXXXXXXXXXXX...............................",
    "rrrww944&&:::111ooooooooooooooooooXXXXXXXXXXXXXXXqXXXXXXXXXXXXXXXX..................................",
    "www9944&&----:::11ooooooooooooooXXXXXXXXXXXXXXXXXXXXXXXXXXXXXX......................................",
    "999444&&**------::11oooooooooXXXXXXXXXXXXXXXXXXXXXXXXXXXXX..........................................",
    "9444444&&***------:41oooooXXXXXXXXXXXXXXXXXXXXXXXXXXXX............................................. ",
    "34444444&&**------:::1XXXXXXXXXXXXXXXXXXXXXXXXXXX.................................................  ",
    "333444444&**--===----:1XXXXXXXXXXXXXXXXXX........................................................   ",
    "533344444&*--======---:1XXXXXXXXXX8XXX.........................................................     ",
    "55333444&&*========---441XXXXXXXXX8........................................q.............q...       ",
    "22533344&****======-24441XXXXXXX88q88......................................................         ",
    "22253334&&******==-222-::1XX......8....................................................             ",
    "222253344&&&&&&**=-22---::1.......8...............................................                  ",
    "22222533444444&&*======--:1..................q...............................                       ",
    "222222533444444&*=====---:61............................................                            ",
    "&2222225344444&&*==------261........................................                                ",
    ";&22222534444&&**==***-222261...................................                                    ",
    ";;&222225344&&***==**22222261.................................                                      ",
    ";;;&222253444&&***==*222222666.............................     8                                   ",
    ";;;;&222553444&&**==*222225566...........................      8q8                                  ",
    ";;;;&2222534444&&***2222255446..................                8                                   ",
    ";;;&222225344444&&&&2222554446                                                                      "
    };
