/* XPM */
static char * background_stars[] = {
/* columns rows colors chars-per-pixel */
"100 100 7",
"  1",
". 7",
"X 2",
"o 3",
"O 4",
"+ 5",
"@ 6",
/* pixels */
"           ...................XXXXXXXXXXXXXXXXXXXXXXXXXXXXXXXXXXXXXXXXXXXXXXXXXXXXXXXXXXXXXXXXXXXXXX",
"          ...................XXXXXXXXXXXXXXXXXXXXXXXXXXXXXXXXXXXXXXXXXXXXXXXXXXXXXXXXXXXXXXXXXXXXXXX",
"    @    ...................XXXXXXXXXXXXXXXXXXoooooooooooooooooooooooooXXXXXXXXXXXXXXXXXXXXXXXXXXXXX",
"        ...................XXXXXXXXXXXXXXXXooooooooooooooooooooooooooooooooooXXXXXXXXXXXXXXXXXXXXXXX",
"       ...................XXXXXXXXXXXXXXXoooooooooooooooooooooooooooooo@oooooooooXXXXXXXXXXXXXXXXXXX",
"      ...............@...XXXXXXXXXXXXXXooooooooooooooooooooooooooooooooooooooooooooooXXXXXXXXXXXXXXX",
"      ..................XXXXXXXX@XXXXXooooooo+ooooooooooooooooooooooooooooooooooooooooooXXXXXXXXXXXX",
"     ..................XXXXXXXXXXXXXXooooooo+@+ooooooooooooooooooooooooooooooooooooooooooXXXXXXXXXXX",
"    .....+............XXXXXXXXXXXXXXooooooooo+oooooooooooooooooo@ooooooooooooooooooooooooooXXXXXXXXX",
"    ....+@+..........XXXXXXXXXXXXXXXooooooooooooooooooooooooooooooooooooooooooooooooooooooooXXXXXXXX",
"   ......+..........XXXXXXXXXXXXXXXooooooooooooooooooooooooooooooooooooooooooooooooooooooooooXXXXXXX",
"   ................XXXXXXXXXXXXXXXooooooooooooooooooooooooooooooooooooooooooooooooooooooooooooXXXXXX",
"  ................XXXXXXXXXXXXXXXooooooooooooooooooooooooooooooooooooooooooooooooooooooooooooooXXXXX",
" ................XXXXXXXXXXXXXXXXoooooooooooooooooooooooooooooooooooooooooooooooooooooooooooooooXXXX",
"................XXXXXXXXXXXXXXXXoooooooooooooooooooooooooooooooooooooooooooo@ooooooooooooooooooooXXX",
"...............XXXXXXXXXXXXXXXXoooooooooooooooooooooooo@ooooooooooooooooooooooooooooooooooooooooooXX",
"..............XXXXXXXXXXXXXXXXXooooooooooooooooooooooooooooooooooooooooooooooooooooooooooooooooooooX",
".............XXXXXXXXXXXXXXXXXooooooooooooooo@oooooooooooooooooooooooooooooooooooooooooooooooooooooX",
"............XXXXX@XXXXXXXXXXXooooooooooooooooooooooooooooooooooooooooooooooooooooooooooooooooooooooo",
"...........XXXXXXXXXXXXXXXXXoooooooooooooooooooooooooooOOOOOOOOOoooooooooooooooooooooooooooooooooooo",
"..........XXXXXXXXXXXXXXXXXoooooooooooooooooooooooooOOOOOOOOOOOOOOoooooooooooooooooooooooooooooooooo",
"........XXXXXXXXXXXXXXXXXXooooooooooooooooooooooooOOOOOOOOO+OOOOOOOoooo@oooooooooooooooooooooooooooo",
"......XXXXXXXXXXXXXXXXXXXooooooooooooooooooooooooOOOOOOOOO+@+OOOOOOOoooooooooooooooooooooooooooooooo",
".....XXXXXXXXXXXXXXXXXXXooooooooooo@oooooooooooOOOOOOOOOOOO+OOOOOOOOOooooooooooooooooooooooooooooooo",
"....XXXXXXXXXXXXXXXXXXXooooooooooooooooooooooOOOOOOOOOOOOOOOOOOOOOOOOOoooooooooooooooooooooooooooooo",
"...XXXXXXXXXXXXXXXXXXoooooooooooooooooooooooOOOOOOOOOOOOOOOOOOOOOOOOOOOoooooooo+oooooooooooooooooooo",
"..XXXXXXXXXX@XXXXXXXoooooooooooooooooooooooOOOOOOOOOOOOOOOOOOOOOOOOOOOOOoooooo+@+ooooooooooooooooooo",
".XXXXXXXXXXXXXXXXXXooooooooooooooooooooooOOOOOOOOOOOOOOOOOOOOOOOOOOOOOOOooooooo+oooooooooooooooooooo",
"XXXXXXXXXXXXXXXXXooooooooooo@oooooooooooOOOOOOOOOOOOOOOOOOOOOOOOOOOOOOOOOooooooooooooooooooooooooooo",
"XXXXXXXXXXXXXXXXoooooooooooooooooooooooOOOOOOOOOOOOOOOOOOOOOOOOOOOOOOOOOOOoooooooooooooooooooooooooo",
"XXXXXXXXXXXXXXXoooooooooooooooooooooooOOOOOOOOOOOOOOOOOOOOOOOOOOOOOOOOOOOOoooooooooooooooooooooooooo",
"XXXXXXXXXXXXXXoooooooooooooooooooooooOOOOOOOOOOOOOOOOOOOOOOOOOOOOOOOOOOOOOOooooooooooooooooooooooooo",
"XXXX+XXXXXXXoooooooooooooooooooooooOOOOOOOOOOOOOOOOOOOOOOOOOOOOOOOOOOOOOOOOooooooooooooooooo@ooooooo",
"XXX+@+XXXXXoooooooooooooooooooooooOOOOOOOOOOOOOOOOOOOOOOOOOOOOOOOOOOOOOOOOOooooooooooooooooooooooooo",
"XXXX+XXXXXoooooooooooooooooooooooOOOOOOOOOOOOOOOOOOOOOOOOOOOOOOOOOOOOOOOOOOooooooooooooooooooooooooo",
"XXXXXXXXooooooooooooooooooooooooOOOOOOOOOO@OOOOOOOOOOOOOOOOOOOOOOOOOOOOOOOOooooooooooooooooooooooooo",
"XXXXXXXooooooooooooooooooooooooOOOOOOOOOOOOOOOOOOOOOOOOOOOOOOOOOOOOOOOOOOOOooooooooooooooooooooooooo",
"XXXXXXooooooooooooooooooooooooOOOOOOOOOOOOOOOOOOOOOOOOOOOOOOOOOOOOOOOOOOOOoooooooooooooooooooooooooX",
"XXXXXooooooooooooooooooooooooOOOOOOOOOOOOOOOOOOOOOOOOOOOOOOOOOOOOOOOOOOOOoooooooooooooooooooooooooXX",
"XXXXooooooooooooooooooooooooOOOOOOOOOOOOOOOOOOOOOOOOOOOOOOO@OOOOOOOOOOOOooooooooooooooooooooooooooXX",
"XXXXoooooooooooooooooooooooOOOOOOOOOOOOOOOOOOOOOOOOOOOOOOOOOOOOOOOOOOOOooo@oooooooooooooooooooooooXX",
"XXXoooooooooooo@ooooooooooOOOOOOOOOOOOOOOOOOOOOOOOOOOOOOOOOOOOOOOOOOOOoooooooooooooooooooooooooooXXX",
"XXoooooooooooooooooooooooOOOOOOOOOOOOOOOOOOOOOOOOOOOOOOOOOOOOOOOOOOOOoooooooooooooooooooooooooooXXXX",
"XXooooooooooooooooooooooOOOOOOOOOOOOOOOOOOOOOOOOOOOOOOOOOOOOOOOOOOOOoooooooooooooooooooooooooooXXXXX",
"XXoooo@ooooooooooooooooOOOOOOOOOOOOOOOOOOOOOOOOOOOOOOOOOOOOOOOOOOOOoooooooooooooooooooooooooooXXXXXX",
"XoooooooooooooooooooooOOOOOOOOOOOOOOOOOOOOOOOOOOOOOOOOOOOOOOOOOOOOooooooooooooooooooooooooooooXXXXXX",
"oooooooooooooooooooooOOOOOOOOOOOOOOOOOOOOOOOOOOOOOOOOOOOOOOOOOOOOooooooooooooooooooooooooooooXXXXXXX",
"ooooooooooooooooooooOOOOOO+OOOOOOOOOOOOOOOOOOOOOOOOOOOOOOOOOOOOOoooooooooooooooooo@oooooooooXXXXXXXX",
"oooooooooooooooooooOOOOOO+++OOOOOOOOOOOOOOOOOOOOOOOOOOOOOOOOOOOoooooooooooooooooooooooooooooXXXXXXXX",
"ooooooooooooooooooOOOOOOOO+OOOOOOOOOOOOOOOOOOOOOOOOOOOOOOOOOOOoooooooooooooooooooooooooooooXXXXXXXXX",
"ooooooooooooooooooOOOOOOOOOOOOOOOOOOOOOOOOOOOOOOOOOOOOOOOOOOOoooooooooooooooooooooooooooooXXXXXXXXXX",
"ooooooooooooooooooOOOOOOOOOOOOOOOOOOOOOOOOOOOOOOOOOOOOO@OOOooooooooooooooooooooooooooooooXXXXXXXXXX+",
"ooooooooooooooooooOOOOOOOOOOOOOOOOOOOOOOOOOOOOOOOOOOOOOOOOooooooooooo+oooooooooooooooooXXXXXXXXXXX+@",
"oooooooooooooooooOOOOOOOOOOOOOOOOOOOOOOOO+OOOOOOOOOOOOOooooooooooooo+@+oooooooooooooooXXXXXXXXXXXXX+",
"oooooooooooooooooOOOOOOOOOOOOOOOOOOOOOOO+@+OOOOOOOOOooooooooooooooooo+oooooooooooooooXXXXXXXXXXXXXXX",
"oooooooooo+ooooooOOOOOOOOOOOOOOOOOOOOOOOO+OOOOOOOOooooooooooooooooooooooooooooooooooXXXXXXXXXXXXXXXX",
"ooooooooo+@+oooooOOOOOOOOOOOOOOOOOOOOOOOOOOOOOOOOoooooooooooooooooooooooooooooooooXXXXXXXXXXXXXXXXXX",
"oooooooooo+ooooooOOOOOOOOOOOOOOOOOOOOOOOOOOOOOOooooooooooooooooooooooooooooooooooXXXXXXXXXXXXXXXXXXX",
"oooooooooooooooooOOOOOOOOOOOOOOOOOOOOOOOOOOOOOooooooooooooooooooooooooooooooooooXXXXXXXXXXXXXXXXXXXX",
"ooooooooooooooooooOOOOOOOOOOOOOOOOOOOOOOOOOOooooooooooooooooooooooooooooooooooXXXXXXXXXXXXXXXXXXXXXX",
"ooooooooooooooooooOOOOOOOOOOOOOOOOOOOOOOOOooooooooooooooooooooooooooooooooooXXXXXXXXXXXXXXXXXXXXXXXX",
"ooooooooooooooooooOOOOOOOOOOOOOOOOOOOOOOoooooooooooooooooooooooooooooooooooXXXXXXXXXXXXXXXXXXXXXXXXX",
"ooooooooooooooooooOOOOOOOOOOOOOOOOOOOOooooooooooooooooooooooooooooooooooooXXXXXXXXXXXXXXXXXXXXXXXXXX",
"oooooooooooooooooooOOOOOOOOOOOOOOOOooooooooooooooooooooooooooooooooooooooXXXXXXXXXXXXXXXXXXXXXXXXXXX",
"ooooooooooooooooooooOOOOOOOOOOOOoooooooooooooooooooooooooooooooooooooooXXXXXXXXXXXXXXXXXXXXXXXXXXXX.",
"oooooooooooooooooooooOOOOOOOOoooooo@ooooooooooooooooooooooooooooooooooXXXXX@XXXXXXXXXXXXXXXXXXXXXX..",
"ooooooooooooooooooooooOOOOOoooooooooooooooooooooooooooooooooooooooooXXXXXXXXXXXXXXXXXXXX@XXXXXXXX...",
"oooooooooooooooooooooooooooooooooooooooooooooooooooooooooooo@ooooooXXXXXXXXXXXXXXXXXXXXXXXXXXXXX....",
"oooooooo@oooooooooooooooooooooooooooooooooooooooooooooooooooooooooXXXXXXXXXXXXXXXXXXXXXXXXXXXXX.....",
"oooooooooooooooooooooooooooooooooooooooooooooooooooooooooooooooooXXXXXXXXXXXXXXXXXXXXXXXXXXXX.......",
"ooooooooooooooooooooooooooooooooooooooooooooooooo@ooooooooooooXXXXXXXXXXXXXXXXXXXXXXXXXXXXX.........",
"oooooooooooooooooooooooooooooooooooooooooooooooooooooooooooXXXXXXXXXXXXXXXXXXXXXXXXXXXXXX...........",
"ooooooooooooooooooooooooooooooooooooooooooooooooooooooooXXXXXXXXXXXXXXXXXXXXXXXXXXXXXX..............",
"oooooooooooooooooooooooooooooooooooooooooooooooooooooXXXXXXXXXXXXXX+XXXXXXXXXXXXXXXX................",
"ooooooooooooooooooooooooooooooooooooooooooooooooooooXXXXXXXXXXXXXX+@+XXXXXXXXXXXX...................",
"oooooooooooooooo+ooooooooooooooooooooooooooooooooXXXXXXXXXXXXXXXXXX+XXXXXXXXXXX.....................",
"ooooooooooooooo+@+oooooooooooooooooooooooooooooXXXXXXXXXXXXXXXXXXXXXXXXXXXXXX....................@..",
"oooooooooooooooo+oooooooooo@oooooooooooooooXXXXXXXXXXXXXXXXXXXXXXXXXXXXXXXX.........................",
"ooooooooooooooooooooooooooooooooooooooooXXXXXXXXXXXXXXXXXXXXX@XXXXXXXXX.............................",
"ooooooooooooooooooooooooooooooooooooXXXXXXXXXXXXXXXXXXXXXXXXXXXXXXXXX...............................",
"ooooooooooooooooooooooooooooooooooXXXXXXXXXXXXXXX@XXXXXXXXXXXXXXXX..................................",
"ooooooooooooooooooooooooooooooooXXXXXXXXXXXXXXXXXXXXXXXXXXXXXX......................................",
"oooooooooooooooooooooooooooooXXXXXXXXXXXXXXXXXXXXXXXXXXXXX..........................................",
"ooooooooooooooooooooooooooXXXXXXXXXXXXXXXXXXXXXXXXXXXX............................................. ",
"oooooooooooooooooooooXXXXXXXXXXXXXXXXXXXXXXXXXXXX.................................................  ",
"oooooooooooooooooXXXXXXXXXXXXXXXXXXXXXXXX........................................................   ",
"ooooooooooooXXXXXXXXXXXXXXXXXXXXXX+XXX.........................................................     ",
"oooooooXXXXXXXXXXXXXXXXXXXXXXXXXXX+........................................@.............@...       ",
"ooXXXXXXXXXXX@XXXXXXXXXXXXXXXXXX++@++......................................................         ",
"XXXXXXXXXXXXXXXXXXXXXXXXXXX.......+....................................................             ",
"XXXXXXXXXXXXXXXXXXXXXXXXX.........+...............................................                  ",
"XXXXXXXXXXXXXXXXXXXXXXX......................@...............................                       ",
"XXXXXXXXXXXXXXXXXXXX....................................................                            ",
"XXXXXXXXXXXXXXXXXX..................................................                                ",
"XXXXXXXXXXXXXX..................................................                                    ",
"XXXXXXXXX.....................................................                                      ",
"...........................................................     +                                   ",
".........................................................      +@+                                  ",
"................................................                +                                   ",
"..............................                                                                      "
};
