/* XPM */
static char *d[] = {
/* columns rows colors chars-per-pixel */
"60 60 153 2 ",
"   c None",
".  c #445A64",
"X  c #445B65",
"o  c #455B65",
"O  c #465B65",
"+  c #465C65",
"@  c #455C66",
"#  c #465C66",
"$  c #465C67",
"%  c #465D67",
"&  c #485E67",
"*  c #475D68",
"=  c #475E68",
"-  c #495E68",
";  c #4A5F69",
":  c #485F6A",
">  c #49606A",
",  c #49606B",
"<  c #4B626C",
"1  c #4A626D",
"2  c #4B626D",
"3  c #4B636E",
"4  c #4C636E",
"5  c #4C646F",
"6  c #4C6570",
"7  c #4D6571",
"8  c #4D6671",
"9  c #4E6671",
"0  c #4F6874",
"q  c #506670",
"w  c #506874",
"e  c #506974",
"r  c #516A75",
"t  c #516A76",
"y  c #516B76",
"u  c #506B77",
"i  c #526B77",
"p  c #526C77",
"a  c #516C78",
"s  c #526C78",
"d  c #536C78",
"f  c #536D78",
"g  c #526C79",
"h  c #526D79",
"j  c #536D79",
"k  c #536D7A",
"l  c #536E7A",
"z  c #546D79",
"x  c #546E79",
"c  c #546E7A",
"v  c #556E7A",
"b  c #556F7A",
"n  c #546F7B",
"m  c #556F7B",
"M  c #566F7B",
"N  c #56707B",
"B  c #56707C",
"V  c #57717D",
"C  c #58717D",
"Z  c #58727D",
"A  c #59727E",
"S  c #59737E",
"D  c #5A737F",
"F  c #5B747F",
"G  c #5B7480",
"H  c #5C7480",
"J  c #5C7580",
"K  c #5D7581",
"L  c #5D7681",
"P  c #5F7782",
"I  c #607883",
"U  c #617984",
"Y  c #627984",
"T  c #647B86",
"R  c #657D87",
"E  c #677E88",
"W  c #687F89",
"Q  c #6B818B",
"!  c #6B818C",
"~  c #708590",
"^  c #738892",
"/  c #748993",
"(  c #768A94",
")  c #778B95",
"_  c #798D97",
"`  c #7C8F98",
"'  c #7D919A",
"]  c #7F929B",
"[  c #81949D",
"{  c #84969F",
"}  c #8597A0",
"|  c #8D9EA6",
" . c #91A1A9",
".. c #95A4AC",
"X. c #9EACB3",
"o. c #9FADB4",
"O. c #A0AEB5",
"+. c #A4B2B8",
"@. c #A5B2B8",
"#. c #A5B3B9",
"$. c #A6B3B9",
"%. c #A7B3BA",
"&. c #A7B4BA",
"*. c #ADB8BE",
"=. c #AEBAC0",
"-. c #B3BEC4",
";. c #B5C0C5",
":. c #B9C3C8",
">. c #BAC3C8",
",. c #BAC3C9",
"<. c #BCC5CA",
"1. c #BCC6CB",
"2. c #C0C8CD",
"3. c #C0C9CD",
"4. c #C1CACE",
"5. c #C2CBCF",
"6. c #C4CCD0",
"7. c #C6CED2",
"8. c #C7CED3",
"9. c #C9D0D4",
"0. c #CAD1D5",
"q. c #CFD5D9",
"w. c #CFD6D9",
"e. c #D0D6D9",
"r. c #D1D7DB",
"t. c #D3D9DC",
"y. c #D4D9DD",
"u. c #D5DBDE",
"i. c #D6DBDE",
"p. c #D7DCDF",
"a. c #D8DDE0",
"s. c #DBDFE2",
"d. c #DCE0E3",
"f. c #DEE2E5",
"g. c #E1E4E7",
"h. c #E1E5E7",
"j. c #E2E6E8",
"k. c #E3E6E9",
"l. c #E4E7E9",
"z. c #E7E9EB",
"x. c #E7EAEC",
"c. c #E8EAED",
"v. c #E8EBED",
"b. c #E9EBED",
"n. c #EAECEE",
"m. c #EBECEE",
"M. c #EBEDEE",
"N. c #EBEDEF",
"B. c #ECEDEF",
"V. c #ECEEEF",
"C. c #ECEEF0",
"Z. c #EDEEF0",
"A. c #EDEFF0",
/* pixels */
"                                                                                                                        ",
"                                                                                                                        ",
"                                                                                                                        ",
"                                                                                                                        ",
"              A N c c c c c c c c c c c c c c c c c c c c c c c c c c c c c c c c c c c c c c c c c c N A               ",
"          K c c c c c c c c c c c c c c c c c c c c c c c c c c c c c c c c c c c c c c c c c c c c c c c t q           ",
"          c c c c c c c c c c c c c c c c c c c c c c c c c c c c c c c c c c c c c c c c c c c c c c c 7 X X           ",
"        A c c c c c c c c c c c c c c c c c c c c c c c c c c c c c c c c c c c c c c c c c c c c c c 5 X X X :         ",
"        c c c c c c c c c c c c c c c c c c c c c c c c c c c c c c c c c c c c c c c c c c c c c t : X X X X X         ",
"        c c c c c c c c 7 5 5 5 5 5 5 5 5 5 5 5 5 5 5 5 5 5 5 5 5 5 5 5 5 5 5 5 5 5 5 5 5 5 5 7 7 X X X X X X X         ",
"        c c c c c c c 5 X X X X X X X X X X X X X X X X X X X X X X X X X X X X X X X X X X X X X X X X X X X X         ",
"        c c c c c c c 5 X 7 0 0 0 0 0 0 0 0 0 0 0 0 0 0 0 0 0 0 0 0 0 0 0 0 0 0 0 0 0 0 0 t 7 X X X X X X X X X         ",
"        c c c c c c c 5 X t c c c c c c c c c c c c c c c c c c c c c c c c c c c c c c c c t X X X X X X X X X         ",
"        c c c c c c c 5 X t c A ] { { { { { { ) R c c c c c c c c c c c c c c c c c c c c c t X X X X X X X X X         ",
"        c c c c c c c 5 X t c Q s.N.N.N.N.N.x.k.i.-.` N c c c c c c c c c c c c c c c c c c t X X X X X X X X X         ",
"        c c c c c c c : X t c Q d.N.N.N.N.N.N.N.N.C.g.@.K c c c c c c c c c c c c c c c c c t X X X X X X X X X         ",
"        c c c c c c c : X t c Q d.N.N.N.N.x.N.N.N.N.N.N.=.A c c c c c c c c c c c c c c c c t X X X X X X X X X         ",
"        c c c c c c c 5 X t c Q d.N.N.N.,.] { o.i.N.N.N.N...c c c c c c c c c c c c c c c c t X X X X X X X X X         ",
"        c c c c c c c 5 X t c Q d.N.N.N.@.t c c ~ w.N.N.N.i.E c c c c c c c c c c c c c c c t X X X X X X X X X         ",
"        c c c c c c c 5 X t c Q d.N.N.C.@.c c c c | N.N.N.N...c c c c c c c c c c c c c c c t X X X X X X X X X         ",
"        c c c c c c c 5 X t c Q d.N.N.C.@.c c c c E s.N.N.C.-.c c c c c c c c c c c c c c c t X X X X X X X X X         ",
"        c c c c c c c 5 X t c Q d.N.N.C.@.c c c c A 9.N.N.N.0.K c c c c c c c c c c c c c c t X X X X X X X X X         ",
"        c c c c c c c : X t c Q d.N.N.C.@.c c c c A 4.C.N.N.r.R c c c c c c c c c c c c c c t X X X X X X X X X         ",
"        c c c c c c c : X t c Q d.N.N.C.@.c c c c N 1.C.N.N.i.R c c c c c c c c c c c c c c t X X X X X X X X X         ",
"        c c c c c c c : X t c Q d.N.N.C.@.c c c c A 6.N.N.N.w.K c c c c c c c c c c c c c c t X X X X X X X X X         ",
"        c c c c c c c : X t c Q d.N.N.C.@.c c c c R w.N.N.N.4.A c c c c c c c c c c c c c c t X X X X X X X X X         ",
"        c c c c c c c 5 X t c Q d.N.N.C.@.c c c c ) g.N.N.C.@.c c c c c c c c c c c c c c c t X X X X X X X X X         ",
"        c c c c c c c : X t c Q d.N.N.C.@.c c c c *.N.N.N.k.] c c c c c c c c c c c c c c c t X X X X X X X X X         ",
"        c c c c c c c : X t c Q d.N.N.C.@.c A R o.k.N.N.C.,.A c c c c c c c c c c c c c c c t X X X X X X X X X         ",
"        c c c c c c c : X t c Q d.N.N.N.i.,.4.i.N.N.N.N.s.) c c c c c c c c c c c c c c c c t X X X X X X X X X         ",
"        c c c c c c c : X t c Q d.N.N.N.N.C.C.N.N.N.C.i.{ c c c c c c c c c c c c c c c c c t X X X X X X X X X         ",
"        c c c c c c c 5 X t c Q d.C.C.C.N.C.C.C.N.k.,.) c c c c c c c c c c c c c c c c c c t X X X X X X X X X         ",
"        c c c c c c c 5 X t c R ,.6.6.6.6.6.6.,.O._ A c c c c c c c c c c c c c c c c c c c t X X X X X X X X X         ",
"        c c c c c c c 5 X t c c A A A A A A A N c c c c c c c c c c c c c c c c c c c c c c t X X X X X X X X X         ",
"        c c c c c c c 5 X t c c c c c c c c c c c c c c c c c c c c c c c c c c c c c c c c t X X X X X X X X X         ",
"        c c c c c c c 5 X t c c c c c c c c c c c c c c c c c c c c c c c c c c c c c c c c t X X X X X X X X X         ",
"        c c c c c c c 5 X t c c c c c c c c c c c c c c c c c c c c c c c c c c c c c c c c t X X X X X X X X X         ",
"        c c c c c c c 5 X t c c c c c c c c c c c c c c c c c c c c c c c c c c c c c c c c t X X X X X X X X X         ",
"        c c c c c c c 5 X t c c c c c c c c c c c c c c c c c c c c c c c c c c c c c c c c t X X X X X X X X X         ",
"        c c c c c c c 5 X t c c c c c c c c c c c c c c c c c c c c c c c c c c c c c c c c t X X X X X X X X X         ",
"        c c c c c c c : X t c c c c c c c c c c c c c c c c c c c c c c c c c c c c c c c c t X X X X X X X X X         ",
"        c c c c c c c : X t c c c c c c c c c c c c c c c c c c c c c c c c c c c c c c c c t X X X X X X X X X         ",
"        c c c c c c c : X t c c c c c c c c c c c c c c c c c c c c c c c c c c c c c c c c t X X X X X X X X X         ",
"        c c c c c c c 5 X t c c c c c c c c c c c c c c c c c c c c c c c c c c c c c c c c t X X X X X X X X X         ",
"        c c c c c c c 5 X 0 c t t t t t t t c c t t t t t t t t t t t t t t t t t t t t t c 0 X X X X X X X X X         ",
"        c c c c c c c 5 X X X X X X X X X X X X X X X X X X X X X X X X X X X X X X X X X X X X X X X X X X X X         ",
"        c c c c c c c 5 X X X X X X X X X X X X X X X X X X X X X X X X X X X X X X X X X X X X X X X X X X X X         ",
"        c c c c c c t X X X X X X X X X X X X X X X X X X X X X X X X X X X X X X X X X X X X X X X X X X X X X         ",
"        c c c c c t * X X X X X X X X X X X X X X X X X X X X X X X X X X X X X X X X X X X X X X X X X X X X X         ",
"        c c c c c 5 X X X X X X X X X X X X X X X X X X X X X X X X X X X X X X X X X X X X X X X X X X X X X X         ",
"        c c c c 5 X X X X X X X X X X X X X X X X X X X X X X X X X X X X X X X X X X X X X X X X X X X X X X X         ",
"        c c c 7 X X X X X X X X X X X X X X X X X X X X X X X X X X X X X X X X X X X X X X X X X X X X X X X X         ",
"        N c 0 X X X X X X X X X X X X X X X X X X X X X X X X X X X X X X X X X X X X X X X X X X X X X X X X &         ",
"          t * X X X X X X X X X X X X X X X X X X X X X X X X X X X X X X X X X X X X X X X X X X X X X X X X           ",
"          5 X X X X X X X X X X X X X X X X X X X X X X X X X X X X X X X X X X X X X X X X X X X X X X X X :           ",
"              X X X X X X X X X X X X X X X X X X X X X X X X X X X X X X X X X X X X X X X X X X X X X X               ",
"                                                                                                                        ",
"                                                                                                                        ",
"                                                                                                                        ",
"                                                                                                                        "
};
