/* XPM */
static char *exit_button[] = {
/* columns rows colors chars-per-pixel */
"200 60 14 1 ",
"  c #000000",
". c #300C02",
"X c #671901",
"o c #BB2D00",
"O c #8F2301",
"+ c #C33300",
"@ c #F45D00",
"# c #F86B02",
"$ c #D94F08",
"% c #F69456",
"& c #F5D0B8",
"* c #F4F9F9",
"= c #F4E0D2",
"- c #F6B693",
/* pixels */
"           .XOO+o++++++++++++++++++++++++++++++++++++++++++++++++++++++++++++++++++++++++++++++++++++++++++++++++++++++++++++++++++++++++++++++++++++++++++++++++++++++++++++++++++++++++oOX.           ",
"       .XOoo+++ooooooooooooooooooooooooooooooooooooooooooooooooooooooooooooooooooooooooooooooooooooooooooooooooooooooooooooooooooooooooooooooooooooooooooooooooooooooooooooooooooooooooooo+++oOX.       ",
"      X+++oooooooooooooooooooooooooooooooooooooooooooooooooooooooooooooooooooooooooooooooooooooooooooooooooooooooooooooooooooooooooooooooooooooooooooooooooooooooooooooooooooooooooooooooooooo+++O.     ",
"    Xo+oooooooo++++++++++++++++++++++++++++++++++++++++++++++++++++++++++++++++++++++++++++++++++++++++++++++++++++++++++++++++++++++++++++++++++++++++++++++++++++++++++++++++++++++++++oooooooo++O    ",
"   O++ooooo+$$@##########################################################################################################################################################################@@$+oooooo+o.  ",
"  o+oooooo$##################################################################################################################################################################################$+ooooo+o. ",
" X+ooooo+@#####################################################################################################################################################################################$ooooo+O ",
".+oooooo@#######################################################################################################################################################################################+ooooo+X",
"O+ooooo$########################################################################################################################################################################################@+oooo+O",
"o+oooo+##########################################################################################################################################################################################$ooooo+",
"o+oooo+##########################################################################################################################################################################################$ooooo+",
"oooooo+##########################################################################################################################################################################################$ooooo+",
"o+oooo+##########################################################################################################################################################################################$ooooo+",
"o+oooo+##########################################################################################################################################################################################$ooooo+",
"o+oooo+##########################################################################################################################################################################################$ooooo+",
"o+oooo+##########################################################################################################################################################################################$ooooo+",
"o+oooo+##########################################################################################################################################################################################$ooooo+",
"o+oooo+##########################################################################################################################################################################################$ooooo+",
"o+oooo+##########################################################################################################################################################################################$ooooo+",
"o+oooo+########################################@@@@@@@@@@@@@@@@@@@@@@#######@@@@@@@@@#############@@@@@@@@@########@@@@@@@######@@@@@@@@@@@@@@@@@@@@@@@@@@@######################################$ooooo+",
"o+oooo+########################################&=&&&&&&&&&&&&&&&&&&&=%@####%==&&&&&&&#@##########@%=&&&&&&=%@####@%=&&&&&&#####@-=&&&&&&&&&&&&&&&&&&&&&&&=-@#####################################$ooooo+",
"o+oooo+########################################**********************%@####@%********=#@########@-********%@#####@-*******######=*************************&@#####################################$ooooo+",
"oooooo+########################################=*********************%@#####@#=********%@######@-********%@######@-*******#####@=*************************&@#####################################$ooooo+",
"oooooo+########################################********==============%@######@#=********%@#####&*******=#@#######@-*******#####@&=========*******=========-@#####################################$ooooo+",
"oooooo+########################################*******-@########################&********%@#@#=*******&#@########@-*******##############@%******=################################################$ooooo+",
"oooooo+########################################*******-@########################@-********%@#=*******-@##########@-*******##############@%******=################################################$ooooo+",
"oooooo+########################################*******-@#########################@-********-=*******-############@-*******##############@%******=################################################$ooooo+",
"oooooo+########################################*******-@#@@@@@@@@@@@##############@%***************%@############@-*******##############@%******=################################################$ooooo+",
"o+oooo+########################################*******=&&&&&&&&&&&&&###############@%*************%@#############@-*******##############@%******=################################################$ooooo+",
"o+oooo+########################################*********************################@#=**********#@##############@-*******##############@%******=################################################$ooooo+",
"o+oooo+########################################*********************################@%***********-###############@-*******##############@%******=################################################$ooooo+",
"o+oooo+########################################*******=&===========&###############@-*************=#@############@-*******##############@%******=################################################$ooooo+",
"o+oooo+########################################*******-@#@@@@@@@@@@@###############&***************=#@###########@-*******###############%******=################################################$ooooo+",
"o+oooo+########################################*******-@########################@#&*******&#&********%@##########@-*******##############@%******=################################################$ooooo+",
"oooooo+########################################*******-@#######################@#=*******-@#@-********%@#########@-*******###############%******=################################################$ooooo+",
"oooooo+########################################*******-@######################@%********%@###@-********-@########@-*******###############%******=################################################$ooooo+",
"oooooo+########################################********==============&@######@%********%@#####@%********-@#######@-*******##############@%******=################################################$ooooo+",
"o+oooo+########################################**********************=@#####@-********%@#######@%********&#@#####@-*******##############@%******=################################################$ooooo+",
"oooooo+########################################**********************=@#####-*******=#@#########@%********=#@####@-*******##############@%*******################################################$ooooo+",
"o+oooo+########################################======================&@####-*======&#@###########@#=========#####@-*======##############@%=======################################################$ooooo+",
"o+oooo+############################################################################@##############@@#############################################################################################$ooooo+",
"o+oooo+##########################################################################################################################################################################################$ooooo+",
"o+oooo+##########################################################################################################################################################################################$ooooo+",
"o+oooo+##########################################################################################################################################################################################$ooooo+",
"o+oooo+##########################################################################################################################################################################################$ooooo+",
"o+oooo+##########################################################################################################################################################################################$ooooo+",
"oooooo+##########################################################################################################################################################################################$ooooo+",
"oooooo+##########################################################################################################################################################################################$ooooo+",
"o+oooo+##########################################################################################################################################################################################$ooooo+",
"o+oooo+##########################################################################################################################################################################################$ooooo+",
"o+oooo+##########################################################################################################################################################################################$ooooo+",
"ooooooo$########################################################################################################################################################################################$ooooooo",
"X+oooooo@#######################################################################################################################################################################################oooooo+X",
" O+oooooo@#####################################################################################################################################################################################+ooooo+o.",
"  o+oooooo$@#################################################################################################################################################################################$oooooo+o. ",
"   o++oooooo+$$@########################################################################################################################################################################@$$$+oooooo+o.  ",
"    Xo++oooooooo++++++++++++++++++++++++++++++++++++++++++++++++++++++++++++++++++++++++++++++++++++++++++++++++++++++++++++++++++++++++++++++++++++++++++++++++++++++++++o+++++++++++++ooooooooo+oO    ",
"      Xo+++oooooooooooooooooooooooooooooooooooooooooooooooooooooooooooooooooooooooooooooooooooooooooooooooooooooooooooooooooooooooooooooooooooooooooooooooooooooooooooooooooooooooooooooooooo+++oX      ",
"        .Xoo++oooooooooooooooooooooooooooooooooooooooooooooooooooooooooooooooooooooooooooooooooooooooooooooooooooooooooooooooooooooooooooooooooooooooooooooooooooooooooooooooooooooooooooo++ooOX        ",
"           .XXooooooooooooooooooooooooooooooooooooooooooooooooooooooooooooooooooooooooooooooooooooooooooooooooooooooooooooooooooooooooooooooooooooooooooooooooooooooooooooooooooooooooooooXX.           "
};
