/* XPM */
static char * explosion[] = {
/* columns rows colors chars-per-pixel */
"80 80 4 1 ",
"  c #000000",
". c #D53131",
"X c #FBF236",
"o c #FFFBA1",
/* pixels */
"                                                                                ",
"                                                                                ",
"                                                                                ",
"                                                                                ",
"                                                                                ",
"                                                                                ",
"                                                                                ",
"                                                                                ",
"                                                                                ",
"                                                                                ",
"                                                                                ",
"         .........                                                              ",
"         ..X.......                                                             ",
"         ..XXX.......                                                           ",
"         ...XXXXX.....                                                          ",
"          ..XXXXXX......                                                        ",
"          ...XXXXXX.......    .................                                 ",
"           ...XXXXXXX................................                           ",
"            ..XXXXXXXX.................................                         ",
"             ..XXXXXXXXX........XXXXXXXXXXXXXXX..........                       ",
"              .XXXXXXXXXX...XXXXXXXXXXXXXXXXXXXXXXXX.......           ......    ",
"              ..XXXXXXXXXXXXXXXXXXXXXXXXXXXXXXXXXXXXXX.......        ...XX..    ",
"               ..XXXXXXXXXXXXXXXXXXXXXXXXXXXXXXXXXXXXXXXX......    ....XXX..    ",
"                ..XXXXXXXXXXXXXXXXXXXXooooooooooooXXXXXXXXX.....  ....XXX..     ",
"                 ..XXXXXXXXXXXXXXXoooooooooooooooooooXXXXXXXX........XXX...     ",
"                 ...XXXXXXXXXXXooooooooooooooooooooooooXXXXXXXX.....XXXX..      ",
"                ....XXXXXXXXXooooooooooooooooooooooooooooXXXXXXX...XXXX..       ",
"               ....XXXXXXXXXoooooooooooooooooooooooooooooooXXXXXXXXXXX..        ",
"               ....XXXXXXXXooooooooooooooooooooooooooooooooXXXXXXXXXXX..        ",
"              ....XXXXXXXXooooooooooooooooooooooooooooooooooXXXXXXXXX...        ",
"              ....XXXXXXXooooooooooooooooooooooooooooooooooooXXXXXXXX..         ",
"              ...XXXXXXXooooooooooooooooooooooooooooooooooooooXXXXXX...         ",
"             ....XXXXXXXooooooooooooooooooooooooooooooooooooooXXXXXX...         ",
"             ....XXXXXXXooooooooooooooooooooooooooooooooooooooXXXXX....         ",
"             ...XXXXXXXooooooooooooooooooooooooooooooooooooooooXXXX....         ",
"             ...XXXXXXXooooooooooooooooooooooooooooooooooooooooXXXX....         ",
"             ...XXXXXXXoooooooooooooooooooooooooooooooooooooooooXXXX...         ",
"             ...XXXXXXooooooooooooooooooooooooooooooooooooooooooXXXX....        ",
"             ...XXXXXXooooooooooooooooooooooooooooooooooooooooooXXXXX...        ",
"             ...XXXXXXoooooooooooooooooooooooooooooooooooooooooooXXXX...        ",
"             ...XXXXXXoooooooooooooooooooooooooooooooooooooooooooXXXX.......    ",
"             ...XXXXXXoooooooooooooooooooooooooooooooooooooooooooXXXXX..........",
"             ...XXXXXXoooooooooooooooooooooooooooooooooooooooooooXXXXXXXXXXXXX..",
"             ...XXXXXXoooooooooooooooooooooooooooooooooooooooooooXXXXXXXXXXX... ",
"             ...XXXXXXoooooooooooooooooooooooooooooooooooooooooooXXXXXXXXX..... ",
"             ...XXXXXXoooooooooooooooooooooooooooooooooooooooooooXXXXXXX.....   ",
"             ...XXXXXXoooooooooooooooooooooooooooooooooooooooooooXXXXX.....     ",
"             ...XXXXXXoooooooooooooooooooooooooooooooooooooooooooXXXX....       ",
"             ...XXXXXXXooooooooooooooooooooooooooooooooooooooooooXXX...         ",
"             ....XXXXXXoooooooooooooooooooooooooooooooooooooooooXXXX..          ",
"              ...XXXXXXoooooooooooooooooooooooooooooooooooooooooXXX...          ",
"              ...XXXXXXooooooooooooooooooooooooooooooooooooooooXXXX...          ",
"              ....XXXXXXoooooooooooooooooooooooooooooooooooooooXXXX...          ",
"              ....XXXXXXooooooooooooooooooooooooooooooooooooooXXXX...           ",
"              ....XXXXXXoooooooooooooooooooooooooooooooooooooXXXX....           ",
"               ...XXXXXXXoooooooooooooooooooooooooooooooooooXXXXX....           ",
"               ....XXXXXXooooooooooooooooooooooooooooooooooXXXXXX...            ",
"               ....XXXXXXoooooooooooooooooooooooooooooooooXXXXXX....            ",
"                ...XXXXXXooooooooooooooooooooooooooooooooXXXXXX.....            ",
"                ....XXXXXXooooooooooooooooooooooooooooooXXXXXX.....             ",
"                 ...XXXXXXoooooooooooooooooooooooooooXXXXXXXX.....              ",
"                 ...XXXXXXXooooooooooooooooooooooooXXXXXXXXX.....               ",
"                 ....XXXXXXXooooooooooooooooooooXXXXXXXXX.......                ",
"                ....XXXXXXXXXoooooooooooooooooXXXXXXXXX........                 ",
"                ...XXXXXXXXXXXoooooooooooooXXXXXXXXX.........                   ",
"               ...XXXXXXXXXXXXXoooooooXXXXXXXXXXX..........                     ",
"              ...XXXXXXX....XXXXoooXXXXXXXXXXX.............                     ",
"             ...XXXXXXX.....XXXooXX....................                         ",
"            ...XXXXXXX..  ..XXooXX..................                            ",
"           ...XXXXXX...   ..XXoXX..                                             ",
"          ...XXXXX...    ...XXXX..                                              ",
"         ...XXXXX..      ..XXXX..                                               ",
"        ...XXXX...      ...XXX..                                                ",
"        ..XXXX..        ..XXX..                                                 ",
"       ..XXX...         ..XX..                                                  ",
"       .XX...           .....                                                   ",
"       ....            .....                                                    ",
"                       ....                                                     ",
"                       ..                                                       ",
"                                                                                "
};
