/* XPM */
static char *flaming_meteor[] = {
/* columns rows colors chars-per-pixel */
"32 32 17 1 ",
"  c None",
". c black",
"X c #130D0C",
"o c #1D1412",
"O c #372826",
"+ c #513F3B",
"@ c #614744",
"# c #9B2121",
"$ c #AC3232",
"% c #C83838",
"& c #D53131",
"* c #BB6424",
"= c #E25353",
"- c #FB8936",
"; c #FBF236",
": c #FCA566",
"> c #FFFBA1",
/* pixels */
"                                ",
"               &                ",
"               #                ",
"               #                ",
"              &;&               ",
"              #;#               ",
"              #;#               ",
"             &*;*&              ",
"             &*;*&              ",
"             #*;*#              ",
"             #*;*#              ",
"            &*:;:*&             ",
"            &*-;-*&             ",
"            #*-;-*#             ",
"            #*-;-*#             ",
"           &*:;>;:*&            ",
"           &*:;>;:*&            ",
"           #*-;>;-*#            ",
"           #*-;>;-*#            ",
"           #*-;>;-*#            ",
"          $*:;;>;;:*$           ",
"          #*-;>>>;-*#           ",
"          #->>>>>>>-#           ",
"         $->.......>-$          ",
"         $>.OOOXXo@.>$          ",
"         $.XXXOXO++@.$          ",
"         $.ooX+++++@.$          ",
"         %.ooO++XXo@.%          ",
"         =.OOO++XOO@.=          ",
"          =.OOO@@@@.=           ",
"           =.......=            ",
"            ==%%%%%             "
};
