/* XPM */
static char *imagem_dobrada[] = {
/* columns rows colors chars-per-pixel */
"64 64 200 2 ",
"   c #1B192B",
".  c #1F1D30",
"X  c #2D1726",
"o  c #211F2F",
"O  c #331B2B",
"+  c #361C2C",
"@  c #201F32",
"#  c #3A1F31",
"$  c #252335",
"%  c #26253D",
"&  c #2B2A3D",
"*  c #28273B",
"=  c #3D2234",
"-  c #362230",
";  c #35333F",
":  c #2C212F",
">  c #43253A",
",  c #4A293E",
"<  c #44263A",
"1  c #44333E",
"2  c #2B2A46",
"3  c #2D2C48",
"4  c #292740",
"5  c #363542",
"6  c #383643",
"7  c #3D3C46",
"8  c #3E3C4D",
"9  c #33334E",
"0  c #343352",
"q  c #3B3A53",
"w  c #373658",
"e  c #3A395A",
"r  c #383759",
"t  c #312F4C",
"y  c #3D3C62",
"u  c #4C2C40",
"i  c #532C42",
"p  c #463541",
"a  c #4B3B46",
"s  c #4D3E49",
"d  c #403E48",
"f  c #5A354A",
"g  c #57384A",
"h  c #61354A",
"j  c #403F66",
"k  c #403F69",
"l  c #52404C",
"z  c #45455A",
"x  c #4A4A5C",
"c  c #454657",
"v  c #594353",
"b  c #5D4857",
"n  c #5E4958",
"m  c #55545B",
"M  c #5D515A",
"N  c #41404C",
"B  c #6F4C5D",
"V  c #664A5A",
"C  c #714D5F",
"Z  c #62535B",
"A  c #424164",
"S  c #4A4967",
"D  c #42416A",
"F  c #4E4D69",
"G  c #504F6A",
"H  c #52526B",
"J  c #5D5C6D",
"K  c #5A5B62",
"L  c #4B4A7A",
"P  c #494873",
"I  c #595879",
"U  c #724F60",
"Y  c #655A62",
"T  c #685D6A",
"R  c #7B5667",
"E  c #7D5A6A",
"W  c #735366",
"Q  c #646373",
"!  c #6E6D75",
"~  c #6D6C79",
"^  c #746E74",
"/  c #706F78",
"(  c #71717A",
")  c #7E7E7E",
"_  c #7B737A",
"`  c #BE2D1F",
"'  c #952727",
"]  c #952929",
"[  c #9D2B2B",
"{  c #903232",
"}  c #A52C2C",
"|  c #AB2E2E",
" . c #B32D22",
".. c #B33226",
"X. c #BC3226",
"o. c #A43434",
"O. c #BD3232",
"+. c #B33737",
"@. c #C32B1C",
"#. c #C33232",
"$. c #D23325",
"%. c #E13425",
"&. c #93403F",
"*. c #BF4B2F",
"=. c #BE472E",
"-. c #BE5036",
";. c #C5462C",
":. c #DB4D2D",
">. c #D6723E",
",. c #D8783D",
"<. c #D26338",
"1. c #984444",
"2. c #954C4B",
"3. c #984747",
"4. c #985D5E",
"5. c #AC4D4D",
"6. c #A64C4C",
"7. c #AD5150",
"8. c #B14E4E",
"9. c #965E61",
"0. c #9B6464",
"q. c #856976",
"w. c #876C7A",
"e. c #807279",
"r. c #937C7E",
"t. c #9E7474",
"y. c #AB6565",
"u. c #B47979",
"i. c #B1696A",
"p. c #C24B4B",
"a. c #C55454",
"s. c #C95756",
"d. c #C26666",
"f. c #CE7C54",
"g. c #D9833F",
"h. c #E38E28",
"j. c #E39128",
"k. c #E38D38",
"l. c #E39638",
"z. c #80807F",
"x. c #D39451",
"c. c #E38942",
"v. c #E29942",
"b. c #D6A25A",
"n. c #5D5D83",
"m. c #5F6086",
"M. c #68678D",
"N. c #69698F",
"B. c #6B6B86",
"V. c #737481",
"C. c #7A7889",
"Z. c #6A6A90",
"A. c #777795",
"S. c #8E7B84",
"D. c #827E87",
"F. c #997F83",
"G. c #818181",
"H. c #868689",
"J. c #8A878A",
"K. c #8C8A8D",
"L. c #868889",
"P. c #918B8F",
"I. c #988389",
"U. c #90908F",
"Y. c #8C8C92",
"T. c #838599",
"R. c #938D92",
"E. c #998E93",
"W. c #988F98",
"Q. c #8E9195",
"!. c #939294",
"~. c #9C9196",
"^. c #9D9599",
"/. c #97979C",
"(. c #A38D8C",
"). c #AB8E8E",
"_. c #B38F8F",
"`. c #A8908F",
"'. c #A59393",
"]. c #AC9392",
"[. c #A49699",
"{. c #B59292",
"}. c #B89594",
"|. c #B89A8B",
" X c #B9A48D",
".X c #B9A692",
"XX c #9596A2",
"oX c #9699A5",
"OX c #999AA3",
"+X c #A4A4A4",
"@X c #ABADAC",
"#X c #A9A5A5",
"$X c #AEB0AF",
"%X c #B0B0AF",
"&X c #ADB1B0",
"*X c #B2B2B1",
"=X c #BFBFBF",
"-X c #C0C0BF",
";X c #C0C0C0",
":X c None",
/* pixels */
":X:X:X:X:X:X:X:X:X:X:X:X:X:X:X:X:X:X:X:X:X:X:X:X:X:X:X:X:X:X:X:X:X:X:X:X:X:X:X:X:X:X:X:X:X:X:X:X:X:X:X:X:X:X:X:X:X:X:X:X:X:X:X:X",
":X:X:X:X:X:X:X:X:X:X:X:X:X:X:X:X:X:X:X:X:X:X:X:X:X:X:X:X:X:X:X:X:X:X:X:X:X:X:X:X:X:X:X:X:X:X:X:X:X:X:X:X:X:X:X:X:X:X:X:X:X:X:X:X",
":X:X:X:X:X:X:X:X:X:X:X:X:X:X:X:X:X:X:X:X:X:X:X:X:X:X:X:X:X:X:X:X@X#X:X:X:X:X:X:X:X:X:X:X:X:X:X:X:X:X:X:X:X:X:X:X:X:X:X:X:X:X:X:X",
":X:X:X:X:X:X:X:X:X:X:X:X:X:X:X:X:X:X:X:X:X:X:X:X:X:X:X:X:X:X:X:X@X@X:X:X:X:X:X:X:X:X:X:X:X:X:X:X:X:X:X:X:X:X:X:X:X:X:X:X:X:X:X:X",
":X:X:X:X:X:X:X:X:X:X:X:X:X:X:X:X:X:X:X:X:X:X:X:X:X:X:X:X:X:X:X:X@X@X:X:X:X:X:X:X:X:X:X:X:X:X:X:X:X:X:X:X:X:X:X:X:X:X:X:X:X:X:X:X",
":X:X:X:X:X:X:X:X:X:X:X:X:X:X:X:X:X:X:X:X:X:X:X:X:X:X:X:X:X:X:X:XY.Y.:X:X:X:X:X:X:X:X:X:X:X:X:X:X:X:X:X:X:X:X:X:X:X:X:X:X:X:X:X:X",
":X:X:X:X:X:X:X:X:X:X:X:X:X:X:X:X:X:X:X:X:X:X:X:X:X:X:X:X:X:X@XY.J J Y.@X:X:X:X:X:X:X:X:X:X:X:X:X:X:X:X:X:X:X:X:X:X:X:X:X:X:X:X:X",
":X:X:X:X:X:X:X:X:X:X:X:X:X:X:X:X:X:X:X:X:X:X:X:X:X:X:X:X:X:X@XY.c c K.@X:X:X:X:X:X:X:X:X:X:X:X:X:X:X:X:X:X:X:X:X:X:X:X:X:X:X:X:X",
":X:X:X:X:X:X:X:X:X:X:X:X:X:X:X:X:X:X:X:X:X:X:X:X:X:X:X:X:X:X@XJ.x c J.@X:X:X:X:X:X:X:X:X:X:X:X:X:X:X:X:X:X:X:X:X:X:X:X:X:X:X:X:X",
":X:X:X:X:X:X:X:X:X:X:X:X:X:X:X:X:X:X:X:X:X:X:X:X:X:X:X:X:X:X$XY.x x Y.@X:X:X:X:X:X:X:X:X:X:X:X:X:X:X:X:X:X:X:X:X:X:X:X:X:X:X:X:X",
":X:X:X:X:X:X@X@X:X:X:X:X:X:X:X:X:X:X:X:X:X:X:X:X:X:X:X:X:X:X*XY.c x K.@X:X:X:X:X:X:X:X:X:X:X:X:X:X:X:X:X:X:X:X:X:X:X@X#X:X:X:X:X",
":X:X:X:X:X:X#X#X:X:X:X:X:X:X:X:X:X:X:X:X:X:X:X:X:X:X:X:X:X:XY.( z S C.OX:X:X:X:X:X:X:X:X:X:X:X:X:X:X:X:X:X:X:X:X:X:X#X@X:X:X:X:X",
":X:X:X:X:X:X@X#X:X:X:X:X:X:X:X:X@X#X@X@X@X@X@X+X:X:X:X:X@XR.J z e A I A.OX@X:X:X:X:X#X@X@X@X@X@X@X#X:X:X:X:X:X:X:X:X@X#X:X:X:X:X",
":X:X:X:X:X:X@X@X:X:X:X:X:X:X:X:X#X+X'.(.(.].+X@X:X:X:X:X@XY.x 2 r D L M./.@X:X:X:X:X@X#X(.(.(.].#X#X:X:X:X:X:X:X:X:X@X@X:X:X:X:X",
":X:X:X:X:X:X@X@X:X:X:X:X:X:X:X:X@X~.0.3.6.y.].@X:X:X:X:X%XK.x 2 r D L M.XX@X:X:X:X:X@X'.0.2.6.y.'.@X:X:X:X:X:X:X:X:X@X@X:X:X:X:X",
":X:X:X:X:X:XJ.K.:X:X:X:X:X:X:X:X@X(.2.' } 7.).@X:X:X:X:X@XK.x 3 r k L N.XX#X:X:X:X:X@X(.2.' } 5.).&X:X:X:X:X:X:X:X:XK.K.:X:X:X:X",
":X:X:X:X@XK.m m J.@X:X:X:X:X:X:X@X(.2.' } 5.).@X:X:X:X:X@XY.x t r D L N./.@X:X:X:X:X@XE.2.] } 7.).@X:X:X:X:X:X:X$XJ.m m H.@X:X:X",
":X:X:X:X@XH.7 6 H.%X:X:X:X:X:X:X@X(.2.] } 7.(.@X:X:X:X:X%XY.x 3 r S L Z.XX@X:X:X:X:X@X(.2.] } 7.).@X:X:X:X:X:X:X@XH.6 7 H.@X:X:X",
":X:X:X:X@XH.7 6 H.@X:X:X:X:X:X:X@X(.2.] } 7.).@X:X:X:X:X%XY.x 3 r D L N.oX%X:X:X:X:X@X(.2.] } 7.(.@X:X:X:X:X:X:X@XH.7 7 H.%X:X:X",
":X:X:X:X%XH.7 7 H.%X:X:X:X:X:X:X@XE.2.] } 7.`.@X:X:X:X:XK./ N 2 9 e j I V.K.:X:X:X:X@XE.2.] } 7.).@X:X:X:X:X:X:X$XH.7 7 H.@X:X:X",
":X:X:X:X@XH.d d H.@X:X:X:X:X:X:X&X(.2.] } 7.(.&X:X:X*XY.m ; $ $ @ * * & 6 m K.%X:X:X&X(.2.] } 7.).@X:X:X:X:X:X:X@XH.7 d H.@X:X:X",
":X:X:X:X@XH.7 7 H.@X:X:X:X:X:X:X@X(.2.] } 5.u.{.:X:X!.( 7 o $ $ $ $ $ @ @ 8 C.OX:X:X(.t.3.] } 7.).@X:X:X:X:X:X:X%XH.7 7 H.@X:X:X",
":X:X:X:X@XH.d 7 L.@X:X:X:X:X:X:X&XE.2.] } +.8.d.}.!.J z q 0 w 0 0 0 q 0 0 j n.A.oX`.4.1.{ ] o.7.(.@X:X:X:X:X:X:X@XH.7 7 H.@X:X:X",
":X:X:X:X@XH.7 d J.&X:X:X:X:X:X:X@X(.2.] | O.p.d.I.V.z t e y y y j y j j y k P n.T.P.0.{ { ] } 7.).&X:X:X:X:X:X:X%XJ.d d H.%X:X:X",
":X:X:X:X%XH.7 d H.%X:X:X:X:X:X:X&X(.2.[ O.p.u.I.T z e e y y y y y y y y y y k P n.A.I.t.1.] } 7.(.&X:X:X:X:X:X:X%XJ.d 7 H.@X:X:X",
":X:X:X:X@XH.7 ; / !.:X:X:X:X:X:XE.t.3.} #.s.}.Y.x 2 r y y A S F F F G S A y y D L M.oX(.2.] } 5.u.{.:X:X:X:X:X:XY.! 6 d H.%X:X:X",
":X:X:X:X%XH.7 o 8 Q !.*X:X:X@X(.4.1.o.| #.s.{.Y.x 2 r y y S Q ( / ^ ( Q S y y A P M.oX(.2.' } +.8.d.].@X:X:X*XK.m 5 * c K.%X:X:X",
":X:X:X:X@XK.m 5 * q ( R.:X:X@X(.2.] o.+.p.i.I.V.z 9 r A S J ( z.D.z.G._ J S A k P M.T.I.9.1.o.| #.s._.$X:X:XU.! 6 . 4 F Y.@X:X:X",
":X:X:X:X:X:XK.! 5 $ q J !.&X&X(.2.' } 8.u.F.T z e e y S Q ( ) z.z.z.z.C.( Q S y j P n.A.P.t.3.} #.a._.@X$XK.m 6 & 4 9 H R.@X:X:X",
":X:X:X:X:X:X*XK.d   @ c C.OX+X(.2.] } 7.].Y.x 3 r y y F ( H.U.U.L.z.z.G.G.( F y y D L N.oX`.2.[ #.s._.#X!.! 6 @ 4 q H B./.@X:X:X",
":X:X:X:X:X:X%XH.7   $ 9 G V./.(.2.] } 7.].Y.x 3 r y y S / !.$X@XU.z.z.z.G.( F y e D L N.oX(.2.[ O.s.{.Q.K 6 & % 0 F C./.:X:X:X:X",
":X:X:X:X:X:X%XK.m 7 & % 3 H Q.(.2.] } 7.).Y.x 3 r A S J ( !.-X=X!.) z.G.G.( J A j D L Z.XX(.2.[ #.s.{.H.7   % q H B./.%X:X:X:X:X",
":X:X:X:X:X:X:X:XQ.! 6   . N Y.(.2.] } 7.'.Y.x 3 q S Q ( ) U.-X-X!.z.z.z.z.C._ Q S k L N.XX(.2.[ #.s.}.L.7   3 G D.XX:X:X:X:X:X:X",
":X:X:X:X:X:X:X:XP.) m d 7 K !.(.2.] } 7.).Q.x 3 w G ( L.K.+X%X$XU.z.z.z.z.G.z.( F k L N.XX(.2.[ O.s.}.Q.K N H ~ D.!.:X:X:X:X:X:X",
":X:X:X:X:X:X@XP.Z M _ K.K.Q.+X(.2.[ } 7.).Y.x 3 w F ( U.$X%X^.U.G.z.z.z.z.z.z.( F k L Z.XX(.2.[ O.s._.+X!.Q.!.z.M M J.%X:X:X:X:X",
":X:X:X:X:X:X@XJ.p 1 ^ P.R.!.+X(.2.] } 7.].Y.x 3 w F ( !.-X-X!.) z.z.z.z.z.z.z.( F k L N.XX(.2.[ O.a.).+X!.P.P.^ 1 a H.@X:X:X:X:X",
":X:X:X:X:X:X@XJ.l O 1 l s Y !.(.2.] } 7.].K.x 3 w S / !.-X-X!.) ) z.G.G.z.G.G.( F D L N.oX`.2.] | 7.).!.T l l 1 + s J.@X:X:X:X:X",
":X:X:X:X:X:X@XP.l O O X X s K.'.2.] } 8.).Q.x 2 w F / !.%X@XU.z.) G.G.G.z.G.z.( F y L N.XX(.3.' } 7._.K.l X X O O l P.@X:X:X:X:X",
":X:X:X:X:X:X@XP.v = = # O s Y.(.2.] } 5.].Y.x 2 w G / L.U.U.L.z.G.G.G.G.G.z.G.( F D L Z.XX(.3.] } 5.).P.N X # > # v P.@X:X:X:X:X",
":X:X:X:X:X:X@XE.T g p = + p ^ r.4.3.6.i.].Q.x 2 w G ( z.z.z.z.G.G.G.G.z.G.G.z.( F D L N.XX'.0.2.6.y.r.^ 1 O > , g T R.@X:X:X:X:X",
":X:X:X:X:X:X:X:X!.e.v = + - 1 Z r.].].].@XK.x 3 w F ( G.G.G.C.z.G.G.G.G.G.G.G.( G k L M./.#X'.).{.r.Z p - O = v e.~.:X:X:X:X:X:X",
":X:X:X:X:X:X:X:X@XR.V = # O X p ^ J.U.!.+XK.x 2 w F Q ( ( ( ( ( / / / / / / ( Q F k L M.XX+X!.K.K./ p X O # = n !.$X:X:X:X:X:X:X",
":X:X:X:X:X:X:X:X@XR.b > = = O - p l p Z !.Y.x 2 w A S F F F F F F G G G F F F F j k L M.XX!.Y a a p - O = = > n P.$X:X:X:X:X:X:X",
":X:X:X:X:X:X:X:X@XP.b > < > - # # > 1 Z P.!.J z e r w w r r r r w w w w w w w r r j n.A.OXP.M p = # O = = , > n P.@X:X:X:X:X:X:X",
":X:X:X:X:X:X:X:X@XP.V > < > > < , V e.P.:X:X!.V.z 2 2 3 3 3 3 t 2 2 t 2 3 2 2 2 2 z C.OX:X:XK.e.V , , > < < > n R.@X:X:X:X:X:X:X",
":X:X:X:X:X:X:X:X@XP.b > > , u g C w.^.&X:X:X$X!.T x z x x x x x x x x x x x x x x T R.%X:X:X&X[.w.C f , , > > n P.@X:X:X:X:X:X:X",
":X:X:X:X:X:X:X:X@XR.n > > u f U F.[.:X:X:X:X:X:XR.Y.Y.Y.Y.K.Y.Y.Q.Q.Y.Y.Y.K.Y.Y.Y.Y.:X:X:X:X:X:X~.r.U f , > > b P.@X:X:X:X:X:X:X",
":X:X:X:X:X:X:X:X@XP.b > > u h E ~.@X:X:X:X:X:X:X@X@X@X@X@X+XE.P.K.K.K.!.#X@X@X@X@X@X:X:X:X:X:X:X$XE.q.h , > > V P.@X:X:X:X:X:X:X",
":X:X:X:X:X:X:X:X@XP.b > > u h E ~.@X:X:X:X:X:X:X:X:X:X:X%X!.Y s s s a Y !.@X:X:X:X:X:X:X:X:X:X:X@X~.E h , < > b K.@X:X:X:X:X:X:X",
":X:X:X:X:X:X:X:X@XR.b < , f C q.~.@X:X:X:X:X:X:X:X:X:X:X@XJ.s X X O + g P.@X:X:X:X:X:X:X:X:X:X:X@X~.q.B f , < V P.@X:X:X:X:X:X:X",
":X:X:X:X:X:X:X:X@XP.V , f U S.^.:X:X:X:X:X:X:X:X:X:X:X:X@XK.v # # > i W E.@X:X:X:X:X:X:X:X:X:X:X:X:X~.S.C f , b P.@X:X:X:X:X:X:X",
":X:X:X:X:X:X:X:X@XP.v , h E ~.@X:X:X:X:X:X:X:X:X:X:X:X:X@XR.T b S V W S.^.@X:X:X:X:X:X:X:X:X:X:X:X:X$X~.E f , b P.@X:X:X:X:X:X:X",
":X:X:X:X:X:X:X:X@XP.v , f R ~.@X:X:X:X:X:X:X:X:X:X:X:X:X:X:XY.R.P.W.W.^.:X:X:X:X:X:X:X:X:X:X:X:X:X:X$X~.R f , b P.@X:X:X:X:X:X:X",
":X:X:X:X:X:X:X:X@XR.V f C q.~.@X:X:X:X:X:X:X:X:X:X:X:X:X:X:X.X.X|..X.X|.:X:X:X:X:X:X:X:X:X:X:X:X:X:X$X~.q.C g V R.@X:X:X:X:X:X:X",
":X:X:X:X:X:X:X:X@XE.W C S.[.:X:X:X:X:X:X:X:X:X:X:X:X:X:X .-.x.b.x.x.x.f.-. .:X:X:X:X:X:X:X:X:X:X:X:X:X:X~.S.B U E.@X:X:X:X:X:X:X",
":X:X:X:X:X:X:X:X@X~.R R E.@X:X:X:X:X:X:X:X:X:X:X:X:X:X:X..*.,.l.j.h.c.>.=...:X:X:X:X:X:X:X:X:X:X:X:X:X:X$X~.R R E.@X:X:X:X:X:X:X",
":X:X:X:X:X:X:X:X@XR.R R E.@X:X:X:X:X:X:X:X:X:X:X:X:X:X:X..*.,.c.h.j.l.g.*...:X:X:X:X:X:X:X:X:X:X:X:X:X:X@XE.R R E.@X:X:X:X:X:X:X",
":X:X:X:X:X:X:X:X@X~.q.q.^.@X:X:X:X:X:X:X:X:X:X:X:X:X:X:X..;.>.c.k.j.v.g.*...:X:X:X:X:X:X:X:X:X:X:X:X:X:X@X~.q.w.~.@X:X:X:X:X:X:X",
":X:X:X:X:X:X:X:X:X:X~.^.+X@X:X:X:X:X:X:X:X:X:X:X:X:X:X:XX.;.>.c.k.c.v.c.*...:X:X:X:X:X:X:X:X:X:X:X:X:X:X:X:X~.^.#X@X:X:X:X:X:X:X",
":X:X:X:X:X:X:X:X:X:X@X@X#X@X:X:X:X:X:X:X:X:X:X:X:X:X:X:X` $.<.>.>.,.c.>.;...:X:X:X:X:X:X:X:X:X:X:X:X:X:X:X:X@X@X@X#X:X:X:X:X:X:X",
":X:X:X:X:X:X:X:X:X:X:X:X:X:X:X:X:X:X:X:X:X:X:X:X:X:X:X:X:X:X;.*.*.;.:.:.:X:X:X:X:X:X:X:X:X:X:X:X:X:X:X:X:X:X:X:X:X:X:X:X:X:X:X:X",
":X:X:X:X:X:X:X:X:X:X:X:X:X:X:X:X:X:X:X:X:X:X:X:X:X:X:X:X:X:X......X.$.%.:X:X:X:X:X:X:X:X:X:X:X:X:X:X:X:X:X:X:X:X:X:X:X:X:X:X:X:X",
":X:X:X:X:X:X:X:X:X:X:X:X:X:X:X:X:X:X:X:X:X:X:X:X:X:X:X:X:X:X:X:X....:X:X:X:X:X:X:X:X:X:X:X:X:X:X:X:X:X:X:X:X:X:X:X:X:X:X:X:X:X:X",
":X:X:X:X:X:X:X:X:X:X:X:X:X:X:X:X:X:X:X:X:X:X:X:X:X:X:X:X:X:X:X:X....:X:X:X:X:X:X:X:X:X:X:X:X:X:X:X:X:X:X:X:X:X:X:X:X:X:X:X:X:X:X"
};
