/* XPM */
static char * info[] = {
"800 500 16 1",
" 	c #000000",
".	c #0E0E0E",
"+	c #242424",
"@	c #3B3B3B",
"#	c #515151",
"$	c #5D5E5D",
"%	c #6F6F6F",
"&	c #848584",
"*	c #989898",
"=	c #A3A4A4",
"-	c #B3B4B3",
";	c #C7C8C8",
">	c #D8D8D8",
",	c #E3E3E3",
"'	c #EAEBEB",
")	c #FDFDFD",
"                                                                                                                                                                                                                                                                                                                                                                                                                                                                                                                                                                                                                                                                                                                                                                                                                                ",
"                                                                                                                                                                                                                                                                                                                                                                                                                                                                                                                                                                                                                                                                                                                                                                                                                                ",
"                                                                                                                                                                                                                                                                                                                                                                                                                                                                                                                                                                                                                                                                                                                                                                                                                                ",
"                                                                                                                                                                                                                                                                                                                                                                                                                                                                                                                                                                                                                                                                                                                                                                                                                                ",
"                                                                                                                                                                                                                                                                                                                                                                                                                                                                                                                                                                                                                                                                                                                                                                                                                                ",
"                                                                                                                                                                                                                                                                                                                                                                                                                                                                                                                                                                                                                                                                                                                                                                                                                                ",
"                                                                                                                                                                                                                                                                                                                                                                                                                                                                                                                                                                                                                                                                                                                                                                                                                                ",
"                                                                                                                                                                                                                                                                                                                                                                                                                                                                                                                                                                                                                                                                                                                                                                                                                                ",
"                                                                                                                                                                                                                                                                                                                                                                                                                                                                                                                                                                                                                                                                                                                                                                                                                                ",
"                                                                                                                                                                                                                                                                                                                                                                                                                                                                                                                                                                                                                                                                                                                                                                                                                                ",
"                                                                                                                                                                                                                                                                                                                                                                                                                                                                                                                                                                                                                                                                                                                                                                                                                                ",
"                                                                                                                                                                                                                                                                                                                                                                                                                                                                                                                                                                                                                                                                                                                                                                                                                                ",
"                                                                                                                                                                                                                                                                                                                                                                                                                                                                                                                                                                                                                                                                                                                                                                                                                                ",
"                                                                                                                                                                                                                                                                                                                                                                                                                                                                                                                                                                                                                                                                                                                                                                                                                                ",
"                                                                                                                                                                                                                                                                                                                                                                                                                                                                                                                                                                                                                                                                                                                                                                                                                                ",
"                                                                                                                                                                                                                                                                                                                                                                                                                                                                                                                                                                                                                                                                                                                                                                                                                                ",
"                                                                                                                                                                                                                                                                                                                                                                                                                                                                                                                                                                                                                                                                                                                                                                                                                                ",
"                                                                                                                                                                                                                                                                                                                                                                                                                                                                                                                                                                                                                                                                                                                                                                                                                                ",
"                                                                                                                                                                                                                                                                                                                                                                                                                                                                                                                                                                                                                                                                                                                                                                                                                                ",
"                                                                                                                                                                                                                                                                                                                                                                                                                                                                                                                                                                                                                                                                                                                                                                                                                                ",
"                                                                                                                                                                                                                                                                                                                                                                                                                                                                                                                                                                                                                                                                                                                                                                                                                                ",
"                                                                                                                                                                                                                                                                                                                                                                                                                                                                                                                                                                                                                                                                                                                                                                                                                                ",
"                                                                                                                                                                                                                                                                                                                                                                                                                                                                                                                                                                                                                                                                                                                                                                                                                                ",
"                                                                                                                                                                                                                                                                                                                                                                                                                                                                                                                                                                                                                                                                                                                                                                                                                                ",
"                                                                                                                                                                                                                                                                                                                                                                                                                                                                                                                                                                                                                                                                                                                                                                                                                                ",
"                                                                                                                                                                                                                                                                                                                                                                                                                                                                                                                                                                                                                                                                                                                                                                                                                                ",
"                                                                                                                                                                                                                                                                                                                                                                                                                                                                                                                                                                                                                                                                                                                                                                                                                                ",
"                                                                                                                                                                                                                                                                                                                                                                                                                                                                                                                                                                                                                                                                                                                                                                                                                                ",
"                                                                                                                                                                                                                                                                                                                                                                                                                                                                                                                                                                                                                                                                                                                                                                                                                                ",
"                                                                                                                                                                                                                                                                                                                                                                                                                                                                                                                                                                                                                                                                                                                                                                                                                                ",
"                                                                                                                                                                                                                                                                                                                                                                                                                                                                                                                                                                                                                                                                                                                                                                                                                                ",
"                                                                                                                                                                                                                                                                                                                                                                                                                                                                                                                                                                                                                                                                                                                                                                                                                                ",
"                                                                                                                                                                                                                                                                                                                                                                                                                                                                                                                                                                                                                                                                                                                                                                                                                                ",
"                                                                                                                                                                                                                                                                                                                                                                                                                                                                                                                                                                                                                                                                                                                                                                                                                                ",
"                                                                                                                                                                                                                                                                                                                                                                                                                                                                                                                                                                                                                                                                                                                                                                                                                                ",
"                                                                                                                                                                                                                                                                                                                                                                                                                                                                                                                                                                                                                                                                                                                                                                                                                                ",
"                                                                                                                                                                                                                                                                                                                                                                                                                                                                                                                                                                                                                                                                                                                                                                                                                                ",
"                                                                                                                                                                                                                                                                                                                                                                                                                                                                                                                                                                                                                                                                                                                                                                                                                                ",
"                                                                                                                                                                                                                                                                                                                                                                                                                                                                                                                                                                                                                                                                                                                                                                                                                                ",
"                                                                                                                                                                                                                                                                                                                                                                                                                                                                                                                                                                                                                                                                                                                                                                                                                                ",
"                                                                                                                                                                                                                                                                                                                                                                                                                                                                                                                                                                                                                                                                                                                                                                                                                                ",
"                                                                                                                                                                                                                                                                                                                                                                                                                                                                                                                                                                                                                                                                                                                                                                                                                                ",
"                                                                                                                                                                                                                                                                                                                                                                                                                                                                                                                                                                                                                                                                                                                                                                                                                                ",
"                                                                                                                                                                                                                                                                                                                                                                                                                                                                                                                                                                                                                                                                                                                                                                                                                                ",
"                                                                                                                                                                                                                                                                                                                                                                                                                                                                                                                                                                                                                                                                                                                                                                                                                                ",
"                                                                                                                                                                                                                                                                                                                                                                                                                                                                                                                                                                                                                                                                                                                                                                                                                                ",
"                                                                                                                                                                                                                                                                                                                                                                                                                                                                                                                                                                                                                                                                                                                                                                                                                                ",
"                                                                                                                                                                                                                                                                                                                                                                                                                                                                                                                                                                                                                                                                                                                                                                                                                                ",
"                                                                                                                                                                                                                                                                                                                                                                                                                                                                                                                                                                                                                                                                                                                                                                                                                                ",
"                                                                                                                                                                                                                                                                                                                                                                                                                                                                                                                                                                                                                                                                                                                                                                                                                                ",
"                                                                                                                                                                                                                                                                                                                                                                                                                                                                                                                                                                                                                                                                                                                                                                                                                                ",
"                                                                                                                                                                                                                                                                                                                                                                                                                                                                                                                                                                                                                                                                                                                                                                                                                                ",
"                                                                                                                                                                                                                                                                                                                                                                                                                                                                                                                                                                                                                                                                                                                                                                                                                                ",
"                                                                                                                                                                                                                                                                                                                                                                                                                                                                                                                                                                                                                                                                                                                                                                                                                                ",
"                                                                                                                                                                                                                                                                                                                                                                                                                                                                                                                                                                                                                                                                                                                                                                                                                                ",
"                                                                                                                                                                                                                                                                                                                                                                                                                                                                                                                                                                                                                                                                                                                                                                                                                                ",
"                                                                                                                                                                                                                                                                                                                                                                                                                                                                                                                                                                                                                                                                                                                                                                                                                                ",
"                                                                                                                                                                                                                                                                                                                                                                                                                                                                                                                                                                                                                                                                                                                                                                                                                                ",
"                                                                                                                                                                                                                                                                                                                                                                                                                                                                                                                                                                                                                                                                                                                                                                                                                                ",
"                                                                                                                                                                                                                                                                                                                                                                                                                                                                                                                                                                                                                                                                                                                                                                                                                                ",
"                                                                                                                                                                                                                                                                                                                                                                                                                                                                                                                                                                                                                                                                                                                                                                                                                                ",
"                                                                                                                                                                                                                                                                                                                                                                                                                                                                                                                                                                                                                                                                                                                                                                                                                                ",
"                                                                                                                                                                                                                                                                                                                                                                                                                                                                                                                                                                                                                                                                                                                                                                                                                                ",
"                                                                                                                                                                                                                                                                                                                                                                                                                                                                                                                                                                                                                                                                                                                                                                                                                                ",
"                                                                                                                                                                                                                                                                                                                                                                                                                                                                                                                                                                                                                                                                                                                                                                                                                                ",
"                                                                                                                                                                                                                                                                                                                                                                                                                                                                                                                                                                                                                                                                                                                                                                                                                                ",
"                                                                                                                                                                                                                                                                                                                                                                                                                                                                                                                                                                                                                                                                                                                                                                                                                                ",
"                                                                                                                                                                                                                                                                                                                                                                                                                                                                                                                                                                                                                                                                                                                                                                                                                                ",
"                                                                                                                                                                                                                                                                                                                                                                                                                                                                                                                                                                                                                                                                                                                                                                                                                                ",
"                                                                                                                                                                                                                                                                                                                                                                                                                                                                                                                                                                                                                                                                                                                                                                                                                                ",
"                                                                                                                                                                                                                                                                                                                                                                                                                                                                                                                                                                                                                                                                                                                                                                                                                                ",
"                                                                                                                                                                                                                                                                                                                                                                                                                                                                                                                                                                                                                                                                                                                                                                                                                                ",
"                                                                                                                                                                                                                                                                                                                                                                                                                                                                                                                                                                                                                                                                                                                                                                                                                                ",
"                                                                                                                                                                          $))'                                                                                                                                                                                                                                                                                                                                                                                                                                                                                                                                                                                                                                                  ",
"                                                                                                                                                                          $))'                                                                                                                                                                                                                                                                                                                                                                                                                                                                                                                                                                                                                                                  ",
"       .$=>'))>&@                                                                                  ;;@                                                                    #)),                                                                                                                                                                                                                                                                                                                                                                                                                                                                                                                                                                                                                                                  ",
"      @>)))))))))=.                                                                                ))#                                                                    #))>                                                                                                                                                                                                                                                                                                                                                                                                                                                                                                                                                                                                                                                  ",
"     &)))>&$#$*')),@                                                                               ))#                                                                    @))>                                                                                                                                                                                                                                                                                                                                                                                                                                                                                                                                                                                                                                                  ",
"    =));@      .%')'@                                                                              ))#                                                                    @));                                                                                                                                                                                                                                                                                                                                                                                                                                                                                                                                                                                                                                                  ",
"   %))=          +>)>.                                                                             ))#                                                                    +));                                                                                                                                                                                                                                                                                                                                                                                                                                                                                                                                                                                                                                                  ",
"  +')-            +')=                                                                             ))#                                                                    +))-                                                                                                                                                                                                                                                                                                                                                                                                                                                                                                                                                                                                                                                  ",
"  =)'.             $;;+                                                                            ))#                                                                    +))-                                                                                                                                                                                                                                                                                                                                                                                                                                                                                                                                                                                                                                                  ",
" .')&                        .#&&#.        @#@  #&%@    .$&$+          .#&&#.                      ))#       .#&&#.           .@%&#+             +$&$@              .@@   .))=                                                                                                                                                                                                                                                                                                                                                                                                                                                                                                                                                                                                                                                  ",
" #))+                      .=))))))=.      =)-@,))))>+ &'))))*       .=))))))=.                    ))#     .=))))))=.        $')))))=.&)>      @>)))))>@@))+   +))@$'))+   ))=                                                                                                                                                                                                                                                                                                                                                                                                                                                                                                                                                                                                                                                  ",
" &)>                      +>))';;'))>+     =)-'))>>));$))';,))&     +>))';;'))>+                   ))#    +>))';;'))>+      &)))>;>))>*)>     @'))';;))'%))+   +))&))))+   ))*                                                                                                                                                                                                                                                                                                                                                                                                                                                                                                                                                                                                                                                  ",
" &);                      ;))&+  .&')>.    =)))=+  #))')%.  =)'.    ;))&+  .&')>.                  ))#    ;))&+  .&')>.    @))>$   @;)))>    .,)'%.  +*))))+   +))''*$*+   ')*                                                                                                                                                                                                                                                                                                                                                                                                                                                                                                                                                                                                                                                  ",
" *)-                     &))#      @')*    =))-     -))%    .))#   &))#      @')*                  ))#   &))#      @')*    >)'+     .>))>    &))$      =)))+   +)))@       ,)&                                                                                                                                                                                                                                                                                                                                                                                                                                                                                                                                                                                                                                                  ",
" &)>                     ')*        &)'.   =))@     &),      >)&   ')*        &)'.                 ))#   ')*        &)'.  #))$       @))>    ')=        >))+   +))=        >)&                                                                                                                                                                                                                                                                                                                                                                                                                                                                                                                                                                                                                                                  ",
" %)'.                   @))+        +))#   =)>      &)>      ;)&  @))+        +))#                 ))#  @))+        +))#  &),         ;)>   @))@        &))+   +))$        >)&                                                                                                                                                                                                                                                                                                                                                                                                                                                                                                                                                                                                                                                  ",
" +))$                   #))          ,)%   =)-      &)>      ;)&  #))          ,)%                 ))#  #))          ,)%  =)-         *)>   $)'         @))+   +))@        >)%                                                                                                                                                                                                                                                                                                                                                                                                                                                                                                                                                                                                                                                  ",
"  ;)>              #;;@ #))          ,)%   =)-      &)>      ;)&  #))          ,)%                 ))#  #))          ,)%  =)-         &)>   #))         @))+   +))@        %*@                                                                                                                                                                                                                                                                                                                                                                                                                                                                                                                                                                                                                                                  ",
"  #))&            .');  @))@        +))#   =)-      &)>      ;)*  @))@        +))#                 ))#  @))@        +))#  &)>         -)>   @))@        %))+   +))@                                                                                                                                                                                                                                                                                                                                                                                                                                                                                                                                                                                                                                                             ",
"   =))&          .;))@   ,)=        *)'    =)-      &)>      ;)*   ,)=        *)'                 +))@   ,)=        *)'   @))#       @))>    ')*       .>))+   +))@                                                                                                                                                                                                                                                                                                                                                                                                                                                                                                                                                                                                                                                             ",
"   .>))*.       @>))$    %))&      %))&    =)-      &)>      ;)*   %))&      %))&                 &)).   %))&      %))&    >)'@     +>))>    &))%      =)))+   +))@        .@                                                                                                                                                                                                                                                                                                                                                                                                                                                                                                                                                                                                                                                   ",
"    +>))'=#+.+#-)))%      -))=@  +*))-     =)-      &)>      ;)&    -))=@  +*))-           $=#  +*')-     -))=@  +*))-     @')'%. .$,)));    .>))*+  @-)'))+   +))@       #');                                                                                                                                                                                                                                                                                                                                                                                                                                                                                                                                                                                                                                                  ",
"     .=))))))))))'%        =))))))))-.     =)-      &)>      ;)&     =))))))))-.           %)))))))>+      =))))))))-.      @')))))))=&);     +>)))))))>#))+   +))@       *)))+                                                                                                                                                                                                                                                                                                                                                                                                                                                                                                                                                                                                                                                 ",
"       @=,)))))'&.          @='))'=#       =)-      &)>      ;)&      @='))'=#             @,))))'&.        @='))'=#         +-')))>% &)>      .*,))),*.@))+   +))@       #))>                                                                                                                                                                                                                                                                                                                                                                                                                                                                                                                                                                                                                                                  ",
"          .@##@                @@.                                       @@.                 @#@+              @@.              +@.   &);         .@.                      @#.                                                                                                                                                                                                                                                                                                                                                                                                                                                                                                                                                                                                                                                  ",
"                                                                                                                                      *)-                                                                                                                                                                                                                                                                                                                                                                                                                                                                                                                                                                                                                                                                                       ",
"                                                                                                                          *);         >)*                                                                                                                                                                                                                                                                                                                                                                                                                                                                                                                                                                                                                                                                                       ",
"                                                                                                                          @))#       %))@                                                                                                                                                                                                                                                                                                                                                                                                                                                                                                                                                                                                                                                                                       ",
"                                                                                                                           -)'@     #))-                                                                                                                                                                                                                                                                                                                                                                                                                                                                                                                                                                                                                                                                                        ",
"                                                                                                                           .>));$#$;))>.                                                                                                                                                                                                                                                                                                                                                                                                                                                                                                                                                                                                                                                                                        ",
"                                                                                                                            +;)))))))-.                                                                                                                                                                                                                                                                                                                                                                                                                                                                                                                                                                                                                                                                                         ",
"                                                                                                                              @=>)>*@                                                                                                                                                                                                                                                                                                                                                                                                                                                                                                                                                                                                                                                                                           ",
"                                                                                                                                                                                                                                                                                                                                                                                                                                                                                                                                                                                                                                                                                                                                                                                                                                ",
"                                                                                                                                                                                                                                                                                                                                                                                                                                                                                                                                                                                                                                                                                                                                                                                                                                ",
"                                                                                                                                                                                                                                                                                                                                                                                                                                                                                                                                                                                                                                                                                                                                                                                                                                ",
"                                                                                                                                                                                                                                                                                                                                                                                                                                                                                                                                                                                                                                                                                                                                                                                                                                ",
"                                                                                                                                                                                                                                                                                                                                                                                                                                                                                                                                                                                                                                                                                                                                                                                                                                ",
"                                                                                                                                                                                                                                                                                                                                                                                                                                                                                                                                                                                                                                                                                                                                                                                                                                ",
"                                                                                                                                                                                                                                                                                                                                                                                                                                                                                                                                                                                                                                                                                                                                                                                                                                ",
"                                                                                                                                                                                                                                                                                                                                                                                                                                                                                                                                                                                                                                                                                                                                                                                                                                ",
"                                                                                                                                                                                                                                                                                                                                                                                                                                                                                                                                                                                                                                                                                                                                                                                                                                ",
"                                                                                                                                                                                                                                                                                                                                                                                                                                                                                                                                                                                                                                                                                                                                                                                                                                ",
"                                                                                                                                                                                                                                                                                                                                                                                                                                                                                                                                                                                                                                                                                                                                                                                                                                ",
"                                                                                                                                                                                                                                                                                                                                                                                                                                                                                                                                                                                                                                                                                                                                                                                                                                ",
"                                                                                                                                                                                                                                                                                                                                                                                                                                                                                                                                                                                                                                                                                                                                                                                                                                ",
"                                                                                                                                                                                                                                                                                                                                                                                                                                                                                                                                                                                                                                                                                                                                                                                                                                ",
"                                                                                                                                                                                                                                                                                                                                                                                                                                                                                                                                                                                                                                                                                                                                                                                                                                ",
"                                                                                                                                                                                                                                                                                                                                                                                                                                                                                                                                                                                                                                                                                                                                                                                                                                ",
"                                                                                                                                                                                                                                                                                                                                                                                                                                                                                                                                                                                                                                                                                                                                                                                                                                ",
"                                                                                                                                                                                                                                                                                                                                                                                                                                                                                                                                                                                                                                                                                                                                                                                                                                ",
"                                                                                                                                                                                                                                                                                                                                                                                                                                                                                                                                                                                                                                                                                                                                                                                                                                ",
"                                                                                                                                                                                                                                                                                                                                                                                                                                                                                                                                                                                                                                                                                                                                                                                                                                ",
"                                                                                                                                                                                                                                                                                                                                                                                                                                                                                                                                                                                                                                                                                                                                                                                                                                ",
"                                                                                                                                                                                                                                                                                                                                                                                                                                                                                                                                                                                                                                                                                                                                                                                                                                ",
"                                                                                                                                                                                                                                                                                                                                                                                                                                                                                                                                                                                                                                                                                                                                                                                                                                ",
"                                                                                                                                                                                                                                                                                                                                                                                                                                                                                                                                                                                                                                                                                                                                                                                                                                ",
"                                                                                                                                                                                                                                                                                                                                                                                                                                                                                                                                                                                                                                                                                                                                                                                                                                ",
"                                                                                                                                                                                                                                                                                                                                                                                                                                                                                                                                                                                                                                                                                                                                                                                                                                ",
"                                                                                                                                                                                                                                                                                                                                                                                                                                                                                                                                                                                                                                                                                                                                                                                                                                ",
"                                                                                                                                                                                                                                                                                                                                                                                                                                                                                                                                                                                                                                                                                                                                                                                                                                ",
"                                                                                                                                                                                                                                                                                                                                                                                                                                                                                                                                                                                                                                                                                                                                                                                                                                ",
"                                                                                                                                                                                                                                                                                                                                                                                                                                                                                                                                                                                                                                                                                                                                                                                                                                ",
"                                                                                                                                                                                                                                                                                                                                                                                                                                                                                                                                                                                                                                                                                                                                                                                                                                ",
"                                                                                                                                                                                                                                                                                                                                                                                                                                                                                                                                                                                                                                                                                                                                                                                                                                ",
"                                                                                                                                                                                                                                                                                                                                                                                                                                                                                                                                                                                                                                                                                                                                                                                                                                ",
"                                                                                                                                                                                                                                                                                                                                                                                                                                                                                                                                                                                                                                                                                                                                                                                                                                ",
"                                                                                                                                                                                                                                                                                                                                                                                                                                                                                                                                                                                                                                                                                                                                                                                                                                ",
"                                                                                                                                                                                                                                                                                                                                                                                                                                                                                                                                                                                                                                                                                                                                                                                                                                ",
"                                                                                                                                                                                                                                                                                                                                                                                                                                                                                                                                                                                                                                                                                                                                                                                                                                ",
"                                                                                                                                                                                                                                                                                                                                                                                                                                                                                                                                                                                                                                                                                                                                                                                                                                ",
"                                                                                                                                                                                                                                                                                                                                                                                                                                                                                                                                                                                                                                                                                                                                                                                                                                ",
"                                                                                                                                                                                                                                                                                                                                                                                                                                                                                                                                                                                                                                                                                                                                                                                                                                ",
"                                                                                                                                                                                                                                                                                                                                                                                                                                                                                                                                                                                                                                                                                                                                                                                                                                ",
"                                                                                                                                                                                                                                                                                                                                                                                                                                                                                                                                                                                                                                                                                                                                                                                                                                ",
"                                                                                                                                                                                                                                                                                                                                                                                                                                                                                                                                                                                                                                                                                                                                                                                                                                ",
"                                                                                                                                                                                                                                                                                                                                                                                                                                                                                                                                                                                                                                                                                                                                                                                                                                ",
"                                                                                                                                                                                                                                                                                                                                                                                                                                                                                                                                                                                                                                                                                                                                                                                                                                ",
"                                                                                                                                                                                                                                                                                                                                                                                                                                                                                                                                                                                                                                                                                                                                                                                                                                ",
"                                                                                                                                                                                                                                                                                                                                                                                                                                                                                                                                                                                                                                                                                                                                                                                                                                ",
"                                                                                                                                                                                                                                                                                                                                                                                                                                                                                                                                                                                                                                                                                                                                                                                                                                ",
"                                                                                                                                                                                                                                                                                                                                                                                                                                                                                                                                                                                                                                                                                                                                                                                                                                ",
"                                                                                                                                                                                                                                                                                                                                                                                                                                                                                                                                                                                                                                                                                                                                                                                                                                ",
"                                                                                                                                                                                                                                                                                                                                                                                                                                                                                                                                                                                                                                                                                                                                                                                                                                ",
"                                                                                                                                                                                                                                                                                                                                                                                                                                                                                                                                                                                                                                                                                                                                                                                                                                ",
"                                                                                                                                                                                                                                                                                                                                                                                                                                                                                                                                                                                                                                                                                                                                                                                                                                ",
"                                                                                                                                                                                                                                                                                                                                                                                                                                                                                                                                                                                                                                                                                                                                                                                                                                ",
"                                                                                                                                                                                                                                                                                                                                                                                                                                                                                                                                                                                                                                                                                                                                                                                                                                ",
"                                                                                                                                                                                                                                                                                                                                                                                                                                                                                                                                                                                                                                                                                                                                                                                                                                ",
"     .             .                                                                                                                                                                                                                               $)'                                                   .                                                                                                                                              ')%                                  =)-                                                                                                                                                                                                                                                                                                                                ",
"     &             &                                                                                                                                                                                                                               $),                                                   &@                                                                                                                                             ')%                                  =)-                                                                                                                                                                                                                                                                                                                                ",
"     '+           .'.                                                                                                                                                                                                                              $),                                                   >=                           =;;;;;-*&@                                                                                                        ')%                                  =)=                                                                                                                                                                                                                                                                                                                                ",
"    @)&           %)$                                                                                                                                                                                                                              $),                                                  #)).                          >)))))))))>$                                                                                                      ')%                                  =)=                                                                                                                                                                                                                                                                                                                                ",
"    &)>           ;)&                                                                                                                                                                                   @&&                                        $),                                                  -))&                          >)-&&&=;,)));+                                                                                                    ')%                                  =)=                                                                                                                                                                                                                                                                                                                                ",
"    =))@         +));                                                                                                                                                                                   %)'                                        $),                                                 +))),                          >)%      +=)),+                                                                                                   ')%                                  =)-                                                                                                                                                                                                                                                                                                                                ",
"    >))=         &))'                                                                                                                                                                                   %)'                                        $),                                                 &)-')#                         >)%        $))>.                                                                                                  ')%                                  =)-                                                                                                                                                                                                                                                                                                                                ",
"   .)))'.        ')))@                                                                                                                                                                                  %)'                                        $)'                                                 ,)$*)-                         >)%         $))*                                                                                                  ')%                                  =)-                                                                                                                                                                                                                                                                                                                                ",
"   $))))%       #))')%                                                                +=*+                                                                                                              %)'                                        $),                                                $)' +))+                        >)%          &)'.                                                                                                 ')%                                  =)=                                                                                                                                                                                                                                                                                                                                ",
"   *);=);       -)--)=         +#&%@.                         .#&&#.             @#.  ;));                               #%&$+          @%&#+                     .#&&#.           #&&$+                %)'          .#&&#.             @#@        $),        +$&$@           +$&%#                   ;)&  ;)&                        >)%          .')%                 .@%&#+           +#&%@.              @#.     .#&&#.                     +#&%@.  ')%        @$&$@          @%&%@      =)=        +#&%@.             +#@            +#&%@.              @#.     .@%&$+          #%&$+                  +#&%@.                       .##+          .#&&#.                          .@%&$+                                                                                                                                  ",
"   ;)*#))+     .))$&)>       +;)))))'&     ;)-       =)>    .=))))))=.      >)%@>))%  >))>             >)%      +))+   +;)))))=.      $')))))-.&)>               &))))))& -)=    +;)))))=.           ,))))))))%    .=))))))=.        #;))));&      $)'      @>)))))>@@))+    %'))))>#                +))+  $),                        >)%           =);            %)' $')))))=.       .-)))))'$ ')%    >)%@>))%    &))))))& -)=              .-)))))'$ ')%      #>)))))>#      .*)))))-+    =)=      +;)))))'&         +-')))>*.       .-)))))'$ ')%    >)%@>))%    &')))));+      +;)))))=.              .-)))))'$ ')%            +))@@;))))-.       &))))))& -)=  &)'.      %))+    &')))));+                                                                                                                                ",
"   ')$ >)&     &)' #)).     @')),;;)))-.   $))+     .')%   +>))),>)))'@     >)&')))%  $))$             >)%      +))+  +')'*&-))=     %)))>;>))>&)>              =)))>;>))--)=   +')'*&-))=           ,))))))))%   +>))),>)))'@     .=))))))));.    $),     @'))';;))'%))+   *))-**'))@               *)-   .')$                       >)%           %),            %)'&))';;)));.     .>)));;'))&')%    >)&')))%   =)))>;>))--)=             .>)));;'))&')%     %)))'>')))=     ;))*&=)),.   =)-     @')),;;)))-.      %)))))))),@     .>)));;'))&')%    >)&')))%   =)))'>')))%    +')'**-))=             .>)));;'))&')%            +))&)))))));      =)))>;>))--)=  +))$      ;)-    =)))'>')))%                                                                                                                               ",
"  @))+ &)'     >)* .))#    +')>$.  +*))*    ,)&     %)'.   ;))%.  .*)),+    >)')-$&#                   >)%      +))+  *),+   &))@   @))>$   @-)))>             %))-@   $>)))=   *),+   &))@             %)'       ;))%.  .*)),+    *)),% .#=))-    $),    .,)'%.  +*))))+  .))&   +,)-              .')$    *)-                       >)%           @))            %)))'%.  +*))=     -))*+  .%')))%    >)')-$&#  %))-@   $>)))=             -))*+  .%')))%    #));@   @>))&   #))@   #))&   =)-    +')>$.  +*))*     $))'&. @*'),+    -))*+  .%')))%    >)')-$&#  &))*+   %'))@   *),+   &))@            -))*+  .%')))%            +))))-#++&))$    %))-@   $>)))=   =);     +))@   &))*+   %'))@                                                                                                                              ",
"  %)'  +))#   @))+  >)&    ;),+      %))#   &),     ;)*   &))%      $))=    >))&                       >)%      +))+  -)-    .&&@   ;)'@     .>))>            .')>.     @'))=   -)-    .&&@             %)'      &))%      $))=   #))-.     %))$   $)'    &))$      =)))+  @))@    #&&              %)'     @))+                      >)%           @)).           %)))#      =))@   @))*      $)))%    >))&     .')>.     @'))=            @))*      $)))%   .')>.     .>))@  &)'     %*$   =)-    ;),+      %))#   +')>+     @')=   @))*      $)))%    >))&     @))=      @'),.  -)-    .&&@           #))*      $)))%            +)))&     -)-   .')>.     @'))=   @))+    &)>   @))=      @'),.                                                                                                                             ",
"  =)-   -)-   *);   =)-   @))#        -);   .')#   +))+   ')=        *)).   >),                        >)%      +))+  -))@         @))%       +))>            &))+       %))=   -))@                    %)'      ')=        *)).  -),.       -)>   %),    ')=        >))+  @))=                     ;)*      ;)*                      >)%           #)'            %))*       .,)=   -)>        =))%    >),      &))+       %))=            -)>        =))%   &))+       +))*  &))%          =)=   @))#        -);   &))@       &))+  -)>        =))%    >),      -)>.       $))$  -))@                  -)>        =))%            +));      &)>   &))+       %))=    ;)&    ')%   -)>.       $))$                                                                                                                             ",
"  >)&   #)).  ')%   %),   &),         $))    =)=   *)-   @))@        @))#   >)*                        >)%      +))+  $))'=$+      &)'         -)>            -)-        .')=   $))'=$+                 %)'     @))@        @))#  ')&              $),   @))@        &))+   >))>&@                 @))+      %)'.                     >)%           &)>            %))+        &),   ')&        @))%    >)*      -)-        .')=            ')&        @))%   -)-         -);  +'))-&@       =)=   &),         $))   -);              ')&        @))%    >)*      ')&         ,)*  $))'=$+               ')&        @))%            +))%      %),   -)-        .')=    $),   #)'.   ')&         ,)*                                                                                                                             ",
" .))#    ,)% $)'.   @))+  *);         +))+   @)).  ')#   #))))))))))))))%   >)&                        >)%      @))+   &'))))>&.   *);         &)>            >)&         ;)=    &'))))>&.              %)'     #))))))))))))))%  ))#              $),   $))         @))+   +;))))'-@              =))))))))))))%                     >)%           ;)&            $)'         #))  .))@         ))%    >)&      >)&         ;)=           .))@         ))%   ;))))))))))))),   #,))))'*+    =)=   *);         +))+  ;)*             .))@         ))%    >)&     .))))))))))))))=   &'))))>&.           .))@         ))%            +))@      %),   >)&         ;)=    .')#  -)*   .))))))))))))))=                                                                                                                             ",
" #)).    &)> -)*     ')$  *);         +))+    ;)% $),    #));;;;;;;;;;;;$   >)%                        >)%      #))+    +&;)))),+  *);         &)>            ;)&         -)=     +&;)))),+             %)'     #));;;;;;;;;;;;$ .))$              $),   #))         @))+     #-'))))*            .'))))))))))));                     >)%          @))+            %)'         #))  .))#         ')%    >)%      ;)&         -)=           .))#         ')%   ;)';;;;;;;;;;;-    .%-')))'$   =)-   *);         +))+  ;)*             .))#         ')%    >)%     .))>;;;;;;;;;;;&    +&;)))),+          .))#         ')%            +))@      %),   ;)&         -)=     &)- .))+   .))>;;;;;;;;;;;&                                                                                                                             ",
" &)>     +))#))@     ;)*  &)'         $)).    $)> -)&    @))#               >)%                        >)%      &))+       .$>))-  &)'         -)>            -)-         ')=        .$>))-             %)'     @))#              ')&              %),   @))@        %))+        +*)))@           &)'         @))@                    >)%         +>)*             %))+        &)'   ')%        @))%    >)%      -)-         ')=            ')%        @))%   -);                    @-))'.  =)-   &)'         $)).  -)-              ')%        @))%    >)%      ')*                   .$>))-           ')%        @))%            +))@      %),   -)-         ')=     +)).&)-     ')*                                                                                                                                         ",
" -)=      -)')>      *);  +))$        >)-      ,)@)'.     ,)-               >)%                        >)&      >))+         .;)'  @))$       +')>            &)'+       $))=          .;)'             %)'      ,)-              =)>.       %&%   %),    ')*       .>))+          #))&           ,)*          ;)=                    >)%        @,),.             %))*       .>)=   -)>        =))%    >)%      &)'+       $))=            -)>        =))%   %))@                     &))@  =)-   +))$        >)-   %))@       #&&.  -)>        =))%    >)%      =),.                    .;)'           -)>        =))%            +))@      %),   &)'+       $))=      =)&>)#     =),.                                                                                                                                        ",
" ')%      $)))%      $)'   -)'#      =))@      &)')=      %))*      #))&    >)%        ++              -);     $)))+ .')&     &))   ;)'@     .>))>            .')>.     @'))=  .')&     &))             %)'      %))*      #))&   @))-      &))&   %),    &))%      =)))+  &)'      ')&          #))+          %)'.    -;;+           >)%      +*)))@              %)))$      -))@   #))=      %)))%    >)%      .')>.     @'))=            #))=      %)))%   .,)'@      -),.  ;)-     @))#  =)=    -)'#      =))@   .')>+     #')-   #))=      %)))%    >)%      @));.     +,)-  .')&     &))           #))=      %)))%            +))@      %),   .')>.     @'))=      @),)>      @));.     +,)-     .@                                                                                                                       ",
"@))@       ')).      +))@  +>)'&+  @;))&       .)))@       -));#+ +=));     >)%       &))&             $))*+ .%''))+  -),+    ;);   @')'%. .#>)')>             $))>#  .%')')=   -),+    ;);             %)'       -));#+ +=));     *));% +$;));    $),    .>))*+  @-)'))+  @))&    #))#          -);           .')%   +));            >)*###$&;)))'#               %)'')&+  @;))&     *))-@  +*)'')%    >)%       $))>#  .%')')=             *))-@  +*)'')%    @'))&@..%>))#   &))#    *)).  =)=    +>)'&+  @;))&     $)),&..#=))'+    *))-@  +*)'')%    >)%       &))'$+ +&')'+   -),+    ;);            *))-@  +*)'')%            +))@      %),    $))>#  .%')')=       >))%       &))'$+ .&')'+    #')-                                                                                                                      ",
"%)'        *)=        ,)&   +;))))))))&         =);         =))))))))-.     >)%       >))>              ;))))))'$))+  @')'*&*>))#    @')))))))-&)>              %))))))))%-)=   @')'*&&>))#             %)'        =))))))))-.     .-))))))));+    $),     +>)))))))>#))+   =))-**=));          +))$            =)>   $))$            >))))))))))*+                $),#')))))))*       =)))))))'@')%    >)%        %))))))))%-)=              =)))))))'@')%     @')))))))'#    .>))=&&-))&   =)=     +;))))))))&       &)))))))),@      =)))))))'@')%    >)%        %))))))))>+    @')'*&&>))#             =)))))))'@')%            +))@      %),     %))))))))%-)=       %)'.        %))))))))>+     *)))+                                                                                                                     ",
"=);        +)#        -)=     $-)))'*+          @)$          %,)))'=#       >)%       &))&              .-))))-++))+   @-)))));@      +-')))>% &)>               @;))));# -)=    @-)))));@              %)'         %,)))'=#        .&>))))'&      $),      .*,))),*.@))+    &,))))'&.          &)'.            @))@  *)>             >)))))'>-&+                  %)' @-')))>$         %>)))'-+ ')%    >)%         @;))));# -)=               %>)))'-+ ')%      +-))))>&.      +*')))),$    =)=       $-)))'*+         $;)))))=+        %>)))'-+ ')%    >)%         @;))));$.      @-)))));@               %>)))'-+ ')%            +))@      %),      @;))));# -)=       .'*          @;))));$.      #));                                                                                                                      ",
"            =                   .@+              -             @#@                     @@                 +#@.           .#&&#           +@.                        @@             .#&&#                              @#@              @##@                    .@.             @&&&+                                  ;)&                                          $)'    +@.             .@+                          @@                        .@+               .##+           .#&&$.                 .@+              +###.            .@+                         +##.           .#&&#                   .@+                                         @@               *+            +##.          @#.                                                                                                                      ",
"            .                                    .                                                                                                                                                                                                                                                                    )'.                                          %)'                                                                                                                                                                                                                                                                                                     .                                                                                                                                                    ",
"                                                                                                                                                                                                                                                                                                                     @)*                                           %)'                                                                                                                                                                                                                                                                                                                                                                                                                                                          ",
"                                                                                                                                                                                                                                                                                                                     &)+                                           %)'                                                                                                                                                                                                                                                                                                                                                                                                                                                          ",
"                                                                                                                                                                                                                                                                                                                     $%                                            %)'                                                                                                                                                                                                                                                                                                                                                                                                                                                          ",
"                                                                                                                                                                                                                                                                                                                                                                   %)'                                                                                                                                                                                                                                                                                                                                                                                                                                                          ",
"                                                                                                                                                                                                                                                                                                                                                                   %)'                                                                                                                                                                                                                                                                                                                                                                                                                                                          ",
"                                                                                                                                                                                                                                                                                                                                                                   %)'                                                                                                                                                                                                                                                                                                                                                                                                                                                          ",
"                                                                                                                                                                                                                                                                                                                                                                                                                                                                                                                                                                                                                                                                                                                                                                                                                                ",
"                                                                                                                                                                                                                                                                                                                                                                                                                                                                                                                                                                                                                                                                                                                                                                                                                                ",
"                                                                                                                                                                                                                                                                                                                                                                                                                                                                                                                                                                                                                                                                                                                                                                                                                                ",
"                                                                                                                                                                                                                                                                                                                                                                                                                                                                                                                                                                                                                                                                                                                                                                                                                                ",
"                                                                                                                                                                                                                                                                                                                                                                                                                                                                                                                                                                                                                                                                                                                                                                                                                                ",
"                                                                                                                                                                                                                                                                                                                                                                                                                                                                                                                                                                                                                                                                                                                                                                                                                                ",
"                                                                                                                                                                                                                                                                                                                                                                                                                                                                                                                                                                                                                                                                                                                                                                                                                                ",
"                                                                                                                                                                                                                                                                                                                                                                                                                                                                                                                                                                                                                                                                                                                                                                                                                                ",
"                                                                                                                                                                                                                                                                                                                                                                                                                                                                                                                                                                                                                                                                                                                                                                                                                                ",
"                                                                                                                                                                                                                                                                                                                                                                                                                                                                                                                                                                                                                                                                                                                                                                                                                                ",
"                                                                                                                                                                                                                                                                                                                                                                                                                                                                                                                                                                                                                                                                                                                                                                                                                                ",
"                                                                                                                                                                                                                                                                                                                                                                                                                                                                                                                                                                                                                                                                                                                                                                                                                                ",
"                                                                                                                                                                                                                                                                                                                                                                                                                                                                                                                                                                                                                                                                                                                                                                                                                                ",
"                                                                                                                                                                                                                                                                                                                                                                                                                                                                                                                                                                                                                                                                                                                                                                                                                                ",
"                                                                                                                                                                                                                                                                                                                                                                                                                                                                                                                                                                                                                                                                                                                                                                                                                                ",
"                                                                                                                                                                                                                                                                                                                                                                                                                                                                                                                                                                                                                                                                                                                                                                                                                                ",
"                                                                                                                                                                                                                                                                                                                                                                                                                                                                                                                                                                                                                                                                                                                                                                                                                                ",
"                                                                                                                                                                                                                                                                                                                                                                                                                                                                                                                                                                                                                                                                                                                                                                                                                                ",
"                                                                                                                                                                                                                                                                                                                                                                                                                                                                                                                                                                                                                                                                                                                                                                                                                                ",
"                                                                                                                                                                                                                                                                                                                                                                                                                                                                                                                                                                                                                                                                                                                                                                                                                                ",
"                                                                                                                                                                                                                                                                                                                                                                                                                                                                                                                                                                                                                                                                                                                                                                                                                                ",
"                                                                                                                                                                                                                                                                                                                                                                                                                                                                                                                                                                                                                                                                                                                                                                                                                                ",
"                                                                                                                                                                                                                                                                                                                                                                                                                                                                                                                                                                                                                                                                                                                                                                                                                                ",
"                                                                                                                                                                                                                                                                                                                                                                                                                                                                                                                                                                                                                                                                                                                                                                                                                                ",
"                                                                                                                                                                                                                                                                                                                                                                                                                                                                                                                                                                                                                                                                                                                                                                                                                                ",
"                                                                                                                                                                                                                                                                                                                                                                                                                                                                                                                                                                                                                                                                                                                                                                                                                                ",
"                                                                                                                                                                                                                                                                                                                                                                                                                                                                                                                                                                                                                                                                                                                                                                                                                                ",
"                                                                                                                                                                                                                                                                                                                                                                                                                                                                                                                                                                                                                                                                                                                                                                                                                                ",
"                                                                                                                                                                                                                                                                                                                                                                                                                                                                                                                                                                                                                                                                                                                                                                                                                                ",
"                                                                                                                                                                                                                                                                                                                                                                                                                                                                                                                                                                                                                                                                                                                                                                                                                                ",
"                                                                                                                                                                                                                                                                                                                                                                                                                                                                                                                                                                                                                                                                                                                                                                                                                                ",
"                                                                                                                                                                                                                                                                                                                                                                                                                                                                                                                                                                                                                                                                                                                                                                                                                                ",
"                                                                                                                                                                                                                                                                                                                                                                                                                                                                                                                                                                                                                                                                                                                                                                                                                                ",
"                                                                                                                                                                                                                                                                                                                                                                                                                                                                                                                                                                                                                                                                                                                                                                                                                                ",
"                                                                                                                                                                                                                                                                                                                                                                                                                                                                                                                                                                                                                                                                                                                                                                                                                                ",
"                                                                                                                                                                                                                                                                                                                                                                                                                                                                                                                                                                                                                                                                                                                                                                                                                                ",
"                                                                                                                                                                                                                                                                                                                                                                                                                                                                                                                                                                                                                                                                                                                                                                                                                                ",
"                                                                                                                                                                                                                                                                                                                                                                                                                                                                                                                                                                                                                                                                                                                                                                                                                                ",
"                                                                                                                                                                                                                                                                                                                                                                                                                                                                                                                                                                                                                                                                                                                                                                                                                                ",
"                                                                                                                                                                                                                                                                                                                                                                                                                                                                                                                                                                                                                                                                                                                                                                                                                                ",
"                                                                                                                                                                                                                                                                                                                                                                                                                                                                                                                                                                                                                                                                                                                                                                                                                                ",
"                                                                                                                                                                                                                                                                                                                                                                                                                                                                                                                                                                                                                                                                                                                                                                                                                                ",
"                                                                                                                                                                                                                                                                                                                                                                                                                                                                                                                                                                                                                                                                                                                                                                                                                                ",
"                                                                                                                                                                                                                                                                                                                                                                                                                                                                                                                                                                                                                                                                                                                                                                                                                                ",
"                                                                                                                                                                                                                                                                                                                                                                                                                                                                                                                                                                                                                                                                                                                                                                                                                                ",
"                                                                                                                                                                                                                                                                                                                                                                                                                                                                                                                                                                                                                                                                                                                                                                                                                                ",
"                                                                                                                                                                                                                                                                                                                                                                                                                                                                                                                                                                                                                                                                                                                                                                                                                                ",
"                                                                                                                                                                                                                                                                                                                                                                                                                                                                                                                                                                                                                                                                                                                                                                                                                                ",
"                                                                                                                                                                                                                                                                                                                                                                                                                                                                                                                                                                                                                                                                                                                                                                                                                                ",
"                                                                                                                                                                                                                                                                                                                                                                                                                                                                                                                                                                                                                                                                                                                                                                                                                                ",
"                                                                                                                                                                                                                                                                                                                                                                                                                                                                                                                                                                                                                                                                                                                                                                                                                                ",
"                                                                                                                                                                                                                                                                                                                                                                                                                                                                                                                                                                                                                                                                                                                                                                                                                                ",
"                                                                                                                                                                                                                                                                                                                                                                                                                                                                                                                                                                                                                                                                                                                                                                                                                                ",
"                                                                                                                                                                                                                                                                                                                                                                                                                                                                                                                                                                                                                                                                                                                                                                                                                                ",
"                                                                                                                                                                                                                                                                                                                                                                                                                                                                                                                                                                                                                                                                                                                                                                                                                                ",
"                                                                                                                                                                                                                                                                                                                                                                                                                                                                                                                                                                                                                                                                                                                                                                                                                                ",
"                                                                                                                                                         +))@                                                                                                                                                          +))@                                                                                                                                                                                                 -)=                                            ')%                                                                                                      %)>       .             .                                                                                           @)'.                    ",
"                                                                                                                                                         +))@                                                                                                                                                          +))@                                                                                                                                                                                                 -)=                                            ')%                                                                                                      ,)$       &.            %+                                                                                           -)&                    ",
"  &;;;;;-=&#.                                                                                                                                            +))@                                                                                                                                                          +))@                                                                                                                                                                                                 -)=                                            ')%                                                                                                     %)>        ;$            ;$                                                                                +*-;>'@    @)'                    ",
"  =)))))))))'&.                                                                                                                                          +))@                                                                                                                                                          +))@                                             .$&%    @@                                                                                                                                          -)=                                            ')%                                                                                                     ;)&        '-           +)*                                                                                @)))))@     >)$                   ",
"  =)>&***->))),@       +#.                                                                                                                               +))@    @#                                                                                                                                                    +))@                                  @&&       .>)))-.  ;>                                                                                                                                          -)=                                            ')%                                                              $&$                                   @)).       @))+          &);                                                                                +&&*))@     &)-                   ",
"  =)-      .&'))#      ,)-                                                                                                                               +))@   +))&                                                                                                                                                   +))@                                  %)'       %)=#>)-.+'-                                                                                                                                          -)=                                            ')%                                                              =)-                                   &);        %))&          ,)'                                                                                   .))@     @)'                   ",
"  =)-        @,)'@     ,)-                                                                                                                               +))@   +))&                                                                                                                                                   +))@                                  %)'       ='  +>))))#                                                                                                                                          -)=                                            ')%                                                              =)-                                   ;)&        =))>         #)))@                                                                                  .))@      ')#                  ",
"  =)-         @')>     +%.                                                                                                                               +))@    @$                                                                                                                                                    +))@                                  %)'       $&   +=;;%                                                                                                                                           -)=                                            ')%                                                              =)-                                   ))@        >)))#        =)))&                                                                                  .))@      -)&                  ",
"  =)-          #))#                                                                                                   #-&.                               +))@                                                                                                                                                          +))@                                  %)'                                                                                                                                                            -)=                                            ')%                                                              =)-                                  @))        .))')=       .))')=                                                                                  .))@      &);                  ",
"  =)-           -)-             #%&$+           .#&%@.           +$&$@              .@@      +$&$@              .@@  .'))&                    .##.       +))@                .##.           +#&%@.                         +#@            .#&&#.        @#@  #&%@    .$&$+                     .#&&#.                  +))@  @$&$+            @$&$@          %)'          @%&#+             .#&&#.                      .@%&$+          #%&$+          @%&#+                             .@%&$+             +#.     .#&&#.  -)=        +#&%@.                      +#&%@.  ')%        @$&$@                        .#+      @%&#+           =)-          +#&%@.                  %)>        #))%)'.      %)'&)>         .#&&#.                          #%&$+          +$&%@.                    .))@      @)'                  ",
"  =)-           %)'.   -)*    +;)))))=.    =)- *)))))'%        @>)))))>@@))+   +))@$'))+   @>)))))>@@))+   +))@$'))+ .)))*                 .*,)))'=@     +))@    ')$      .*,)))'=@       .-)))))'$ ')%                 +-')))>*.       .=))))))=.      =)-@,))))>+ &'))))*                  .=))))))=.                +))@@>)))));+        #>))))),#     ,))))))))%    $')))))-.&)>      .=))))))=.                   &')))));+      +;)))))=.      $')))))-.&)>    %)'       =)=      &')))));+      =)-+-))=    &))))))& -)=      +;)))))'&                   .-)))))'$ ')%      #>))))),#                 %)' *)),    $')))))-+&)>  +)))))))))@    +;)))))'&                 &)=        &)>.')%      ;)*#)).      .=))))))=.      >)%      +))+   +;)))))=.      +;)))))'%                   .))@      .))+                 ",
"  =)-           +))+   -)*   +')'*&-))=    =)--))>;>)))*      @'))';;))'%))+   +))&))))+  @'))';;))'%))+   +))&))))+  *),+                @,)))))))'$    +))@    ')$     @,)))))))'$     .>)));;'))&')%                %)))))))),@     +>))';;'))>+     =)-'))>>));$)));,))&                +>))';;'))>+               +))%'));;'))'@      %)))>;>)))&    ,))))))))%   %)))>;>))>&)>     +>))';;'))>+                 =)))'>')))%    +')'*&-))=     %))),;>))>&)>    %)'       =)=     =)))'>')))%     =)-;)))=   =)))>;>))--)=     @')),;;)))-.                .>)));;'))&')%     %)))>;>)))&                %)'*))),   %)))>;>))>&)>  +)))))))))@   @')),;;)))-.               =)&        -)= =);     @))@.))#     +>))';;'))>+     >)%      +))+  +')'*&-))=     @')))>,)));.                 .))@       ')@                 ",
"  =)-            ')#   -)*   *),+   &))@   =)))>#   @;))%    .,)'%.  +*))))+   +))''*$*+ .,)'%.  +*))))+   +))''*$*+                     +'))=+ +&,))@   +))@    ')$    +'))=+ +&,))@    -))*+  .%')))%               $))'&. @*'),+    ;))&+  .&')>.    =)))=+  #))')%.  =)'.               ;))&+  .&')>.              +))))&+  .%))>.    #));#   @-))$      %)'      @))>$   @-)))>     ;))&+  .&')>.               &))*+   %'))@   *),+   &))@   @))>$   @-)))>    %)'       =)=    &))*+   %'))@    =)')>%&&  %))-@   $>)))=    +')>$.  +*))*                -))*+  .%')))%    #));#   @-))$               %)'),&$*  @))>$   @-)))>      =)-      +')>$.  +*))*               ;)%        ')% @))+    *);  >)&     ;))&+  .&')>.    >)%      +))+  *),+   &))@   +')'#.  +-))-                 .))@       ;)$                 ",
"  =)-            ')#   -)*   -)-    .&&@   =))'+     .>)'.   &))$      =)))+   +)))@     &))$      =)))+   +)))@                         ;)'#     +>)>   +))@    ')$    ;)'#     +>)>   @))*      $)))%              +')>+     @')=   &))#      @')*    =))-     -))%    .))#              &))#      @')*              +)))*      %))&   .')-.      =)'+     %)'      ;)'@     .>))>    &))#      @')*              @))=      @'),.  -)-    .&&@   ;)'@     .>))>    %)'       =)=   @))=      @'),.   =))-     .')>.     @'))=    ;),+      %))#              @))*      $)))%   .')-.      =)'+              %)),+     ;)'@     .>))>      =)-      ;),+      %))#              ;)$       @))@  >)*    ')%  =)-    &))#      @')*    >)%      +))+  -)-    .&&@   ;)'@      =))%                .))@       -)%                 ",
"  =)-            ))@   -)*   -))@          =))$       @))%   ')=        >))+   +))=      ')=        >))+   +))=                         @))&       @))$  +))@    ')$   @))&       @))$  -)>        =))%              &))@       &))+  ')*        &)'.   =))@     &),      >)&              ')*        &)'.             +))>        -),   &)'+       .')&     %)'     @))%       +))>    ')*        &)'.             -)>.       $))$  -))@         @))%       +))>    %)'       =)=   -)>.       $))$   =))+     &))+       %))=   @))#        -);              -)>        =))%   &)'+       .')&              %))%     @))%       +))>      =)-     @))#        -);              >)#       %)'   &)'   $)'.  %)'    ')*        &)'.   >)%      +))+  -))@         @))%        >)>                .))@       -)%                 ",
"  =)-           @)).   -)*   $))'=$+       =),         ;)=  @))@        &))+   +))$     @))@        &))+   +))$                         &)'.             +))@    ')$   &)'.             ')&        @))%              -);             @))+        +))#   =)>      &)>      ;)&             @))+        +))#             +))%        #))+  -)=         *);     %)'     &)'         -)>   @))+        +))#             ')&         ,)*  $))'=$+      &)'         -)>    %)'       =)=   ')&         ,)*   =)>      -)-        .')=   &),         $))              ')&        @))%   -)=         *);              %)).     &)'         -)>      =)-     &),         $))              >)#       =);   .))#  -)=   @))@  @))+        +))#   >)%      +))+  $))'=$+      &)'         %)).               .))@       =)&                 ",
"  =)-           &);    -)*    &'))))>&.    =)-         &);  $)'         @))+   +))@     $)'         @))+   +))@                         *);              +))@    ')$   *);             .))@         ))%              ;)*             #))          ,)%   =)-      &)>      ;)&             #))          ,)%             +))@         ))#  ;)&         %)>     %)'     *);         &)>   #))          ,)%            .))))))))))))))=   &'))))>&.   *);         &)>    %)'       -)=  .))))))))))))))=   =)-      >)&         ;)=   *);         +))+            .))@         ))%   ;)&         %)>              %)'      *);         &)>      =)-     *);         +))+             >)#       >)&    =)- +))@    ')%  #))          ,)%   >)%      @))+   &'))))>&.   *))))))))))))))+               .))@       -)%                 ",
"  =)-          .')%    -)*     +&;)))),+   =)-         &);  #))         @))+   +))@     #))         @))+   +))@                         *)>              +))+    ')$   *)>             .))#         ')%              ;)*             #))          ,)%   =)-      &)>      ;)&             #))          ,)%             +))@         ))#  ;)&         %),     %)'     *);         &)>   #))          ,)%            .))>;;;;;;;;;;;&    +&;)))),+  *);         &)>    %)'       ;)=  .))>;;;;;;;;;;;&   =)-      ;)&         -)=   *);         +))+            .))#         ')%   ;)&         %),              %)'      *);         &)>      =)-     *);         +))+             ;)$      .))$    #))+&)>     -)*  #))          ,)%   >)%      #))+    +&;)))),+  *)';;;;;;;;;;;;+               .))#       -)%                 ",
"  =)-         .-)>     -)*        .$>))-   =)>         -)-  @))@        %))+   +))@     @))@        %))+   +))@                         &)'              +))@    ')$   &)'              ')%        @))%              -)-             @))@        +))#   =)-      &)>      ;)&             @))@        +))#             +))%        @))@  -)-         =);     %)'     &)'         -)>   @))@        +))#             ')*                   .$>))-  &)'         -)>    $)'       ')=   ')*               =)-      -)-         ')=   &)'         $)).             ')%        @))%   -)-         =);              %)'      &)'         -)>      =)-     &)'         $)).             -)$      #)).     >)&>)&     &)>  @))@        +))#   >)%      &))+       .$>))-  &)).                           .))#       ;)$                 ",
"  =)-        +;))@     -)*          .;)'   =))#       @))%   ')*       .>))+   +))@      ')*       .>))+   +))@                         +))%       @&&@  +))@    ')$   +))%       @&&@  -)>        =))%              %))@       #&&.  ,)=        *)'    =)-      &)>      ;)&              ,)=        *)'              +));        =),   %))+       +')&     %)'     @))$       +')>    ,)=        *)'              =),.                    .;)'  @))$       +')>    $))      $))=   =),.              =)-      &)'+       $))=   +))$        >)-              -)>        =))%   %))+       +')&              %)'      @))$       +')>      =)-     +))$        >)-              =)&      &)>      &)'))+     #)).  ,)=        *)'    >)&      >))+         .;)'  +))&                           .))#       ,)@                 ",
"  =)-      .&'))&      -)*  .')&     &))   =))'@     +>)'.   &))%      =)))+   +))@      &))%      =)))+   +))@        @.                -))@     +>)'.  +))@    ')$    -))@     +>)'.  #))=      %)))%              .')>+     #')-   %))&      %))&    =)-      &)>      ;)&              %))&      %))&              +)))*      %))&   .,)>+     .>)'.     %)'      ;)'@     .>))>    %))&      %))&              @));.     +,)-  .')&     &))   ;)'@     .>))>    @))#     ;))=   @));.     +,)-    =)-      .')>.     @'))=    -)'#      =))@              #))=      %)))%   .,)>+     .>)'.              %)'       ;)'@     .>))>      =)-      -)'#      =))@              &)*      -)=      +)))-      .))#  %))&      %))&    -);     $)))+ .')&     &))   -))$      &))@                .))@       ))+                 ",
"  =);###$&-')))%       -)*   -),+    ;);   =)')'%. .$>))#    .>))*+  @-)'))+   +))@      .>))*+  @-)'))+   +))@       -)'#               +')'*+ @&'))#   +))@    ')$    +')'*+ @&'))#    *))-@  +*)'')%               $)),&..#=))'+    -))=@  +*))-     =)-      &)>      ;)*               -))=@  +*))-               +))')-@  +*));     @'),$. .$>))@      %)'      @')'%. .#>)')>     -))=@  +*))-                &))'$+ .&')'+   -),+    ;);   @')'%. .#>)')>     >)'#. @-)')=    &))'$+ .&')'+    =)-       $))>#  .%')')=    +>)'&+  @;))&                *))-@  +*)'')%    @'),$. .$>)'@               %)'       @')'%. .#>)')>      =)-      +>)'&+  @;))&               $)-      ,)&       -))#       >)&   -))=@  +*))-     $))*+ .%''))+  -),+    ;);   +>))=@. #-))*                 .))@      +)'                  ",
"  =))))))))))-@        -)*   @')'*&&>))#   =)=&))))))))$      +>)))))))>#))+   +))@       +>)))))))>#))+   +))@      .)))=                #)))))))))%    +))@    ')$     #)))))))))%      =)))))))'@')%                &)))))))),@      =))))))))-.     =)-      &)>      ;)*                =))))))))-.               +))#>)))))));.      @')))))))'#       %)'       @')))))))-&)>      =))))))))-.                 %))))))))>+    @')'*&&>))#    @')))))))-&)>     #)))))))-=)=     %))))))))>+     =)-        %))))))))%-)=     +;))))))))&                  =)))))))'@')%     @')))))))'#                %)'        @')))))))-&)>      =)-       +;))))))))&                @),     +))@       #),        =)-    =))))))))-.      ;))))))'$))+  @')'***>))#    +>))))))))&                  .))@      $);                  ",
"  =)))))'>-&@          -)*    @-)))));@    =)- #>)))';@        .*,))),*.@))+   +))@        .*,))),*.@))+   +))@       ;))#                 @-)))))-@     +))@    ')$      @-)))))-@        %>)))'-+ ')%                 $;)))))=+        @='))'=#       =)-      &)>      ;)&                 @='))'=#                 +))@.='))),&.        .&>)))>&+        %)'        +-')))>% &)>       @='))'=#                    @;))));$.      @-)))));@      +-')))>% &)>      $'))),& =)=      @;))));$.      =)-         @;))));# -)=       $-)))'*+                    %>)))'-+ ')%      .&>)))>&+                 %)'         +-')))>% &)>      =)-         $-)))'*+                  ').    $)'         '&        %),     @='))'=#        .-))))-++))+   @-)))));@      .&'))),*+                   .))@      *)*                  ",
"                                .#&&#      =)-   .@@              .@.                         .@.                     .#@                    .###+                          .###+            .@+                          +###.             @@.                                                  @@.                          +@.              +@+                         +@.                @@.                        +##.           .#&&#           +@.   &)>       .@#+              +##.                        @@                .@+                         .@+                +@+                                   +@.                          .@+                     -)$                &+                   @@.            +#@.           .#&&#          .##@                                ;)$                  ",
"                                           =)-                                                                                                                                                                                                                                                                                                                                                                                                                %)>                                                                                                                                                                                                                 &)=                .                                                                                                    .)).                  ",
"                                           =)-                                                                                                                                                                                                                                                                                                                                                                                                                %)>                                                                                                                                                                                                                 @)'                                                                                                                     $);                   ",
"                                           =)-                                                                                                                                                                                                                                                                                                                                                                                                                &)>                                                                                                                                                                                                                  ,)#                                                                                                                    -)%                   ",
"                                           =)-                                                                                                                                                                                                                                                                                                                                                                                                                %)>                                                                                                                                                                                                                  &)=                                                                                                                   +)).                   ",
"                                           =)-                                                                                                                                                                                                                                                                                                                                                                                                                &)>                                                                                                                                                                                                                  +))+                                                                                                                  &)=                    ",
"                                           =)-                                                                                                                                                                                                                                                                                                                                                                                                                &)>                                                                                                                                                                                                                   *)-                                                                                                                 +')+                    ",
"                                           =)-                                                                                                                                                                                                                                                                                                                                                                                                                &)>                                                                                                                                                                                                                   .##                                                                                                                 +#@                     ",
"                                                                                                                                                                                                                                                                                                                                                                                                                                                                                                                                                                                                                                                                                                                                                                                                                                ",
"                                                                                                                                                                                                                                                                                                                                                                                                                                                                                                                                                                                                                                                                                                                                                                                                                                ",
"                                                                                                                                                                                                                                                                                                                                                                                                                                                                                                                                                                                                                                                                                                                                                                                                                                ",
"                                                                                                                                                                                                                                                                                                                                                                                                                                                                                                                                                                                                                                                                                                                                                                                                                                ",
"                                                                                                                                                                                                                                                                                                                                                                                                                                                                                                                                                                                                                                                                                                                                                                                                                                ",
"                                                                                                                                                                                                                                                                                                                                                                                                                                                                                                                                                                                                                                                                                                                                                                                                                                ",
"                                                                                                                                                                                                                                                                                                                                                                                                                                                                                                                                                                                                                                                                                                                                                                                                                                ",
"                                                                                                                                                                                                                                                                                                                                                                                                                                                                                                                                                                                                                                                                                                                                                                                                                                ",
"                                                                                                                                                                                                                                                                                                                                                                                                                                                                                                                                                                                                                                                                                                                                                                                                                                ",
"                                                                                                                                                                                                                                                                                                                                                                                                                                                                                                                                                                                                                                                                                                                                                                                                                                ",
"                                                                                                                                                                                                                                                                                                                                                                                                                                                                                                                                                                                                                                                                                                                                                                                                                                ",
"                                                                                                                                                                                                                                                                                                                                                                                                                                                                                                                                                                                                                                                                                                                                                                                                                                ",
"                                                                                                                                                                                                                                                                                                                                                                                                                                                                                                                                                                                                                                                                                                                                                                                                                                ",
"                                                                                                                                                                                                                                                                                                                                                                                                                                                                                                                                                                                                                                                                                                                                                                                                                                ",
"                                                                                                                                                                                                                                                                                                                                                                                                                                                                                                                                                                                                                                                                                                                                                                                                                                ",
"                                                                                                                                                                                                                                                                                                                                                                                                                                                                                                                                                                                                                                                                                                                                                                                                                                ",
"                                                                                               @&&      .#+                                                                                                                                                                                                                                                                                                                                                                                                                                                                                                                                                                                                                                                                                                                     ",
"                                                                                               %)'      =)'.                                                                                                                                                                                                                                                                                                                                                                                                                                                                                                                                                                                                                                                                                                                    ",
"                                                                                               %)'      =)'.                                                                                                                                                                                                                                                                                                                                                                                                                                                                                                                                                                                                                                                                                                                    ",
"                                                                                               %)'      .%+                                                                                                                                                                                                                                                                                                                                                                                                                                                                                                                                                                                                                                                                                                                     ",
"                                                                                               %)'                                                                                                                                                                                                                                                                                                                                                                                                                                                                                                                                                                                                                                                                                                                              ",
"       .#&%@.           +$&$@              .@@      +#&%@.                     +$&$@           %)'                  .@@      +$&$@              .@@                                                                                                                                                                                                                                                                                                                                                                                                                                                                                                                                                                                                                                                                             ",
"  =)- *)))))'%        @>)))))>@@))+   +))@$'))+   .-)))))'$ ')%              @>)))))>@@))+  ,))))))))%  &)>    +))@$'))+   @>)))))>@@))+   +))@$'))+                                                                                                                                                                                                                                                                                                                                                                                                                                                                                                                                                                                                                                                                            ",
"  =)--))>;>)))*      @'))';;))'%))+   +))&))))+  .>)));;'))&')%             @'))';;))'%))+  ,))))))))%  &)>    +))&))))+  @'))';;))'%))+   +))&))))+                                                                                                                                                                                                                                                                                                                                                                                                                                                                                                                                                                                                                                                                            ",
"  =)))>#   @;))%    .,)'%.  +*))))+   +))''*$*+  -))*+  .%')))%            .,)'%.  +*))))+     %)'      &)>    +))''*$*+ .,)'%.  +*))))+   +))''*$*+                                                                                                                                                                                                                                                                                                                                                                                                                                                                                                                                                                                                                                                                            ",
"  =))'+     .>)'.   &))$      =)))+   +)))@     @))*      $)))%            &))$      =)))+     %)'      &)>    +)))@     &))$      =)))+   +)))@                                                                                                                                                                                                                                                                                                                                                                                                                                                                                                                                                                                                                                                                                ",
"  =))$       @))%   ')=        >))+   +))=      -)>        =))%            ')=        >))+     %)'      &)>    +))=      ')=        >))+   +))=                                                                                                                                                                                                                                                                                                                                                                                                                                                                                                                                                                                                                                                                                 ",
"  =),         ;)=  @))@        &))+   +))$      ')&        @))%           @))@        &))+     %)'      &)>    +))$     @))@        &))+   +))$                                                                                                                                                                                                                                                                                                                                                                                                                                                                                                                                                                                                                                                                                 ",
"  =)-         &);  $)'         @))+   +))@     .))@         ))%           $)'         @))+     %)'      &)>    +))@     $)'         @))+   +))@                                                                                                                                                                                                                                                                                                                                                                                                                                                                                                                                                                                                                                                                                 ",
"  =)-         &);  #))         @))+   +))@     .))#         ')%           #))         @))+     %)'      &)>    +))@     #))         @))+   +))@                                                                                                                                                                                                                                                                                                                                                                                                                                                                                                                                                                                                                                                                                 ",
"  =)>         -)-  @))@        %))+   +))@      ')%        @))%           @))@        %))+     %)'      &)>    +))@     @))@        %))+   +))@                                                                                                                                                                                                                                                                                                                                                                                                                                                                                                                                                                                                                                                                                 ",
"  =))#       @))%   ')*       .>))+   +))@      -)>        =))%            ')*       .>))+     %)'      &)>    +))@      ')*       .>))+   +))@                                                                                                                                                                                                                                                                                                                                                                                                                                                                                                                                                                                                                                                                                 ",
"  =))'@     +>)'.   &))%      =)))+   +))@      #))=      %)))%            &))%      =)))+     %)'      &)>    +))@      &))%      =)))+   +))@        @.                                                                                                                                                                                                                                                                                                                                                                                                                                                                                                                                                                                                                                                                       ",
"  =)')'%. .$>))#    .>))*+  @-)'))+   +))@       *))-@  +*)'')%            .>))*+  @-)'))+     %)'      &)>    +))@      .>))*+  @-)'))+   +))@       -)'#                                                                                                                                                                                                                                                                                                                                                                                                                                                                                                                                                                                                                                                                      ",
"  =)=&))))))))$      +>)))))))>#))+   +))@        =)))))))'@')%             +>)))))))>#))+     %)'      &)>    +))@       +>)))))))>#))+   +))@      .)))=                                                                                                                                                                                                                                                                                                                                                                                                                                                                                                                                                                                                                                                                      ",
"  =)- #>)))';@        .*,))),*.@))+   +))@         %>)))'-+ ')%              .*,))),*.@))+     $)'      &)>    +))@        .*,))),*.@))+   +))@       ;))#                                                                                                                                                                                                                                                                                                                                                                                                                                                                                                                                                                                                                                                                      ",
"  =)-   .@@              .@.                         .@+                        .@.                                           .@.                     .#@                                                                                                                                                                                                                                                                                                                                                                                                                                                                                                                                                                                                                                                                       ",
"  =)-                                                                                                                                                                                                                                                                                                                                                                                                                                                                                                                                                                                                                                                                                                                                                                                                                           ",
"  =)-                                                                                                                                                                                                                                                                                                                                                                                                                                                                                                                                                                                                                                                                                                                                                                                                                           ",
"  =)-                                                                                                                                                                                                                                                                                                                                                                                                                                                                                                                                                                                                                                                                                                                                                                                                                           ",
"  =)-                                                                                                                                                                                                                                                                                                                                                                                                                                                                                                                                                                                                                                                                                                                                                                                                                           ",
"  =)-                                                                                                                                                                                                                                                                                                                                                                                                                                                                                                                                                                                                                                                                                                                                                                                                                           ",
"  =)-                                                                                                                                                                                                                                                                                                                                                                                                                                                                                                                                                                                                                                                                                                                                                                                                                           ",
"  =)-                                                                                                                                                                                                                                                                                                                                                                                                                                                                                                                                                                                                                                                                                                                                                                                                                           ",
"                                                                                                                                                                                                                                                                                                                                                                                                                                                                                                                                                                                                                                                                                                                                                                                                                                ",
"                                                                                                                                                                                                                                                                                                                                                                                                                                                                                                                                                                                                                                                                                                                                                                                                                                ",
"                                                                                                                                                                                                                                                                                                                                                                                                                                                                                                                                                                                                                                                                                                                                                                                                                                ",
"                                                                                                                                                                                                                                                                                                                                                                                                                                                                                                                                                                                                                                                                                                                                                                                                                                ",
"                                                                                                                                                                                                                                                                                                                                                                                                                                                                                                                                                                                                                                                                                                                                                                                                                                ",
"                                                                                                                                                                                                                                                                                                                                                                                                                                                                                                                                                                                                                                                                                                                                                                                                                                ",
"                                                                                                                                                                                                                                                                                                                                                                                                                                                                                                                                                                                                                                                                                                                                                                                                                                ",
"                                                                                                                                                                                                                                                                                                                                                                                                                                                                                                                                                                                                                                                                                                                                                                                                                                ",
"                                                                                                                                                                                                                                                                                                                                                                                                                                                                                                                                                                                                                                                                                                                                                                                                                                ",
"                                                                                                                                                                                                                                                                                                                                                                                                                                                                                                                                                                                                                                                                                                                                                                                                                                ",
"                                                                                                                                                                                                                                                                                                                                                                                                                                                                                                                                                                                                                                                                                                                                                                                                                                ",
"                                                                                                                                                                                                                                                                                                                                                                                                                                                                                                                                                                                                                                                                                                                                                                                                                                ",
"                                                                                                                                                                                                                                                                                                                                                                                                                                                                                                                                                                                                                                                                                                                                                                                                                                ",
"                                                                                                                                                                                                                                                                                                                                                                                                                                                                                                                                                                                                                                                                                                                                                                                                                                ",
"                                                                                                                                                                                                                                                                                                                                                                                                                                                                                                                                                                                                                                                                                                                                                                                                                                ",
"                                                                                                                                                                                                                                                                                                                                                                                                                                                                                                                                                                                                                                                                                                                                                                                                                                ",
"                                                                                                                                                                                                                                                                                                                                                                                                                                                                                                                                                                                                                                                                                                                                                                                                                                ",
"                                                                                                                                                                                                                                                                                                                                                                                                                                                                                                                                                                                                                                                                                                                                                                                                                                ",
"                                                                                                                                                                                                                                                                                                                                                                                                                                                                                                                                                                                                                                                                                                                                                                                                                                ",
"                                                                                                                                                                                                                                                                                                                                                                                                                                                                                                                                                                                                                                                                                                                                                                                                                                ",
"                                                                                                                                                                                                                                                                                                                                                                                                                                                                                                                                                                                                                                                                                                                                                                                                                                ",
"                                                                                                                                                                                                                                                                                                                                                                                                                                                                                                                                                                                                                                                                                                                                                                                                                                ",
"                                                                                                                                                                                                                                                                                                                                                                                                                                                                                                                                                                                                                                                                                                                                                                                                                                ",
"                                                                                                                                                                                                                                                                                                                                                                                                                                                                                                                                                                                                                                                                                                                                                                                                                                ",
"                                                                                                                                                                                                                                                                                                                                                                                                                                                                                                                                                                                                                                                                                                                                                                                                                                ",
"                                                                                                                                                                                                                                                                                                                                                                                                                                                                                                                                                                                                                                                                                                                                                                                                                                ",
"                                                                                                                                                                                                                                                                                                                                                                                                                                                                                                                                                                                                                                                                                                                                                                                                                                ",
"                                                                                                                                                                                                                                                                                                                                                                                                                                                                                                                                                                                                                                                                                                                                                                                                                                ",
"                                                                                                                                                                                                                                                                                                                                                                                                                                                                                                                                                                                                                                                                                                                                                                                                                                ",
"                                                                                                                                                                                                                                                                                                                                                                                                                                                                                                                                                                                                                                                                                                                                                                                                                                ",
"                                                                                                                                                                                                                                                                                                                                                                                                                                                                                                                                                                                                                                                                                                                                                                                                                                ",
"                                                                                                                                                                                                                                                                                                                                                                                                                                                                                                                                                                                                                                                                                                                                                                                                                                ",
"                                                                                                                                                                                                                                                                                                                                                                                                                                                                                                                                                                                                                                                                                                                                                                                                                                ",
"                                                                                                                                                                                                                                                                                                                                                                                                                                                                                                                                                                                                                                                                                                                                                                                                                                ",
"                                                                                                                                                                                                                                                                                                                                                                                                                                                                                                                                                                                                                                                                                                                                                                                                                                ",
"                                                                                                                                                                                                                                                                                                                                                                                                                                                                                                                                                                                                                                                                                                                                                                                                                                ",
"                                                                                                                                                                                                                                                                                                                                                                                                                                                                                                                                                                                                                                                                                                                                                                                                                                ",
"                                                                                                                                                                                                                                                                                                                                                                                                                                                                                                                                                                                                                                                                                                                                                                                                                                ",
"                                                                                                                                                                                                                                                                                                                                                                                                                                                                                                                                                                                                                                                                                                                                                                                                                                ",
"                                                                                                                                                                                                                                                                                                                                                                                                                                                                                                                                                                                                                                                                                                                                                                                                                                ",
"                                                                                                                                                                                                                                                                                                                                                                                                                                                                                                                                                                                                                                                                                                                                                                                                                                ",
"                                                                                                                                                                                                                                                                                                                                                                                                                                                                                                                                                                                                                                                                                                                                                                                                                                ",
"                                                                                                                                                                                                                                                                                                                                                                                                                                                                                                                                                                                                                                                                                                                                                                                                                                ",
"                                                                                                                                                                                                                                                                                                                                                                                                                                                                                                                                                                                                                                                                                                                                                                                                                                ",
"                                                                                                                                                                                                                                                                                                                                                                                                                                                                                                                                                                                                                                                                                                                                                                                                                                ",
"                                                                                                                                                                                                                                                                                                                                                                                                                                                                                                                                                                                                                                                                                                                                                                                                                                ",
"                                                                                                                                                                                                                                                                                                                                                                                                                                                                                                                                                                                                                                                                                                                                                                                                                                ",
"                                                                                                                                                                                                                                                                                                                                                                                                                                                                                                                                                                                                                                                                                                                                                                                                                                ",
"                                                                                                                                                                                                                                                                                                                                                                                                                                                                                                                                                                                                                                                                                                                                                                                                                                ",
"                                                                                                                                                                                                                                                                                                                                                                                                                                                                                                                                                                                                                                                                                                                                                                                                                                ",
"                                                                                                                                                                                                                                                                                                                                                                                                                                                                                                                                                                                                                                                                                                                                                                                                                                ",
"                                                                                                                                                                                                                                                                                                                                                                                                                                                                                                                                                                                                                                                                                                                                                                                                                                ",
"                                                                                                                                                                                                                                                                                                                                                                                                                                                                                                                                                                                                                                                                                                                                                                                                                                ",
"                                                                                                                                                                                                                                                                                                                                                                                                                                                                                                                                                                                                                                                                                                                                                                                                                                ",
"                                                                                                                                                                                                                                                                                                                                                                                                                                                                                                                                                                                                                                                                                                                                                                                                                                ",
"                                                                                                                                                                                                                                                                                                                                                                                                                                                                                                                                                                                                                                                                                                                                                                                                                                ",
"                                                                                                                                                                                                                              &)>                                                                                 ')%                                                                                                                                                                                                                                                                                                                                                                                                                                            $))'                                                           ",
"                                                                                                                                                                                                                              &)>                                                                                 ')%                                                                                                                                                                                                                                                                                                                                                                                                                                            $))'                                                           ",
"  &;;;;;;;;;;;;#                                                                                                                                                                                                              &)>                                                                                 ')%                                                              +;;&                                                                                                                                                                                                                                                                                                                                                                          #)),                                                           ",
"  =))))))))))))$                                                                                                                                                                                                              &)>                                                                                 ')%                                                              =),.                                                                                                                                                                                                                                                                                                                                                                          #))>                                                           ",
"  =);##########+                  @@      .&&+                                                                                                        $&$                                                   +#.               &)>                                                                                 ')%                                    &&@                      @)'@       .#+                                                                                             &&@                                                                                                           $&$                                                                                                &&@                                                @))>                                                           ",
"  =)-                            %))@     +))@                                                                                                        =)-                                                   ,)-               &)>                                                                                 ')%                                    >)&                      ;)$        =)'.                                                                                            >)&                                                                                                           =)-                                                                                                >)&                                                @));                                                           ",
"  =)-                            %))@     +))@                                                                                                        =)-                                                   ,)-               &)>                                                                                 ')%                                    >)&                     @;&         =)'.                                                                                            >)&                                                                                                           =)-                                                                                                >)&                                                +));                                                           ",
"  =)-                             $@      +))@                                                                                                        =)-                                                   +%.               %)>                                                                                 ')%                                    >)&                                 .%+                                                                                             >)&                                                                                                           =)-                                                                                                >)&                                                +))-                                                           ",
"  =)-                                     +))@                                                                                                        =)-                                                                     %)>                                                                                 ')%                                    >)&                                                                                                                                 >)&                                                                                                           =)-                                                                                                >)&                                                +))-                                                           ",
"  =)-                                     +))@         +$&$@                      +#&%@.         .$&&$.                  +$&$@           +$&%#        =)-          @$&$@             .#+      .#&&#.                   @%&#+  %)>        .#&&#.         .$&&$.                  .#&&#.                    +#&%@.  ')%       .@%&$+          #%&$+        >)&          .@@      .@%&$+                                .@%&$+          #%&$+                  +#&%@.              .@#@         >)&         .@%&$+          #%&$+                  +#&%@.                             +#&%@.                  =)-          @$&$@                    .#&&#.              .##.            @$&$@             .#+    >)%         .@%&$+        @#@  #&%@    .$&$+       .))=                                                           ",
"  =)-             ;)-       =)>  @)).  =))))))))-    @>)))))>@@))+              +;)))))'&       #>))))'&               @>)))))>@@))+    %'))))>#  +)))))))))@    #>)))))>#      %)' *)),    .=))))))=.      -)*      $')))))-.&)>      .=))))))=.      #>))))'&               .=))))))=.                .-)))))'$ ')%      &')))));+      +;)))))=.  %))))))))'  +))@$'))+    &')))));@      &)>                    &')))));@      +;)))))=.              .-)))))'$ ')%    >)%+=))))>@   %))))))))'     &')))));+      +;)))))=.              .-)))))'$ ')%    >)%      +))+     +;)))))'%             +)))))))))@    #>)))))>#                 &))))))& -)=      .*,)))'=@        #>)))))>#      %)' *)),%)))))))),     &')))));+      =)-@,))))>+ &'))))*       ))=                                                           ",
"  =)-             $))+     .')%  @)).  =))))))))-   @'))';;))'%))+             @')),;;)))-.    $))>&*>))%             @'))';;))'%))+   *))-&*'))@ +)))))))))@   %)))'>')))=     %)'*))),   +>))';;'))>+     -)*     %)))>;>))>&)>     +>))),>)))'@    $))>&&>))%             +>))),>)))'@              .>)));;'))&')%     =)))'>')))%    +')'*&-))=  %))))))))'  +))&))))+   =)));;,))'#     &)>                   =)));;,))'#    +')'*&-))=             .>)));;'))&')%    >)&'))))))'+  %))))))))'    =)))'>')))%    +')'*&-))=             .>)));;'))&')%    >)%      +))+    @')))>,)));.           +)))))))))@   %)))'>')))=               =)))>;>))--)=     @,)))))))'$      %)))'>')))=     %)'*))),%))))))))'    =)))'>')))%     =)-'))>>));$))';,))&      ')*                                                           ",
"  =)))))))))))).   ,)&     %)'.  @)).     +))@     .,)'%.  +*))))+            +')>$.  +*))*    ;)-   .-)'            .,)'%.  +*))))+  .))&   +,)-     =)-      #));@   @>))&    %)'),&$*   ;))&+  .&')>.    -)*    @))>$   @-)))>     ;))%.  .*)),+   ;)-   .-)'             ;))%.  .*)),+             -))*+  .%')))%    &))*+   %'))@   *),+   &))@     >)%     +))''*$*+  &))*@   $>)'+    &)>                  &))*@   $>)'+   *),+   &))@            -))*+  .%')))%    >)))>$+.$')=      >)&      &))*+   %'))@   *),+   &))@            -))*+  .%')))%    >)%      +))+   +')'#.  +-))-               =)-      #));@   @>))&             %))-@   $>)))=    +'))=+ +&,))@    #));@   @>))&    %)'),&$*    >)&      &))*+   %'))@    =)))=+  #))')%.  =)'.     ')*                                                           ",
"  =)))))))))))).   &),     ;)*   @)).     +))@     &))$      =)))+            ;),+      %))#   ')&    +&&+           &))$      =)))+  @))@    #*&     =)-     .')>.     .>))@   %)),+     &))#      @')*    -)*    ;)'@     .>))>    &))%      $))=   ')&    +&&+           &))%      $))=            @))*      $)))%   @))=      @'),.  -)-    .&&@     >)&     +)))@     @))&      .>);    &)>                 @))&      .>);   -)-    .&&@           @))*      $)))%    >))-.    &)'      >)&     @))=      @'),.  -)-    .&&@           @))*      $)))%    >)%      +))+   ;)'@      *))%              =)-     .')>.     .>))@           .')>.     @'))=    ;)'#     +>)>   .')>.     .>))@   %)),+       >)&     @))=      @'),.   =))-     -))%    .))#     ,)&                                                           ",
"  =);##########    .')#   +))+   @)).     +))@     ')=        >))+           @))#        -);   '),.                  ')=        >))+  @))=            =)-     &))+       +))*   %))%      ')*        &)'.   -)*   @))%       +))>    ')=        *)).  ')>.                  ')=        *)).           -)>        =))%   -)>.       $))$  -))@            >)%     +))=      -)>        @))#   &)>                 -)>        @))#  -))@                  -)>        =))%    >)'.     @)).     >)&     -)>.       $))$  -))@                  -)>        =))%    >)%      +))+  @))%        >)>              =)-     &))+       +))*           &))+       %))=   @))&       @))$  &))+       +))*   %))%        >)&     -)>.       $))$   =))@     &),      >)&     >)&                                                           ",
"  =)-               =)=   *)-    @)).     +))@    @))@        &))+           &),         $))   *)),*#.              @))@        &))+   >))>&@         =)-     -)-         -);   %)).     @))+        +))#   -)*   &)'         -)>   @))@        @))#  *)),*#.              @))@        @))#           ')&        @))%   ')&         ,)*  $))'=$+         >)&     +))$      ')%         >)&   &)>                 ')%         >)&  $))'=$+               ')&        @))%    >)-      +))+     >)%     ')&         ,)*  $))'=$+               ')&        @))%    >)%      +))+  &)'         %)).             =)-     -)-         -);           -)-        .')=   &)'.             -)-         -);   %)).        >)&     ')&         ,)*   =)>      &)>      ;)&     >)&                                                           ",
"  =)-               @)).  ')#    @)).     +))@    $)'         @))+           *);         +))+  .=)))));$            $)'         @))+   +;))))'-@      =)-     ;))))))))))))),   %)'      #))          ,)%   -)*   *);         &)>   #))))))))))))))%  .=)))));$            #))))))))))))))%          .))@         ))%  .))))))))))))))=   &'))))>&.      >)&     +))@     .))@         =)=   &)>   *))))))))))@ .))@         =)=   &'))))>&.           .))@         ))%    >)&      +))+     >)%    .))))))))))))))=   &'))))>&.           .))@         ))%    >)%      @))+  *))))))))))))))+             =)-     ;))))))))))))),           >)&         ;)=   *);              ;))))))))))))),   %)'         >)&    .))))))))))))))=   =)-      &)>      ;)&     >)%                                                           ",
"  =)-                ;)% $),     @)).     +))@    #))         @))+           *);         +))+    @*>))));.          #))         @))+     #-'))))*     =)-     ;)';;;;;;;;;;;-   %)'      #))          ,)%   -)*   *);         &)>   #));;;;;;;;;;;;$    @*>))));.          #));;;;;;;;;;;;$          .))#         ')$  .))>;;;;;;;;;;;&    +&;)))),+     >)&     +))@     .))#         =)=   &)>   &>>>>>>>>>>@ .))#         =)=    +&;)))),+          .))#         ')%    >)&      +))+     >)&    .))>;;;;;;;;;;;&    +&;)))),+          .))#         ')%    >)%      #))+  *)';;;;;;;;;;;;+             =)-     ;)';;;;;;;;;;;-           ;)&         -)=   *)>              ;)';;;;;;;;;;;-   %)'         >)&    .))>;;;;;;;;;;;&   =)-      &)>      ;)&     %&@                                                           ",
"  =)-                $)> -)&     @)).     +))@    @))@        %))+           &)'         $)).       +%'))&          @))@        %))+        +*)))@    =)-     -);               %)'      @))@        +))#   -)*   &)'         -)>   @))#                   +%'))&          @))#                       ')%        @))%   ')*                   .$>))-     >)&     +))@      ')%         >)&   &)>                 ')%         >)&       .$>))-           ')%        @))%    >)%      +))+     >)&     ')*                   .$>))-           ')%        @))%    >)%      &))+  &)).                         =)-     -);                       -)-         ')=   &)'              -);               %)'         >)&     ')*               =)-      &)>      ;)&                                                                   ",
"  =)-                 ,)@)'.     @)).     +))@     ')*       .>))+           +))$        >)-          +')-           ')*       .>))+          #))&    =)-     %))@              %)'       ,)=        *)'    -)*   @))$       +')>    ,)-                     +')-           ,)-                       -)>        =))%   =),.                    .;)'     >)&     +))@      =)>.       $))@   &)>                 =)>.       $))@         .;)'           -)>        =))%    >)%      +))+     >)&     =),.                    .;)'           -)>        =))%    >)&      >))+  +))&                         =)-     %))@                      &)'+       $))=   +))%       @&&@  %))@              %)'         >)%     =),.              =)-      &)>      ;)&                                                                   ",
"  =)-                 &)')=      @)).     +))@     &))%      =)))+            -)'#      =))@  #))@     -);           &))%      =)))+  &)'      ')&    =)-     .,)'@      -),.   %)'       %))&      %))&    -)*    ;)'@     .>))>    %))*      #))&  #))@     -);           %))*      #))&            #))=      %)))%   @));.     +,)-  .')&     &))     >)&     +))@      @))-.     @')-    &)>                 @))-.     @')-  .')&     &))           #))=      %)))%    >)%      +))+     >)&     @));.     +,)-  .')&     &))           #))=      %)))%    -);     $)))+   -))$      &))@              =)-     .,)'@      -),.           .')>.     @'))=    -))@     +>)'.  .,)'@      -),.   %)'         >)&     @));.     +,)-    =)-      &)>      ;)&     .@                                                            ",
"  =)-                 .)))@      @)).     +))@     .>))*+  @-)'))+            +>)'&+  @;))&    ')-    +')*           .>))*+  @-)'))+  @))&    #))#    =)-      @'))&@..%>))#    %)'        -))=@  +*))-     -)*    @')'%. .#>)')>     -));#+ +=));    ')-    +')*            -));#+ +=));              *))-@  +*)'')%    &))'$+ .&')'+   -),+    ;);     >)&     +))@       &));#  +%'),+    &)>                  &));#  +%'),+   -),+    ;);            *))-@  +*)'')%    >)%      +))+     >)&      &))'$+ .&')'+   -),+    ;);            *))-@  +*)'')%    $))*+ .%''))+   +>))=@. #-))*               =)-      @'))&@..%>))#             $))>#  .%')')=    +')'*+ @&'))#    @'))&@..%>))#    %)'         >)&      &))'$+ .&')'+    =)-      &)>      ;)&    #');                                                           ",
"  =))))))))))))$       =);       @)).     +))@      +>)))))))>#))+             +;))))))))&     $))>*&*')'+            +>)))))))>#))+   =))-&&=));     =)-       @')))))))'#     %)'         =))))))))-.     -)*     @')))))))-&)>      =))))))))-.    $))>*&*')'+             =))))))))-.               =)))))))'@')%     %))))))))>+    @')'*&&>))#     >)&     +))@        %))))))))>+     &)>                   %))))))))>+    @')'*&&>))#             =)))))))'@')%    >)%      +))+     >)&       %))))))))>+    @')'*&&>))#             =)))))))'@')%     ;))))))'$))+    +>))))))))&                =)-       @')))))))'#               %))))))))%-)=     #)))))))))%      @')))))))'#     %)'         >)&       %))))))))>+     =)-      &)>      ;)&    *)))+                                                          ",
"  =))))))))))))$       @)$       @)).     +))@       .*,))),*.@))+               $-)))'*+       $;)))))=+              .*,))),*.@))+    &,))))'&.     =)-        +-))))>&.      %)'          @='))'=#       -)*      +-')))>% &)>       %,)))'=#       $;)))))=+               %,)))'=#                  %>)))'-+ ')%      @;))));$.      @-)))));@      >)&     +))@         +*,)));%.      &)>                    +*,)));%.      @-)))));@               %>)))'-+ ')%    >)%      +))+     >)&        @;))));$.      @-)))));@               %>)))'-+ ')%     .-))))-++))+     .&'))),*+                 =)-        +-))))>&.                 @;))));# -)=      @-)))))-@        +-))))>&.      %)'         >)&        @;))));$.      =)-      &)>      ;)&    #))>                                                           ",
"                        -                               .@.                        .@+            +$&&@                   .@.             @&&&+                    .##+                         @@.                     +@.               @#@            +$&&@                   @#@                       .@+               +##.           .#&&#                                +@.                                   +@.           .#&&#                   .@+                                          +##.           .#&&#                   .@+    ')%       +#@.             .##@                                 .##+                       @@               .###+            .##+                                  +##.                                   @#.                                                           ",
"                        .                                                                                                                                                                                                                                                                                                                                                                                                                                                                                                                               ')%                                                                                                                                                                                                                                                                     ",
"                                                                                                                                                                                                                                                                                                                                                                                                                                                                                                                                                        ')%                                                                                                                                                                                                                                                                     ",
"                                                                                                                                                                                                                                                                                                                                                                                                                                                                                                                                                        ')%                                                                                                                                                                                                                                                                     ",
"                                                                                                                                                                                                                                                                                                                                                                                                                                                                                                                                                        ')%                                                                                                                                                                                                                                                                     ",
"                                                                                                                                                                                                                                                                                                                                                                                                                                                                                                                                                        ')%                                                                                                                                                                                                                                                                     ",
"                                                                                                                                                                                                                                                                                                                                                                                                                                                                                                                                                        ')%                                                                                                                                                                                                                                                                     ",
"                                                                                                                                                                                                                                                                                                                                                                                                                                                                                                                                                        ')%                                                                                                                                                                                                                                                                     ",
"                                                                                                                                                                                                                                                                                                                                                                                                                                                                                                                                                                                                                                                                                                                                                                                                                                ",
"                                                                                                                                                                                                                                                                                                                                                                                                                                                                                                                                                                                                                                                                                                                                                                                                                                ",
"                                                                                                                                                                                                                                                                                                                                                                                                                                                                                                                                                                                                                                                                                                                                                                                                                                ",
"                                                                                                                                                                                                                                                                                                                                                                                                                                                                                                                                                                                                                                                                                                                                                                                                                                ",
"                                                                                                                                                                                                                                                                                                                                                                                                                                                                                                                                                                                                                                                                                                                                                                                                                                ",
"                                                                                                                                                                                                                                                                                                                                                                                                                                                                                                                                                                                                                                                                                                                                                                                                                                ",
"                                                                                                                                                                                                                                                                                                                                                                                                                                                                                                                                                                                                                                                                                                                                                                                                                                ",
"                                                                                                                                                                                                                                                                                                                                                                                                                                                                                                                                                                                                                                                                                                                                                                                                                                ",
"                                                                                                                                                                                                                                                                                                                                                                                                                                                                                                                                                                                                                                                                                                                                                                                                                                ",
"                                                                                                                                                                                                                                                                                                                                                                                                                                                                                                                                                                                                                                                                                                                                                                                                                                ",
"                                                                                                                                                                                                                                                                                                                                                                                                                                                                                                                                                                                                                                                                                                                                                                                                                                ",
"                                                                                                                                                                                                                                                                                                                                                                                                                                                                                                                                                                                                                                                                                                                                                                                                                                ",
"                                                                                                                                                                              >)%                                                  $))'                                                                                                                                                                                                                                                                                                                                                                                                                                                                                                                                                                                         ",
"                                                                                                                                                                              >)%                                                  $))'                                                                                                                                                                                                                                                                                                                                                                                                                                                                                                                                                                                         ",
"  &;;;;;;=&@                                                                                                                                                                  >)%                                                  #)),                                                                                                                                                                                                                                                                                                                                                                                                                                                                                                                                                                                         ",
"  =)))))))));+                                                                                                                                                                >)%                                                  #))>                                                                                                                                                                                                                                                                                                                                                                                                                                                                                                                                                                                         ",
"  =)>&&&*->)),.                                                                                           $&$                                                          @#     >)%                       @&&                        @))>                                                                                                                                                                                                                                                                                                                                                                                                                                                                                                                                                                                         ",
"  =)-      #))=                                                                                           =)-                                                         +))&    >)%                       %)'                        @));                                                                                                                                                                                                                                                                                                                                                                                                                                                                                                                                                                                         ",
"  =)-       *)'                                                                                           =)-                                                         +))&    >)%                       %)'                        +));                                                                                                                                                                                                                                                                                                                                                                                                                                                                                                                                                                                         ",
"  =)-       $))                                                                                           =)-                                                          @$     >)%                       %)'                        +))-                                                                                                                                                                                                                                                                                                                                                                                                                                                                                                                                                                                         ",
"  =)-       %)'                                                                                           =)-                                                                 >)%                       %)'                        +))-                                                                                                                                                                                                                                                                                                                                                                                                                                                                                                                                                                                         ",
"  =)-       ;)=        .#&&#.           .#&&#.                   .$&&$.         .@%&$+             .#+    =)-          @$&$@                             .@%&#+               >)%        @$&$@          %)'          +#&%@.        .))=                                                                                                                                                                                                                                                                                                                                                                                                                                                                                                                                                                                         ",
"  =)-     +-)'+      .=))))))=.        &))))))& -)=             #>))))'&       &')))));@      %)' *)),+)))))))))@    #>)))))>#                      %)' $')))))*.      ')$    >)%      #>))))),#     ,))))))))%    +;)))))'&        ))=                                                                                                                                                                                                                                                                                                                                                                                                                                                                                                                                                                                         ",
"  =)';;;;>))'@      +>))';;'))>+      =)))>;>))--)=            $))>*&>))%     =)));;,))'#     %)'*))),+)))))))))@   %)))'>')))=                     %)'&))';;)));.     ')$    >)%     %)))>;>)))&    ,))))))))%   @')),;;)))-.      ))=                                                                                                                                                                                                                                                                                                                                                                                                                                                                                                                                                                                         ",
"  =)))))))))'*+     ;))&+  .&')>.    %))-@   $>)))=            ;)-   .-)'    &))*@   $>)'+    %)'),&$*    =)-      #));@   @>))&                    %)))'%.  +*))=     ')$    >)%    #));#   @-))$      %)'      +')>$.  +*))*      ')*                                                                                                                                                                                                                                                                                                                                                                                                                                                                                                                                                                                         ",
"  =)>&&&&&*;))>+   &))#      @')*   .')>.     @'))=            ')&    +&&+  @))&      .>);    %)),+       =)-     .')>.     .>))@                   %)))$      =))@    ')$    >)%   .')-.      =)'+     %)'      ;),+      %))#     ,)&                                                                                                                                                                                                                                                                                                                                                                                                                                                                                                                                                                                         ",
"  =)-       @,);   ')*        &)'.  &))+       %))=            ')>.         -)>        @))#   %))%        =)-     &))+       +))*                   %))*       .,)=    ')$    >)%   &)'+       .')&     %)'     @))$        -);     >)&                                                                                                                                                                                                                                                                                                                                                                                                                                                                                                                                                                                         ",
"  =)-        @))@ @))+        +))#  -)-        .')=            *)),*#.      ')%         >)&   %)).        =)-     -)-         -);                   %))+        &),    ')$    >)%   -)=         *);     %)'     &),         $))     >)&                                                                                                                                                                                                                                                                                                                                                                                                                                                                                                                                                                                         ",
"  =)-         ;)& #))          ,)%  >)&         ;)=            .=)))));$   .))@         =)=   %)'         =)-     ;))))))))))))),                   %)'         #))    ')$    >)%   ;)&         %)>     %)'     *);         +))+    >)%                                                                                                                                                                                                                                                                                                                                                                                                                                                                                                                                                                                         ",
"  =)-         -)* #))          ,)%  ;)&         -)=              @*>))));. .))#         =)=   %)'         =)-     ;)';;;;;;;;;;;-                   %)'         #))    ')$    >)%   ;)&         %),     %)'     *);         +))+    %&@                                                                                                                                                                                                                                                                                                                                                                                                                                                                                                                                                                                         ",
"  =)-         ;)* @))@        +))#  -)-         ')=                 +%'))&  ')%         >)&   %)'         =)-     -);                               %))+        &)'    ')$    >)%   -)-         =);     %)'     &)'         $)).                                                                                                                                                                                                                                                                                                                                                                                                                                                                                                                                                                                                ",
"  =)-        @))$  ,)=        *)'   &)'+       $))=                   +')-  =)>.       $))@   %)'         =)-     %))@                              %))*       .>)=    ')$    >)%   %)'+       +')&     %)'     +))$        >)-                                                                                                                                                                                                                                                                                                                                                                                                                                                                                                                                                                                                 ",
"  =)-       .;)'.  %))&      %))&   .')>.     @'))=           #))@     -);  @))-.     @')-    %)'         =)-     .,)'@      -),.    &;;#           %)))$      -))@    ')$    >)%   .,)>+     .>)'.     %)'      -)'#      =))@     .@                                                                                                                                                                                                                                                                                                                                                                                                                                                                                                                                                                                          ",
"  =);######$,))%    -))=@  +*))-     $))>#  .%')')=            ')-    +')*   &));#  +%'),+    %)'         =)-      @'))&@..%>))#     >)'.           %)'')&+  @;))&     ')$    >)%    @'),$. .$>)'@      %)'      +>)'&+  @;))&     #');                                                                                                                                                                                                                                                                                                                                                                                                                                                                                                                                                                                         ",
"  =)))))))))))%      =))))))))-.      %))))))))%-)=            $))>*&*')'+    %))))))))>+     %)'         =)-       @')))))))'#     +))*            $),#')))))))*      ')$    >)%     @')))))))'#       %)'       +;))))))))&      *)))+                                                                                                                                                                                                                                                                                                                                                                                                                                                                                                                                                                                        ",
"  =))))))))>=+        @='))'=#         @;))));# -)=             $;)))))=+      +*,)));%.      %)'         =)-        +-))))>&.      $))+            %)' @-')))>$       ')$    >)%      .&>)))>&+        %)'         $-)))'*+       #))>                                                                                                                                                                                                                                                                                                                                                                                                                                                                                                                                                                                         ",
"                         @@.              @@                      +$&&@           +@.                                  .##+         &)-             %)'    +@.                            +@+                         .@+           @#.                                                                                                                                                                                                                                                                                                                                                                                                                                                                                                                                                                                         ",
"                                                                                                                                    ;)@             %)'                                                                                                                                                                                                                                                                                                                                                                                                                                                                                                                                                                                                                                                                         ",
"                                                                                                                                    '>              %)'                                                                                                                                                                                                                                                                                                                                                                                                                                                                                                                                                                                                                                                                         ",
"                                                                                                                                   @)%              %),                                                                                                                                                                                                                                                                                                                                                                                                                                                                                                                                                                                                                                                                         ",
"                                                                                                                                   @&.              %),                                                                                                                                                                                                                                                                                                                                                                                                                                                                                                                                                                                                                                                                         ",
"                                                                                                                                                    $)'                                                                                                                                                                                                                                                                                                                                                                                                                                                                                                                                                                                                                                                                         ",
"                                                                                                                                                    %)'                                                                                                                                                                                                                                                                                                                                                                                                                                                                                                                                                                                                                                                                         ",
"                                                                                                                                                    %)'                                                                                                                                                                                                                                                                                                                                                                                                                                                                                                                                                                                                                                                                         ",
"                                                                                                                                                                                                                                                                                                                                                                                                                                                                                                                                                                                                                                                                                                                                                                                                                                ",
"                                                                                                                                                                                                                                                                                                                                                                                                                                                                                                                                                                                                                                                                                                                                                                                                                                ",
"                                                                                                                                                                                                                                                                                                                                                                                                                                                                                                                                                                                                                                                                                                                                                                                                                                ",
"                                                                                                                                                                                                                                                                                                                                                                                                                                                                                                                                                                                                                                                                                                                                                                                                                                ",
"                                                                                                                                                                                                                                                                                                                                                                                                                                                                                                                                                                                                                                                                                                                                                                                                                                ",
"                                                                                                                                                                                                                                                                                                                                                                                                                                                                                                                                                                                                                                                                                                                                                                                                                                ",
"                                                                                                                                                                                                                                                                                                                                                                                                                                                                                                                                                                                                                                                                                                                                                                                                                                ",
"                                                                                                                                                                                                                                                                                                                                                                                                                                                                                                                                                                                                                                                                                                                                                                                                                                ",
"                                                                                                                                                                                                                                                                                                                                                                                                                                                                                                                                                                                                                                                                                                                                                                                                                                ",
"                                                                                                                                                                                                                                                                                                                                                                                                                                                                                                                                                                                                                                                                                                                                                                                                                                ",
"                                                                                                                                                                                                                                                                                                                                                                                                                                                                                                                                                                                                                                                                                                                                                                                                                                ",
"                                                                                                                                                                                                                                                                                                                                                                                                                                                                                                                                                                                                                                                                                                                                                                                                                                ",
"                                                                                                                                                                                                                                                                                                                                                                                                                                                                                                                                                                                                                                                                                                                                                                                                                                ",
"                                                                                                                                                                                                                                                                                                                                                                                                                                                                                                                                                                                                                                                                                                                                                                                                                                ",
"                                                                                                                                                                                                                                                                                                                                                                                                                                                                                                                                                                                                                                                                                                                                                                                                                                ",
"                                                                                                                                                                                                                                                                                                                                                                                                                                                                                                                                                                                                                                                                                                                                                                                                                                ",
"                                                                                                                                                                                                                                                                                                                                                                                                                                                                                                                                                                                                                                                                                                                                                                                                                                ",
"                                                                                                                                                                                                                                                                                                                                                                                                                                                                                                                                                                                                                                                                                                                                                                                                                                ",
"                                                                                                                                                                                                                                                                                                                                                                                                                                                                                                                                                                                                                                                                                                                                                                                                                                ",
"                                                                                                                                                                                                                                                                                                                                                                                                                                                                                                                                                                                                                                                                                                                                                                                                                                ",
"                                                                                                                                                                                                                                                                                                                                                                                                                                                                                                                                                                                                                                                                                                                                                                                                                                ",
"                                                                                                                                                                                                                                                                                                                                                                                                                                                                                                                                                                                                                                                                                                                                                                                                                                ",
"                                                                                                                                                                                                                                                                                                                                                                                                                                                                                                                                                                                                                                                                                                                                                                                                                                ",
"                                                                                                                                                                                                                                                                                                                                                                                                                                                                                                                                                                                                                                                                                                                                                                                                                                ",
"                                                                                                                                                                                                                                                                                                                                                                                                                                                                                                                                                                                                                                                                                                                                                                                                                                ",
"                                                                                                                                                                                                                                                                                                                                                                                                                                                                                                                                                                                                                                                                                                                                                                                                                                ",
"                                                                                                                                                                                                                                                                                                                                                                                                                                                                                                                                                                                                                                                                                                                                                                                                                                ",
"                                                                                                                                                                                                                                                                                                                                                                                                                                                                                                                                                                                                                                                                                                                                                                                                                                ",
"                                                                                                                                                                                                                                                                                                                                                                                                                                                                                                                                                                                                                                                                                                                                                                                                                                ",
"                                                                                                                                                                                                                                                                                                                                                                                                                                                                                                                                                                                                                                                                                                                                                                                                                                ",
"                                                                                                                                                                                                                                                                                                                                                                                                                                                                                                                                                                                                                                                                                                                                                                                                                                ",
"                                                                                                                                                                                                                                                                                                                                                                                                                                                                                                                                                                                                                                                                                                                                                                                                                                ",
"                                                                                                                                                                                                                                                                                                                                                                                                                                                                                                                                                                                                                                                                                                                                                                                                                                ",
"                                                                                                                                                                                                                                                                                                                                                                                                                                                                                                                                                                                                                                                                                                                                                                                                                                ",
"                                                                                                                                                                                                                                                                                                                                                                                                                                                                                                                                                                                                                                                                                                                                                                                                                                ",
"                                                                                                                                                                                                                                                                                                                                                                                                                                                                                                                                                                                                                                                                                                                                                                                                                                ",
"                                                                                                                                                                                                                                                                                                                                                                                                                                                                                                                                                                                                                                                                                                                                                                                                                                ",
"                                                                                                                                                                                                                                                                                                                                                                                                                                                                                                                                                                                                                                                                                                                                                                                                                                ",
"                                                                                                                                                                                                                                                                                                                                                                                                                                                                                                                                                                                                                                                                                                                                                                                                                                ",
"                                                                                                                                                                                                                                                                                                                                                                                                                                                                                                                                                                                                                                                                                                                                                                                                                                ",
"                                                                                                                                                                                                                                                                                                                                                                                                                                                                                                                                                                                                                                                                                                                                                                                                                                ",
"                                                                                                                                                                                                                                                                                                                                                                                                                                                                                                                                                                                                                                                                                                                                                                                                                                ",
"                                                                                                                                                                                                                                                                                                                                                                                                                                                                                                                                                                                                                                                                                                                                                                                                                                "};
