/* XPM */
static char *infos[] = {
/* columns rows colors chars-per-pixel */
"800 500 178 2 ",
"   c #000000",
".  c #0C0102",
"X  c #0B0B0B",
"o  c #090806",
"O  c #160306",
"+  c #180A06",
"@  c #181105",
"#  c #09141B",
"$  c #141414",
"%  c #141619",
"&  c #16191C",
"*  c #1C1C1C",
"=  c #060E13",
"-  c #250007",
";  c #270308",
":  c #350109",
">  c #3E010B",
",  c #380C12",
"<  c #221706",
"1  c #302009",
"2  c #0D1A24",
"3  c #1E2225",
"4  c #142939",
"5  c #242424",
"6  c #24292D",
"7  c #2B2B2B",
"8  c #272B31",
"9  c #282D31",
"0  c #2B3035",
"q  c #2E3339",
"w  c #333333",
"e  c #31373D",
"r  c #3C3C3C",
"t  c #4A010D",
"y  c #53020F",
"u  c #480C18",
"i  c #5C0211",
"p  c #51111A",
"a  c #5F141F",
"s  c #680213",
"d  c #7A0317",
"f  c #402B0C",
"g  c #543910",
"h  c #651621",
"j  c #6D1723",
"k  c #7E1B29",
"l  c #711824",
"z  c #644314",
"x  c #704B16",
"c  c #7C5319",
"v  c #162E40",
"b  c #193448",
"n  c #1C394F",
"m  c #1F3E56",
"M  c #363D44",
"N  c #3A4249",
"B  c #244A67",
"V  c #27506F",
"C  c #2D5B7E",
"Z  c #434343",
"A  c #4B4B4B",
"S  c #4B555D",
"D  c #475259",
"F  c #525252",
"G  c #5C5C5C",
"H  c #515C64",
"J  c #40577B",
"K  c #7D527F",
"L  c #7B446C",
"P  c #636363",
"I  c #6C6C6C",
"U  c #66747E",
"Y  c #717171",
"T  c #7C7C7C",
"R  c #890319",
"E  c #9D041D",
"W  c #94031B",
"Q  c #A0041E",
"!  c #9E0621",
"~  c #9B0D2A",
"^  c #99112E",
"/  c #971635",
"(  c #A00D23",
")  c #8E2D3C",
"_  c #AE2538",
"`  c #A72633",
"'  c #855A1A",
"]  c #A56F21",
"[  c #AA7222",
"{  c #B47924",
"}  c #8E2B4E",
"|  c #8D2D50",
" . c #8D2E52",
".. c #853F68",
"X. c #853E66",
"o. c #C82B41",
"O. c #DA2F47",
"+. c #D42D45",
"@. c #D23E54",
"#. c #D7334B",
"$. c #9A4D5B",
"%. c #83426B",
"&. c #A97F6F",
"*. c #C04055",
"=. c #CF8B29",
"-. c #C08126",
";. c #D08C29",
":. c #FFAC33",
">. c #FEB237",
",. c #FFBA3E",
"<. c #FFB438",
"1. c #E79A40",
"2. c #EBA042",
"3. c #FCBE45",
"4. c #FFC344",
"5. c #FFCB4C",
"6. c #FDC64A",
"7. c #2E5D81",
"8. c #325D81",
"9. c #32658C",
"0. c #39719D",
"q. c #366D97",
"w. c #3A76A3",
"e. c #3D7CAC",
"r. c #795988",
"t. c #6E5B89",
"y. c #54788B",
"u. c #707C84",
"i. c #736698",
"p. c #6F6FA3",
"a. c #706FA2",
"s. c #4285B9",
"d. c #6881B8",
"f. c #6A9CB7",
"g. c #468CC3",
"h. c #508AC1",
"j. c #4994CD",
"k. c #4B97D2",
"l. c #4E9CD9",
"z. c #5B9EDD",
"x. c #5E95D2",
"c. c #638BC6",
"v. c #53A6E5",
"b. c #56A7E8",
"n. c #55ACEE",
"m. c #58A3E2",
"M. c #838383",
"N. c #8D8D8D",
"B. c #949494",
"V. c #9C9C9C",
"C. c #99AAB5",
"Z. c #A3A3A3",
"A. c #ABABAB",
"S. c #B4B4B4",
"D. c #BDBDBD",
"F. c #BBBBBB",
"G. c #C5C5C5",
"H. c #C4C4C4",
"J. c #CACACA",
"K. c #D3D3D3",
"L. c #D0D0D0",
"P. c #D3D3D3",
"I. c #DCDCDC",
"U. c #E1E1E1",
"Y. c #E5E5E5",
"T. c #E7E7E7",
"R. c #E4E4E4",
"E. c #EAEAEA",
"W. c #EEEEEE",
"Q. c #ECECEC",
"!. c gray95",
"~. c #F6F6F6",
"^. c #F3F3F3",
"/. c #F9F9F9",
"(. c white",
"). c #FEFEFE",
"_. c gray99",
"`. c #FEFEFE",
/* pixels */
"                                                                                                                                                                                                                                                                                                                                                                                                                                                                                                                                                                                                                                                                                                                                                                                                                                                                                                                                                                                                                                                                                                                                                                                                                                                                                                                                                                                                                                                                                                                                                                                                                                                                ",
"                                                                                                                                                                                                                                                                                                                                                                                                                                                                                                                                                                                                                                                                                                                                                                                                                                                                                                                                                                                                                                                                                                                                                                                                                                                                                                                                                                                                                                                                                                                                                                                                                                                                ",
"                                                                                                                                                                                                                                                                                                                                                                                                                                                                                                                                                                                                                                                                                                                                                                                                                                                                                                                                                                                                                                                                                                                                                                                                                                                                                                                                                                                                                                                                                                                                                                                                                                                                ",
"                                                                                                                                                                                                                                                                                                                                                                                                                                                                                                                                                                                                                                                                                                                                                                                                                                                                                                                                                                                                                                                                                                                                                                                                                                                                                                                                                                                                                                                                                                                                                                                                                                                                ",
"                                                                                                                                                                                                                                                                                                                                                                                                                                                                                                                                                                                                                                                                                                                                                                                                                                                                                                                                                                                                                                                                                                                                                                                                                                                                                                                                                                                                                                                                                                                                                                                                                                                                ",
"                                                                                                                                                                                                                                                                                                                                                                                                                                                                                                                                                                                                                                                                                                                                                                                                                                                                                                                                                                                                                                                                                                                                                                                                                                                                                                                                                                                                                                                                                                                                                                                                                                                                ",
"                                                                                                                                                                                                                                                                                                                                                                                                                                                                                                                                                                                                                                                                                                                                                                                                                                                                                                                                                                                                                                                                                                                                                                                                                                                                                                                                                                                                                                                                                                                                                                                                                                                                ",
"                                                                                                                                                                                                                                                                                                                                                                                                                                                                                                                                                                                                                                                                                                                                                                                                                                                                                                                                                                                                                                                                                                                                                                                                                                                                                                                                                                                                                                                                                                                                                                                                                                                                ",
"                                                                                                                                                                                                                                                                                                                                                                                                                                                                                                                                                                                                                                                                                                                                                                                                                                                                                                                                                                                                                                                                                                                                                                                                                                                                                                                                                                                                                                                                                                                                                                                                                                                                ",
"                                                                                                                                                                                                                                                                                                                                                                                                                                                                                                                                                                                                                                                                                                                                                                                                                                                                                                                                                                                                                                                                                                                                                                                                                                                                                                                                                                                                                                                                                                                                                                                                                                                                ",
"                                                                                                                                                                                                                                                                                                                                                                                                                                                                                                                                                                                                                                                                                                                                                                                                                                                                                                                                                                                                                                                                                                                                                                                                                                                                                                                                                                                                                                                                                                                                                                                                                                                                ",
"                                                                                                                                                                                                                                                                                                                                                                                                                                                                                                                                                                                                                                                                                                                                                                                                                                                                                                                                                                                                                                                                                                                                                                                                                                                                                                                                                                                                                                                                                                                                                                                                                                                                ",
"                                                                                                                                                                                                                                                                                                                                                                                                                                                                                                                                                                                                                                                                                                                                                                                                                                                                                                                                                                                                                                                                                                                                                                                                                                                                                                                                                                                                                                                                                                                                                                                                                                                                ",
"                                                                                                                                                                                                                                                                                                                                                                                                                                                                                                                                                                                                                                                                                                                                                                                                                                                                                                                                                                                                                                                                                                                                                                                                                                                                                                                                                                                                                                                                                                                                                                                                                                                                ",
"                                                                                                                                                                                                                                                                                                                                                                                                                                                                                                                                                                                                                                                                                                                                                                                                                                                                                                                                                                                                                                                                                                                                                                                                                                                                                                                                                                                                                                                                                                                                                                                                                                                                ",
"                                                                                                                                                                                                                                                                                                                                                                                                                                                                                                                                                                                                                                                                                                                                                                                                                                                                                                                                                                                                                                                                                                                                                                                                                                                                                                                                                                                                                                                                                                                                                                                                                                                                ",
"                                                                                                                                                                                                                                                                                                                                                                                                                                                                                                                                                                                                                                                                                                                                                                                                                                                                                                                                                                                                                                                                                                                                                                                                                                                                                                                                                                                                                                                                                                                                                                                                                                                                ",
"                                                                                                                                                                                                                                                                                                                                                                                                                                                                                                                                                                                                                                                                                                                                                                                                                                                                                                                                                                                                                                                                                                                                                                                                                                                                                                                                                                                                                                                                                                                                                                                                                                                                ",
"                                                                                                                                                                                                                                                                                                                                                                                                                                                                                                                                                                                                                                                                                                                                                                                                                                                                                                                                                                                                                                                                                                                                                                                                                                                                                                                                                                                                                                                                                                                                                                                                                                                                ",
"                                                                                                                                                                                                                                                                                                                                                                                                                                                                                                                                                                                                                                                                                                                                                                                                                                                                                                                                                                                                                                                                                                                                                                                                                                                                                                                                                                                                                                                                                                                                                                                                                                                                ",
"                                                                                                                                                                                                                                                                                                                                                                                                                                                                                                                                                                                                                                                                                                                                                                                                                                                                                                                                                                                                                                                                                                                                                                                                                                                                                                                                                                                                                                                                                                                                                                                                                                                                ",
"                                                                                                                                                                                                                                                                                                                                                                                                                                                                                                                                                                                                                                                                                                                                                                                                                                                                                                                                                                                                                                                                                                                                                                                                                                                                                                                                                                                                                                                                                                                                                                                                                                                                ",
"                                                                                                                                                                                                                                                                                                                                                                                                                                                                                                                                                                                                                                                                                                                                                                                                                                                                                                                                                                                                                                                                                                                                                                                                                                                                                                                                                                                                                                                                                                                                                                                                                                                                ",
"                                                                                                                                                                                                                                                                                                                                                                                                                                                                                                                                                                                                                                                                                                                                                                                                                                                                                                                                                                                                                                                                                                                                                                                                                                                                                                                                                                                                                                                                                                                                                                                                                                                                ",
"                                                                                                                                                                                                                                                                                                                                                                                                                                                                                                                                                                                                                                                                                                                                                                                                                                                                                                                                                                                                                                                                                                                                                                                                                                                                                                                                                                                                                                                                                                                                                                                                                                                                ",
"                                                                                                                                                                                                                                                                                                                                                                                                                                                                                                                                                                                                                                                                                                                                                                                                                                                                                                                                                                                                                                                                                                                                                                                                                                                                                                                                                                                                                                                                                                                                                                                                                                                                ",
"                                                                                                                                                                                                                                                                                                                                                                                                                                                                                                                                                                                                                                                                                                                                                                                                                                                                                                                                                                                                                                                                                                                                                                                                                                                                                                                                                                                                                                                                                                                                                                                                                                                                ",
"                                                                                                                                                                                                                                                                                                                                                                                                                                                                                                                                                                                                                                                                                                                                                                                                                                                                                                                                                                                                                                                                                                                                                                                                                                                                                                                                                                                                                                                                                                                                                                                                                                                                ",
"                                                                                                                                                                                                                                                                                                                                                                                                                                                                                                                                                                                                                                                                                                                                                                                                                                                                                                                                                                                                                                                                                                                                                                                                                                                                                                                                                                                                                                                                                                                                                                                                                                                                ",
"                                                                                                                                                                                                                                                                                                                                                                                                                                                                                                                                                                                                                                                                                                                                                                                                                                                                                                                                                                                                                                                                                                                                                                                                                                                                                                                                                                                                                                                                                                                                                                                                                                                                ",
"                                                                                                                                                                                                                                                                                                                                                                                                                                                                                                                                                                                                                                                                                                                                                                                                                                                                                                                                                                                                                                                                                                                                                                                                                                                                                                                                                                                                                                                                                                                                                                                                                                                                ",
"                                                                                                                                                                                                                                                                                                                                                                                                                                                                                                                                                                                                                                                                                                                                                                                                                                                                                                                                                                                                                                                                                                                                                                                                                                                                                                                                                                                                                                                                                                                                                                                                                                                                ",
"                                                                                                                                                                                                                                                                                                                                                                                                                                                                                                                                                                                                                                                                                                                                                                                                                                                                                                                                                                                                                                                                                                                                                                                                                                                                                                                                                                                                                                                                                                                                                                                                                                                                ",
"                                                                                                                                                                                                                                                                                                                                                                                                                                                                                                                                                                                                                                                                                                                                                                                                                                                                                                                                                                                                                                                                                                                                                                                                                                                                                                                                                                                                                                                                                                                                                                                                                                                                ",
"                                                                                                                                                                                                                                                                                                                                                                                                                                                                                                                                                                                                                                                                                                                                                                                                                                                                                                                                                                                                                                                                                                                                                                                                                                                                                                                                                                                                                                                                                                                                                                                                                                                                ",
"                                                                                                                                                                                                                                                                                                                                                                                                                                                                                                                                                                                                                                                                                                                                                                                                                                                                                                                                                                                                                                                                                                                                                                                                                                                                                                                                                                                                                                                                                                                                                                                                                                                                ",
"                                                                                                                                                                                                                                                                                                                                                                                                                                                                                                                                                                                                                                                                                                                                                                                                                                                                                                                                                                                                                                                                                                                                                                                                                                                                                                                                                                                                                                                                                                                                                                                                                                                                ",
"                                                                                                                                                                                                                                                                                                                                                                                                                                                                                                                                                                                                                                                                                                                                                                                                                                                                                                                                                                                                                                                                                                                                                                                                                                                                                                                                                                                                                                                                                                                                                                                                                                                                ",
"                                                                                                                                                                                                                                                                                                                                                                                                                                                                                                                                                                                                                                                                                                                                                                                                                                                                                                                                                                                                                                                                                                                                                                                                                                                                                                                                                                                                                                                                                                                                                                                                                                                                ",
"                                                                                                                                                                                                                                                                                                                                                                                                                                                                                                                                                                                                                                                                                                                                                                                                                                                                                                                                                                                                                                                                                                                                                                                                                                                                                                                                                                                                                                                                                                                                                                                                                                                                ",
"                                                                                                                                                                                                                                                                                                                                                                                                                                                                                                                                                                                                                                                                                                                                                                                                                                                                                                                                                                                                                                                                                                                                                                                                                                                                                                                                                                                                                                                                                                                                                                                                                                                                ",
"                                                                                                                                                                                                                                                                                                                                                                                                                                                                                                                                                                                                                                                                                                                                                                                                                                                                                                                                                                                                                                                                                                                                                                                                                                                                                                                                                                                                                                                                                                                                                                                                                                                                ",
"                                                                                                                                                                                                                                                                                                                                                                                                                                                                                                                                                                                                                                                                                                                                                                                                                                                                                                                                                                                                                                                                                                                                                                                                                                                                                                                                                                                                                                                                                                                                                                                                                                                                ",
"                                                                                                                                                                                                                                                                                                                                                                                                                                                                                                                                                                                                                                                                                                                                                                                                                                                                                                                                                                                                                                                                                                                                                                                                                                                                                                                                                                                                                                                                                                                                                                                                                                                                ",
"                                                                                                                                                                                                                                                                                                                                                                                                                                                                                                                                                                                                                                                                                                                                                                                                                                                                                                                                                                                                                                                                                                                                                                                                                                                                                                                                                                                                                                                                                                                                                                                                                                                                ",
"                                                                                                                                                                                                                                                                                                                                                                                                                                                                                                                                                                                                                                                                                                                                                                                                                                                                                                                                                                                                                                                                                                                                                                                                                                                                                                                                                                                                                                                                                                                                                                                                                                                                ",
"                                                                                                                                                                                                                                                                                                                                                                                                                                                                                                                                                                                                                                                                                                                                                                                                                                                                                                                                                                                                                                                                                                                                                                                                                                                                                                                                                                                                                                                                                                                                                                                                                                                                ",
"                                                                                                                                                                                                                                                                                                                                                                                                                                                                                                                                                                                                                                                                                                                                                                                                                                                                                                                                                                                                                                                                                                                                                                                                                                                                                                                                                                                                                                                                                                                                                                                                                                                                ",
"                                                                                                                                                                                                                                                                                                                                                                                                                                                                                                                                                                                                                                                                                                                                                                                                                                                                                                                                                                                                                                                                                                                                                                                                                                                                                                                                                                                                                                                                                                                                                                                                                                                                ",
"                                                                                                                                                                                                                                                                                                                                                                                                                                                                                                                                                                                                                                                                                                                                                                                                                                                                                                                                                                                                                                                                                                                                                                                                                                                                                                                                                                                                                                                                                                                                                                                                                                                                ",
"                                                                                                                                                                                                                                                                                                                                                                                                                                                                                                                                                                                                                                                                                                                                                                                                                                                                                                                                                                                                                                                                                                                                                                                                                                                                                                                                                                                                                                                                                                                                                                                                                                                                ",
"                                                                                                                                                                                                                                                                                                                                                                                                                                                                                                                                                                                                                                                                                                                                                                                                                                                                                                                                                                                                                                                                                                                                                                                                                                                                                                                                                                                                                                                                                                                                                                                                                                                                ",
"                                                                                                                                                                                                                                                                                                                                                                                                                                                                                                                                                                                                                                                                                                                                                                                                                                                                                                                                                                                                                                                                                                                                                                                                                                                                                                                                                                                                                                                                                                                                                                                                                                                                ",
"                                                                                                                                                                                                                                                                                                                                                                                                                                                                                                                                                                                                                                                                                                                                                                                                                                                                                                                                                                                                                                                                                                                                                                                                                                                                                                                                                                                                                                                                                                                                                                                                                                                                ",
"                                                                                                                                                                                                                                                                                                                                                                                                                                                                                                                                                                                                                                                                                                                                                                                                                                                                                                                                                                                                                                                                                                                                                                                                                                                                                                                                                                                                                                                                                                                                                                                                                                                                ",
"                                                                                                                                                                                                                                                                                                                                                                                                                                                                                                                                                                                                                                                                                                                                                                                                                                                                                                                                                                                                                                                                                                                                                                                                                                                                                                                                                                                                                                                                                                                                                                                                                                                                ",
"                                                                                                                                                                                                                                                                                                                                                                                                                                                                                                                                                                                                                                                                                                                                                                                                                                                                                                                                                                                                                                                                                                                                                                                                                                                                                                                                                                                                                                                                                                                                                                                                                                                                ",
"                                                                                                                                                                                                                                                                                                                                                                                                                                                                                                                                                                                                                                                                                                                                                                                                                                                                                                                                                                                                                                                                                                                                                                                                                                                                                                                                                                                                                                                                                                                                                                                                                                                                ",
"                                                                                                                                                                                                                                                                                                                                                                                                                                                                                                                                                                                                                                                                                                                                                                                                                                                                                                                                                                                                                                                                                                                                                                                                                                                                                                                                                                                                                                                                                                                                                                                                                                                                ",
"                                                                                                                                                                                                                                                                                                                                                                                                                                                                                                                                                                                                                                                                                                                                                                                                                                                                                                                                                                                                                                                                                                                                                                                                                                                                                                                                                                                                                                                                                                                                                                                                                                                                ",
"                                                                                                                                                                                                                                                                                                                                                                                                                                                                                                                                                                                                                                                                                                                                                                                                                                                                                                                                                                                                                                                                                                                                                                                                                                                                                                                                                                                                                                                                                                                                                                                                                                                                ",
"                                                                                                                                                                                                                                                                                                                                                                                                                                                                                                                                                                                                                                                                                                                                                                                                                                                                                                                                                                                                                                                                                                                                                                                                                                                                                                                                                                                                                                                                                                                                                                                                                                                                ",
"                                                                                                                                                                                                                                                                                                                                                                                                                                                                                                                                                                                                                                                                                                                                                                                                                                                                                                                                                                                                                                                                                                                                                                                                                                                                                                                                                                                                                                                                                                                                                                                                                                                                ",
"                                                                                                                                                                                                                                                                                                                                                                                                                                                                                                                                                                                                                                                                                                                                                                                                                                                                                                                                                                                                                                                                                                                                                                                                                                                                                                                                                                                                                                                                                                                                                                                                                                                                ",
"                                                                                                                                                                                                                                                                                                                                                                                                                                                                                                                                                                                                                                                                                                                                                                                                                                                                                                                                                                                                                                                                                                                                                                                                                                                                                                                                                                                                                                                                                                                                                                                                                                                                ",
"                                                                                                                                                                                                                                                                                                                                                                                                                                                                                                                                                                                                                                                                                                                                                                                                                                                                                                                                                                                                                                                                                                                                                                                                                                                                                                                                                                                                                                                                                                                                                                                                                                                                ",
"                                                                                                                                                                                                                                                                                                                                                                                                                                                                                                                                                                                                                                                                                                                                                                                                                                                                                                                                                                                                                                                                                                                                                                                                                                                                                                                                                                                                                                                                                                                                                                                                                                                                ",
"                                                                                                                                                                                                                                                                                                                                                                                                                                                                                                                                                                                                                                                                                                                                                                                                                                                                                                                                                                                                                                                                                                                                                                                                                                                                                                                                                                                                                                                                                                                                                                                                                                                                ",
"                                                                                                                                                                                                                                                                                                                                                                                                                                                                                                                                                                                                                                                                                                                                                                                                                                                                                                                                                                                                                                                                                                                                                                                                                                                                                                                                                                                                                                                                                                                                                                                                                                                                ",
"                                                                                                                                                                                                                                                                                                                                                                                                                                                                                                                                                                                                                                                                                                                                                                                                                                                                                                                                                                                                                                                                                                                                                                                                                                                                                                                                                                                                                                                                                                                                                                                                                                                                ",
"                                                                                                                                                                                                                                                                                                                                                                                                                                                                                                                                                                                                                                                                                                                                                                                                                                                                                                                                                                                                                                                                                                                                                                                                                                                                                                                                                                                                                                                                                                                                                                                                                                                                ",
"                                                                                                                                                                                                                                                                                                                                                                                                                                                                                                                                                                                                                                                                                                                                                                                                                                                                                                                                                                                                                                                                                                                                                                                                                                                                                                                                                                                                                                                                                                                                                                                                                                                                ",
"                                                                                                                                                                                                                                                                                                                                                                                                                                                                                                                                                                                                                                                                                                                                                                                                                                                                                                                                                                                                                                                                                                                                                                                                                                                                                                                                                                                                                                                                                                                                                                                                                                                                ",
"                                                                                                                                                                                                                                                                                                                                                                                                                                                                                                                                                                                                                                                                                                                                                                                                                                                                                                                                                                                                                                                                                                                                                                                                                                                                                                                                                                                                                                                                                                                                                                                                                                                                ",
"                                                                                                                                                                                                                                                                                                                                                                                                                                                                                                                                                                                                                                                                                                                                                                                                                                                                                                                                                                                                                                                                                                                                                                                                                                                                                                                                                                                                                                                                                                                                                                                                                                                                ",
"                                                                                                                                                                                                                                                                                                                                                                                                                                                                                                                                                                                                                                                                                                                                                                                                                                                                                                                                                                                                                                                                                                                                                                                                                                                                                                                                                                                                                                                                                                                                                                                                                                                                ",
"                                                                                                                                                                                                                                                                                                                                                                                                                                                                                                                                                                                                                                                                                                                                                                                                                                                                                                                                                                                                                                                                                                                                                                                                                                                                                                                                                                                                                                                                                                                                                                                                                                                                ",
"                                                                                                                                                                                                                                                                                                                                                                                                                                                                                                                                                                                                                                                                                                                                                                                                                                                                                                                                                                                                                                                                                                                                                                                                                                                                                                                                                                                                                                                                                                                                                                                                                                                                ",
"                                                                                                                                                                                                                                                                                                                                                                                                                                                                                                                                                                                                                                                                                                                                                                                                                                                                                                                                                                                                                                                                                                                                                                                                                                                                                                                                                                                                                                                                                                                                                                                                                                                                ",
"                                                                                                                                                                                                                                                                                                                                                                                                                                                                                                                                                                                                                                                                                                                                                                                                                                                                                                                                                                                                                                                                                                                                                                                                                                                                                                                                                                                                                                                                                                                                                                                                                                                                ",
"                                                                                                                                                                                                                                                                                                                                                                                                                                                                                                                                                                                                                                                                                                                                                                                                                                                                                                                                                                                                                                                                                                                                                                                                                                                                                                                                                                                                                                                                                                                                                                                                                                                                ",
"                                                                                                                                                                                                                                                                                                                                                                                                                                                                                                                                                                                                                                                                                                                                                                                                                                                                                                                                                                                                                                                                                                                                                                                                                                                                                                                                                                                                                                                                                                                                                                                                                                                                ",
"                                                                                                                                                                                                                                                                                                                                                                                                                                                                                                                                                                                                                                                                                                                                                                                                                                                                                                                                                                                                                                                                                                                                                                                                                                                                                                                                                                                                                                                                                                                                                                                                                                                                ",
"                                                                                                                                                                                                                                                                                                                                                                                                                                                                                                                                                                                                                                                                                                                                                                                                                                                                                                                                                                                                                                                                                                                                                                                                                                                                                                                                                                                                                                                                                                                                                                                                                                                                ",
"                                                                                                                                                                                                                                                                                                                                                                                                                                                                                                                                                                                                                                                                                                                                                                                                                                                                                                                                                                                                                                                                                                                                                                                                                                                                                                                                                                                                                                                                                                                                                                                                                                                                ",
"                                                                                                                                                                                                                                                                                                                                                                                                                                                                                                                                                                                                                                                                                                                                                                                                                                                                                                                                                                                                                                                                                                                                                                                                                                                                                                                                                                                                                                                                                                                                                                                                                                                                ",
"                                                                                                                                                                                                                                                                                                                                                                                                                                                                                                                                                                                                                                                                                                                                                                                                                                                                                                                                                                                                                                                                                                                                                                                                                                                                                                                                                                                                                                                                                                                                                                                                                                                                ",
"                        , h p O                                                                                                                                                                                                                                                                                                                                                                                                                                                                                                                                                                                                                                                                                                                                                                                                                                                                                                                                                                                                                                                                                                                                                                                                                                                                                                                                                                                                                                                                                                                                                                                                                                 ",
"                    . ` O.O.O.+.p                                                                                                                                                                                                                                                                                                                                                                                                                                                                                                                                                                                                                                                                                                                                                                                                                                                                                                                                                                                                                                                                                                                                                                                                                                                                                                                                                                                                                                                                                                                                                                                                                               ",
"                    k O.O.O.O.O.+.+                                                                                                                                                                                                                                                                                                                                                                                                                                                                                                                                                                                                                                                                                                                                                                                                                                                                                                                                                                                                                                                                                                                                                                                                                                                                                                                                                                                                                                                                                                                                                                                                                             ",
"                    o.O.O.O.O.O.O.a                                                                                                                                                                                                                                                                                                                                                                                                                                                                                                                                                                                                                                                                                                                                                                                                                                                                                                                                                                                                                                                                                                                                                                                                                                                                                                                                                                                                                                                                                                                                                                                                                             ",
"                    O.O.O.O.O.O.O.l                                                                                                                                                                                                                                                                                                                                                                                                                                                                                                                                                                                                                                                                                                                                                                                                                                                                                                                                                                                                                                                                                                                                                                                                                                                                                                                                                                                                                                                                                                                                                                                                                             ",
"                    _ O.O.O.O.O.O.u                                                                                                                                                                                                                                                                                                                                                                                                                                                                                                                                                                                                                                                                                                                                                                                                                                                                                                                                                                                                                                                                                                                                                                                                                                                                                                                                                                                                                                                                                                                                                                                                                             ",
"                    , O.O.O.O.O._                                                                                                                                                                                                                                                                                                                                                                                                                                                                                                                                                                                                                                                                                                                                                                                                                                                                                                                                                                                                                                                                                                                                                                                                                                                                                                                                                                                                                                                                                                                                                                                                                               ",
"                      , *.#.@.) .                                                                                                                                                                                                                                                                                                                                                                                                                                                                                                                                                                                                                                                                                                                                                                                                                                                                                                                                                                                                                                                                                                                                                                                                                                                                                                                                                                                                                                                                                                                                                                                                                               ",
"                        u.C.C.9                                                                                                                                                                                                                                                                                                                                                                                                                                                                                                                                                                                                                                                                                                                                                                                                                                                                                                                                                                                                                                                                                                                                                                                                                                                                                                                                                                                                                                                                                                                                                                                                                                 ",
"                        u.C.C.9                                                                                                                                                                                                                                                                                                                                                                                                                                                                                                                                                                                                                                                                                                                                                                                                                                                                                                                                                                                                                                                                                                                                                                                                                                                                                                                                                                                                                                                                                                                                                                                                                                 ",
"                        u.C.C.9                                                                                                                                                                                                                                                                                                                                                                                                                                                                                                                                                                                                                                                                                                                                                                                                                                                                                                                                                                                                                                                                                                                                                                                                                                                                                                                                                                                                                                                                                                                                                                                                                                 ",
"                        u.C.C.9                                                                                                                                                                                                                                                                                                                                                                                                                                                                                                                                                                                                                                                                                                                                                                                                                                                                                                                                                                                                                                                                                                                                                                                                                                                                                                                                                                                                                                                                                                                                                                                                                                 ",
"                        u.C.C.9                                                                                                                                                                                                                                                                                                                                                                                                                                                                                                                                                                                                                                                                                                                                                                                                                                                                                                                                                                                                                                                                                                                                                                                                                                                                                                                                                                                                                                                                                                                                                                                                                                 ",
"                        H U U 0                                                                                                                                                                                                                                                                                                                                                                                                                                                                                                                                                                                                                                                                                                                                                                                                                                                                                                                                                                                                                                                                                                                                                                                                                                                                                                                                                                                                                                                                                                                                                                                                                                 ",
"                    X q e e e e 3                                                                                                                                                                                                                                                                                                                                                                                                                                                                                                                                                                                                                                                                                                                                                                                                                                                                                                                                                                                                                                                                                                                                                                                                                                                                                                                                                                                                                                                                                                                                                                                                                               ",
"                    0 e e e e e e &                                                                                                                                                                                                                                                                                                                                                                                                                                                                                                                                                                                                                                                                                                                                                                                                                                                                                                                                                                                                                                                                                                                                                                                                                                                                                                                                                                                                                                                                                                                                                                                                                             ",
"      ; j j h O   6 e e e e e e e e X                                                                                                                                                                                                                                                                                                                                                                                                                                                                                                                                                                                                                                                                                                                                                                                                                                                                                                                                                                                                                                                                                                                                                                                                                                                                                                                                                                                                                                                                                                                                                                                                                           ",
"      o.O.O.O.k % e e e e e e e e e 9                                                                                                                                                                                                                                                                                                                                                                                                                                                                                                                                                                                                                                                                                                                                                                                                                                                                                                                                                                                                                                                                                                                                                                                                                                                                                                                                                                                                                                                                                                                                                                                                                           ",
"    6 e e e e e e e e e e e e e e e e e e e e e q &                                                                                                                                                                                                                                                                                                                                                                                                                                                                                                                                                                                                                                                                                                                                                                                                                                                                                                                                                                                                                                                                                                                                                                                                                                                                                                                                                                                                                                                                                                                                                                                                             ",
"  & N S S S S S S S S S S S S S S S S S S S S S D e                                                                                                                                                                                                                                                                                                                                                                                                                                                                                                                                                                                                                                                                                                                                                                                                                                                                                                                                                                                                                                                                                                                                                                                                                                                                                                                                                                                                                                                                                                                                                                                                             ",
"  & H U U U U U U U U U U U U U U U U U U U U U U M                                                                                                                                                                                                                                                                                                                                                                                                                                                                                                                                                                                                                                                                                                                                                                                                                                                                                                                                                                                                                                                                                                                                                                                                                                                                                                                                                                                                                                                                                                                                                                                                             ",
"  & e e e e e e e e e e e e e e e e e e e e e e e e                                                                                                                                                                                                                                                                                                                                                                                                                                                                                                                                                                                                                                                                                                                                                                                                                                                                                                                                                                                                                                                                                                                                                                                                                                                                                                                                                                                                                                                                                                                                                                                                             ",
"  & e e e e e e e e e e e e e e e e e e e e e e e e                                                                                                                                                                                                                                                                                                                                                                                                                                                                                                                                                                                                                                                                                                                                                                                                                                                                                                                                                                                                                                                                                                                                                                                                                                                                                                                                                                                                                                                                                                                                                                                                             ",
"  & e e e e e e e e e e e e e e e e e e e e e e e e                                                                                                                                                                                                                                                                                                                                                                                                                                                                                                                                                                                                                                                                                                                                                                                                                                                                                                                                                                                                                                                                                                                                                                                                                                                                                                                                                                                                                                                                                                                                                                                                             ",
"  % e e e e e e e e e e e e e e e e e e e e e e e q                                                                                                                                                                                                                                                                                                                                                                                                                                                                                                                                                                                                                                                                                                                                                                                                                                                                                                                                                                                                                                                                                                                                                                                                                                                                                                                                                                                                                                                                                                                                                                                                             ",
"    & q e e e 0 6 6 6 6 6 6 6 6 6 6 6 6 e e e e 8 X                                                                                                                                                                                                                                                                                                                                                                                                                                                                                                                                                                                                                                                                                                                                                                                                                                                                                                                                                                                                                                                                                                                                                                                                                                                                                                                                                                                                                                                                                                                                                                                                             ",
"      o & & %                           X & & %                                                                                                                                                                                                                                                                                                                                                                                                                                                                                                                                                                                                                                                                                                                                                                                                                                                                                                                                                                                                                                                                                                                                                                                                                                                                                                                                                                                                                                                                                                                                                                                                                 ",
"                                                                                                                                                                                                                                                                                                                                                                                                                                                                                                                                                                                                                                                                                                                                                                                                                                                                                                                                                                                                                                                                                                                                                                                                                                                                                                                                                                                                                                                                                                                                                                                                                                                                ",
"                                                                                                                                                                                                                                                                                                                                                                                                                                                                                                                                                                                                                                                                                                                                                                                                                                                                                                                                                                                                                                                                                                                                                                                                                                                                                                                                                                                                                                                                                                                                                                                                                                                                ",
"                                                                                                                                                                                                                                                                                                                                                                                                                                                                                                                                                                                                                                                                                                                                                                                                                                                                                                                                                                                                                                                                                                                                                                                                                                                                                                                                                                                                                                                                                                                                                                                                                                                                ",
"                                                                                                                                                                                                                                                                                                                                                                                                                                                                                                                                                                                                                                                                                                                                                                                                                                                                                                                                                                                                                                                                                                                                                                                                                                                                                                                                                                                                                                                                                                                                                                                                                                                                ",
"                                                                                                                                                                                                                                                                                                                                                                                                                                                                                                                                                                                                                                                                                                                                                                                                                                                                                                                                                                                                                                                                                                                                                                                                                                                                                                                                                                                                                                                                                                                                                                                                                                                                ",
"                                                                                                                                                                                                                                                                                                                                                                                                                                                                                                                                                                                                                                                                                                                                                                                                                                                                                                                                                                                                                                                                                                                                                                                                                                                                                                                                                                                                                                                                                                                                                                                                                                                                ",
"                                                                                                                                                                                                                                                                                                                                                                                                                                                                                                                                                                                                                                                                                                                                                                                                                                                                                                                                                                                                                                                                                                                                                                                                                                                                                                                                                                                                                                                                                                                                                                                                                                                                ",
"                                                                                                                                                                                                                                                                                                                                                                                                                                                                                                                                                                                                                                                                                                                                                                                                                                                                                                                                                                                                                                                                                                                                                                                                                                                                                                                                                                                                                                                                                                                                                                                                                                                                ",
"                                                                                                                                                                                                                                                                                                                                                                                                                                                                                                                                                                                                                                                                                                                                                                                                                                                                                                                                                                                                                                                                                                                                                                                                                                                                                                                                                                                                                                                                                                                                                                                                                                                                ",
"                                                                                                                                                                                                                                                                                                                                                                                                                                                                                                                                                                                                                                                                                                                                                                                                                                                                                                                                                                                                                                                                                                                                                                                                                                                                                                                                                                                                                                                                                                                                                                                                                                                                ",
"                                                                                                                                                                                                                                                                                                                                                                                                                                                                                                                                                                                                                                                                                                                                                                                                                                                                                                                                                                                                                                                                                                                                                                                                                                                                                                                                                                                                                                                                                                                                                                                                                                                                ",
"                                                                                                                                                                                                                                                                                                                                                                                                                                                                                                                                                                                                                                                                                                                                                                                                                                                                                                                                                                                                                                                                                                                                                                                                                                                                                                                                                                                                                                                                                                                                                                                                                                                                ",
"                                                                                                                                                                                                                                                                                                                                                                                                                                                                                                                                                                                                                                                                                                                                                                                                                                                                                                                                                                                                                                                                                                                                                                                                                                                                                                                                                                                                                                                                                                                                                                                                                                                                ",
"                                                                                                                                                                                                                                                                                                                                                                                                                                                                                                                                                                                                                                                                                                                                                                                                                                                                                                                                                                                                                                                                                                                                                                                                                                                                                                                                                                                                                                                                                                                                                                                                                                                                ",
"                                                                                                                                                                                                                                                                                                                                                                                                                                                                                                                                                                                                                                                                                                                                                                                                                                                                                                                                                                                                                                                                                                                                                                                                                                                                                                                                                                                                                                                                                                                                                                                                                                                                ",
"            & T F.U.(.(.P.T %                                                                                                                                             Z.J.5                                                                                                                                                                                                                                                                                                                                                                                                                                                                                                                                                                                                                                                                                                                                                                                                                                                                                                                                                                                                                                                                                                                                                                                                                                                                                                                                                                                                                                                                                 ",
"          B.(.(.(.(.(.(.(.(.~.T                                                                                                                                           P.(.w                                                                                                                                                                                                                                                                                                                                                                                                                                                                                                                                                                                                                                                                                                                                                                                                                                                                                                                                                                                                                                                                                                                                                                                                                                                                                                                                                                                                                                                                                 ",
"        Z.(.(.I.T w   X F Z.(.(.A.                                                                                                                                        P.(.w                                                                                                                                                                                                                                                                                                                                                                                                                                                                                                                                                                                                                                                                                                                                                                                                                                                                                                                                                                                                                                                                                                                                                                                                                                                                                                                                                                                                                                                                                 ",
"      M.(.(.M.              7 P.(.Z.                                                                                                                                      P.(.w                                                                                                                                                                                                                                                                                                                                                                                                                                                                                                                                                                                                                                                                                                                                                                                                                                                                                                                                                                                                                                                                                                                                                                                                                                                                                                                                                                                                                                                                                 ",
"    Z (.~.r                   5 E.(.I                                                                                                                                     P.(.w                                                                                                                                                                                                                                                                                                                                                                                                                                                                                                                                                                                                                                                                                                                                                                                                                                                                                                                                                                                                                                                                                                                                                                                                                                                                                                                                                                                                                                                                                 ",
"    J.(.I                       F (.E.X                                                                                                                                   P.(.w                                                                                                                                                                                                                                                                                                                                                                                                                                                                                                                                                                                                                                                                                                                                                                                                                                                                                                                                                                                                                                                                                                                                                                                                                                                                                                                                                                                                                                                                                 ",
"  Z (.P.                                          w N.N.N.r               r F %   r M.N.Z       % P N.Y X                 & M.N.N.P                                       J.(.w             w N.N.N.r                     A N.N.M.&                       P N.N.T X                       X Z 7                                                                                                                                                                                                                                                                                                                                                                                                                                                                                                                                                                                                                                                                                                                                                                                                                                                                                                                                                                                                                                                                                                                                                                                                                                                                                                                                                                 ",
"  B.(.T                                       & F.(.(.(.(.(.J.w           F.(.A A.(.(.(.(.B.  F E.(.(.(.I.w             V.(.(.(.(.(.U.G                                   J.(.w         & F.(.(.(.(.(.J.w             7 P.(.(.(.(.~.N.w (.P.          A U.(.(.(.(.E.I G (.A.      M.(.N.T ~.(.J.                                                                                                                                                                                                                                                                                                                                                                                                                                                                                                                                                                                                                                                                                                                                                                                                                                                                                                                                                                                                                                                                                                                                                                                                                                                                                                                                                                ",
"  S.(.A                                     & I.(.E.S.B.S.U.(.E.7         F.(.J.(.J.N.V.~.(.N.~.~.V.N.P.(.I.          S.(.(.F.V.Z.P.(.(.F                                 P.(.w       & I.(.E.S.B.S.U.(.E.7         % U.(.~.S.B.S.E.(.A.(.P.        w ~.(.E.S.B.S.~.(.A.(.A.      M.(.S.(.U.I.J.                                                                                                                                                                                                                                                                                                                                                                                                                                                                                                                                                                                                                                                                                                                                                                                                                                                                                                                                                                                                                                                                                                                                                                                                                                                                                                                                                                ",
"  G.(.r                                     G.(.G.5       % S.(.P.        F.(.(.V.      G (.(.U.w     X P.(.G       M.(.U.Z         M.(.~.7                               P.(.w       G.(.G.5       % S.(.P.        S.(.P.7       % F.(.(.P.        P.(.F.%       7 P.(.(.A.      M.(.(.J.%   r                                                                                                                                                                                                                                                                                                                                                                                                                                                                                                                                                                                                                                                                                                                                                                                                                                                                                                                                                                                                                                                                                                                                                                                                                                                                                                                                                                 ",
"  F.(.A                                   F (.E.%             I.(.Y       F.(.U.          E.(.G         M.(.N.    & ~.(.Z             Z.(.A.                              P.(.w     F (.E.%             I.(.Y     r (.(.7           X U.(.P.      P (.U.X           7 (.(.A.      M.(.(.5                                                                                                                                                                                                                                                                                                                                                                                                                                                                                                                                                                                                                                                                                                                                                                                                                                                                                                                                                                                                                                                                                                                                                                                                                                                                                                                                                                       ",
"  A.(.I                                   Z.(.M.              P (.F.      F.(.B.          P.(.7         P (.Z.    P (.F.              & (.~.                              P.(.w     Z.(.M.              P (.F.    M.(.Z.              T (.P.      A.(.T               V.(.A.      M.(.F.                                                                                                                                                                                                                                                                                                                                                                                                                                                                                                                                                                                                                                                                                                                                                                                                                                                                                                                                                                                                                                                                                                                                                                                                                                                                                                                                                                        ",
"  Y (.A.                                  G.(.F               7 (.I.      F.(.G           P.(.w         P (.A.    N.(.B.                U.(.5                             P.(.w     G.(.F               7 (.I.    V.(.T               A (.P.      G.(.F               Y (.A.      M.(.B.                                                                                                                                                                                                                                                                                                                                                                                                                                                                                                                                                                                                                                                                                                                                                                                                                                                                                                                                                                                                                                                                                                                                                                                                                                                                                                                                                                        ",
"  5 (.(.5                       5 G.G.&   G.(.F               7 (.U.      F.(.A           P.(.w         P (.A.    M.(.B.                U.(.5                             P.(.w     G.(.F               7 (.U.    V.(.T               A (.P.      G.(.F               Y (.A.      M.(.N.                                                                                                                                                                                                                                                                                                                                                                                                                                                                                                                                                                                                                                                                                                                                                                                                                                                                                                                                                                                                                                                                                                                                                                                                                                                                                                                                                                        ",
"    V.(.J.X                     G.(.A.    Z.(.M.              P (.F.      F.(.A           P.(.w         P (.A.    P (.F.              & (.~.                              P.(.7     Z.(.M.              P (.F.    T (.A.              T (.P.      Z.(.T               Z.(.A.      M.(.N.                                                                                                                                                                                                                                                                                                                                                                                                                                                                                                                                                                                                                                                                                                                                                                                                                                                                                                                                                                                                                                                                                                                                                                                                                                                                                                                                                                        ",
"    % I.(.P.&               X A.(.E.&     F (.~.7           & U.(.Y       F.(.A           P.(.w         P (.A.    & (.(.P             F.(.A.                            X ~.(.X     F (.~.7           & U.(.Y     w (.(.Z           5 ~.(.P.      P (.E.5           Z (.(.A.      M.(.N.                                                                                                                                                                                                                                                                                                                                                                                                                                                                                                                                                                                                                                                                                                                                                                                                                                                                                                                                                                                                                                                                                                                                                                                                                                                                                                                                                                        ",
"      7 U.(.E.I X       X Y I.(.~.Z         F.(.E.F       Z I.(.J.        F.(.A           P.(.w         P (.A.      T (.(.T       & F.(.E.7                 % r         Z.(.G.        F.(.E.F       Z I.(.J.        A.(.~.P       Z U.(.(.P.        P.(.U.Z       G E.(.(.A.      M.(.N.                                                                                                                                                                                                                                                                                                                                                                                                                                                                                                                                                                                                                                                                                                                                                                                                                                                                                                                                                                                                                                                                                                                                                                                                                                                                                                                                                                        ",
"        5 P.(.(.~.J.J.U.(.(.(.E.r           X V.(.(.P.J.P.(.(.S.%         F.(.A           P.(.w         P (.A.        I ~.(.U.J.J.(.(.P.7                   7 (.U.J.J.E.(.(.Z         X V.(.(.P.J.P.(.(.S.%         X A.(.(.E.J.E.(.~.M.(.P.        % G.(.(.E.P.E.(.U.N.(.A.      M.(.N.                                                                                                                                                                                                                                                                                                                                                                                                                                                                                                                                                                                                                                                                                                                                                                                                                                                                                                                                                                                                                                                                                                                                                                                                                                                                                                                                                                        ",
"            N.E.(.(.(.(.(.E.B.%                 G P.(.(.(.I.Y             F.(.A           P.(.w         P (.A.          w G.(.(.(.E.V.X                     % I.(.(.(.(.A.7               G P.(.(.(.I.Y                 Y U.(.(.(.G.7 w (.P.            B.E.(.(.~.S.& G (.A.      M.(.N.                                                                                                                                                                                                                                                                                                                                                                                                                                                                                                                                                                                                                                                                                                                                                                                                                                                                                                                                                                                                                                                                                                                                                                                                                                                                                                                                                                        ",
"                Z F F F w                           % Z %                                                                   X Z 7                               r F w X                       % Z %                         & Z X     r (.P.                7 r                                                                                                                                                                                                                                                                                                                                                                                                                                                                                                                                                                                                                                                                                                                                                                                                                                                                                                                                                                                                                                                                                                                                                                                                                                                                                                                                                                                                 ",
"                                                                                                                                                                                                                  r F &               P (.F.                                                                                                                                                                                                                                                                                                                                                                                                                                                                                                                                                                                                                                                                                                                                                                                                                                                                                                                                                                                                                                                                                                                                                                                                                                                                                                                                                                                                                    ",
"                                                                                                                                                                                                                  M.(.Z.              A.(.M.                                                                                                                                                                                                                                                                                                                                                                                                                                                                                                                                                                                                                                                                                                                                                                                                                                                                                                                                                                                                                                                                                                                                                                                                                                                                                                                                                                                                                    ",
"                                                                                                                                                                                                                  5 ~.(.F           F (.~.&                                                                                                                                                                                                                                                                                                                                                                                                                                                                                                                                                                                                                                                                                                                                                                                                                                                                                                                                                                                                                                                                                                                                                                                                                                                                                                                                                                                                                     ",
"                                                                                                                                                                                                                    P (.(.N.w X w N.(.(.P                                                                                                                                                                                                                                                                                                                                                                                                                                                                                                                                                                                                                                                                                                                                                                                                                                                                                                                                                                                                                                                                                                                                                                                                                                                                                                                                                                                                                       ",
"                                                                                                                                                                                                                      P ~.(.(.(.(.(.~.P                                                                                                                                                                                                                                                                                                                                                                                                                                                                                                                                                                                                                                                                                                                                                                                                                                                                                                                                                                                                                                                                                                                                                                                                                                                                                                                                                                                                                         ",
"                                                                                                                                                                                                                        7 Z.P.~.P.V.7                                                                                                                                                                                                                                                                                                                                                                                                                                                                                                                                                                                                                                                                                                                                                                                                                                                                                                                                                                                                                                                                                                                                                                                                                                                                                                                                                                                                                           ",
"                                                                                                                                                                                                                                                                                                                                                                                                                                                                                                                                                                                                                                                                                                                                                                                                                                                                                                                                                                                                                                                                                                                                                                                                                                                                                                                                                                                                                                                                                                                                                                                                                                                                ",
"                                                                                                                                                                                                                                                                                                                                                                                                                                                                                                                                                                                                                                                                                                                                                                                                                                                                                                                                                                                                                                                                                                                                                                                                                                                                                                                                                                                                                                                                                                                                                                                                                                                                ",
"                                                                                                                                                                                                                                                                                                                                                                                                                                                                                                                                                                                                                                                                                                                                                                                                                                                                                                                                                                                                                                                                                                                                                                                                                                                                                                                                                                                                                                                                                                                                                                                                                                                                ",
"                                                                                                                                                                                                                                                                                                                                                                                                                                                                                                                                                                                                                                                                                                                                                                                                                                                                                                                                                                                                                                                                                                                                                                                                                                                                                                                                                                                                                                                                                                                                                                                                                                                                ",
"                                                                                                                                                                                                                                                                                                                                                                                                                                                                                                                                                                                                                                                                                                                                                                                                                                                                                                                                                                                                                                                                                                                                                                                                                                                                                                                                                                                                                                                                                                                                                                                                                                                                ",
"                                                                                                                                                                                                                                                                                                                                                                                                                                                                                                                                                                                                                                                                                                                                                                                                                                                                                                                                                                                                                                                                                                                                                                                                                                                                                                                                                                                                                                                                                                                                                                                                                                                                ",
"                                                                                                                                                                                                                                                                                                                                                                                                                                                                                                                                                                                                                                                                                                                                                                                                                                                                                                                                                                                                                                                                                                                                                                                                                                                                                                                                                                                                                                                                                                                                                                                                                                                                ",
"                                                                                                                                                                                                                                                                                                                                                                                                                                                                                                                                                                                                                                                                                                                                                                                                                                                                                                                                                                                                                                                                                                                                                                                                                                                                                                                                                                                                                                                                                                                                                                                                                                                                ",
"                                                                                                                                                                                                                                                                                                                                                                                                                                                                                                                                                                                                                                                                                                                                                                                                                                                                                                                                                                                                                                                                                                                                                                                                                                                                                                                                                                                                                                                                                                                                                                                                                                                                ",
"                                                                                                                                                                                                                                                                                                                                                                                                                                  7 A.M.                                                                                                                                                                                                                                                                                                                                                                                                                                                                              X J.S.                                                            F.G.                                                                                                                                                                                                                                                                                                                                                                                                                                                                                                                                                                                                                                                                    ",
"        G                       F X                                                                                                                                                                                                                                                                                                                                                                                               r (.G.                                                                                            Z                                                                 Y X                                                                                                                                                                                                                                                                                                             % (.U.                                                            ~.(.                                                                                                                                                                                                                                                                                                                                                                                                                                                                                                                                                                                                                                                                    ",
"        S.A                     A.F                                                                                                                                                                                                                                                                                                                                                                                               r (.G.                                                                        N.J.A               F.F               V.J.w                                           U.I                                                   Z S.~.(.~.I.F.P                                       w J.J.J.J.J.S.B.F X                                                                                                                                                                                 % (.U.                                                            ~.(.                                                                                                                                                                                                                                                                                                                                                                                                                                                                                                                                                                                                                                                                    ",
"        E.A.                  % (.N.                                                                                                                                                                                                                                                                                                                                                                                              r (.G.                                                                        M.(.B.            & (.S.              ~.(.X                                         F (.J.                                                Z.(.(.U.J.I.(.(.(.P.&                                   r (.(.(.(.(.(.(.(.~.V.&                                                                                                                                                                             % (.U.                                                            ~.(.                                                                                                                                                                                                                                                                                                                                                                                                                                                                                                                                                                                                                                                                    ",
"      7 (.~.%                 Y (.F.                                                                                                                                                                                                                                                                                                                    7 J.V.                                                                    r (.G.                                                                        A (.G.            M.(.(.&           w (.P.                                          F.(.(.r                                             N.(.E.P         r G.(.G.                                  r (.P.F F F I B.G.(.(.I.7                                                                                                                                                                           % (.U.                                                            ~.(.                                                                                                                                                                                                                                                                                                                                                                                                                                                                                                                                                                                                                                                                    ",
"      P (.(.Y                 P.(.E.                                                                                                                                                                                                                                                                                                                    r (.J.                                                                    r (.G.                                                                        X (.~.            I.(.(.T           I (.Z.                                        5 (.E.(.Z.                                          X ~.(.5             X U.(.Z                                 r (.G.            r P.(.E.7                                                                                                                                                                         % (.U.                                                            ~.(.                                                                                                                                                                                                                                                                                                                                                                                                                                                                                                                                                                                                                                                                    ",
"      V.(.(.J.              w (.(.(.7                                                                                                                                                                                                                                                                                                                   r (.J.                                                                    r (.G.                                                                          P.(.w         Z (.J.(.P.          V.(.I                                         B.(.I U.~.%                                         r (.P.                                                      r (.G.                A.(.P.                                                                                                                                                                        % (.U.                                                            ~.(.                                                                                                                                                                                                                                                                                                                                                                                                                                                                                                                                                                                                                                                                    ",
"      J.(.(.(.w             V.(.(.(.I                                                                                                               5 N.F                                                                                                                                                                                               r (.J.                                                                    r (.G.                                                                          Z.(.I         Z.(.P G.(.w         P.(.w                                       X E.~.X N.(.T                                         r (.E.                                                      r (.G.                X I.(.P                                                                                                                                                                       % (.U.                                                            ~.(.                                                                                                                                                                                                                                                                                                                                                                                                                                                                                                                                                                                                                                                                    ",
"    X ~.~.V.(.B.          X E.(.B.(.V.              X Y N.N.T %                                           X Y N.N.Y X                     X Z 7     J.(.(.7                                                     r Y M.F X                 P N.N.T X                                     P N.N.T X                   r Y M.F X                           r (.J.                & M.N.N.G                       Z A w X             r (.G.            % T N.N.P                     F M.T A                         I (.V.      X ~.~.X I (.V.      X (.~.                                        P (.Z.  5 (.U.                                          ~.(.T                                                     r (.G.                  F (.G.                              7 N.N.N.w                   % Y N.N.P                         X Z 7           P N.N.T X                                     Z N.N.M.5   % (.U.              F N.N.M.5                 7 I M.P &           ~.(.              w N.N.N.r                       Z A w X                   5 M.N.N.r                         % A %           F N.N.M.5                 r Y M.F X                               Z N.N.M.5                                         & A Z X                 5 M.N.N.r                                               F N.N.M.5                                                                                                                                                                                                                                                                                                                             ",
"    Z (.J.w (.E.          P (.G.Z (.P.            Y E.(.(.(.(.~.M.        J.(.P           5 (.~.X       Y E.(.(.(.(.~.M.          M.(.N.T ~.(.P.    P.(.(.7                     r (.G.            P.(.7     & F.(.(.(.(.~.P           A U.(.(.(.(.E.I G (.A.                        A U.(.(.(.(.E.I G (.A.      & F.(.(.(.(.~.P                   Z (.(.(.(.(.(.(.J.        V.(.(.(.(.(.I.G               Y I.(.(.(.(.B.%         r (.G.          Y ~.(.(.(.(.I.Z V.(.Y       Z I.(.(.(.(.U.w                     w (.J.      I (.V.  X ~.E.      Z (.G.                                        G.(.r     F.(.A                                         M.(.(.Z.w                                                 r (.G.                    U.(.%                     ~.(.X A.(.(.(.(.(.S.%             Y ~.(.(.(.(.I.Z V.(.Y       M.(.N.T ~.(.P.      A U.(.(.(.(.E.I G (.A.                        5 F.(.(.(.(.(.V.% (.U.          A I.(.(.(.(.(.Z.%           V.(.(.(.(.(.V.        ~.(.          & F.(.(.(.(.(.J.w               Y I.(.(.(.(.B.%             V.(.(.(.(.(.F.& P.(.7       F.(.A A.(.(.B.      A I.(.(.(.(.(.Z.%         & F.(.(.(.(.~.P                         5 F.(.(.(.(.(.V.% (.U.                      M.(.N.G I.(.(.(.U.A             V.(.(.(.(.(.F.& P.(.7   F (.I.            A.(.M.      A I.(.(.(.(.(.Z.%                                                                                                                                                                                                                                                                                                                         ",
"    T (.V.  J.(.G         F.(.P X (.(.X         Y (.(.J.Z.V.G.(.(.N.      P (.F.          N.(.V.      Y (.(.U.A.V.P.(.(.S.        M.(.S.(.U.I.P.    r S.I                       r (.G.            P.(.7     F.(.P.F F B.(.(.7       w ~.(.E.S.B.S.~.(.A.(.A.                      w ~.(.E.S.B.S.~.(.A.(.A.      F.(.P.F F B.(.(.7                 w J.J.P.(.~.J.J.V.      S.(.(.P.V.A.U.(.(.Y           S.(.(.U.J.E.(.(.I.%       r (.G.        P (.(.I.A.V.G.(.~.F.(.Y     % E.(.A.F F S.(.U.                      ~.(.      J.(.r     Z.(.P     T (.B.                                      w (.P.      P (.S.                                          T E.(.(.U.Z.Z                                           r (.G.                    A.(.Z                     ~.(.S.(.I.A.B.F.(.(.G.          P (.(.I.A.V.G.(.~.F.(.Y       M.(.S.(.U.I.P.    w ~.(.E.S.B.S.~.(.A.(.A.                      X P.(.~.F.B.A.U.(.A.(.U.        Z ~.(.E.F.V.G.(.(.I.&       M.(.E.P F I E.(.I       ~.(.        & I.(.E.S.B.S.U.(.E.7           S.(.(.U.J.E.(.(.I.%         Z.(.(.G.V.Z.P.(.P.I.(.7       F.(.S.(.P.U.B.    Z ~.(.E.F.V.G.(.(.I.&       F.(.P.F F B.(.(.7                     X P.(.~.F.B.A.U.(.A.(.U.                      M.(.S.(.(.V.B.J.(.~.&         Z.(.(.G.V.Z.P.(.P.I.(.7     U.(.Z         % ~.(.&     Z ~.(.E.F.V.G.(.(.I.&                                                                                                                                                                                                                                                                                                                       ",
"    S.(.P   I (.F.      5 (.E.X   J.(.Z       Z (./.I         F E.(.G     X E.(.5         E.(.7     Z (.(.I         I (.(.T       M.(.(.J.%   r                                 r (.G.            P.(.7   & (.~.%       A.(.M.      P.(.F.%       7 P.(.(.A.                      P.(.F.%       7 P.(.(.A.    & (.~.%       A.(.M.                      r (.J.          M.(.E.Z       X B.(.(.Z       N.(.~.I       w S.(.G.      r (.G.      7 ~.(.N.        A E.(.(.Y     G (.J.        U.(.Z                     G.(.Z   7 (.P.      Z (.F.    A.(.G                                       V.(.T         E.(.&                                           & M.U.(.(.(.I.V.w                                     r (.G.                    V.(.G                     ~.(.(.V.        Z U.(.N.      7 ~.(.N.        A E.(.(.Y       M.(.(.J.%   r     P.(.F.%       7 P.(.(.A.                      V.(.I.w       X A.(.(.U.      % U.(.Z.        r U.(.F.      P.(.F       Y (.F.      ~.(.        G.(.G.5       % S.(.P.        N.(.~.I       w S.(.G.      P (.~.G         T (.(.(.7       F.(.(.Z.    r   % U.(.Z.        r U.(.F.    & (.~.%       A.(.M.                    V.(.I.w       X A.(.(.U.                      M.(.(.U.7       F.(.B.      P (.~.G         T (.(.(.7     T (.Z.        Y (.A.    % U.(.Z.        r U.(.F.                                                                                                                                                                                                                                                                                                                      ",
"    U.(.&   X ~.(.&     N.(.B.    V.(.T       J.(.M.            P (.U.      N.(.N.      F (.F.      J.(.B.            T (.~.X     M.(.(.5                                       r (.G.            P.(.7   5 (.(.7                 P (.U.X           7 (.(.A.                    P (.U.X           7 (.(.A.    5 (.(.7                                   r (.J.        & ~.(.G             S.(.F.    & (.(.Y             I.(.F     r (.G.      Z.(.S.            P (.(.Y     I (.I.                                  B.(.Y   B.(.T         I.(.&   I.(.&                                     X ~.(.%         B.(.N.                                                A V.U.(.(.(.F.%                                 r (.G.                    Z.(.F                     ~.(.J.            F (.~.%     Z.(.S.            P (.(.Y       M.(.(.5         P (.U.X           7 (.(.A.                    5 (.(.r             P.(.U.      B.(.J.            r (.(.Z     U.(.P                   ~.(.      F (.E.%             I.(.Y     & (.(.Y             I.(.F     I.(.T             V.(.(.7       F.(.I.          B.(.J.            r (.(.Z   5 (.(.7                               5 (.(.r             P.(.U.                      M.(.(.A         A (.F.      I.(.T             V.(.(.7     % ~.~.X       J.(.Z     B.(.J.            r (.(.Z                                                                                                                                                                                                                                                                                                                     ",
"  & (.U.      Z.(.M.    U.(.7     P (.S.    5 (.~.                I.(.r     5 (.U.      S.(.G     5 (.~.%               U.(.Z     M.(.F.                                        r (.G.            P.(.7     P.(.~.M.%             A.(.T               V.(.A.                    A.(.T               V.(.A.      P.(.~.M.%                               r (.J.        P (.J.              7 (.~.    P (.P.              7 F w     r (.G.      U.(.r               I.(.Y     & ~.(.U.P X                             G (.A.  E.(.&         M.(.M.% (.U.                                      Y (.A.          w (.U.                                                      F F.(.(.S.                                r (.G.                    J.(.w                     ~.(.A               J.(.F     U.(.r               I.(.Y       M.(.F.          A.(.T               V.(.A.                    Y (.S.              P (.U.      I.(.F               A.(.M.    B.(.(.Z.7               ~.(.      Z.(.M.              P (.F.    P (.P.              7 F w   7 (.E.              & (.(.7       F.(.M.          I.(.F               A.(.M.    P.(.~.M.%                           Y (.S.              P (.U.                      M.(.P.          & (.I.    7 (.E.              & (.(.7       Z.(.I     w (.P.      I.(.F               A.(.M.                                                                                                                                                                                                                                                                                                                    ",
"  G (.S.      r (.I.  A (.J.      & (.U.    A (.J.                A.(.I       S.(.F   % (.U.      A (.(.(.(.(.(.(.(.(.(.(.(.I     T (.B.                                        r (.G.            I.(.7     % J.(.(.(.J.M.7       G.(.F               Y (.A.                    G.(.F               Y (.A.      % J.(.(.(.J.M.7                         r (.J.        N.(.(.(.(.(.(.(.(.(.(.(.(.7   N.(.V.                        r (.G.      (.(.                A.(.Y       r E.(.(.~.F.Y %                       % (.I.G (.F.          & (.I.F (.S.                                      P.(.I.J.J.J.J.J.J.(.(.G                                                         I (.(.7                               r (.G.                  % (.E.                      ~.(.%               V.(.Y     (.(.                A.(.Y       M.(.B.          G.(.F               Y (.A.                    N.(.N.              7 (.U.      (.(.(.(.(.(.(.(.(.(.(.(.A.      V.(.(.(.P.B.Z         ~.(.      G.(.F               7 (.I.    N.(.V.                      A (.J.                U.(.7       F.(.G           (.(.(.(.(.(.(.(.(.(.(.(.A.    % J.(.(.(.J.M.7                     N.(.N.              7 (.U.                      M.(.A.          & (.U.    A (.J.                U.(.7       w (.J.    V.(.I       (.(.(.(.(.(.(.(.(.(.(.(.A.                                                                                                                                                                                                                                                                                                                    ",
"  B.(.M.        J.(.Z A.(.I         U.(.&   Z (.J.                A.(.I       A (.S.  T (.M.      Z (.~.J.J.J.J.J.J.J.J.J.J.G     M.(.N.                                        r (.G.            ~.(.7         A B.P.(.(.(.A     G.(.F               Y (.A.                    G.(.F               Y (.A.          A B.P.(.(.(.A                       r (.J.        M.(.U.J.J.J.J.J.J.J.J.J.J.7   M.(.V.                        r (.G.      (.(.                A.(.Y         % G V.U.(.(.U.&                       I.(.F.(.G             F.(.F.(.T                                     Z (.(.(.(.(.(.(.(.(.(.(.F.                                                          J.(.G                               r (.G.                  B.(.V.                      ~.(.%               V.(.T     (.(.                A.(.Y       M.(.N.          G.(.F               Y (.A.                    N.(.N.              7 (.U.      (.(.J.J.J.J.J.J.J.J.J.J.N.        r M.G.(.(.(.M.      ~.(.      G.(.F               7 (.U.    M.(.V.                      A (.J.                U.(.7       F.(.A           (.(.J.J.J.J.J.J.J.J.J.J.N.        A B.P.(.(.(.A                   N.(.N.              7 (.U.                      M.(.B.          & (.U.    A (.J.                U.(.7         G.(.7   E.E.X       (.(.J.J.J.J.J.J.J.J.J.J.N.                                                                                                                                                                                                                                                                                                                    ",
"  G.(.A         Y (.S.(.~.X         S.(.G   & (.~.X               I.(.Z         I.(.% I.(.%       & (.~.X                         M.(.N.                                        r (.J.          w (.(.7               5 F.(.I.    Z.(.T               Z.(.A.                    Z.(.T               Z.(.A.                5 F.(.I.                      r (.J.        P (.G.                        P (.G.                        r (.G.      I.(.r               I.(.Y                 Z U.(.Z.                      A.(.(.E.              P (.(.(.A                                     A.(.T               X E.(.7                                 r F w                   F.(.G                               r (.G.                P (.E.&                       ~.(.F               J.(.F     I.(.r               I.(.Y       M.(.N.          Z.(.T               Z.(.A.                    I (.S.              P (.U.      I.(.A                                   % N.(.(.5     ~.(.      Z.(.M.              P (.F.    P (.G.                      5 (.E.              & (.(.7       F.(.A           I.(.A                                   5 F.(.I.                  I (.S.              P (.U.                      M.(.N.          & (.U.    5 (.E.              & (.(.7         G (.B.G (.B.        I.(.A                                                                                                                                                                                                                                                                                                                                         ",
"  ~.(.X         % ~.(.(.V.          M.(.B.    J.(.V.            T (.U.          Y (.Z.(.Z.          J.(.V.            G N.I       M.(.N.                                        % (.E.          B.(.(.7   Z N.P         % (.(.&   P (.E.5           Z (.(.A.                    P (.E.5           Z (.(.A.    Z N.P         % (.(.&                     r (.J.        & (.(.F             T N.A     & (.(.P           & E.(.F     r (.G.      V.(.J.            T (.(.Y     P N.r         F (.I.                      T (.(.V.              X ~.(.(.X           7 F F X                 % (.(.%                 B.(.B.        Z F Z                   T (.I.                & ~.(.5       F F w                   r (.G.              Y (.(.F                         ~.(.P.X           P (.~.%     Z.(.J.            T (.(.Y       M.(.N.          P (.E.5           Z (.(.A.                    5 (.(.F           % U.(.U.      B.(.J.X           r N.M.    & N.M.          J.(.P     ~.(.      F (.~.7           & U.(.Y     & (.(.P           & E.(.F     I.(.B.            F.(.(.7       F.(.A           B.(.J.X           r N.M.    Z N.P         % (.(.&                 5 (.(.F           % U.(.U.                      M.(.N.          & (.U.      I.(.B.            F.(.(.7           U.E.F.(.7         B.(.J.X           r N.M.                                                                                                                                                                                                                                                                                                                      ",
"r (.P.            Z.(.(.w           A (.G.    A (.(.Z.X     X B.(.(.F           X ~.(.(.r           Z ~.(.A.5     5 B.(.(.Z       M.(.N.            A J.N.                        U.(.Y       Y (.(.(.7   Z (.E.%       w (.(.X     P.(.U.Z       G E.(.(.A.                      P.(.U.Z       G E.(.(.A.    Z (.E.%       w (.(.X                     r (.J.          T (.(.N.X     r F.(.E.%       N.(.(.Y       7 P.(.F.      r (.G.      7 ~.(.G.5       N.(.(.(.Y     M.(.G.        T (.G.                      Z (.(.w                 V.(.P.            F.(.P.                  M.(.A.                  7 (.E.X       E.(.B.                  & ~.(.B.            Z I.(.F.      r (.(.G                   r (.G.        5 T P.(.E.F                           ~.(.(.J.7       T (.(.T       7 ~.(.G.5       N.(.(.(.Y       M.(.N.            P.(.U.Z       G E.(.(.A.                      B.(.~.I       w P.(.(.U.      & U.(.J.Z     % Y E.(.M.      ~.(.Z       X E.(.A     ~.(.        F.(.E.F       Z I.(.J.        N.(.(.Y       7 P.(.F.      G (.(.V.X     % S.(.(.(.7       F.(.A           & U.(.J.Z     % Y E.(.M.    Z (.E.%       w (.(.X                   B.(.~.I       w I.(.(.U.                      M.(.N.          & (.U.      G (.(.V.X     % S.(.(.(.7           M.(.(.F.          & U.(.J.Z     % Y E.(.M.        T J.G                                                                                                                                                                                                                                                                                                         ",
"Y (.Z.            r (.J.            X (.~.      Z U.(.~.J.J.~.(.~.F               V.(.J.              Z E.(.(.I.I.(.(.(.P         M.(.N.            I.(.(.r                       I (.(.U.J.U.(.J.I.(.7     F.(.I.N.G N.U.(.N.      % G.(.(.E.P.E.(.U.N.(.A.                      % G.(.(.E.P.E.(.U.N.(.A.      G.(.I.N.G N.U.(.N.                      r (.J.            I (.(.(.P.E.(.(.E.r           S.(.(.~.J.J.(.(.P.&       r (.G.        r U.(.(.U.P.~.(.G.A.(.Y     5 U.(.G.T P V.~.(.F                       X (.P.                  Z (.Z.            E.(.I                   U.(.A                     G.(.I     w (.(.7                     A ~.(.U.B.N.N.N.J.(.(.U.5       T (.I.                    r (.(.(.(.(.(.(.(.(.A.&                             ~.(.T (.(.U.P.~.(.(.M.          r U.(.(.U.P.~.(.G.A.(.Y       M.(.N.            % G.(.(.E.P.E.(.U.N.(.A.                        B.(.(.~.P.U.(.(.Y (.U.        & J.(.(.E.P.(.(.(.Z.        M.(.E.V.G T J.(.G.      ~.(.        X V.(.(.P.J.P.(.(.S.%           S.(.(.~.J.J.(.(.P.&         P (.(.(.P.I.(.(.B.I.(.7       F.(.A             & J.(.(.E.P.(.(.(.Z.        G.(.I.N.G N.U.(.N.                      B.(.(.~.P.U.(.(.Y (.U.                      M.(.N.          & (.U.        P (.(.(.P.I.(.(.B.I.(.7           & (.(.F             & J.(.(.E.P.(.(.(.Z.        5 (.(.~.                                                                                                                                                                                                                                                                                                        ",
"A.(.I               P.Y               P.(.r       & A.~.(.(.~.F.5                 7 (.I                 & S.~.(.(.(.G.Z           M.(.N.            Z.(.U.&                         M.(.(.(.(.F.& P.(.7     X B.(.(.(.(.(.Z.            B.E.(.(.~.S.& G (.A.                          B.E.(.(.~.S.& G (.A.      X B.(.(.(.(.(.Z.                        r (.J.              r J.(.(.(.(.A.7               Y P.(.(.(.~.N.X         r (.G.          & S.~.(.(.E.N.  V.(.Y       7 S.(.(.(.(.(.Y                           J.T                     I.I           7 (.~.X                 F (.I.                      P (.J.    Y (.F.                        r F.(.(.(.(.(.(.~.V.%         A.(.M.                    r (.(.(.(.(.E.J.B.Z                                 ~.(.  Z P.(.(.(.I.F               & S.~.(.(.E.N.  V.(.Y       M.(.N.                B.E.(.(.~.S.& G (.A.                          P I.(.(.(.J.w % (.U.          X B.U.(.(.(.I.I             Y E.(.(.(.(.P.&       ~.(.            G P.(.(.(.I.Y                 Y P.(.(.(./.N.X             r J.(.(.(.I.G   P.(.7       F.(.A               X B.U.(.(.(.I.I           X B.(.(.(.(.(.Z.                          P I.(.(.(.J.w % (.U.                      M.(.N.          & (.U.          r J.(.(.(.I.G   P.(.7             A.U.                X B.U.(.(.(.I.I           X P.(.S.                                                                                                                                                                                                                                                                                                        ",
"                    I %                                 w r                         A.X                       7 Z &                                   w                               & F F w                   X w A F w                   7 r                                           7 r                       X w A F w                                                     w r X                       X A A %                                   r 7                       % r F F &                             V.&                     M.w           I (.B.                                                        Z.(.G                             w F F F F F %             I.~.&                                                                         ~.(.      % Z %                         r 7                                             7 r                                           & Z X                           & Z 7                     7 A F Z                               % Z %                         X A A %                     X Z %                                             & Z 7                   X w A F w                                 & Z X                                                                     X Z %                         Z T                       & Z 7                   w                                                                                                                                                                                                                                                                                                           ",
"                                                                                    X                                                                                                                                                                                                                                                                                                                                                                                                                                   &                       &             V.(.7                                                         P.I.                                                      & (.Z.                                                                          ~.(.                                                                                                                                                                                                                                                                                                                                                                                                                                                                                                                          X                                                                                                                                                                                                                                                                                                                                                           ",
"                                                                                                                                                                                                                                                                                                                                                                                                                                                                                                                                                              P.S.                                                        X (.T                                                       G (.r                                                                           ~.(.                                                                                                                                                                                                                                                                                                                                                                                                                                                                                                                                                                                                                                                                                                                                                                                                                                                                                      ",
"                                                                                                                                                                                                                                                                                                                                                                                                                                                                                                                                                            X ~.F                                                         F ~.%                                                       N.J.                                                                            ~.(.                                                                                                                                                                                                                                                                                                                                                                                                                                                                                                                                                                                                                                                                                                                                                                                                                                                                                      ",
"                                                                                                                                                                                                                                                                                                                                                                                                                                                                                                                                                                                                                                                                                                                                                                      ~.(.                                                                                                                                                                                                                                                                                                                                                                                                                                                                                                                                                                                                                                                                                                                                                                                                                                                                                      ",
"                                                                                                                                                                                                                                                                                                                                                                                                                                                                                                                                                                                                                                                                                                                                                                      ~.(.                                                                                                                                                                                                                                                                                                                                                                                                                                                                                                                                                                                                                                                                                                                                                                                                                                                                                      ",
"                                                                                                                                                                                                                                                                                                                                                                                                                                                                                                                                                                                                                                                                                                                                                                      ~.(.                                                                                                                                                                                                                                                                                                                                                                                                                                                                                                                                                                                                                                                                                                                                                                                                                                                                                      ",
"                                                                                                                                                                                                                                                                                                                                                                                                                                                                                                                                                                                                                                                                                                                                                                                                                                                                                                                                                                                                                                                                                                                                                                                                                                                                                                                                                                                                                                                                                                                                                                                                                                                                ",
"                                                                                                                                                                                                                                                                                                                                                                                                                                                                                                                                                                                                                                                                                                                                                                                                                                                                                                                                                                                                                                                                                                                                                                                                                                                                                                                                                                                                                                                                                                                                                                                                                                                                ",
"                                                                                                                                                                                                                                                                                                                                                                                                                                                                                                                                                                                                                                                                                                                                                                                                                                                                                                                                                                                                                                                                                                                                                                                                                                                                                                                                                                                                                                                                                                                                                                                                                                                                ",
"                                                                                                                                                                                                                                                                                                                                                                                                                                                                                                                                                                                                                                                                                                                                                                                                                                                                                                                                                                                                                                                                                                                                                                                                                                                                                                                                                                                                                                                                                                                                                                                                                                                                ",
"                                                                                                                                                                                                                                                                                                                                                                                                                                                                                                                                                                                                                                                                                                                                                                                                                                                                                                                                                                                                                                                                                                                                                                                                                                                                                                                                                                                                                                                                                                                                                                                                                                                                ",
"                                                                                                                                                                                                                                                                                                                                                                                                                                                                                                                                                                                                                                                                                                                                                                                                                                                                                                                                                                                                                                                                                                                                                                                                                                                                                                                                                                                                                                                                                                                                                                                                                                                                ",
"                                                                                                                                                                                                                                                                                                                                                                                                                                                                                                                                                                                                                                                                                                                                                                                                                                                                                                                                                                                                                                                                                                                                                                                                                                                                                                                                                                                                                                                                                                                                                                                                                                                                ",
"                                                                                                                                                                                                                                                                                                                                                                                                                                                                                                                                                                                                                                                                                                                                                                                                                                                                                                                                                                                                                                                                                                                                                                                                                                                                                                                                                                                                                                                                                                                                                                                                                                                                ",
"                                                                                                                                                                                                                                                                                                                                                                                                                                                                                                                                                                                                                                                                                                                                                                                                                                                                                                                                                                                                                                                                                                                                                                                                                                                                                                                                                                                                                                                                                                                                                                                                                                                                ",
"                                                                                                                                                                                                                                                                                                                                                                                                                                                                                                                                                                                                                                                                                                                                                                                                                                                                                                                                                                                                                                                                                                                                                                                                                                                                                                                                                                                                                                                                                                                                                                                                                                                                ",
"                                                                                                                                                                                                                                                                                                                                                                                                                                                                                                                                                                                                                                                                                                                                                                                                                                                                                                            T J.G                                                                                                                                                                                               A J.M.                                                                                                                                                        T J.G                                                                                                                                                                                                                                                                                                                                                                             ",
"                T                                                                                                                                                                                                                                                                                                                                                                                                                                                                                                                                                                                                                                                                                                                                                                                                                                                                                           V.(.Y                                                                                                                                                                                               G (.A.                                                                                                                                                        V.(.Y                                                                                                                                                                                                                                                                                                                                                                             ",
"              7 (.7                                                                                                                                                                                                                                                                                                                                                                                                                                                                                                                                                                                                                                                                                                                                                                                                                                                                                         V.(.Y                                                                                                                                                                                               G (.A.                                                                                                                                                        V.(.Y                                                                                                                                                                                                                                                                                                                                                                             ",
"              B.(.B.                                                                                                                                                                                                                                                                                                                                                                                                                                                                                                                                                                                                                                                                                                                                                                                                                                                                                        V.(.Y                                                                                                   7 A.J.G       A 5                                                                           G (.A.                                                                                                                                                        V.(.Y                                                                                                                                                                                                                                                                                                                                                                             ",
"            X E.(.E.X                                                                                                             B.J.r                                                                                                                                                                                                                                                                                                                                     7 J.V.                                                                                                                                                                                                                                M.S.X                                                                                                                                                                                     V.(.Y       F G.7                                                                                     % U.U.U.(.P     ~.T                                                                           G (.A.                                                                                          V.A.                                                          V.(.Y                                                                                                                                                                                                                                                                                                                                                                             ",
"            I (.E.(.I                                                                                                             S.(.F                                                                                                                                                                                                                                                                                                                                     r (.J.                                                                                                                                                                                                                              X (.(.G                                                                                                                                                                                     V.(.Y       J.(.V.                                                                                    T E.X 5 I.~.V.A.(.Z                                                                           G (.A.                                                                                        7 (.(.Z                                                         V.(.Y                                                                                                                                                                                                                                                                                                                                                                             ",
"            J.(.Z (.J.                                                                                                            S.(.F                                                                                                                                                                                                                                                                                                                                     r (.J.                                                                                                                                                                                                                                V.F.&                                                                                                                                                                                     V.(.Y       Y J.Z                                                                                     T V.    r I.(.(.T                                                                             G (.A.                                                                                          A.F.X                                                         V.(.Y                                                                                                                                                                                                                                                                                                                                                                             ",
"          r (.G.  G.(.r                                                                                                           S.(.F                                                           X M.Y                                                                                                                                                                                                                                                                     r (.J.                                                                                                                                                                                                                                                                                                                                                                                                                          V.(.Y                                                                                                                                                                                               G (.A.                                                                                                                                                        V.(.Y                                                                                                                                                                                                                                                                                                                                                                             ",
"          Z.(.P   P (.Z.                      7 N.N.N.w                     F N.N.M.5                       % A A %               S.(.F                 P N.N.T X                         r Z     B.(.(.I                       A A     F N.N.5       5 Y N.G                   w N.N.N.r                                             F N.N.M.5                                   & M.N.N.P                                       5 A           5 M.N.N.r                   r (.J.                & M.N.N.P                                       A N.N.M.&                   5 M.N.N.r                         % A %         % T N.N.P                                 A A     F N.N.5       5 Y N.G                                 % A %         % T N.N.P                         X Z 7                             & A Z X                 5 M.N.N.r                                     % T N.N.P     V.(.Y                             r Z           & M.N.N.G                       Z A w X                   5 M.N.N.r                       & M.N.N.P                                     P N.N.T X   G (.A.            X Y N.N.Y X                 F M.T A                   F N.N.M.5                                 Z N.N.M.5                     % T N.N.P     V.(.Y             5 M.N.N.r                                                                                                                                                                                                                                                                                                                                                       ",
"        % ~.E.X   X ~.~.%             ~.(.X A.(.(.(.(.(.S.%             A I.(.(.(.(.(.A.%         r (.G.w J.(.(.(.~.Y       F.(.(.(.(.(.(.(.F       A U.(.(.(.(.E.I G (.A.      r (.G.A U.(.(.X   V.(.(.Y                       ~.(.& P.(.(.(.~.P   M.(.(.(.(.F.%           & F.(.(.(.(.(.J.w       F (.I.            A.(.M.      A I.(.(.(.(.(.Z.%                             V.(.(.(.(.(.U.G                           ~.(.5 J.(.(.G       V.(.(.(.(.(.F.& P.(.7   Z (.(.(.(.(.(.(.J.        V.(.(.(.(.(.U.G                         r (.G.7 P.(.(.(.(.(.B.              V.(.(.(.(.(.F.& P.(.7       F.(.A A.(.(.B.      Y ~.(.(.(.(.I.Z V.(.Y                       ~.(.& P.(.(.(.~.P   M.(.(.(.(.F.%         P.(.7       F.(.A A.(.(.B.      Y ~.(.(.(.(.I.Z V.(.Y       M.(.N.T ~.(.P.                  M.(.N.G I.(.(.(.U.A             V.(.(.(.(.(.F.& P.(.7                         Y ~.(.(.(.(.I.Z V.(.Y       V.(.Y       r (.G.A U.(.(.X       V.(.(.(.(.(.I.G               Y I.(.(.(.(.B.%             V.(.(.(.(.(.F.& P.(.7           V.(.(.(.(.(.U.G                             A U.(.(.(.(.E.I G (.A.          Y E.(.(.(.(.~.M.          Z I.(.(.(.(.U.w           A I.(.(.(.(.(.Z.%           E.(.X         5 F.(.(.(.(.(.V.% (.U.          Y ~.(.(.(.(.I.Z V.(.Y           V.(.(.(.(.(.F.& P.(.7                                                                                                                                                                                                                                                                                                                                             ",
"        Y (.V.      V.(.T             ~.(.S.(.I.A.B.F.(.(.G.          Z ~.(.I.A.B.F.~.(.G.X       r (.P.U.(.S.N.S.(.(.F     B.J.J.E.(.P.J.J.r     w ~.(.E.S.B.S.~.(.A.(.A.      r (.J.E.~.J.(.X   & Z.N.X                       ~.(.P.(.S.N.S.(.(.M.(.U.B.B.E.(.Z.        & I.(.E.S.B.S.U.(.E.7       U.(.Z         % ~.(.&     Z ~.(.E.F.V.G.(.(.I.&                         S.(.(.F.V.Z.I.(.(.F                         ~.(.S.(.J.~.G     Z.(.(.G.V.Z.P.(.P.I.(.7   w J.J.P.(.~.J.J.V.      S.(.(.F.V.Z.P.(.(.F                       r (.P.I.(.J.Z.V.J.(.(.N.          Z.(.(.G.V.Z.P.(.P.I.(.7       F.(.S.(.P.U.B.    P (.(.I.A.V.G.(.~.F.(.Y                       ~.(.P.(.S.N.S.(.(.M.(.U.B.B.E.(.Z.        P.(.7       F.(.S.(.P.U.B.    P (.(.I.A.V.G.(.~.F.(.I       M.(.S.(.U.I.P.                  M.(.S.(.(.V.B.J.(.~.&         Z.(.(.G.V.Z.P.(.P.I.(.7                       P (.(.I.A.V.G.(.~.F.(.Y       V.(.Y       r (.J.E.~.J.(.X     S.(.(.P.V.A.U.(.(.Y           S.(.(.U.J.E.(.(.I.%         Z.(.(.G.V.Z.P.(.P.I.(.7         S.(.(.F.V.Z.P.(.(.F                         w ~.(.E.S.B.S.~.(.A.(.A.        Y (.(.U.A.V.P.(.(.S.      % E.(.A.F F S.(.U.        Z ~.(.E.F.V.G.(.(.I.&         E.(.X       X P.(.~.F.B.A.U.(.A.(.U.        P (.(.I.A.V.G.(.E.F.(.Y         Z.(.(.G.V.Z.P.(.P.I.(.7                                                                                                                                                                                                                                                                                                                                             ",
"        I.(.w       w (.I.            ~.(.(.V.X       Z U.(.N.      % E.(.V.X       7 P.(.V.      r (.(.(.F       T (.J.          S.(.F           P.(.F.%       7 P.(.(.A.      r (.(.E.w   w X                                 ~.(.(.P       V.(.(.G.%     7 ~.(.&       G.(.G.5       % S.(.P.      T (.Z.        Y (.A.    % U.(.Z.        r U.(.F.                      M.(.U.Z         M.(.~.7                       ~.(.(.P   & 7   P (.~.G         T (.(.(.7         r (.J.          M.(.U.Z         M.(.~.7                     r (.(.(.I         I (.(.A       P (.~.G         T (.(.(.7       F.(.(.Z.    r   7 ~.(.N.        A E.(.(.Y                       ~.(.(.P       V.(.(.G.%     7 ~.(.&       P.(.7       F.(.(.Z.    r   7 ~.(.N.        A E.(.(.Y       M.(.(.J.%   r                   M.(.(.U.7       F.(.B.      P (.~.G         T (.(.(.7                     7 ~.(.N.        A E.(.(.Y       V.(.Y       r (.(.E.w   w X   M.(.E.Z       X B.(.(.Z       N.(.~.I       w S.(.G.      P (.~.G         T (.(.(.7       M.(.U.Z         M.(.~.7                       P.(.F.%       7 P.(.(.A.      Z (.(.I         I (.(.T     G (.J.        U.(.Z     % U.(.Z.        r U.(.F.        E.(.X       V.(.I.w       X A.(.(.U.      7 ~.(.N.        A E.(.(.Y       P (.~.G         T (.(.(.7                                                                                                                                                                                                                                                                                                                                             ",
"      A (.J.          P.(.A           ~.(.J.            F (.~.%     B.(.G.            7 (.(.w     r (.(.N.        X (.~.          S.(.F         P (.U.X           7 (.(.A.      r (.(.P                                         ~.(.A.        w (.(.5         F.(.A     F (.E.%             I.(.Y     % ~.~.X       J.(.Z     B.(.J.            r (.(.Z                   & ~.(.Z             Z.(.A.                      ~.(.Z.          I.(.T             V.(.(.7         r (.J.        & ~.(.Z             Z.(.A.                    r (.(.N.            B.(.G.      I.(.T             V.(.(.7       F.(.I.          Z.(.S.            P (.(.Y                       ~.(.A.        w (.(.5         F.(.A       P.(.7       F.(.I.          Z.(.S.            P (.(.Y       M.(.(.5                         M.(.(.A         A (.F.      I.(.T             V.(.(.7                     Z.(.S.            P (.(.Y       V.(.Y       r (.(.P         & ~.(.G             S.(.F.    & (.(.Y             I.(.F     I.(.T             V.(.(.7     & ~.(.Z             Z.(.A.                    P (.U.X           7 (.(.A.      J.(.B.            T (.~.X   I (.I.                  B.(.J.            r (.(.Z       E.(.X     5 (.(.r             P.(.U.      Z.(.S.            P (.(.Y       I.(.T             V.(.(.7                                                                                                                                                                                                                                                                                                                                             ",
"      A.(.Y           Y (.A.          ~.(.A               J.(.F     I.(.Z               Z.(.T     r (.(.&           I.(.5         S.(.F         A.(.T               V.(.A.      r (.~.                                          ~.(.F         % (.U.          Z.(.P     Z.(.M.              P (.F.      Z.(.I     w (.P.      I.(.F               A.(.M.                  P (.F.              & (.~.                      ~.(.r         7 (.E.              & (.(.7         r (.J.        P (.F.              & (.~.                    r (.(.X             X (.(.X   7 (.E.              & (.(.7       F.(.M.          U.(.r               I.(.Y                       ~.(.F         % (.U.          Z.(.P       P.(.7       F.(.M.          U.(.r               I.(.Y       M.(.F.                          M.(.P.          3 (.I.    7 (.E.              & (.(.7                     U.(.r               I.(.Y       V.(.Y       r (.~.          P (.J.              7 (.~.    P (.P.              7 F w   7 (.E.              & (.(.7     P (.F.              & (.~.                    A.(.T               V.(.A.    5 (.~.%               U.(.Z   & ~.(.U.P X             I.(.F               A.(.M.      E.(.X     Y (.S.              P (.U.      U.(.r               I.(.Y     7 (.E.              & (.(.7                                                                                                                                                                                                                                                                                                                                             ",
"    & (.(.P.J.J.J.J.J.P.(.(.&         ~.(.%               V.(.Y     (.(.X               Y (.Z.    r (.U.            I.(.7         S.(.F         G.(.F               Y (.A.      r (.P.                                          ~.(.X         X (.E.          Z.(.I     G.(.F               7 (.I.      w (.J.    V.(.I       (.(.(.(.(.(.(.(.(.(.(.(.A.                  N.(.B.                U.(.5                     ~.(.X         A (.J.                U.(.7         r (.J.        N.(.B.                U.(.5                   r (.I.                P.(.w   A (.J.                U.(.7       F.(.G           (.(.                A.(.Y                       ~.(.X         X (.E.          Z.(.I       P.(.7       F.(.G           (.(.                A.(.Y       M.(.B.                          M.(.A.          & (.U.    A (.J.                U.(.7                     (.(.                A.(.Y       V.(.Y       r (.P.          N.(.(.(.(.(.(.(.(.(.(.(.(.7   N.(.V.                      A (.J.                U.(.7     N.(.B.                U.(.5                   G.(.F               Y (.A.    A (.(.(.(.(.(.(.(.(.(.(.(.I     r E.(.(.~.F.Y %       (.(.(.(.(.(.(.(.(.(.(.(.A.      E.(.X     N.(.N.              7 (.U.      (.(.                A.(.Y     A (.J.                U.(.7                                                                                                                                                                                                                                                                                                                                             ",
"    M.(.(.(.(.(.(.(.(.(.(.(.M.        ~.(.%               V.(.T     (.(.X               Y (.A.    r (.J.            P.(.7         S.(.F         G.(.F               Y (.A.      r (.G.                                          ~.(.          X (.E.          Z.(.I     G.(.F               7 (.U.        G.(.7   E.E.X       (.(.J.J.J.J.J.J.J.J.J.J.N.                  M.(.B.                U.(.5                     ~.(.          A (.J.                U.(.7         r (.J.        M.(.B.                U.(.5                   r (.I.                P.(.w   A (.J.                U.(.7       F.(.A           (.(.                A.(.Y                       ~.(.          X (.E.          Z.(.I       P.(.7       F.(.A           (.(.                A.(.Y       M.(.N.                          M.(.B.          & (.U.    A (.J.                U.(.7                     (.(.                A.(.Y       V.(.Y       r (.G.          M.(.U.J.J.J.J.J.J.J.J.J.J.7   M.(.V.                      A (.J.                U.(.7     M.(.B.                U.(.5                   G.(.F               Y (.A.    Z (.~.J.J.J.J.J.J.J.J.J.J.G       % G V.U.(.(.U.&     (.(.J.J.J.J.J.J.J.J.J.J.N.      E.(.X     N.(.N.              7 (.U.      (.(.                A.(.Y     A (.J.                U.(.7                                                                                                                                                                                                                                                                                                                                             ",
"    U.(.r               r (.U.        ~.(.F               J.(.F     I.(.Z               Z.(.M.    r (.G.            P.(.7         S.(.F         Z.(.T               Z.(.A.      r (.G.                                          ~.(.          X (.E.          Z.(.I     Z.(.M.              P (.F.        G (.B.G (.B.        I.(.A                                       P (.F.              & (.~.                      ~.(.          5 (.E.              & (.(.7         r (.J.        P (.F.              & (.~.                    r (.(.X             X (.(.%   5 (.E.              & (.(.7       F.(.A           I.(.r               I.(.Y                       ~.(.          X (.E.          Z.(.I       P.(.7       F.(.A           I.(.r               I.(.I       M.(.N.                          M.(.N.          & (.U.    5 (.E.              & (.(.7                     I.(.r               I.(.Y       V.(.Y       r (.G.          P (.G.                        P (.G.                      5 (.E.              & (.(.7     P (.F.              & (.~.                    Z.(.T               Z.(.A.    & (.~.X                                   Z U.(.Z.    I.(.A                           E.(.X     I (.S.              P (.U.      I.(.r               I.(.Y     5 (.E.              & (.(.7                                                                                                                                                                                                                                                                                                                                             ",
"  F (.J.                  P.(.F       ~.(.P.X           P (.~.%     B.(.P.X           Z (.(.w     r (.G.            P.(.7         S.(.F         P (.E.5           Z (.(.A.      r (.G.                                          ~.(.          X (.E.          Z.(.I     F (.~.7           & U.(.Y           U.E.F.(.7         B.(.J.X           r N.M.                    & (.(.P             F.(.A.                      ~.(.            I.(.B.            F.(.(.7         r (.J.        & (.(.P             F.(.A.                    r (.(.Z.            Z.(.G.      I.(.B.            F.(.(.7       F.(.A           Z.(.J.            T (.(.Y                       ~.(.          X (.E.          Z.(.I       P.(.7       F.(.A           Z.(.J.            T (.(.Y       M.(.N.                          M.(.N.          & (.U.      I.(.B.            F.(.(.7                     Z.(.J.            T (.(.Y       V.(.Y       r (.G.          & (.(.F             T N.A     & (.(.P           & E.(.F     I.(.B.            F.(.(.7     & (.(.P             F.(.A.                    P (.E.5           Z (.(.A.      J.(.V.            G N.I     P N.r         F (.I.    B.(.J.X           r N.M.        E.(.X     5 (.(.F           % U.(.U.      Z.(.J.            T (.(.Y       I.(.B.            F.(.(.7                                                                                                                                                                                                                                                                                                                                             ",
"  F.(.Y                   Y (.F.      ~.(.(.J.7       T (.(.T       & U.(.J.7       I ~.(.B.      r (.G.            P.(.7         S.(.F           P.(.U.Z       G E.(.(.A.      r (.G.            5 G.S.X                       ~.(.          X (.E.          Z.(.I       F.(.E.F       Z I.(.J.            M.(.(.F.          & U.(.J.Z     % Y E.(.M.                      T (.(.T       & F.(.E.7                       ~.(.            G (.(.V.X     % S.(.(.(.7         r (.J.          T (.(.T       & F.(.E.7                     r (.(.(.Z.X     % A.(.(.Z       G (.(.V.X     % S.(.(.(.7       F.(.A           7 ~.(.G.5       N.(.(.(.Y                       ~.(.          X (.E.          Z.(.I       P.(.7       F.(.A           7 ~.(.G.5       N.(.(.(.Y       M.(.N.                          M.(.N.          & (.U.      G (.(.V.X     % S.(.(.(.7                     7 ~.(.G.5       N.(.(.(.Y       V.(.Y       r (.G.            T (.(.N.X     r F.(.E.%       N.(.(.Y       7 P.(.F.      G (.(.V.X     % S.(.(.(.7       T (.(.T       & F.(.E.7                       P.(.U.Z       G E.(.(.A.      Z ~.(.A.5     5 B.(.(.Z     M.(.G.        T (.G.    & U.(.L.Z     % Y E.(.M.        E.(.X       B.(.~.I       w P.(.(.U.      7 ~.(.G.5       N.(.(.(.Y       G (.(.V.X     % S.(.(.(.7       5 G.S.X                                                                                                                                                                                                                                                                                                                               ",
"5 (.~.X                   X ~.(.5     ~.(.T (.(.U.P.~.(.(.M.          & J.(.(.J.J.U.(.(.M.        r (.G.            P.(.7         S.(.F           % G.(.(.E.P.E.(.U.N.(.A.      r (.G.            Z.(.(.M.                      ~.(.          X (.E.          Z.(.I       X V.(.(.P.J.P.(.(.S.%             & (.(.F             & J.(.(.E.P.(.(.(.Z.                          I (.(.U.J.J.(.(.P.7                         ~.(.              P (.(.(.P.I.(.(.B.I.(.7         r (.J.            I (.(.U.J.J.(.(.P.7                       r (.P.Z.(.(.I.P.(.(.~.F           P (.(.(.P.I.(.(.B.I.(.7       F.(.A             r U.(.(.U.P.~.(.G.A.(.Y                       ~.(.          X (.E.          Z.(.I       P.(.7       F.(.A             r E.(.(.U.P.~.(.G.A.(.Y       M.(.N.                          M.(.N.          & (.U.        P (.(.(.P.I.(.(.B.I.(.7                       r U.(.(.U.P.~.(.G.A.(.Y       V.(.Y       r (.G.              I (.(.(.P.E.(.(.E.r           S.(.(.~.J.J.(.(.P.&         P (.(.(.P.I.(.(.B.I.(.7         I (.(.U.J.J.(.(.P.7                         % G.(.(.E.P.E.(.U.N.(.A.        Z E.(.(.I.I.(.(.(.P       5 U.(.G.T P V.~.(.F       & J.(.(.E.P.(.(.(.Z.          E.(.X         B.(.(.~.P.U.(.(.Y (.U.        r U.(.(.U.P.~.(.G.A.(.Y         P (.(.(.P.I.(.(.B.I.(.7       Z.(.(.M.                                                                                                                                                                                                                                                                                                                              ",
"B.(.Z.                      Z.(.B.    ~.(.  Z P.(.(.(.I.F                 N.U.(.(.(.J.Z           r (.G.            P.(.7         S.(.F               B.E.(.(.~.S.& G (.A.      r (.G.            I (.~.A                       ~.(.          X (.E.          Z.(.I           G P.(.(.(.I.Y                   A.U.                X B.U.(.(.(.I.I                               w G.(.(.(.E.V.X                           ~.(.                r J.(.(.(.I.G   P.(.7         r (.J.              w G.(.(.(.E.V.X                         r (.G.  Y U.(.(.(.G.7               r J.(.(.(.I.G   P.(.7       F.(.A               & S.~.(.(.E.N.  V.(.Y                       ~.(.          X (.E.          Z.(.I       P.(.7       F.(.A               & S.~.(.(.E.N.  V.(.Y       M.(.N.                          M.(.N.          & (.U.          r J.(.(.(.I.G   P.(.7                         & S.~.(.(.E.N.  V.(.Y       V.(.Y       r (.G.                r J.(.(.(.(.A.7               Y I.(.(.(.~.N.X             r J.(.(.(.I.G   P.(.7           w G.(.(.(.E.V.X                               B.E.(.(.~.S.& G (.A.          & S.~.(.(.(.G.Z           7 S.(.(.(.(.(.Y           X B.U.(.(.(.I.I             E.(.X           P I.(.(.(.J.w % (.U.          & S.~.(.(.E.N.  V.(.Y           r J.(.(.(.I.G   P.(.7       I (.~.A                                                                                                                                                                                                                                                                                                                               ",
"                                      ~.(.      % Z %                         & Z X                                                                       7 r                                       5 %                                                                           % Z %                       Z T                       & Z 7                                       X Z 7                                                         X Z %                                             X Z 7                               r (.G.      & Z X                       X Z %                                             r 7                                                                                                                   r 7                                                                                       X Z %                                           r 7                                                           w r X                       T (.P %                     X Z %                           X Z 7                                         7 r                             7 Z &                   % r F F &                   & Z 7                 E.(.X               & Z X                           r 7                           X Z %                     5 %                                                                                                                                                                                                                                                                                                                                 ",
"                                      ~.(.                                                                                                                                                                                                                                                                      X                                                                                                                                                                                                                       r (.G.                                                                                                                                                                                                                                                                                                                                                                                                                                              P.(.J.V.                                                                                                                                                                                                            E.(.X                                                                                                                                                                                                                                                                                                                                                                                                                                           ",
"                                      ~.(.                                                                                                                                                                                                                                                                                                                                                                                                                                                                                              r (.G.                                                                                                                                                                                                                                                                                                                                                                                                                                            w J.B.F.(.M.                                                                                                                                                                                                          ~.(.                                                                                                                                                                                                                                                                                                                                                                                                                                            ",
"                                      ~.(.                                                                                                                                                                                                                                                                                                                                                                                                                                                                                              r (.G.                                                                                                                                                                                                                                                                                                                                                                                                                                                    G.P.                                                                                                                                                                                                        & (.U.                                                                                                                                                                                                                                                                                                                                                                                                                                            ",
"                                      ~.(.                                                                                                                                                                                                                                                                                                                                                                                                                                                                                              r (.G.                                                                                                                                                                                                                                                                                                                                                                                                                                                    P.G.                                                                                                                                                                                                    Z w S.(.Z.                                                                                                                                                                                                                                                                                                                                                                                                                                            ",
"                                      ~.(.                                                                                                                                                                                                                                                                                                                                                                                                                                                                                              r (.G.                                                                                                                                                                                                                                                                                                                                                                                                                                          M.I.S.F.I.(.P                                                                                                                                                                                                     ~.(.(.U.7                                                                                                                                                                                                                                                                                                                                                                                                                                             ",
"                                      ~.(.                                                                                                                                                                                                                                                                                                                                                                                                                                                                                              r (.G.                                                                                                                                                                                                                                                                                                                                                                                                                                          P G.E.(.F.A                                                                                                                                                                                                       Y F.M.&                                                                                                                                                                                                                                                                                                                                                                                                                                               ",
"                                                                                                                                                                                                                                                                                                                                                                                                                                                                                                                                                                                                                                                                                                                                                                                                                                                                                                                                                                                                                                                                                                                                                                                                                                                                                                                                                                                                                                                                                                                                                                                                                                                                ",
"                                                                                                                                                                                                                                                                                                                                                                                                                                                                                                                                                                                                                                                                                                                                                                                                                                                                                                                                                                                                                                                                                                                                                                                                                                                                                                                                                                                                                                                                                                                                                                                                                                                                ",
"                                                                                                                                                                                                                                                                                                                                                                                                                                                                                                                                                                                                                                                                                                                                                                                                                                                                                                                                                                                                                                                                                                                                                                                                                                                                                                                                                                                                                                                                                                                                                                                                                                                                ",
"                                                                                                                                                                                                                                                                                                                                                                                                                                                                                                                                                                                                                                                                                                                                                                                                                                                                                                                                                                                                                                                                                                                                                                                                                                                                                                                                                                                                                                                                                                                                                                                                                                                                ",
"                                                                                                                                                                                                                                                                                                                                                                                                                                                                                                                                                                                                                                                                                                                                                                                                                                                                                                                                                                                                                                                                                                                                                                                                                                                                                                                                                                                                                                                                                                                                                                                                                                                                ",
"                                                                                                                                                                                                                                                                                                                                                                                                                                                                                                                                                                                                                                                                                                                                                                                                                                                                                                                                                                                                                                                                                                                                                                                                                                                                                                                                                                                                                                                                                                                                                                                                                                                                ",
"                                                                                                                                                                                                                                                                                                                                                                                                                                                                                                                                                                                                                                                                                                                                                                                                                                                                                                                                                                                                                                                                                                                                                                                                                                                                                                                                                                                                                                                                                                                                                                                                                                                                ",
"                                                                                                                                                                                                                                                                                                                                                                                                                                                                                                                                                                                                                                                                                                                                                                                                                                                                                                                                                                                                                                                                                                                                                                                                                                                                                                                                                                                                                                                                                                                                                                                                                                                                ",
"                                                                                                                                                                                                                                                                                                                                                                                                                                                                                                                                                                                                                                                                                                                                                                                                                                                                                                                                                                                                                                                                                                                                                                                                                                                                                                                                                                                                                                                                                                                                                                                                                                                                ",
"                                                                                                                                                                                                                                                                                                                                                                                                                                                                                                                                                                                                                                                                                                                                                                                                                                                                                                                                                                                                                                                                                                                                                                                                                                                                                                                                                                                                                                                                                                                                                                                                                                                                ",
"                                                                                                                                                                                                                                                                    F A.G                                                                                                                                                                                                                                                                 F.G.                                                                                                                                                                                                                                                                                                                                          Z.J.5                                                                       T J.G                                                                                                                                                                         F J.Y                                                                                                                                                                                               A J.T                                                                                                                                                                                                                                                                                                     ",
"                                                                                                                                                                                                                                                                    T (.N.                                                                                                                                                                                                                                                                ~.(.                                                                                                                                                                                                                                                                                                                                          P.(.7                                                                       V.(.Y                                                                                                                                                                         J.~.&             G                       G                                                                                                                                                         X U.~.%                                                                                                                                                                                                                                                                                                   ",
"    F.J.J.J.J.F.V.P &                                                                                                                                                                                                                                               T (.N.                                                                                                                                                                                                                                                                ~.(.                                                                                                                                                                                                                                                                                                                                          P.(.7                                                                       V.(.Y                                                                                                                                                                       A (.V.            r G.                    7 J.                                                                                                                                        N.S.J.U.G.        T (.M.                                                                                                                                                                                                                                                                                                  ",
"    ~.(.(.(.(.(.(.(.(.S.w                                                                                                                                                                                                                                           T (.N.                                                                                                                                                                                                                                                                ~.(.                                                                                Y G.A.%     5 A                                                                                                                                                                                                                                           P.(.7                                                                       V.(.Y                                                                                                                                                                       A.(.Z             Y (.5                   B.~.                                                                                                                                        U.(.(.(.J.        & (.U.                                                                                                                                                                                                                                                                                                  ",
"    ~.(.F F F P N.F.~.(.~.F             A.N.                                                                                                                                                                                                                        T (.N.        A.N.                                                                                                                                                                                                                                                    ~.(.                                                            B.J.r             T (.J.(.P.X   M.E.                                                                                                                                                                                                                                          P.(.7                                                                       V.(.Y                                                                                                         F.J.                                                        X ~.U.              A.(.N.                  E.(.Z                                                                                                                                       Z F Y (.J.          G.(.Z                                                                                                                                                                                         F.J.          5 G.G                                                                                     ",
"    ~.(.            5 S.(.(.F         F (.(.%                                                                                                                                                                                                                       T (.N.      F (.(.%                                                                                                                                                                                                                                                   ~.(.                                                            S.(.F             E.T   T (.J.N.U.F.                                                                                                                                                                                                                                          P.(.7                                                                       V.(.Y                                                                                                         E.(.                                                        F (.V.              I.(.E.                G (.(.T                                                                                                                                           r (.J.          Y (.M.                                                                                                                                                                                        E.(.          B.(.P.                                                                                    ",
"    ~.(.                I (.~.5       % F.Z.                                                                                                                                                                                                                        T (.N.      % F.Z.                                                                                                                                                                                                                                                    ~.(.                                                            S.(.F           X J.r     B.(.(.P.5                                                                                                                                                                                                                                           P.(.7                                                                       V.(.Y                                                                                                         E.(.                                                        B.(.F             % (.(.(.F               S.(.(.A.                                                                                                                                          r (.J.          7 (.G.                                                                                                                                                                                        E.(.          Z G.Y                                                                                     ",
"    ~.(.                  Z.(.V.                                                                                                                                                                            I N.X                                                   T (.N.                                                                                                                                                                                                                                                                ~.(.                                                            S.(.F                                                                                                                                                                                                                                                                         P.(.7                                                                       V.(.Y                                                                                                         E.(.                                                        G.(.%             F (.(.(.S.            & (.(.(.I.                                                                                                                                          r (.J.            U.~.                                                                                                                                                                                        E.(.                                                                                                    ",
"    ~.(.                  & ~.~.X                     % G M.I w                   % T N.N.G                     P N.N.T X                         r Z           Z N.N.M.5                         5 A     F (.(.Z.                              Z A w X             T (.N.                          X A A 7                     Z N.N.M.5                                       w F r %                     F N.N.M.5               A A     F N.N.5       5 Y N.G                                 X Y N.N.T %                             ~.(.    7 N.N.N.w                     F N.N.M.5                 S.(.F                 P N.N.T X                     X Y N.N.T %                                   & M.N.N.G                 % G M.I w                 Z N.N.M.5                                                   w N.N.N.r                       5 A           5 M.N.N.r     P.(.7             & M.N.N.P                                   % T N.N.P     V.(.Y             X Y N.N.T %                                     % A %         % T N.N.P                     E.(.                X Y N.N.T %                             ~.U.              N.(.V.(.(.%           T (.A.~.(.%               w N.N.N.r                                             % G M.I w                 & M.N.N.G                                 r (.J.            S.(.w                               A N.N.M.&                   Z N.N.M.5                         5 A           5 M.N.N.r                                     % T N.N.P                     E.(.                                r Z           Z N.N.M.5                         5 A                 ",
"    ~.(.                    Z.(.G     % (.U.        I E.(.(.(.(.G.%       F.(.A T ~.(.(.(.(.P.r             A U.(.(.(.(.E.I G (.A.      r (.G.A U.(.(.X     5 F.(.(.(.(.(.V.% (.U.        ~.(.& J.(.(.G   G (.(.A.                          Y I.(.(.(.(.B.%         T (.N.      % (.U.          % B.E.(.(.(.E.I             5 F.(.(.(.(.(.V.% (.U.                          A G.(.(.(.(.S.7             A I.(.(.(.(.(.A.%           ~.(.& P.(.(.(.~.P   M.(.(.(.(.F.%                           Y E.(.(.(.(.~.M.                          ~.(.X A.(.(.(.(.(.S.%             A I.(.(.(.(.(.A.%       F.(.(.(.(.(.(.(.F       A U.(.(.(.(.E.I G (.A.          Y E.(.(.(.(.~.M.                              V.(.(.(.(.(.I.G           I E.(.(.(.(.G.%         5 F.(.(.(.(.(.V.% (.U.        ~.(.            V.(.I         & F.(.(.(.(.(.G.w           ~.(.5 J.(.(.G       V.(.(.(.(.(.F.& P.(.7           V.(.(.(.(.(.U.G                             Y ~.(.(.(.(.I.Z V.(.Y           Y E.(.(.(.(.~.M.                          F.(.F A.(.(.B.      Y ~.(.(.(.(.I.Z V.(.Y     ~.(.(.(.(.(.(.(.        Y E.(.(.(.(.~.M.                        & (.F.              F.(.F S.(.T           I.(.Z F.(.G           & F.(.(.(.(.(.J.w           F.(.A           P (.A.      I E.(.(.(.(.G.%           V.(.(.(.(.(.I.G                             r (.J.            N.(.G                     r (.G.7 J.(.(.(.(.(.B.            5 F.(.(.(.(.(.V.% (.U.        ~.(.5 J.(.(.G       V.(.(.(.(.(.F.& P.(.7                         Y ~.(.(.(.(.I.Z V.(.Y     ~.(.(.(.(.(.(.(.    G (.A.      r (.G.A U.(.(.X     5 F.(.(.(.(.(.V.% (.U.        ~.(.5 J.(.(.G               ",
"    ~.(.                    Y (.M.    % (.U.      Z (.(.M.F G P.(.A.      F.(.A.(.E.S.B.S.E.(.E.5         w ~.(.E.S.B.S.~.(.A.(.A.      r (.J.E.~.J.(.X   X P.(.~.F.B.A.U.(.A.(.U.        ~.(.S.(.J.~.G     M.Z.5                         S.(.(.U.J.E.(.(.I.%       T (.N.      % (.U.        & I.(.(.P.J.~.(.(.A.        X P.(.~.F.B.A.U.(.A.(.U.                        T (.(.~.J.I.(.(.~.r         Z ~.(.I.A.B.F.~.(.G.X         ~.(.P.(.S.N.S.(.(.M.(.U.B.B.E.(.Z.                        Y (.(.J.Z.V.G.(.(.N.                        ~.(.S.(.I.A.B.F.(.(.G.          Z ~.(.I.A.B.F.~.(.G.X     B.J.J.E.(.P.J.J.r     w ~.(.E.S.B.S.~.(.A.(.A.        Y (.(.J.Z.V.G.(.(.N.                          S.(.(.P.V.A.U.(.(.Y       Z (.(.M.F G P.(.A.      X P.(.~.F.B.A.U.(.A.(.U.        ~.(.            V.(.I       & I.(.~.G.V.S.~.(.~.Z         ~.(.S.(.J.~.G     Z.(.(.G.V.Z.P.(.P.I.(.7         S.(.(.F.V.Z.P.(.(.F                         P (.(.I.A.V.G.(.~.F.(.Y         Y (.(.J.Z.V.G.(.(.N.                        F.(.S.(.P.U.B.    P (.(.I.A.B.G.(.~.F.(.Y     G.J.J.(.(.J.J.J.      Y (.(.J.Z.V.G.(.(.N.                      r (.Z.              E.(.X F (.P.        Z (.I.  N.(.N.        & I.(.E.S.B.S.U.(.E.7         F.(.A           P (.A.    Z (.(.M.F G P.(.A.        S.(.(.P.V.A.U.(.(.Y                           r (.J.            Y (.T                     r (.P.I.(.J.Z.V.J.(.(.N.        X P.(.~.F.B.A.U.(.A.(.U.        ~.(.S.(.J.~.G     Z.(.(.G.V.Z.P.(.P.I.(.7                       P (.(.I.A.V.G.(.~.F.(.Y     G.J.J.(.(.J.J.J.    G (.A.      r (.J.E.~.J.(.X   X P.(.~.F.B.A.U.(.A.(.U.        ~.(.S.(.J.~.G               ",
"    ~.(.                    G (.V.    % (.U.      V.(.N.      7 (.~.X     F.(.(.G.&       5 J.(.G.        P.(.F.%       7 P.(.(.A.      r (.(.E.w   w X   V.(.I.w       X A.(.(.U.        ~.(.(.P   & 7                                 N.(.~.I       w S.(.G.      T (.N.      % (.U.        G.(.U.Z       Z I.(.N.      V.(.I.w       X A.(.(.U.                      A (.(.V.X     & M.(.E.&     % E.(.V.X       7 P.(.V.        ~.(.(.P       V.(.(.G.%     7 ~.(.&                     Z (.(.I         F E.(.G                       ~.(.(.V.X       Z U.(.N.      % E.(.V.X       7 P.(.V.          S.(.F           P.(.F.%       7 P.(.(.A.      Z (.(.I         F E.(.G                       M.(.E.Z       X B.(.(.Z     V.(.N.      7 (.~.X     V.(.I.w       X A.(.(.U.        ~.(.            V.(.I       F.(.P.&       5 G.(.U.%       ~.(.(.P   & 7   P (.~.G         T (.(.(.7       M.(.U.Z         M.(.~.7                     7 ~.(.N.        A E.(.(.Y       Z (.(.I         F E.(.G                       F.(.(.Z.    r   7 ~.(.N.        A E.(.(.Y           E.(.          Z (.(.I         F E.(.G                     F (.N.            w (.I.    U.(.r       Z.(.T   F (.G.        G.(.G.5       % S.(.P.        F.(.A           P (.A.    V.(.N.      7 (.~.X     M.(.E.Z       X B.(.(.Z                         r (.J.            G (.N.                    r (.(.(.I         I (.(.A       V.(.I.w       X A.(.(.U.        ~.(.(.P   & 7   P (.~.G         T (.(.(.7                     7 ~.(.N.        A E.(.(.Y           E.(.          G (.A.      r (.(.E.w   w X   V.(.I.w       X A.(.(.U.        ~.(.(.P   & 7               ",
"    ~.(.                    I (.B.    % (.U.      A.(.Z.                  F.(.E.&           & ~.(.A     P (.U.X           7 (.(.A.      r (.(.P         5 (.(.r             P.(.U.        ~.(.Z.                                      & (.(.Y             I.(.F     T (.N.      % (.U.      G (.(.w           7 (.~.&   5 (.(.r             P.(.U.                      P.(.A.            Z.(.B.    B.(.G.            7 (.(.w       ~.(.A.        w (.(.5         F.(.A                     J.(.M.            P (.U.                      ~.(.G.            F (.~.%     B.(.G.            7 (.(.w         S.(.F         P (.U.X           7 (.(.A.      J.(.M.            P (.U.                    & ~.(.G             S.(.F.    A.(.Z.                5 (.(.r             P.(.U.        ~.(.            V.(.I     F (.~.5           % U.(.M.      ~.(.Z.          I.(.T             V.(.(.7     & ~.(.Z             Z.(.A.                    Z.(.S.            P (.(.Y       J.(.M.            P (.U.                      F.(.I.          Z.(.S.            P (.(.Y           E.(.          J.(.M.            P (.U.                    G (.M.            I (.A.    N.(.V.    X ~.(.%   % (.~.      F (.E.%             I.(.Y       F.(.A           P (.A.    A.(.Z.                & ~.(.G             S.(.F.                        r (.J.            A (.B.                    r (.(.N.            B.(.G.    5 (.(.r             P.(.U.        ~.(.Z.          I.(.T             V.(.(.7                     Z.(.S.            P (.(.Y           E.(.          G (.A.      r (.(.P         5 (.(.r             P.(.U.        ~.(.Z.                      ",
"    ~.(.                    N.(.T     % (.U.      G (.(.G.Z               F.(.N.              B.(.B.    A.(.T               V.(.A.      r (.~.          Y (.S.              P (.U.        ~.(.Z                                       P (.P.              7 F w     T (.N.      % (.U.      Z.(.V.              Z F &   Y (.S.              P (.U.                    5 (.(.&             & F Z     I.(.Z               Z.(.T       ~.(.F         % (.U.          Z.(.P                   5 (.~.                I.(.r                     ~.(.A               J.(.F     I.(.Z               Z.(.T         S.(.F         A.(.T               V.(.A.    5 (.~.                I.(.r                   P (.J.              7 (.~.    G (.(.G.Z             Y (.S.              P (.U.        ~.(.            V.(.I     Z.(.N.              I (.G.      ~.(.Z         7 (.E.              & (.(.7     P (.F.              & (.~.                    U.(.r               I.(.Y     5 (.~.                I.(.r                     F.(.M.          U.(.r               I.(.Y           E.(.        5 (.~.                I.(.r                   P (.T             Z.(.Y     & (.~.X   I (.S.      I.(.w     Z.(.M.              P (.F.      F.(.A           P (.A.    G (.(.G.Z             P (.J.              7 (.~.                        r (.J.            Z (.V.                    r (.(.X             X (.(.X   Y (.S.              P (.U.        ~.(.Z         7 (.E.              & (.(.7                     U.(.r               I.(.Y           E.(.          G (.A.      r (.~.          Y (.S.              P (.U.        ~.(.Z                       ",
"    ~.(.                    P.(.w     % (.U.        P (.(.(.U.A.G         F.(.P               P (.S.    G.(.F               Y (.A.      r (.P.          N.(.N.              7 (.U.        ~.(.X                                       N.(.V.                        T (.N.      % (.U.      G.(.P                       N.(.N.              7 (.U.                    A (.I.                        (.(.X               Y (.Z.      ~.(.X         X (.E.          Z.(.I                   A (.J.                A.(.I                     ~.(.%               V.(.Y     (.(.X               Y (.Z.        S.(.F         G.(.F               Y (.A.    A (.J.                A.(.I                   N.(.(.(.(.(.(.(.(.(.(.(.(.7     P (.(.(.U.A.G       N.(.N.              7 (.U.        ~.(.            Z.(.I     G.(.(.(.(.(.(.(.(.(.(.(.U.      ~.(.X         A (.J.                U.(.7     N.(.B.                U.(.5                   (.(.                A.(.Y     A (.J.                A.(.I                     F.(.F           (.(.                A.(.Y           E.(.        A (.J.                A.(.I                   P (.T             P.(.r       F.(.P   G.(.A       Z.(.I     G.(.F               7 (.I.      F.(.A           P (.A.      P (.(.(.U.A.G       N.(.(.(.(.(.(.(.(.(.(.(.(.7                       r (.J.            Z (.V.                    r (.I.                P.(.w   N.(.N.              7 (.U.        ~.(.X         A (.J.                U.(.7                     (.(.                A.(.Y           E.(.          G (.A.      r (.P.          N.(.N.              7 (.U.        ~.(.X                       ",
"    ~.(.                  G (.P.      % (.U.          & I S.~.(.(.F.      F.(.P               P (.S.    G.(.F               Y (.A.      r (.G.          N.(.N.              7 (.U.        ~.(.                                        M.(.V.                        T (.N.      % (.U.      G.(.G                       N.(.N.              7 (.U.                    Z (.P.                        (.(.X               Y (.A.      ~.(.          X (.E.          Z.(.I                   Z (.J.                A.(.I                     ~.(.%               V.(.T     (.(.X               Y (.A.        S.(.F         G.(.F               Y (.A.    Z (.J.                A.(.I                   M.(.U.J.J.J.J.J.J.J.J.J.J.7       & I S.~.(.(.F.    N.(.N.              7 (.U.        ~.(.            S.(.I     G.(.I.J.J.J.J.J.J.J.J.J.F.      ~.(.          A (.J.                U.(.7     M.(.B.                U.(.5                   (.(.                A.(.Y     Z (.J.                A.(.I                     F.(.A           (.(.                A.(.Y           E.(.        Z (.J.                A.(.I                   G (.M.          X (.~.        F (.G.7 (.U.        Y (.Z.    G.(.F               7 (.U.      F.(.A           T (.A.        & I S.~.(.(.F.    M.(.U.J.J.J.J.J.J.J.J.J.J.7                       r (.J.            F (.B.                    r (.I.                P.(.w   N.(.N.              7 (.U.        ~.(.          A (.J.                U.(.7                     (.(.                A.(.Y           ~.(.          G (.A.      r (.G.          N.(.N.              7 (.U.        ~.(.                        ",
"    ~.(.                w E.(.A       % (.U.                  P ~.(.P     F.(.N.              B.(.B.    Z.(.T               Z.(.A.      r (.G.          I (.S.              P (.U.        ~.(.                                        P (.G.                        T (.N.      % (.U.      Z.(.N.                      I (.S.              P (.U.                    & (.(.X                       I.(.Z               Z.(.M.      ~.(.          X (.E.          Z.(.I                   & (.~.X               I.(.Z                     ~.(.F               J.(.F     I.(.Z               Z.(.M.        S.(.F         Z.(.T               Z.(.A.    & (.~.X               I.(.Z                   P (.G.                                    P ~.(.P   I (.S.              P (.U.        E.(.            E.(.I     Z.(.N.                          ~.(.          5 (.E.              & (.(.7     P (.F.              & (.~.                    I.(.r               I.(.Y     & (.~.X               I.(.Z                     F.(.A           I.(.r               I.(.Y           E.(.        & (.~.X               I.(.Z                   A (.B.          A (.G.          E.(.A.(.M.        r (.P.    Z.(.M.              P (.F.      S.(.F           A.(.A.                P ~.(.P   P (.G.                                            r (.J.            P (.M.                    r (.(.X             X (.(.%   I (.S.              P (.U.        ~.(.          5 (.E.              & (.(.7                     I.(.r               I.(.Y           E.(.          G (.A.      r (.G.          I (.S.              P (.U.        ~.(.                        ",
"    ~.(.              Z E.(.N.        % (.U.      M.N.&         B.(.V.    F.(.~.7           w ~.(.A     P (.E.5           Z (.(.A.      r (.G.          5 (.(.F           % U.(.U.        ~.(.                                        & (.(.P           & E.(.F     T (.N.      % (.U.      G (.~.7           A (.~.&   5 (.(.F           % U.(.U.                      P.(.V.            G.(.B.    B.(.P.X           Z (.(.w       ~.(.          X (.E.          Z.(.I                     J.(.V.            T (.U.                      ~.(.P.X           P (.~.%     B.(.P.X           Z (.(.w         S.(.F         P (.E.5           Z (.(.A.      J.(.V.            T (.U.                    & (.(.F             T N.A     M.N.&         B.(.V.  5 (.(.F           % U.(.U.        P.(.w         F (.(.I     F (.E.7           % N.N.5       ~.(.            I.(.B.            F.(.(.7     & (.(.P             F.(.A.                    Z.(.J.            T (.(.Y       J.(.V.            T (.U.                      F.(.A           Z.(.J.            T (.(.Y           E.(.          J.(.V.            T (.U.                    7 (.S.          M.(.B.          N.(.(.(.&           ~.(.X   F (.~.7           & U.(.Y       V.(.Y         & ~.(.A.    M.N.&         B.(.V.  & (.(.F             T N.A                         r (.J.            M.(.I                     r (.(.Z.            Z.(.G.    5 (.(.F           % U.(.U.        ~.(.            I.(.B.            F.(.(.7                     Z.(.J.            T (.(.Y           E.(.          G (.A.      r (.G.          5 (.(.F           % U.(.U.        ~.(.                        ",
"    ~.(.        X P F.(.(.M.          % (.U.      F.(.N.        S.(.N.    F.(.(.E.A       F E.(.F.        P.(.U.Z       G E.(.(.A.      r (.G.            B.(.~.I       w P.(.(.U.        ~.(.              A.G.7                       N.(.(.Y       7 P.(.F.      T (.N.      % (.U.        J.(.U.A       F ~.(.M.      B.(.~.I       w P.(.(.U.                      F (.(.Z.X     % A.(.U.%     & U.(.J.7       I ~.(.B.        ~.(.          X (.E.          Z.(.I                     A (.(.Z.X     X B.(.(.F                       ~.(.(.J.7       T (.(.T       & U.(.J.7       I ~.(.B.          S.(.F           P.(.U.Z       G E.(.(.A.      A (.(.Z.X     X B.(.(.F                       T (.(.N.X     r F.(.E.%     F.(.N.        S.(.N.    B.(.~.I       w P.(.(.U.        A.(.A.X     Z E.(.(.I       F.(.E.P     X F I.(.F.        ~.(.            G (.(.V.X     % S.(.(.(.7       T (.(.T       & F.(.E.7                     7 ~.(.G.5       N.(.(.(.Y       A (.(.Z.X     X B.(.(.F                       F.(.A           7 ~.(.G.5       N.(.(.(.Y           E.(.          A (.(.Z.X     X B.(.(.F                     X (.J.          S.(.G           5 (.(.S.            G.(.A     F.(.E.F       Z I.(.J.        I (.I.&     5 J.(.(.A.    F.(.N.        S.(.N.    T (.(.N.X     r F.(.E.%                         r (.J.            V.(.A                     r (.(.(.Z.X     % A.(.(.Z       B.(.~.I       w P.(.(.U.        ~.(.            G (.(.V.X     % S.(.(.(.7                     7 ~.(.G.5       N.(.(.(.Y           E.(.          G (.A.      r (.G.            B.(.~.I       w P.(.(.U.        ~.(.              T J.G     ",
"    ~.(.(.(.(.(.(.(.(.J.r             % (.U.      A (.(.A.P Y A.(.E.5     F.(.N.E.(.E.J.E.(.(.F.X         % G.(.(.E.P.E.(.U.N.(.A.      r (.G.              B.(.(.~.P.U.(.(.Y (.U.        ~.(.            I (.(.F.                        S.(.(.~.J.J.(.(.P.&       T (.N.      % (.U.        & I.(.(.E.J.P.(.(.S.          B.(.(.~.P.U.(.(.Y (.U.                        T (.(.(.P.J.~.(.~.A         & J.(.(.J.J.U.(.(.M.          ~.(.          X (.E.          Z.(.I                       Z U.(.~.J.J.~.(.~.F                         ~.(.T (.(.U.P.~.(.(.M.          & J.(.(.J.J.U.(.(.M.            S.(.F           % G.(.(.E.P.E.(.U.N.(.A.        Z U.(.~.J.J.~.(.~.F                           I (.(.(.P.E.(.(.E.r       A (.(.A.P Y A.(.E.5       B.(.(.~.P.U.(.(.Y (.U.        7 (.(.~.J.P.(.~.F.(.I       X Z.(.(.~.P.~.(.(.J.&         ~.(.              P (.(.(.P.I.(.(.B.I.(.7         I (.(.U.J.J.(.(.P.7                         r U.(.(.U.P.~.(.G.A.(.Y         Z U.(.~.J.J.~.(.~.F                         F.(.A             r U.(.(.U.P.~.(.G.A.(.Y           E.(.            Z U.(.~.J.J.~.(.~.F                         I.~.          E.(.%             F.(.F             N.(.M.    X V.(.(.P.J.P.(.(.S.%           I.(.(.J.J.(.(.Z.(.A.    A (.(.A.P Y A.(.E.5       I (.(.(.P.E.(.(.E.r                           r (.J.            J.(.%                     r (.P.Z.(.(.I.P.(.(.~.F           B.(.(.~.P.U.(.(.Y (.U.        ~.(.              P (.(.(.P.I.(.(.B.I.(.7                       r U.(.(.U.P.~.(.G.A.(.Y           E.(.          G (.A.      r (.G.              B.(.(.~.P.U.(.(.Y (.U.        ~.(.            5 (.(.~.    ",
"    ~.(.(.(.(.~.P.Z.G                 % (.U.        A P.(.(.(.(.E.Z       F.(.A 5 F.(.(.(.U.M.                B.E.(.(.~.S.& G (.A.      r (.G.                P I.(.(.(.J.w % (.U.        ~.(.            w ~.(.T                           Y P.(.(.(.~.N.X         T (.N.      % (.U.          % B.U.(.(.(.U.P               P I.(.(.(.J.w % (.U.                          F G.~.(.(.(.A.&               N.U.(.(.(.J.Z             ~.(.          X (.E.          Z.(.I                         & A.~.(.(.~.F.5                           ~.(.  Z P.(.(.(.I.F                 N.U.(.(.(.J.Z               S.(.F               B.E.(.(.~.S.& G (.A.          & A.~.(.(.~.F.5                               r J.(.(.(.(.A.7           A P.(.(.(.(.E.Z           P I.(.(.(.J.w % (.U.          F E.(.(.(.I.r V.(.I           P I.(.(.(.E.N.X           ~.(.                r J.(.(.(.I.G   P.(.7           w G.(.(.(.E.V.X                             & S.~.(.(.E.N.  V.(.Y           & A.~.(.(.~.F.5                           F.(.A               & S.~.(.(.E.N.  V.(.Y           ~.(.              & A.~.(.(.~.F.5                           A.(.w       7 (.U.              G E.              G (.S.        G P.(.(.(.I.Y               7 P.(.(.(.~.P P (.A.      A P.(.(.(.(.E.Z           r J.(.(.(.(.A.7                             r (.J.            ~.U.                      r (.G.  Y U.(.(.(.G.7               P I.(.(.(.J.w % (.U.        ~.(.                r J.(.(.(.I.G   P.(.7                         & S.~.(.(.E.N.  V.(.Y           ~.(.          G (.A.      r (.G.                P I.(.(.(.J.w % (.U.        ~.(.            X P.(.S.    ",
"                                                        & Z F A X         F.(.A       Z 5                         7 r                                             & Z X                                     X 7                                 X A A %                                               & A Z                       & Z X                                           Z F &                       & Z X                                                                                   w r                                           % Z %                         & Z X                                           7 r                             w r                                           w r X                   & Z F A X                 & Z X     % (.U.            X A F A                         X Z w                                         X Z %                           X Z 7                                         r 7                             w r                                                           r 7                                               w r                                 Y (.T                             Y                                 % Z %                       Z F F X                   & Z F A X                   w r X                                                 A (.A.                      r (.G.      & Z X                       & Z X                                           X Z %                                           r 7                                                                           & Z X                                       w       ",
"                                                                          F.(.A                                                                                                                                                                                                                                                                                                                                                                                                                                                                                                                                                                                                                                                                                             % (.U.                                                                                                                                                                                                                                                                                                                                                            5 (.S.                                                                                                                                                                                                      B.(.I                       r (.G.                                                                                                                                                                                                                                                                    ",
"                                                                          F.(.A                                                                                                                                                                                                                                                                                                                                                                                                                                                                                                                                                                                                                                                                                             % (.U.                                                                                                                                                                                                                                                                                                                                                              P.(.%                                                                                                                                                                                                     U.(.%                       r (.G.                                                                                                                                                                                                                                                                    ",
"                                                                          F.(.A                                                                                                                                                                                                                                                                                                                                                                                                                                                                                                                                                                                                                                                                                             % (.U.                                                                                                                                                                                                                                                                                                                                                              T (.Y                                                                                                                                                                                                   A (.A.                        r (.G.                                                                                                                                                                                                                                                                    ",
"                                                                          F.(.A                                                                                                                                                                                                                                                                                                                                                                                                                                                                                                                                                                                                                                                                                             % (.U.                                                                                                                                                                                                                                                                                                                                                              & ~.I.                                                                                                                                                                                                  S.(.A                         r (.G.                                                                                                                                                                                                                                                                    ",
"                                                                          F.(.A                                                                                                                                                                                                                                                                                                                                                                                                                                                                                                                                                                                                                                                                                             % (.U.                                                                                                                                                                                                                                                                                                                                                                B.(.P                                                                                                                                                                                               7 (.J.                          r (.G.                                                                                                                                                                                                                                                                    ",
"                                                                          F.(.A                                                                                                                                                                                                                                                                                                                                                                                                                                                                                                                                                                                                                                                                                             % (.U.                                                                                                                                                                                                                                                                                                                                                                % F w                                                                                                                                                                                               5 F 5                           r (.G.                                                                                                                                                                                                                                                                    ",
"                                                                                                                                                                                                                                                                                                                                                                                                                                                                                                                                                                                                                                                                                                                                                                                                                                                                                                                                                                                                                                                                                                                                                                                                                                                                                                                                                                                                                                                                                                                                                                                                                                                                ",
"                                                                                                                                                                                                                                                                                                                                                                                                                                                                                                                                                                                                                                                                                                                                                                                                                                                                                                                                                                                                                                                                                                                                                                                                                                                                                                                                                                                                                                                                                                                                                                                                                                                                ",
"                                                                                                                                                                                                                                                                                                                                                                                                                                                                                                                                                                                                                                                                                                                                                                                                                                                                                                                                                                                                                                                                                                                                                                                                                                                                                                                                                                                                                                                                                                                                                                                                                                                                ",
"                                                                                                                                                                                                                                                                                                                                                                                                                                                                                                                                                                                                                                                                                                                                                                                                                                                                                                                                                                                                                                                                                                                                                                                                                                                                                                                                                                                                                                                                                                                                                                                                                                                                ",
"                                                                                                                                                                                                                                                                                                                                                                                                                                                                                                                                                                                                                                                                                                                                                                                                                                                                                                                                                                                                                                                                                                                                                                                                                                                                                                                                                                                                                                                                                                                                                                                                                                                                ",
"                                                                                                                                                                                                                                                                                                                                                                                                                                                                                                                                                                                                                                                                                                                                                                                                                                                                                                                                                                                                                                                                                                                                                                                                                                                                                                                                                                                                                                                                                                                                                                                                                                                                ",
"                                                                                                                                                                                                                                                                                                                                                                                                                                                                                                                                                                                                                                                                                                                                                                                                                                                                                                                                                                                                                                                                                                                                                                                                                                                                                                                                                                                                                                                                                                                                                                                                                                                                ",
"                                                                                                                                                                                                                                                                                                                                                                                                                                                                                                                                                                                                                                                                                                                                                                                                                                                                                                                                                                                                                                                                                                                                                                                                                                                                                                                                                                                                                                                                                                                                                                                                                                                                ",
"                                                                                                                                                                                                                                                                                                                                                                                                                                                                                                                                                                                                                                                                                                                                                                                                                                                                                                                                                                                                                                                                                                                                                                                                                                                                                                                                                                                                                                                                                                                                                                                                                                                                ",
"                                                                                                                                                                                                                                                                                                                                                                                                                                                                                                                                                                                                                                                                                                                                                                                                                                                                                                                                                                                                                                                                                                                                                                                                                                                                                                                                                                                                                                                                                                                                                                                                                                                                ",
"                                                                                                                                                                                                                                                                                                                                                                                                                                                                                                                                                                                                                                                                                                                                                                                                                                                                                                                                                                                                                                                                                                                                                                                                                                                                                                                                                                                                                                                                                                                                                                                                                                                                ",
"                                                                                                                                                                                                                                                                                                                                                                                                                                                                                                                                                                                                                                                                                                                                                                                                                                                                                                                                                                                                                                                                                                                                                                                                                                                                                                                                                                                                                                                                                                                                                                                                                                                                ",
"                                                                                                                                                                                                                                                                                                                                                                                                                                                                                                                                                                                                                                                                                                                                                                                                                                                                                                                                                                                                                                                                                                                                                                                                                                                                                                                                                                                                                                                                                                                                                                                                                                                                ",
"                                                                                                                                                                                                                                                                                                                                                                                                                                                                                                                                                                                                                                                                                                                                                                                                                                                                                                                                                                                                                                                                                                                                                                                                                                                                                                                                                                                                                                                                                                                                                                                                                                                                ",
"                                                                                                                                                                                                                                                                                                                                                                                                                                                                                                                                                                                                                                                                                                                                                                                                                                                                                                                                                                                                                                                                                                                                                                                                                                                                                                                                                                                                                                                                                                                                                                                                                                                                ",
"                                                                                                                                                                                                                                                                                                                                                                                                                                                                                                                                                                                                                                                                                                                                                                                                                                                                                                                                                                                                                                                                                                                                                                                                                                                                                                                                                                                                                                                                                                                                                                                                                                                                ",
"                                                                                                                                                                                                                                                                                                                                                                                                                                                                                                                                                                                                                                                                                                                                                                                                                                                                                                                                                                                                                                                                                                                                                                                                                                                                                                                                                                                                                                                                                                                                                                                                                                                                ",
"                                                                                                                                                                                                                                                                                                                                                                                                                                                                                                                                                                                                                                                                                                                                                                                                                                                                                                                                                                                                                                                                                                                                                                                                                                                                                                                                                                                                                                                                                                                                                                                                                                                                ",
"                                                                                                                                                                                                                                                                                                                                                                                                                                                                                                                                                                                                                                                                                                                                                                                                                                                                                                                                                                                                                                                                                                                                                                                                                                                                                                                                                                                                                                                                                                                                                                                                                                                                ",
"                                                                                                                                                                                                                                                                                                                                                                                                                                                                                                                                                                                                                                                                                                                                                                                                                                                                                                                                                                                                                                                                                                                                                                                                                                                                                                                                                                                                                                                                                                                                                                                                                                                                ",
"                                                                                                                                                                                                                                                                                                                                                                                                                                                                                                                                                                                                                                                                                                                                                                                                                                                                                                                                                                                                                                                                                                                                                                                                                                                                                                                                                                                                                                                                                                                                                                                                                                                                ",
"                                                                                                                                                                                                                                                                                                                                                                                                                                                                                                                                                                                                                                                                                                                                                                                                                                                                                                                                                                                                                                                                                                                                                                                                                                                                                                                                                                                                                                                                                                                                                                                                                                                                ",
"                                                                                                                                                                                                                                                                                                                                                                                                                                                                                                                                                                                                                                                                                                                                                                                                                                                                                                                                                                                                                                                                                                                                                                                                                                                                                                                                                                                                                                                                                                                                                                                                                                                                ",
"                                                                                                                                                                                                                                                                                                                                                                                                                                                                                                                                                                                                                                                                                                                                                                                                                                                                                                                                                                                                                                                                                                                                                                                                                                                                                                                                                                                                                                                                                                                                                                                                                                                                ",
"                                                                                                                                                                                                                                                                                                                                                                                                                                                                                                                                                                                                                                                                                                                                                                                                                                                                                                                                                                                                                                                                                                                                                                                                                                                                                                                                                                                                                                                                                                                                                                                                                                                                ",
"                                                                                                                                                                                                                                                                                                                                                                                                                                                                                                                                                                                                                                                                                                                                                                                                                                                                                                                                                                                                                                                                                                                                                                                                                                                                                                                                                                                                                                                                                                                                                                                                                                                                ",
"                                                                                                                                                                                                                                                                                                                                                                                                                                                                                                                                                                                                                                                                                                                                                                                                                                                                                                                                                                                                                                                                                                                                                                                                                                                                                                                                                                                                                                                                                                                                                                                                                                                                ",
"                                                                                                                                                                                                                                                                                                                                                                                                                                                                                                                                                                                                                                                                                                                                                                                                                                                                                                                                                                                                                                                                                                                                                                                                                                                                                                                                                                                                                                                                                                                                                                                                                                                                ",
"                                                                                                                                                                                                                                                                                                                                                                                                                                                                                                                                                                                                                                                                                                                                                                                                                                                                                                                                                                                                                                                                                                                                                                                                                                                                                                                                                                                                                                                                                                                                                                                                                                                                ",
"                                                                                                                                                                                                                                                                                                                                                                                                                                                                                                                                                                                                                                                                                                                                                                                                                                                                                                                                                                                                                                                                                                                                                                                                                                                                                                                                                                                                                                                                                                                                                                                                                                                                ",
"                                                                                                                                                                                                                                                                                                                                                                                                                                                                                                                                                                                                                                                                                                                                                                                                                                                                                                                                                                                                                                                                                                                                                                                                                                                                                                                                                                                                                                                                                                                                                                                                                                                                ",
"                                                                                                                                                                                                                                                                                                                                                                                                                                                                                                                                                                                                                                                                                                                                                                                                                                                                                                                                                                                                                                                                                                                                                                                                                                                                                                                                                                                                                                                                                                                                                                                                                                                                ",
"                                                                                                                                                                                                                                                                                                                                                                                                                                                                                                                                                                                                                                                                                                                                                                                                                                                                                                                                                                                                                                                                                                                                                                                                                                                                                                                                                                                                                                                                                                                                                                                                                                                                ",
"                                                                                                                                                                                                                                                                                                                                                                                                                                                                                                                                                                                                                                                                                                                                                                                                                                                                                                                                                                                                                                                                                                                                                                                                                                                                                                                                                                                                                                                                                                                                                                                                                                                                ",
"                                                                                                                                                                                                                                                                                                                                                                                                                                                                                                                                                                                                                                                                                                                                                                                                                                                                                                                                                                                                                                                                                                                                                                                                                                                                                                                                                                                                                                                                                                                                                                                                                                                                ",
"                                                                                                                                                                                                                                                                                                                                                                                                                                                                                                                                                                                                                                                                                                                                                                                                                                                                                                                                                                                                                                                                                                                                                                                                                                                                                                                                                                                                                                                                                                                                                                                                                                                                ",
"                                                                                                                                                                                                                                                                                                                                                                                                                                                                                                                                                                                                                                                                                                                                                                                                                                                                                                                                                                                                                                                                                                                                                                                                                                                                                                                                                                                                                                                                                                                                                                                                                                                                ",
"                                                                                                                                                                                                                                                                                                                                                                                                                                                                                                                                                                                                                                                                                                                                                                                                                                                                                                                                                                                                                                                                                                                                                                                                                                                                                                                                                                                                                                                                                                                                                                                                                                                                ",
"                                                                                                                                                                                                                                                                                                                                                                                                                                                                                                                                                                                                                                                                                                                                                                                                                                                                                                                                                                                                                                                                                                                                                                                                                                                                                                                                                                                                                                                                                                                                                                                                                                                                ",
"                                                                                                                                                                                                                                                                                                                                                                                                                                                                                                                                                                                                                                                                                                                                                                                                                                                                                                                                                                                                                                                                                                                                                                                                                                                                                                                                                                                                                                                                                                                                                                                                                                                                ",
"                                                                                                                                                                                                                                                                                                                                                                                                                                                                                                                                                                                                                                                                                                                                                                                                                                                                                                                                                                                                                                                                                                                                                                                                                                                                                                                                                                                                                                                                                                                                                                                                                                                                ",
"                                                                                                                                                                                                                                                                                                                                                                                                                                                                                                                                                                                                                                                                                                                                                                                                                                                                                                                                                                                                                                                                                                                                                                                                                                                                                                                                                                                                                                                                                                                                                                                                                                                                ",
"                                                                                                                                                                                                                                                                                                                                                                                                                                                                                                                                                                                                                                                                                                                                                                                                                                                                                                                                                                                                                                                                                                                                                                                                                                                                                                                                                                                                                                                                                                                                                                                                                                                                ",
"                                                                                                                                                                                                                                                                                                                                                                                                                                                                                                                                                                                                                                                                                                                                                                                                                                                                                                                                                                                                                                                                                                                                                                                                                                                                                                                                                                                                                                                                                                                                                                                                                                                                ",
"                                                                                                                                                                                                                                                                                                                                                                                                                                                                                                                                                                                                                                                                                                                                                                                                                                                                                                                                                                                                                                                                                                                                                                                                                                                                                                                                                                                                                                                                                                                                                                                                                                                                ",
"                                                                                                                                                                                                                                                                                                                                                                                                                                                                                                                                                                                                                                                                                                                                                                                                                                                                                                                                                                                                                                                                                                                                                                                                                                                                                                                                                                                                                                                                                                                                                                                                                                                                ",
"                                                                                                                                                                                                                                                                                                                                                                                                                                                                                                                                                                                                                                                                                                                                                                                                                                                                                                                                                                                                                                                                                                                                                                                                                                                                                                                                                                                                                                                                                                                                                                                                                                                                ",
"                                                                                                                                                                                                                                                                                                                                                                                                                                                                                                                                                                                                                                                                                                                                                                                                                                                                                                                                                                                                                                                                                                                                                                                                                                                                                                                                                                                                                                                                                                                                                                                                                                                                ",
"                                                                                                                                                                                                                                                                                                                                                                                              A J.M.                                                                                                                                          T J.G                                                                                                                                                                                                                                                                                                                                                                                                                                                                                                                                                                                                                                                                                                                                                                 X J.J.Z.                                                                                                                                                                                                                                                                                                                                    ",
"                                                                                                                                                                                                                                                                                                                                                                                              G (.A.                                                                                                                                          V.(.Y                                                                                                                                                                                                                                                                                                                                                                                                                                                                                                                                                                                                                                                                                                                                                                   (.(.J.                                                                                                                                                                                                                                                                                                                                    ",
"    F.J.J.J.J.J.J.J.J.J.J.w                                                                                                                                                                                                                                                                                                                                                                   G (.A.                                                                                                                                          V.(.Y                                                                                                           % G.J.r                                                                                                                                                                                                                                                                                                                                                                                                                                                                                                                                                                                                                                                 (.(.G.                                                                                                                                                                                                                                                                                                                                    ",
"    ~.(.(.(.(.(.(.(.(.(.(.r                                                                                                                                                                                                                                                                                                                                                                   G (.A.                                                                                                                                          V.(.Y                                                                                                           V.(.V.                                                                                                                                                                                                                                                                                                                                                                                                                                                                                                                                                                                                                                                  ~.(.F.                                                                                                                                                                                                                                                                                                                                    ",
"    ~.(.                                                  M.S.X         7 J.V.                                                                                                                                                                                    P J.Y                                                                                         A.N.                          G (.A.                                                                                                                                          V.(.Y                                                               F.J.                                      5 (.P.X             F G.7                                                                                                                                                               7 J.V.                                                                                                                                                                                        P J.Y                                                                                                                                                                     P J.Y                                                                                     E.(.S.                                                                                                                                                                                                                                                                                                                                    ",
"    ~.(.                                                X (.(.G         r (.J.                                                                                                                                                                                    T (.N.                                                                                      F (.(.%                         G (.A.                                                                                                                                          V.(.Y                                                               E.(.                                      S.~.5               J.(.V.                                                                                                                                                              r (.J.                                                                                                                                                                                        T (.N.                                                                                                                                                                    T (.N.                                                                                    U.(.A.                                                                                                                                                                                                                                                                                                                                    ",
"    ~.(.                                                  V.F.&         r (.J.                                                                                                                                                                                    T (.N.                                                                                      % F.Z.                          G (.A.                                                                                                                                          V.(.Y                                                               E.(.                                      F w                 Y J.Z                                                                                                                                                               r (.J.                                                                                                                                                                                        T (.N.                                                                                                                                                                    T (.N.                                                                                    I.(.Z.                                                                                                                                                                                                                                                                                                                                    ",
"    ~.(.                                                                r (.J.                                                                                                                                                                                    T (.N.                                                                                                                      G (.A.                                                                                                                                          V.(.Y                                                               E.(.                                                                                                                                                                                                                              r (.J.                                                                                                                                                                                        T (.N.                                                                                                                                                                    T (.N.                                                                                    P.(.V.                                                                                                                                                                                                                                                                                                                                    ",
"    ~.(.                                                                r (.J.                Z N.N.M.5                                     X Y N.N.T %                 F M.T A                                 Z N.N.M.5                   r Y M.F X             T (.N.                w N.N.N.r                       5 A           X Y N.N.T %                                 P N.N.T X   G (.A.              F N.N.M.5                 r Y M.F X                               & M.N.N.G                                   % T N.N.P     V.(.Y             & M.N.N.G                   F M.T A               E.(.                  X Z 7           w N.N.N.r                                                         F N.N.M.5                 7 I M.P &                               5 M.N.N.r                           w F r               r (.J.                & M.N.N.G                 % G M.I w                               % T N.N.P                                                   X Y N.N.Y X                               T (.N.                w N.N.N.r                                   5 M.N.N.r                         Z A w X                   X Y N.N.Y X                     X Z 7       T (.N.                & M.N.N.G               r F %   r M.N.Z       % P N.Y X             J.(.B.                                                                                                                                                                                                                                                                                                                                    ",
"    ~.(.                      F (.I.            A.(.M.    P.(.7   Z (.(.(.(.(.(.(.J.      5 F.(.(.(.(.(.V.% (.U.                          Y E.(.(.(.(.~.M.          Z I.(.(.(.(.U.w                         5 F.(.(.(.(.(.V.% (.U.      & F.(.(.(.(.~.P     M.(.(.(.(.(.(.(.N.      & F.(.(.(.(.(.G.w           ~.(.5 J.(.(.G       Y E.(.(.(.(.~.M.          % (.U.          A U.(.(.(.(.E.I G (.A.          A I.(.(.(.(.(.Z.%         & F.(.(.(.(.~.P                           V.(.(.(.(.(.I.G                             Y ~.(.(.(.(.I.Z V.(.Y           V.(.(.(.(.(.I.G           Z I.(.(.(.(.U.w     ~.(.(.(.(.(.(.(.    M.(.N.T ~.(.P.      & F.(.(.(.(.(.J.w           V.(.Y                                 A I.(.(.(.(.(.A.%           V.(.(.(.(.(.V.                          V.(.(.(.(.(.F.& P.(.7       F.(.A B.~.(.(.(.J.5     Z (.(.(.(.(.(.(.J.        V.(.(.(.(.(.I.G           I E.(.(.(.(.G.%                         Y ~.(.(.(.(.I.Z V.(.Y       M.(.N.          & (.U.          Y E.(.(.(.(.~.M.                      M.(.(.(.(.(.(.(.N.      & F.(.(.(.(.(.G.w                             V.(.(.(.(.(.F.& P.(.7           Y I.(.(.(.(.B.%             Y E.(.(.(.(.~.M.          M.(.N.T ~.(.P.M.(.(.(.(.(.(.(.N.        V.(.(.(.(.(.I.G           F.(.A A.(.(.(.(.B.  F E.(.(.(.I.w           G.(.N.                                                                                                                                                                                                                                                                                                                                    ",
"    ~.(.F A A A F F F F A       U.(.Z         % ~.(.&     P.(.7   w J.J.P.(.~.J.J.V.    X P.(.~.F.B.A.U.(.A.(.U.                        Y (.(.J.Z.V.G.(.(.N.      % E.(.A.F F S.(.U.                      X P.(.~.F.B.A.U.(.A.(.U.      F.(.P.F F B.(.(.7   P J.J.U.(.U.J.J.Y     & I.(.~.G.V.S.~.(.~.Z         ~.(.S.(.J.~.G     Y (.(.J.Z.V.G.(.(.N.        % (.U.        w ~.(.E.S.B.S.~.(.A.(.A.        Z ~.(.E.F.V.G.(.(.I.&       F.(.P.F F B.(.(.7                       S.(.(.P.V.A.U.(.(.Y                         P (.(.I.A.V.G.(.~.F.(.Y         S.(.(.P.V.A.U.(.(.Y       % E.(.A.F F S.(.U.    G.J.J.(.(.J.J.J.    M.(.S.(.U.I.P.    & I.(.E.S.B.S.U.(.E.7         V.(.Y                               Z ~.(.I.A.B.F.~.(.G.X       M.(.E.P F I E.(.I                       Z.(.(.G.V.Z.P.(.P.I.(.7       F.(.S.(.U.B.V.I.(.P.    w J.J.P.(.~.J.J.V.      S.(.(.P.V.A.U.(.(.Y       Z (.(.M.F G P.(.A.                      P (.(.I.A.V.G.(.~.F.(.Y       M.(.N.          & (.U.        Y (.(.U.A.V.P.(.(.S.                    P J.J.U.(.U.J.J.Y     & I.(.~.G.V.S.~.(.~.Z                         Z.(.(.G.V.Z.P.(.P.I.(.7         S.(.(.U.J.E.(.(.I.%         Y (.(.U.A.V.P.(.(.S.        M.(.S.(.U.I.P.P J.J.U.(.U.J.J.Y       S.(.(.P.V.A.U.(.(.Y         F.(.J.(.J.N.V.~.(.N.~.~.V.N.P.(.I.          F.(.M.                                                                                                                                                                                                                                                                                                                                    ",
"    ~.(.(.(.(.(.(.(.(.(.E.      T (.Z.        Y (.A.      P.(.7         r (.J.          V.(.I.w       X A.(.(.U.                      Z (.(.I         F E.(.G     G (.J.        U.(.Z                     V.(.I.w       X A.(.(.U.    & (.~.%       A.(.M.        T (.N.          D.(.P.&       5 G.(.U.%       ~.(.(.P   & 7   Z (.(.I         F E.(.G       % (.U.        P.(.F.%       7 P.(.(.A.      % U.(.Z.        r U.(.F.    & (.~.%       A.(.M.                    M.(.E.Z       X B.(.(.Z                     7 ~.(.N.        A E.(.(.Y       M.(.E.Z       X B.(.(.Z     G (.J.        U.(.Z         E.(.          M.(.(.J.%   r     G.(.G.5       % S.(.P.        V.(.Y                             % E.(.V.X       7 P.(.V.      P.(.F       Y (.G.                    P (.~.G         T (.(.(.7       F.(.(.F.%     % U.(.F         r (.J.          M.(.E.Z       X B.(.(.Z     V.(.N.      7 (.~.X                   7 ~.(.N.        A E.(.(.Y       M.(.N.          & (.U.      Z (.(.I         I (.(.T                         T (.N.          F.(.P.&       5 G.(.U.%                     P (.~.G         T (.(.(.7       N.(.~.I       w S.(.G.      Z (.(.I         I (.(.T       M.(.(.J.%   r       T (.N.          M.(.E.Z       X B.(.(.Z       F.(.(.V.      G (.(.U.w     X P.(.G         S.(.T                                                                                                                                                                                                                                                                                                                                     ",
"    ~.(.N.N.N.N.N.N.N.N.M.      % ~.~.X       J.(.Z       P.(.7         r (.J.        5 (.(.r             P.(.U.                      J.(.M.            P (.U.    I (.I.                                5 (.(.r             P.(.U.    5 (.(.7                     T (.N.        F (.~.5           % U.(.M.      ~.(.Z.          J.(.M.            P (.U.      % (.U.      P (.U.X           7 (.(.A.      B.(.J.            r (.(.Z   5 (.(.7                               & ~.(.G             S.(.F.                    Z.(.S.            P (.(.Y     & ~.(.G             S.(.F.    I (.I.                      E.(.          M.(.(.5         F (.E.%             I.(.Y       V.(.Y                             B.(.G.            7 (.(.w     U.(.P                                 I.(.T             V.(.(.7       F.(.~.%         N.(.M.        r (.J.        & ~.(.G             S.(.F.    A.(.Z.                                Z.(.S.            P (.(.Y       M.(.N.          & (.U.      J.(.B.            T (.~.X                       T (.N.        F (.~.5           % U.(.M.                    I.(.T             V.(.(.7     & (.(.Y             I.(.F     J.(.B.            T (.~.X     M.(.(.5             T (.N.        & ~.(.G             S.(.F.      F.(.U.          E.(.G         M.(.N.        A.(.Y                                                                                                                                                                                                                                                                                                                                     ",
"    ~.(.                          Z.(.I     w (.P.        P.(.7         r (.J.        Y (.S.              P (.U.                    5 (.~.                I.(.r   & ~.(.U.P X                           Y (.S.              P (.U.      P.(.~.M.%                 T (.N.        Z.(.N.              I (.G.      ~.(.Z         5 (.~.                I.(.r     % (.U.      A.(.T               V.(.A.      I.(.F               A.(.M.    P.(.~.M.%                           P (.J.              7 (.~.                    U.(.r               I.(.Y     P (.J.              7 (.~.    & ~.(.U.P X                 E.(.          T (.F.          Z.(.M.              P (.F.      V.(.Y                             I.(.Z               Z.(.T     B.(.(.Z.7                           7 (.E.              & (.(.7       F.(.V.          P (.Z.        r (.J.        P (.J.              7 (.~.    G (.(.G.Z                             U.(.r               I.(.Y       M.(.N.          & (.U.    5 (.~.%               U.(.Z                       T (.N.        Z.(.N.              I (.G.                  7 (.E.              & (.(.7     P (.P.              7 F w   5 (.~.%               U.(.Z     M.(.F.              T (.N.        P (.J.              7 (.~.      F.(.B.          P.(.7         P (.Z.        Z.(.I                                                                                                                                                                                                                                                                                                                                     ",
"    ~.(.                          w (.J.    V.(.I         P.(.7         r (.J.        N.(.N.              w (.U.                    A (.J.                A.(.I     r E.(.(.~.F.Y %                     N.(.N.              7 (.U.      % J.(.(.(.J.M.7           T (.N.        G.(.(.(.(.(.(.(.(.(.(.(.U.      ~.(.X         A (.J.                A.(.I     % (.U.      G.(.F               Y (.A.      (.(.(.(.(.(.(.(.(.(.(.(.A.    % J.(.(.(.J.M.7                     N.(.(.(.(.(.(.(.(.(.(.(.(.7                   (.(.                A.(.Y     N.(.(.(.(.(.(.(.(.(.(.(.(.7     r E.(.(.~.F.Y %           E.(.          M.(.B.          G.(.F               7 (.I.      V.(.Y     T E.E.E.E.E.E.E.E.F.    (.(.X               Y (.Z.      V.(.(.(.P.B.Z                     A (.J.                U.(.7       F.(.I           P (.A.        r (.J.        N.(.(.(.(.(.(.(.(.(.(.(.(.7     P (.(.(.U.A.G                       (.(.                A.(.Y       M.(.N.          5 (.U.    A (.(.(.(.(.(.(.(.(.(.(.(.I                       T (.N.        G.(.(.(.(.(.(.(.(.(.(.(.U.                  A (.J.                U.(.7     N.(.V.                      A (.(.(.(.(.(.(.(.(.(.(.(.I     M.(.B.              T (.N.        N.(.(.(.(.(.(.(.(.(.(.(.(.7     F.(.G           P.(.w         P (.A.        V.(.P                                                                                                                                                                                                                                                                                                                                     ",
"    ~.(.                            G.(.7   E.E.X         P.(.7         r (.J.        N.(.N.              w (.U.                    Z (.J.                A.(.I       % G V.U.(.(.U.&                   N.(.N.              7 (.U.          A B.P.(.(.(.A         T (.N.        G.(.I.J.J.J.J.J.J.J.J.J.F.      ~.(.          Z (.J.                A.(.I     % (.U.      G.(.F               Y (.A.      (.(.J.J.J.J.J.J.J.J.J.J.N.        A B.P.(.(.(.A                   M.(.U.J.J.J.J.J.J.J.J.J.J.7                   (.(.                A.(.Y     M.(.U.J.J.J.J.J.J.J.J.J.J.7       % G V.U.(.(.U.&         E.(.          M.(.N.          G.(.F               7 (.U.      V.(.Y     G S.S.S.S.S.S.S.S.N.    (.(.X               Y (.A.        r M.G.(.(.(.M.                  A (.J.                U.(.7       F.(.F           P (.A.        r (.J.        M.(.U.J.J.J.J.J.J.J.J.J.J.7       & I S.~.(.(.F.                    (.(.                A.(.Y       M.(.N.          r (.U.    Z (.~.J.J.J.J.J.J.J.J.J.J.G                       T (.N.        G.(.I.J.J.J.J.J.J.J.J.J.F.                  A (.J.                U.(.7     M.(.V.                      Z (.~.J.J.J.J.J.J.J.J.J.J.G     M.(.N.              T (.N.        M.(.U.J.J.J.J.J.J.J.J.J.J.7     F.(.A           P.(.w         P (.A.        F N.w                                                                                                                                                                                                                                                                                                                                     ",
"    ~.(.                            G (.B.G (.B.          P.(.7         r (.J.        I (.S.              P (.U.                    & (.~.X               I.(.Z               Z U.(.Z.                  I (.S.              P (.U.                5 F.(.I.        T (.N.        Z.(.N.                          ~.(.          & (.~.X               I.(.Z     % (.U.      Z.(.T               Z.(.A.      I.(.A                                   5 F.(.I.                  P (.G.                                        I.(.r               I.(.Y     P (.G.                                    Z U.(.Z.        E.(.          M.(.N.          Z.(.M.              P (.F.      V.(.I                             I.(.Z               Z.(.M.              % N.(.(.5                 5 (.E.              & (.(.7       F.(.A           P (.A.        r (.J.        P (.G.                                    P ~.(.P                   I.(.r               I.(.Y       T (.N.          Y (.U.    & (.~.X                                           T (.N.        Z.(.N.                                      5 (.E.              & (.(.7     P (.G.                      & (.~.X                         M.(.N.              T (.N.        P (.G.                          F.(.A           P.(.w         P (.A.                                                                                                                                                                                                                                                                                                                                                  ",
"    ~.(.                              U.E.F.(.7           P.(.7         r (.J.        5 (.(.F           % U.(.U.                      J.(.V.            T (.U.    P N.r         F (.I.                  5 (.(.F           % U.(.U.    Z N.P         % (.(.&       T (.N.        F (.E.7           % N.N.5       ~.(.            J.(.V.            T (.U.      % (.U.      P (.E.5           Z (.(.A.      B.(.J.X           r N.M.    Z N.P         % (.(.&                 & (.(.F             T N.A                     Z.(.J.            T (.(.Y     & (.(.F             T N.A     P N.r         F (.P.        E.(.          M.(.N.          F (.~.7           & U.(.Y       V.(.Y                             B.(.P.X           Z (.(.w   & N.M.          J.(.P                   I.(.B.            F.(.(.7       F.(.A           P (.A.        r (.J.        & (.(.F             T N.A     M.N.&         B.(.V.                  Z.(.J.            T (.(.Y       G (.S.          J.(.U.      J.(.V.            G N.I                         T (.N.        F (.E.7           % N.N.5                     I.(.B.            F.(.(.7     & (.(.P           & E.(.F     J.(.V.            G N.I       M.(.N.              T (.N.        & (.(.F             T N.A       F.(.A           P.(.w         P (.A.                                                                                                                                                                                                                                                                                                                                                  ",
"    ~.(.                              M.(.(.F.            P.(.7         r (.J.          B.(.~.I       w P.(.(.U.                      A (.(.Z.X     X B.(.(.F     M.(.G.        T (.G.                    B.(.~.I       w P.(.(.U.    Z (.E.%       w (.(.X       T (.N.          F.(.E.P     X F I.(.F.        ~.(.            A (.(.Z.X     X B.(.(.F       % (.U.        P.(.U.Z       G E.(.(.A.      & U.(.J.Z     % Y E.(.M.    Z (.E.%       w (.(.X                   T (.(.N.X     r F.(.E.%                     7 ~.(.G.5       N.(.(.(.Y       T (.(.N.X     r F.(.E.%     M.(.G.        T (.G.        ~.(.          M.(.N.            F.(.E.F       Z I.(.J.        V.(.Y                             & U.(.J.7       I ~.(.B.      ~.(.Z       X E.(.A                   G (.(.V.X     % S.(.(.(.7       F.(.A           P (.A.        r (.J.          T (.(.N.X     r F.(.E.%     F.(.N.        S.(.N.                  7 ~.(.G.5       N.(.(.(.Y       7 (.~.r     X Z.(.(.U.      Z ~.(.A.5     5 B.(.(.Z                         T (.N.          F.(.E.P     X F I.(.F.                      G (.(.V.X     % S.(.(.(.7       N.(.(.Y       7 P.(.F.      Z ~.(.A.5     5 B.(.(.Z       T (.N.              T (.N.          T (.(.N.X     r F.(.E.%       F.(.A           P.(.w         P (.A.        M.J.F                                                                                                                                                                                                                                                                                                                                     ",
"    ~.(.J.J.J.J.J.J.J.J.J.w           & (.(.F             P.(.7         r (.J.            B.(.(.~.P.U.(.(.Y (.U.                        Z U.(.~.J.J.~.(.~.F       5 U.(.G.T P V.~.(.F                       B.(.(.~.P.U.(.(.Y (.U.      G.(.I.N.G N.U.(.N.        T (.N.          X Z.(.(.~.P.~.(.(.J.&         ~.(.              Z U.(.~.J.J.~.(.~.F         % (.U.        % G.(.(.E.P.E.(.U.N.(.A.        & J.(.(.E.P.(.(.(.Z.        G.(.I.N.G N.U.(.N.                      I (.(.(.P.E.(.(.E.r                         r U.(.(.U.P.~.(.G.A.(.Y         I (.(.(.P.E.(.(.E.r       5 U.(.G.T P V.~.(.F         ~.(.          M.(.N.            X V.(.(.P.J.P.(.(.S.%         V.(.Y                               & J.(.(.J.J.U.(.(.M.        M.(.E.V.G T J.(.G.                      P (.(.(.P.I.(.(.B.I.(.7       F.(.A           P (.A.        r (.J.            I (.(.(.P.E.(.(.E.r       A (.(.A.P Y A.(.E.5                     r U.(.(.U.P.~.(.G.A.(.Y         Z.(.(.I.J.~.(.A.(.U.        Z E.(.(.I.I.(.(.(.P                           T (.N.          X Z.(.(.~.P.~.(.(.J.&                         P (.(.(.P.I.(.(.B.I.(.7         S.(.(.~.J.J.(.(.I.&         Z E.(.(.I.I.(.(.(.P         T (.N.              T (.N.            I (.(.(.P.E.(.(.E.r         F.(.A           P.(.w         P (.A.      7 (.(.E.                                                                                                                                                                                                                                                                                                                                    ",
"    ~.(.(.(.(.(.(.(.(.(.(.r             A.U.              P.(.7         r (.J.              P I.(.(.(.J.w % (.U.                          & A.~.(.(.~.F.5           7 S.(.(.(.(.(.Y                           P I.(.(.(.J.w % (.U.      X B.(.(.(.(.(.Z.          T (.N.              P I.(.(.(.E.N.X           ~.(.                & A.~.(.(.~.F.5           % (.U.            B.E.(.(.~.S.& G (.A.          X B.U.(.(.(.I.I           X B.(.(.(.(.(.Z.                          r J.(.(.(.(.A.7                             & S.~.(.(.E.N.  V.(.Y           r J.(.(.(.(.A.7           7 S.(.(.(.(.(.Y           E.(.          M.(.N.                G P.(.(.(.I.Y             V.(.Y                                   N.U.(.(.(.J.Z             Y E.(.(.(.(.P.&                         r J.(.(.(.I.G   P.(.7       F.(.A           P (.A.        r (.J.              r J.(.(.(.(.A.7           A P.(.(.(.(.E.Z                         & S.~.(.(.E.N.  V.(.Y         X A.(.(.(.(.B.& (.U.          & S.~.(.(.(.G.Z                             T (.N.              P I.(.(.(.E.N.X                             r J.(.(.(.I.G   P.(.7           Y P.(.(.(.~.N.X             & S.~.(.(.(.G.Z           M.(.N.              T (.N.              r J.(.(.(.(.A.7           F.(.A           P.(.w         P (.A.      X I.(.A.                                                                                                                                                                                                                                                                                                                                    ",
"                                        Z T                                                     & Z X                                           w r                     % r F F &                                 & Z X                     X w A F w                                     X Z w                                           w r                                       7 r                             & Z 7                   X w A F w                                   w r X                                       r 7                             w r X                   % r F F &                                                     % Z %                                                             & Z X                     7 A F Z                                 X Z %                                                                           w r X                   & Z F A X                                 r 7       V.(.Y             7 F F 5                         7 Z &                                                         X Z w                                       X Z %                           X A A %                       7 Z &                                                             w r X                                                             w                                                                                                                                                                                                                                                                                                                                       ",
"                                          X                                                                                                                                                                                                                                                                                                                                                                                                                                                                                                                                                                                                                                                                                                                                                                                                                                                                                                               V.(.Y                                                                                                                                                                                                                                                                                                                                                                                                                                                                                                                                                                                                                                                                                                 ",
"                                                                                                                                                                                                                                                                                                                                                                                                                                                                                                                                                                                                                                                                                                                                                                                                                                                                                                                                                          V.(.Y                                                                                                                                                                                                                                                                                                                                                                                                                                                                                                                                                                                                                                                                                                 ",
"                                                                                                                                                                                                                                                                                                                                                                                                                                                                                                                                                                                                                                                                                                                                                                                                                                                                                                                                                          V.(.Y                                                                                                                                                                                                                                                                                                                                                                                                                                                                                                                                                                                                                                                                                                 ",
"                                                                                                                                                                                                                                                                                                                                                                                                                                                                                                                                                                                                                                                                                                                                                                                                                                                                                                                                                          V.(.Y                                                                                                                                                                                                                                                                                                                                                                                                                                                                                                                                                                                                                                                                                                 ",
"                                                                                                                                                                                                                                                                                                                                                                                                                                                                                                                                                                                                                                                                                                                                                                                                                                                                                                                                                          V.(.Y                                                                                                                                                                                                                                                                                                                                                                                                                                                                                                                                                                                                                                                                                                 ",
"                                                                                                                                                                                                                                                                                                                                                                                                                                                                                                                                                                                                                                                                                                                                                                                                                                                                                                                                                          V.(.Y                                                                                                                                                                                                                                                                                                                                                                                                                                                                                                                                                                                                                                                                                                 ",
"                                                                                                                                                                                                                                                                                                                                                                                                                                                                                                                                                                                                                                                                                                                                                                                                                                                                                                                                                                                                                                                                                                                                                                                                                                                                                                                                                                                                                                                                                                                                                                                                                                                                ",
"                                                                                                                                                                                                                                                                                                                                                                                                                                                                                                                                                                                                                                                                                                                                                                                                                                                                                                                                                                                                                                                                                                                                                                                                                                                                                                                                                                                                                                                                                                                                                                                                                                                                ",
"                                                                                                                                                                                                                                                                                                                                                                                                                                                                                                                                                                                                                                                                                                                                                                                                                                                                                                                                                                                                                                                                                                                                                                                                                                                                                                                                                                                                                                                                                                                                                                                                                                                                ",
"                                                                                                                                                                                                                                                                                                                                                                                                                                                                                                                                                                                                                                                                                                                                                                                                                                                                                                                                                                                                                                                                                                                                                                                                                                                                                                                                                                                                                                                                                                                                                                                                                                                                ",
"                                                                                                                                                                                                                                                                                                                                                                                                                                                                                                                                                                                                                                                                                                                                                                                                                                                                                                                                                                                                                                                                                                                                                                                                                                                                                                                                                                                                                                                                                                                                                                                                                                                                ",
"                                                                                                                                                                                                                                                                                                                                                                                                                                                                                                                                                                                                                                                                                                                                                                                                                                                                                                                                                                                                                                                                                                                                                                                                                                                                                                                                                                                                                                                                                                                                                                                                                                                                ",
"                                                                                                                                                                                                                                                                                                                                                                                                                                                                                                                                                                                                                                                                                                                                                                                                                                                                                                                                                                                                                                                                                                                                                                                                                                                                                                                                                                                                                                                                                                                                                                                                                                                                ",
"                                                                                                                                                                                                                                                                                                                                                                                                                                                              = m 9.s.n.4                                                                                                                                                                                                                                                                                                                                                                                                                                                                                                                                                                                                                                                                                                                                                                                                                                                                                                                                                                                                                                                                                                                                                                                       ",
"                                                                                                                                                                                                                                                                                                                                                                                                                                                        # C g.n.n.n.n.n.#                                                                                                                                                                                                                                                                                                                                                                                                                                                                                                                                                                                                                                                                                                                                                                                                                                                                                                                                                                                                                                                                                                                                                                                       ",
"                                                                                                                                                                                                                                                                                                                                                                                                                                                    2 q.n.n.n.n.n.n.n.l.                                                                                                                                                                                                                                                                                                                                                                                                                                                                                                                                                                                                                                                                                                                                                                                                                                                                                                                                                                                                                                                                                                                                                                                        ",
"                                                                                                                                                                                                                                                                                                          7 A.M.                                                                                                                                2 0.n.n.v.g.n.n.n.n.n.w.                                                                                                                                                                                                                                                                                                                                                                                                                                                                                                                                                                                                                                                                                                                                                                                                                                                                                                                                                                                                                                                                                                                                                                                        ",
"                                                                                                                                                                                                                                                                                                          r (.G.                                                                                                                              V v.n.n.B o   # e.n.n.n.B                                                                                                                                                                                                                                                                                                                                                                                                                                                                                                                                                                                                                                                                                                                                                                                                                                                                                                                                                                                                                                                                                                                                                                                         ",
"    F.J.J.J.J.F.V.P X                                                                                                                                                                                                                                                                                     r (.G.                                                                                                                          # s.n.n.n.k.w.7.2     j.n.n.#                                                                                                                                                                                                                                                                                                                                                                                                                                                                                                                                                                                                                                                                                                                                                                                                                                                                                                                                                                                                                                                                                                                                                                                         ",
"    ~.(.(.(.(.(.(.(.E.G                                                                                                                                                                                                                                                                                   r (.G.                                                                                                                        b v.n.n.n.n.n.n.n.v.v   9.n.e.                                                                                                                                                                                                                                                                                                                                                                                                                                                                                                                                                                                                                                                                                                                                                                                                                                                                                                                                                                                                                                                                                                                                                                                          ",
"    ~.(.F F F G M.P.(.(.F                                                                                                                                                             P J.Y                                                                                                   5 G.G       r (.G.                                        P J.Y                                                                 : t > : J n.n.n.n.n.n.n.n.n.n.s.  w.n.b                                                                                                                                                                                                                                                                                                                                                                                                                                                                                                                                                                                                                                                                                                                                                                                                                                                                                                                                                                                                                                                                                                                                                                                           ",
"    ~.(.            V.(.F.                                                                                                                                                            T (.N.                                                                                                  B.(.P.      r (.G.                                        T (.N.                                                              t Q Q Q K n.n.n.n.n.n.n.n.n.n.n.k.# v.j.                                                                                                                                                                                                                                                                                                                                                                                                                                                                                                                                                                                                                                                                                                                                                                                                                                                                                                                                                                                                                                                                                                                                                                                            ",
"    ~.(.            7 (.U.                                                                                                                                                            T (.N.                                                                                                  Z G.Y       r (.G.                                        T (.N.                                                            s Q Q Q X.n.n.n.n.n.n.n.n.z.n.n.n.k.j.n.m                                                                                                                                                                                                                                                                                                                                                                                                                                                                                                                                                                                                                                                                                                                                                                                                                                                                                                                                                                                                                                                                                                                                                                                             ",
"    ~.(.            7 (.I.                                                                                                                                                            T (.N.                                                                                                              r (.G.                                        T (.N.                                                          s Q Q Q ~ v.n.n.n.n.n.n.p./ c.n.n.n.n.n.j.                                                                                                                                                                                                                                                                                                                                                                                                                                                                                                                                                                                                                                                                                                                                                                                                                                                                                                                                                                                                                                                                                                                                                                                              ",
"    ~.(.            T (.A.              F N.N.M.5                     P N.N.T X                                 % G M.I w                 & M.N.N.P                       % A %       T (.N.                w N.N.N.r                                                   A N.N.M.&                         r (.G.              w N.N.N.r                 T (.N.                w N.N.N.r                             . d Q Q Q Q K n.n.n.n.n.x.} Q ..n.n.n.n.n.n.n                                                                                                                                                                                                                                                                                                                                                                                                                                                                                                                                                                                                                                                                                                                                                                                                                                                                                                                                                                                                                                                                                                                                                                                               ",
"    ~.(.        w M.~.~.w           A I.(.(.(.(.(.A.%             A U.(.(.(.(.E.I G (.A.                      I E.(.(.(.(.G.%           V.(.(.(.(.(.U.G           F.(.A A.(.(.B.M.(.(.(.(.(.(.(.N.      & F.(.(.(.(.(.G.w                                     r (.G.7 P.(.(.(.(.(.B.          G (.A.      r (.G.          & F.(.(.(.(.(.J.w       M.(.(.(.(.(.(.(.N.      & F.(.(.(.(.(.J.w                       . R Q Q Q Q Q c.n.n.n.n.i.~ Q ^ z.n.n.n.n.n.e.                                                                                                                                                                                                                                                                                                                                                                                                                                                                                                                                                                                                                                                                                                                                                                                                                                                                                                                                                                                                                                                                                                                                                                                                ",
"    ~.(.(.(.(.(.(.(.~.F           Z ~.(.I.A.B.F.~.(.G.X         w ~.(.E.S.B.S.~.(.A.(.A.                    Z (.(.M.F G P.(.A.        S.(.(.F.V.Z.P.(.(.F         F.(.S.(.P.U.B.P J.J.U.(.U.J.J.Y     & I.(.~.G.V.S.~.(.~.Z                                   r (.P.I.(.J.Z.V.J.(.(.N.        G (.A.      r (.G.        & I.(.E.S.B.S.U.(.E.7     P J.J.U.(.U.J.J.Y     & I.(.E.S.B.S.U.(.E.7                       . ; i E Q ^ n.n.n.v...Q Q E d.n.n.n.n.n.v.#                                                                                                                                                                                                                                                                                                                                                                                                                                                                                                                                                                                                                                                                                                                                                                                                                                                                                                                                                                                                                                                                                                                                                                                                 ",
"    ~.(.(.(.(.(.(.(.(.I.A       % E.(.V.X       7 P.(.V.        P.(.F.%       7 P.(.(.A.                    V.(.N.      7 (.~.X     M.(.U.Z         M.(.~.7       F.(.(.Z.    r       T (.N.          F.(.P.&       5 G.(.U.%                                 r (.(.(.I         I (.(.A       G (.A.      r (.G.        G.(.G.5       % S.(.P.          T (.N.          G.(.G.5       % S.(.P.                            . t L n.n.z.} Q Q Q r.n.n.n.n.n.n.m                                                                                                                                                                                                                                                                                                                                                                                                                                                                                                                                                                                                                                                                                                                                                                                                                                                                                                                                                                                                                                                                                                                                                                                                   ",
"    ~.(.          r V.(.(.F     B.(.G.            7 (.(.w     P (.U.X           7 (.(.A.                    A.(.Z.                & ~.(.Z             Z.(.A.      F.(.I.              T (.N.        F (.~.5           % U.(.M.                                r (.(.N.            B.(.G.      G (.A.      r (.G.      F (.E.%             I.(.Y         T (.N.        F (.E.%             I.(.Y                               8.n.c./ Q Q Q | n.n.n.n.n.n.9.                                                                                                                                                                                                                                                                                                                                                                                                                                                                                                                                                                                                                                                                                                                                                                                                                                                                                                                                                                                                                                                                                                                                                                                                    ",
"    ~.(.              I (.P.    I.(.Z               Z.(.T     A.(.T               V.(.A.                    G (.(.G.Z             P (.F.              & (.~.      F.(.M.              T (.N.        Z.(.N.              I (.G.                                r (.(.X             X (.(.X     G (.A.      r (.G.      Z.(.M.              P (.F.        T (.N.        Z.(.M.              P (.F.                            @ y.a.! Q Q Q / z.n.n.n.n.n.h.                                                                                                                                                                                                                                                                                                                                                                                                                                                                                                                                                                                                                                                                                                                                                                                                                                                                                                                                                                                                                                                                                                                                                                                                      ",
"    ~.(.                I.(.5   (.(.X               Y (.Z.    G.(.F               Y (.A.                      P (.(.(.U.A.G       N.(.B.                U.(.5     F.(.G               T (.N.        G.(.(.(.(.(.(.(.(.(.(.(.U.                                r (.I.                P.(.w     G (.A.      r (.G.      G.(.F               7 (.I.        T (.N.        G.(.F               7 (.I.                        1 [ >.&.E Q Q Q ! c.n.n.n.n.n.d.u                                                                                                                                                                                                                                                                                                                                                                                                                                                                                                                                                                                                                                                                                                                                                                                                                                                                                                                                                                                                                                                                                                                                                                                                       ",
"    ~.(.                F.(.A   (.(.X               Y (.A.    G.(.F               Y (.A.                        & I S.~.(.(.F.    M.(.B.                U.(.5     F.(.A               T (.N.        G.(.I.J.J.J.J.J.J.J.J.J.F.                                r (.I.                P.(.w     G (.A.      r (.G.      G.(.F               7 (.U.        T (.N.        G.(.F               7 (.U.                      z :.,.5.` Q Q Q Q i.n.n.n.n.v.r.! y                                                                                                                                                                                                                                                                                                                                                                                                                                                                                                                                                                                                                                                                                                                                                                                                                                                                                                                                                                                                                                                                                                                                                                                                       ",
"    ~.(.                I.(.r   I.(.Z               Z.(.M.    Z.(.T               Z.(.A.                                P ~.(.P   P (.F.              & (.~.      F.(.A               T (.N.        Z.(.N.                                                    r (.(.X             X (.(.%     G (.A.      r (.G.      Z.(.M.              P (.F.        T (.N.        Z.(.M.              P (.F.                    < :.>.5.5.Q Q Q Q %.n.n.n.m.i./ Q Q i                                                                                                                                                                                                                                                                                                                                                                                                                                                                                                                                                                                                                                                                                                                                                                                                                                                                                                                                                                                                                                                                                                                                                                                                       ",
"    ~.(.              F (.E.    B.(.P.X           Z (.(.w     P (.E.5           Z (.(.A.                    M.N.&         B.(.V.  & (.(.P             F.(.A.      F.(.A               T (.N.        F (.E.7           % N.N.5         F F w                   r (.(.Z.            Z.(.G.      G (.A.      r (.G.      F (.~.7           & U.(.Y         T (.N.        F (.~.7           & U.(.Y                     c :.,.5.3.Q Q ( $.f.0.t. .! Q Q Q Q y                                                                                                                                                                                                                                                                                                                                                                                                                                                                                                                                                                                                                                                                                                                                                                                                                                                                                                                                                                                                                                                                                                                                                                                                       ",
"    ~.(.            I E.(.M.    & U.(.J.7       I ~.(.B.        P.(.U.Z       G E.(.(.A.                    F.(.N.        S.(.N.    T (.(.T       & F.(.E.7       F.(.A               T (.N.          F.(.E.P     X F I.(.F.        r (.(.G                   r (.(.(.Z.X     % A.(.(.Z       G (.A.      r (.G.        F.(.E.F       Z I.(.J.          T (.N.          F.(.E.F       Z I.(.J.                      =.:.<.5.6.1.2.5.,.x   - Q Q Q Q Q d                                                                                                                                                                                                                                                                                                                                                                                                                                                                                                                                                                                                                                                                                                                                                                                                                                                                                                                                                                                                                                                                                                                                                                                                         ",
"    ~.(.J.J.J.J.P.~.(.(.Z.        & J.(.(.J.J.U.(.(.M.          % G.(.(.E.P.E.(.U.N.(.A.                    A (.(.A.P Y A.(.E.5       I (.(.U.J.J.(.(.P.7         F.(.A               T (.N.          X Z.(.(.~.P.~.(.(.J.&         T (.I.                    r (.P.Z.(.(.I.P.(.(.~.F         G (.A.      r (.G.        X V.(.(.P.J.P.(.(.S.%           T (.N.          X V.(.(.P.J.P.(.(.S.%                     o :.:.:.4.5.5.5.5.:.@     d Q Q Q R .                                                                                                                                                                                                                                                                                                                                                                                                                                                                                                                                                                                                                                                                                                                                                                                                                                                                                                                                                                                                                                                                                                                                                                                                         ",
"    ~.(.(.(.(.(.(.~.S.Z               N.U.(.(.(.J.Z                 B.E.(.(.~.S.& G (.A.                      A P.(.(.(.(.E.Z           w G.(.(.(.E.V.X           F.(.A               T (.N.              P I.(.(.(.E.N.X           A.(.M.                    r (.G.  Y U.(.(.(.G.7           G (.A.      r (.G.            G P.(.(.(.I.Y               T (.N.              G P.(.(.(.I.Y                         f :.:.:.:.,.4.3.:.]       > Q Q W O                                                                                                                                                                                                                                                                                                                                                                                                                                                                                                                                                                                                                                                                                                                                                                                                                                                                                                                                                                                                                                                                                                                                                                                                           ",
"                                          & Z X                         7 r                                       & Z F A X                 X Z 7                                                             X Z w                 I.~.&                     r (.G.      & Z X                                                 % Z %                                           % Z %                             z :.:.:.:.:.:.:.=.o       . Q E -                                                                                                                                                                                                                                                                                                                                                                                                                                                                                                                                                                                                                                                                                                                                                                                                                                                                                                                                                                                                                                                                                                                                                                                                             ",
"                                                                                                                                                                                                                                  & (.Z.                      r (.G.                                                                                                                                              c :.:.:.:.:.;.'             R :                                                                                                                                                                                                                                                                                                                                                                                                                                                                                                                                                                                                                                                                                                                                                                                                                                                                                                                                                                                                                                                                                                                                                                                                               ",
"                                                                                                                                                                                                                                  G (.r                       r (.G.                                                                                                                                              z -.{ ' g @                 ;                                                                                                                                                                                                                                                                                                                                                                                                                                                                                                                                                                                                                                                                                                                                                                                                                                                                                                                                                                                                                                                                                                                                                                                                                 ",
"                                                                                                                                                                                                                                  N.J.                        r (.G.                                                                                                                                                                                                                                                                                                                                                                                                                                                                                                                                                                                                                                                                                                                                                                                                                                                                                                                                                                                                                                                                                                                                                                                                                                                                                                                                                                                            ",
"                                                                                                                                                                                                                                                              r (.G.                                                                                                                                                                                                                                                                                                                                                                                                                                                                                                                                                                                                                                                                                                                                                                                                                                                                                                                                                                                                                                                                                                                                                                                                                                                                                                                                                                                            ",
"                                                                                                                                                                                                                                                              r (.G.                                                                                                                                                                                                                                                                                                                                                                                                                                                                                                                                                                                                                                                                                                                                                                                                                                                                                                                                                                                                                                                                                                                                                                                                                                                                                                                                                                                            ",
"                                                                                                                                                                                                                                                              r (.G.                                                                                                                                                                                                                                                                                                                                                                                                                                                                                                                                                                                                                                                                                                                                                                                                                                                                                                                                                                                                                                                                                                                                                                                                                                                                                                                                                                                            ",
"                                                                                                                                                                                                                                                                                                                                                                                                                                                                                                                                                                                                                                                                                                                                                                                                                                                                                                                                                                                                                                                                                                                                                                                                                                                                                                                                                                                                                                                                                                                                                                                                                                                                ",
"                                                                                                                                                                                                                                                                                                                                                                                                                                                                                                                                                                                                                                                                                                                                                                                                                                                                                                                                                                                                                                                                                                                                                                                                                                                                                                                                                                                                                                                                                                                                                                                                                                                                ",
"                                                                                                                                                                                                                                                                                                                                                                                                                                                                                                                                                                                                                                                                                                                                                                                                                                                                                                                                                                                                                                                                                                                                                                                                                                                                                                                                                                                                                                                                                                                                                                                                                                                                ",
"                                                                                                                                                                                                                                                                                                                                                                                                                                                                                                                                                                                                                                                                                                                                                                                                                                                                                                                                                                                                                                                                                                                                                                                                                                                                                                                                                                                                                                                                                                                                                                                                                                                                ",
"                                                                                                                                                                                                                                                                                                                                                                                                                                                                                                                                                                                                                                                                                                                                                                                                                                                                                                                                                                                                                                                                                                                                                                                                                                                                                                                                                                                                                                                                                                                                                                                                                                                                ",
"                                                                                                                                                                                                                                                                                                                                                                                                                                                                                                                                                                                                                                                                                                                                                                                                                                                                                                                                                                                                                                                                                                                                                                                                                                                                                                                                                                                                                                                                                                                                                                                                                                                                ",
"                                                                                                                                                                                                                                                                                                                                                                                                                                                                                                                                                                                                                                                                                                                                                                                                                                                                                                                                                                                                                                                                                                                                                                                                                                                                                                                                                                                                                                                                                                                                                                                                                                                                ",
"                                                                                                                                                                                                                                                                                                                                                                                                                                                                                                                                                                                                                                                                                                                                                                                                                                                                                                                                                                                                                                                                                                                                                                                                                                                                                                                                                                                                                                                                                                                                                                                                                                                                ",
"                                                                                                                                                                                                                                                                                                                                                                                                                                                                                                                                                                                                                                                                                                                                                                                                                                                                                                                                                                                                                                                                                                                                                                                                                                                                                                                                                                                                                                                                                                                                                                                                                                                                ",
"                                                                                                                                                                                                                                                                                                                                                                                                                                                                                                                                                                                                                                                                                                                                                                                                                                                                                                                                                                                                                                                                                                                                                                                                                                                                                                                                                                                                                                                                                                                                                                                                                                                                ",
"                                                                                                                                                                                                                                                                                                                                                                                                                                                                                                                                                                                                                                                                                                                                                                                                                                                                                                                                                                                                                                                                                                                                                                                                                                                                                                                                                                                                                                                                                                                                                                                                                                                                ",
"                                                                                                                                                                                                                                                                                                                                                                                                                                                                                                                                                                                                                                                                                                                                                                                                                                                                                                                                                                                                                                                                                                                                                                                                                                                                                                                                                                                                                                                                                                                                                                                                                                                                ",
"                                                                                                                                                                                                                                                                                                                                                                                                                                                                                                                                                                                                                                                                                                                                                                                                                                                                                                                                                                                                                                                                                                                                                                                                                                                                                                                                                                                                                                                                                                                                                                                                                                                                ",
"                                                                                                                                                                                                                                                                                                                                                                                                                                                                                                                                                                                                                                                                                                                                                                                                                                                                                                                                                                                                                                                                                                                                                                                                                                                                                                                                                                                                                                                                                                                                                                                                                                                                ",
"                                                                                                                                                                                                                                                                                                                                                                                                                                                                                                                                                                                                                                                                                                                                                                                                                                                                                                                                                                                                                                                                                                                                                                                                                                                                                                                                                                                                                                                                                                                                                                                                                                                                ",
"                                                                                                                                                                                                                                                                                                                                                                                                                                                                                                                                                                                                                                                                                                                                                                                                                                                                                                                                                                                                                                                                                                                                                                                                                                                                                                                                                                                                                                                                                                                                                                                                                                                                ",
"                                                                                                                                                                                                                                                                                                                                                                                                                                                                                                                                                                                                                                                                                                                                                                                                                                                                                                                                                                                                                                                                                                                                                                                                                                                                                                                                                                                                                                                                                                                                                                                                                                                                ",
"                                                                                                                                                                                                                                                                                                                                                                                                                                                                                                                                                                                                                                                                                                                                                                                                                                                                                                                                                                                                                                                                                                                                                                                                                                                                                                                                                                                                                                                                                                                                                                                                                                                                ",
"                                                                                                                                                                                                                                                                                                                                                                                                                                                                                                                                                                                                                                                                                                                                                                                                                                                                                                                                                                                                                                                                                                                                                                                                                                                                                                                                                                                                                                                                                                                                                                                                                                                                ",
"                                                                                                                                                                                                                                                                                                                                                                                                                                                                                                                                                                                                                                                                                                                                                                                                                                                                                                                                                                                                                                                                                                                                                                                                                                                                                                                                                                                                                                                                                                                                                                                                                                                                ",
"                                                                                                                                                                                                                                                                                                                                                                                                                                                                                                                                                                                                                                                                                                                                                                                                                                                                                                                                                                                                                                                                                                                                                                                                                                                                                                                                                                                                                                                                                                                                                                                                                                                                ",
"                                                                                                                                                                                                                                                                                                                                                                                                                                                                                                                                                                                                                                                                                                                                                                                                                                                                                                                                                                                                                                                                                                                                                                                                                                                                                                                                                                                                                                                                                                                                                                                                                                                                ",
"                                                                                                                                                                                                                                                                                                                                                                                                                                                                                                                                                                                                                                                                                                                                                                                                                                                                                                                                                                                                                                                                                                                                                                                                                                                                                                                                                                                                                                                                                                                                                                                                                                                                ",
"                                                                                                                                                                                                                                                                                                                                                                                                                                                                                                                                                                                                                                                                                                                                                                                                                                                                                                                                                                                                                                                                                                                                                                                                                                                                                                                                                                                                                                                                                                                                                                                                                                                                ",
"                                                                                                                                                                                                                                                                                                                                                                                                                                                                                                                                                                                                                                                                                                                                                                                                                                                                                                                                                                                                                                                                                                                                                                                                                                                                                                                                                                                                                                                                                                                                                                                                                                                                ",
"                                                                                                                                                                                                                                                                                                                                                                                                                                                                                                                                                                                                                                                                                                                                                                                                                                                                                                                                                                                                                                                                                                                                                                                                                                                                                                                                                                                                                                                                                                                                                                                                                                                                ",
"                                                                                                                                                                                                                                                                                                                                                                                                                                                                                                                                                                                                                                                                                                                                                                                                                                                                                                                                                                                                                                                                                                                                                                                                                                                                                                                                                                                                                                                                                                                                                                                                                                                                ",
"                                                                                                                                                                                                                                                                                                                                                                                                                                                                                                                                                                                                                                                                                                                                                                                                                                                                                                                                                                                                                                                                                                                                                                                                                                                                                                                                                                                                                                                                                                                                                                                                                                                                ",
"                                                                                                                                                                                                                                                                                                                                                                                                                                                                                                                                                                                                                                                                                                                                                                                                                                                                                                                                                                                                                                                                                                                                                                                                                                                                                                                                                                                                                                                                                                                                                                                                                                                                ",
"                                                                                                                                                                                                                                                                                                                                                                                                                                                                                                                                                                                                                                                                                                                                                                                                                                                                                                                                                                                                                                                                                                                                                                                                                                                                                                                                                                                                                                                                                                                                                                                                                                                                ",
"                                                                                                                                                                                                                                                                                                                                                                                                                                                                                                                                                                                                                                                                                                                                                                                                                                                                                                                                                                                                                                                                                                                                                                                                                                                                                                                                                                                                                                                                                                                                                                                                                                                                ",
"                                                                                                                                                                                                                                                                                                                                                                                                                                                                                                                                                                                                                                                                                                                                                                                                                                                                                                                                                                                                                                                                                                                                                                                                                                                                                                                                                                                                                                                                                                                                                                                                                                                                ",
"                                                                                                                                                                                                                                                                                                                                                                                                                                                                                                                                                                                                                                                                                                                                                                                                                                                                                                                                                                                                                                                                                                                                                                                                                                                                                                                                                                                                                                                                                                                                                                                                                                                                ",
"                                                                                                                                                                                                                                                                                                                                                                                                                                                                                                                                                                                                                                                                                                                                                                                                                                                                                                                                                                                                                                                                                                                                                                                                                                                                                                                                                                                                                                                                                                                                                                                                                                                                ",
"                                                                                                                                                                                                                                                                                                                                                                                                                                                                                                                                                                                                                                                                                                                                                                                                                                                                                                                                                                                                                                                                                                                                                                                                                                                                                                                                                                                                                                                                                                                                                                                                                                                                ",
"                                                                                                                                                                                                                                                                                                                                                                                                                                                                                                                                                                                                                                                                                                                                                                                                                                                                                                                                                                                                                                                                                                                                                                                                                                                                                                                                                                                                                                                                                                                                                                                                                                                                ",
"                                                                                                                                                                                                                                                                                                                                                                                                                                                                                                                                                                                                                                                                                                                                                                                                                                                                                                                                                                                                                                                                                                                                                                                                                                                                                                                                                                                                                                                                                                                                                                                                                                                                ",
"                                                                                                                                                                                                                                                                                                                                                                                                                                                                                                                                                                                                                                                                                                                                                                                                                                                                                                                                                                                                                                                                                                                                                                                                                                                                                                                                                                                                                                                                                                                                                                                                                                                                ",
"                                                                                                                                                                                                                                                                                                                                                                                                                                                                                                                                                                                                                                                                                                                                                                                                                                                                                                                                                                                                                                                                                                                                                                                                                                                                                                                                                                                                                                                                                                                                                                                                                                                                ",
"                                                                                                                                                                                                                                                                                                                                                                                                                                                                                                                                                                                                                                                                                                                                                                                                                                                                                                                                                                                                                                                                                                                                                                                                                                                                                                                                                                                                                                                                                                                                                                                                                                                                ",
"                                                                                                                                                                                                                                                                                                                                                                                                                                                                                                                                                                                                                                                                                                                                                                                                                                                                                                                                                                                                                                                                                                                                                                                                                                                                                                                                                                                                                                                                                                                                                                                                                                                                ",
"                                                                                                                                                                                                                                                                                                                                                                                                                                                                                                                                                                                                                                                                                                                                                                                                                                                                                                                                                                                                                                                                                                                                                                                                                                                                                                                                                                                                                                                                                                                                                                                                                                                                ",
"                                                                                                                                                                                                                                                                                                                                                                                                                                                                                                                                                                                                                                                                                                                                                                                                                                                                                                                                                                                                                                                                                                                                                                                                                                                                                                                                                                                                                                                                                                                                                                                                                                                                ",
"                                                                                                                                                                                                                                                                                                                                                                                                                                                                                                                                                                                                                                                                                                                                                                                                                                                                                                                                                                                                                                                                                                                                                                                                                                                                                                                                                                                                                                                                                                                                                                                                                                                                ",
"                                                                                                                                                                                                                                                                                                                                                                                                                                                                                                                                                                                                                                                                                                                                                                                                                                                                                                                                                                                                                                                                                                                                                                                                                                                                                                                                                                                                                                                                                                                                                                                                                                                                ",
"                                                                                                                                                                                                                                                                                                                                                                                                                                                                                                                                                                                                                                                                                                                                                                                                                                                                                                                                                                                                                                                                                                                                                                                                                                                                                                                                                                                                                                                                                                                                                                                                                                                                ",
"                                                                                                                                                                                                                                                                                                                                                                                                                                                                                                                                                                                                                                                                                                                                                                                                                                                                                                                                                                                                                                                                                                                                                                                                                                                                                                                                                                                                                                                                                                                                                                                                                                                                ",
"                                                                                                                                                                                                                                                                                                                                                                                                                                                                                                                                                                                                                                                                                                                                                                                                                                                                                                                                                                                                                                                                                                                                                                                                                                                                                                                                                                                                                                                                                                                                                                                                                                                                ",
"                                                                                                                                                                                                                                                                                                                                                                                                                                                                                                                                                                                                                                                                                                                                                                                                                                                                                                                                                                                                                                                                                                                                                                                                                                                                                                                                                                                                                                                                                                                                                                                                                                                                ",
"                                                                                                                                                                                                                                                                                                                                                                                                                                                                                                                                                                                                                                                                                                                                                                                                                                                                                                                                                                                                                                                                                                                                                                                                                                                                                                                                                                                                                                                                                                                                                                                                                                                                ",
"                                                                                                                                                                                                                                                                                                                                                                                                                                                                                                                                                                                                                                                                                                                                                                                                                                                                                                                                                                                                                                                                                                                                                                                                                                                                                                                                                                                                                                                                                                                                                                                                                                                                ",
"                                                                                                                                                                                                                                                                                                                                                                                                                                                                                                                                                                                                                                                                                                                                                                                                                                                                                                                                                                                                                                                                                                                                                                                                                                                                                                                                                                                                                                                                                                                                                                                                                                                                ",
"                                                                                                                                                                                                                                                                                                                                                                                                                                                                                                                                                                                                                                                                                                                                                                                                                                                                                                                                                                                                                                                                                                                                                                                                                                                                                                                                                                                                                                                                                                                                                                                                                                                                ",
"                                                                                                                                                                                                                                                                                                                                                                                                                                                                                                                                                                                                                                                                                                                                                                                                                                                                                                                                                                                                                                                                                                                                                                                                                                                                                                                                                                                                                                                                                                                                                                                                                                                                ",
"                                                                                                                                                                                                                                                                                                                                                                                                                                                                                                                                                                                                                                                                                                                                                                                                                                                                                                                                                                                                                                                                                                                                                                                                                                                                                                                                                                                                                                                                                                                                                                                                                                                                ",
"                                                                                                                                                                                                                                                                                                                                                                                                                                                                                                                                                                                                                                                                                                                                                                                                                                                                                                                                                                                                                                                                                                                                                                                                                                                                                                                                                                                                                                                                                                                                                                                                                                                                ",
"                                                                                                                                                                                                                                                                                                                                                                                                                                                                                                                                                                                                                                                                                                                                                                                                                                                                                                                                                                                                                                                                                                                                                                                                                                                                                                                                                                                                                                                                                                                                                                                                                                                                ",
"                                                                                                                                                                                                                                                                                                                                                                                                                                                                                                                                                                                                                                                                                                                                                                                                                                                                                                                                                                                                                                                                                                                                                                                                                                                                                                                                                                                                                                                                                                                                                                                                                                                                ",
"                                                                                                                                                                                                                                                                                                                                                                                                                                                                                                                                                                                                                                                                                                                                                                                                                                                                                                                                                                                                                                                                                                                                                                                                                                                                                                                                                                                                                                                                                                                                                                                                                                                                ",
"                                                                                                                                                                                                                                                                                                                                                                                                                                                                                                                                                                                                                                                                                                                                                                                                                                                                                                                                                                                                                                                                                                                                                                                                                                                                                                                                                                                                                                                                                                                                                                                                                                                                ",
"                                                                                                                                                                                                                                                                                                                                                                                                                                                                                                                                                                                                                                                                                                                                                                                                                                                                                                                                                                                                                                                                                                                                                                                                                                                                                                                                                                                                                                                                                                                                                                                                                                                                ",
"                                                                                                                                                                                                                                                                                                                                                                                                                                                                                                                                                                                                                                                                                                                                                                                                                                                                                                                                                                                                                                                                                                                                                                                                                                                                                                                                                                                                                                                                                                                                                                                                                                                                ",
"                                                                                                                                                                                                                                                                                                                                                                                                                                                                                                                                                                                                                                                                                                                                                                                                                                                                                                                                                                                                                                                                                                                                                                                                                                                                                                                                                                                                                                                                                                                                                                                                                                                                ",
"                                                                                                                                                                                                                                                                                                                                                                                                                                                                                                                                                                                                                                                                                                                                                                                                                                                                                                                                                                                                                                                                                                                                                                                                                                                                                                                                                                                                                                                                                                                                                                                                                                                                ",
"                                                                                                                                                                                                                                                                                                                                                                                                                                                                                                                                                                                                                                                                                                                                                                                                                                                                                                                                                                                                                                                                                                                                                                                                                                                                                                                                                                                                                                                                                                                                                                                                                                                                ",
"                                                                                                                                                                                                                                                                                                                                                                                                                                                                                                                                                                                                                                                                                                                                                                                                                                                                                                                                                                                                                                                                                                                                                                                                                                                                                                                                                                                                                                                                                                                                                                                                                                                                ",
"                                                                                                                                                                                                                                                                                                                                                                                                                                                                                                                                                                                                                                                                                                                                                                                                                                                                                                                                                                                                                                                                                                                                                                                                                                                                                                                                                                                                                                                                                                                                                                                                                                                                ",
"                                                                                                                                                                                                                                                                                                                                                                                                                                                                                                                                                                                                                                                                                                                                                                                                                                                                                                                                                                                                                                                                                                                                                                                                                                                                                                                                                                                                                                                                                                                                                                                                                                                                ",
"                                                                                                                                                                                                                                                                                                                                                                                                                                                                                                                                                                                                                                                                                                                                                                                                                                                                                                                                                                                                                                                                                                                                                                                                                                                                                                                                                                                                                                                                                                                                                                                                                                                                ",
"                                                                                                                                                                                                                                                                                                                                                                                                                                                                                                                                                                                                                                                                                                                                                                                                                                                                                                                                                                                                                                                                                                                                                                                                                                                                                                                                                                                                                                                                                                                                                                                                                                                                ",
"                                                                                                                                                                                                                                                                                                                                                                                                                                                                                                                                                                                                                                                                                                                                                                                                                                                                                                                                                                                                                                                                                                                                                                                                                                                                                                                                                                                                                                                                                                                                                                                                                                                                ",
"                                                                                                                                                                                                                                                                                                                                                                                                                                                                                                                                                                                                                                                                                                                                                                                                                                                                                                                                                                                                                                                                                                                                                                                                                                                                                                                                                                                                                                                                                                                                                                                                                                                                ",
"                                                                                                                                                                                                                                                                                                                                                                                                                                                                                                                                                                                                                                                                                                                                                                                                                                                                                                                                                                                                                                                                                                                                                                                                                                                                                                                                                                                                                                                                                                                                                                                                                                                                ",
"                                                                                                                                                                                                                                                                                                                                                                                                                                                                                                                                                                                                                                                                                                                                                                                                                                                                                                                                                                                                                                                                                                                                                                                                                                                                                                                                                                                                                                                                                                                                                                                                                                                                ",
"                                                                                                                                                                                                                                                                                                                                                                                                                                                                                                                                                                                                                                                                                                                                                                                                                                                                                                                                                                                                                                                                                                                                                                                                                                                                                                                                                                                                                                                                                                                                                                                                                                                                ",
"                                                                                                                                                                                                                                                                                                                                                                                                                                                                                                                                                                                                                                                                                                                                                                                                                                                                                                                                                                                                                                                                                                                                                                                                                                                                                                                                                                                                                                                                                                                                                                                                                                                                ",
"                                                                                                                                                                                                                                                                                                                                                                                                                                                                                                                                                                                                                                                                                                                                                                                                                                                                                                                                                                                                                                                                                                                                                                                                                                                                                                                                                                                                                                                                                                                                                                                                                                                                ",
"                                                                                                                                                                                                                                                                                                                                                                                                                                                                                                                                                                                                                                                                                                                                                                                                                                                                                                                                                                                                                                                                                                                                                                                                                                                                                                                                                                                                                                                                                                                                                                                                                                                                ",
"                                                                                                                                                                                                                                                                                                                                                                                                                                                                                                                                                                                                                                                                                                                                                                                                                                                                                                                                                                                                                                                                                                                                                                                                                                                                                                                                                                                                                                                                                                                                                                                                                                                                ",
"                                                                                                                                                                                                                                                                                                                                                                                                                                                                                                                                                                                                                                                                                                                                                                                                                                                                                                                                                                                                                                                                                                                                                                                                                                                                                                                                                                                                                                                                                                                                                                                                                                                                ",
"                                                                                                                                                                                                                                                                                                                                                                                                                                                                                                                                                                                                                                                                                                                                                                                                                                                                                                                                                                                                                                                                                                                                                                                                                                                                                                                                                                                                                                                                                                                                                                                                                                                                ",
"                                                                                                                                                                                                                                                                                                                                                                                                                                                                                                                                                                                                                                                                                                                                                                                                                                                                                                                                                                                                                                                                                                                                                                                                                                                                                                                                                                                                                                                                                                                                                                                                                                                                ",
"                                                                                                                                                                                                                                                                                                                                                                                                                                                                                                                                                                                                                                                                                                                                                                                                                                                                                                                                                                                                                                                                                                                                                                                                                                                                                                                                                                                                                                                                                                                                                                                                                                                                ",
"                                                                                                                                                                                                                                                                                                                                                                                                                                                                                                                                                                                                                                                                                                                                                                                                                                                                                                                                                                                                                                                                                                                                                                                                                                                                                                                                                                                                                                                                                                                                                                                                                                                                ",
"                                                                                                                                                                                                                                                                                                                                                                                                                                                                                                                                                                                                                                                                                                                                                                                                                                                                                                                                                                                                                                                                                                                                                                                                                                                                                                                                                                                                                                                                                                                                                                                                                                                                ",
"                                                                                                                                                                                                                                                                                                                                                                                                                                                                                                                                                                                                                                                                                                                                                                                                                                                                                                                                                                                                                                                                                                                                                                                                                                                                                                                                                                                                                                                                                                                                                                                                                                                                ",
"                                                                                                                                                                                                                                                                                                                                                                                                                                                                                                                                                                                                                                                                                                                                                                                                                                                                                                                                                                                                                                                                                                                                                                                                                                                                                                                                                                                                                                                                                                                                                                                                                                                                ",
"                                                                                                                                                                                                                                                                                                                                                                                                                                                                                                                                                                                                                                                                                                                                                                                                                                                                                                                                                                                                                                                                                                                                                                                                                                                                                                                                                                                                                                                                                                                                                                                                                                                                ",
"                                                                                                                                                                                                                                                                                                                                                                                                                                                                                                                                                                                                                                                                                                                                                                                                                                                                                                                                                                                                                                                                                                                                                                                                                                                                                                                                                                                                                                                                                                                                                                                                                                                                ",
"                                                                                                                                                                                                                                                                                                                                                                                                                                                                                                                                                                                                                                                                                                                                                                                                                                                                                                                                                                                                                                                                                                                                                                                                                                                                                                                                                                                                                                                                                                                                                                                                                                                                ",
"                                                                                                                                                                                                                                                                                                                                                                                                                                                                                                                                                                                                                                                                                                                                                                                                                                                                                                                                                                                                                                                                                                                                                                                                                                                                                                                                                                                                                                                                                                                                                                                                                                                                ",
"                                                                                                                                                                                                                                                                                                                                                                                                                                                                                                                                                                                                                                                                                                                                                                                                                                                                                                                                                                                                                                                                                                                                                                                                                                                                                                                                                                                                                                                                                                                                                                                                                                                                ",
"                                                                                                                                                                                                                                                                                                                                                                                                                                                                                                                                                                                                                                                                                                                                                                                                                                                                                                                                                                                                                                                                                                                                                                                                                                                                                                                                                                                                                                                                                                                                                                                                                                                                ",
"                                                                                                                                                                                                                                                                                                                                                                                                                                                                                                                                                                                                                                                                                                                                                                                                                                                                                                                                                                                                                                                                                                                                                                                                                                                                                                                                                                                                                                                                                                                                                                                                                                                                ",
"                                                                                                                                                                                                                                                                                                                                                                                                                                                                                                                                                                                                                                                                                                                                                                                                                                                                                                                                                                                                                                                                                                                                                                                                                                                                                                                                                                                                                                                                                                                                                                                                                                                                ",
"                                                                                                                                                                                                                                                                                                                                                                                                                                                                                                                                                                                                                                                                                                                                                                                                                                                                                                                                                                                                                                                                                                                                                                                                                                                                                                                                                                                                                                                                                                                                                                                                                                                                ",
"                                                                                                                                                                                                                                                                                                                                                                                                                                                                                                                                                                                                                                                                                                                                                                                                                                                                                                                                                                                                                                                                                                                                                                                                                                                                                                                                                                                                                                                                                                                                                                                                                                                                ",
"                                                                                                                                                                                                                                                                                                                                                                                                                                                                                                                                                                                                                                                                                                                                                                                                                                                                                                                                                                                                                                                                                                                                                                                                                                                                                                                                                                                                                                                                                                                                                                                                                                                                ",
"                                                                                                                                                                                                                                                                                                                                                                                                                                                                                                                                                                                                                                                                                                                                                                                                                                                                                                                                                                                                                                                                                                                                                                                                                                                                                                                                                                                                                                                                                                                                                                                                                                                                ",
"                                                                                                                                                                                                                                                                                                                                                                                                                                                                                                                                                                                                                                                                                                                                                                                                                                                                                                                                                                                                                                                                                                                                                                                                                                                                                                                                                                                                                                                                                                                                                                                                                                                                ",
"                                                                                                                                                                                                                                                                                                                                                                                                                                                                                                                                                                                                                                                                                                                                                                                                                                                                                                                                                                                                                                                                                                                                                                                                                                                                                                                                                                                                                                                                                                                                                                                                                                                                ",
"                                                                                                                                                                                                                                                                                                                                                                                                                                                                                                                                                                                                                                                                                                                                                                                                                                                                                                                                                                                                                                                                                                                                                                                                                                                                                                                                                                                                                                                                                                                                                                                                                                                                ",
"                                                                                                                                                                                                                                                                                                                                                                                                                                                                                                                                                                                                                                                                                                                                                                                                                                                                                                                                                                                                                                                                                                                                                                                                                                                                                                                                                                                                                                                                                                                                                                                                                                                                ",
"                                                                                                                                                                                                                                                                                                                                                                                                                                                                                                                                                                                                                                                                                                                                                                                                                                                                                                                                                                                                                                                                                                                                                                                                                                                                                                                                                                                                                                                                                                                                                                                                                                                                ",
"                                                                                                                                                                                                                                                                                                                                                                                                                                                                                                                                                                                                                                                                                                                                                                                                                                                                                                                                                                                                                                                                                                                                                                                                                                                                                                                                                                                                                                                                                                                                                                                                                                                                ",
"                                                                                                                                                                                                                                                                                                                                                                                                                                                                                                                                                                                                                                                                                                                                                                                                                                                                                                                                                                                                                                                                                                                                                                                                                                                                                                                                                                                                                                                                                                                                                                                                                                                                ",
"                                                                                                                                                                                                                                                                                                                                                                                                                                                                                                                                                                                                                                                                                                                                                                                                                                                                                                                                                                                                                                                                                                                                                                                                                                                                                                                                                                                                                                                                                                                                                                                                                                                                ",
"                                                                                                                                                                                                                                                                                                                                                                                                                                                                                                                                                                                                                                                                                                                                                                                                                                                                                                                                                                                                                                                                                                                                                                                                                                                                                                                                                                                                                                                                                                                                                                                                                                                                ",
"                                                                                                                                                                                                                                                                                                                                                                                                                                                                                                                                                                                                                                                                                                                                                                                                                                                                                                                                                                                                                                                                                                                                                                                                                                                                                                                                                                                                                                                                                                                                                                                                                                                                ",
"                                                                                                                                                                                                                                                                                                                                                                                                                                                                                                                                                                                                                                                                                                                                                                                                                                                                                                                                                                                                                                                                                                                                                                                                                                                                                                                                                                                                                                                                                                                                                                                                                                                                ",
"                                                                                                                                                                                                                                                                                                                                                                                                                                                                                                                                                                                                                                                                                                                                                                                                                                                                                                                                                                                                                                                                                                                                                                                                                                                                                                                                                                                                                                                                                                                                                                                                                                                                ",
"                                                                                                                                                                                                                                                                                                                                                                                                                                                                                                                                                                                                                                                                                                                                                                                                                                                                                                                                                                                                                                                                                                                                                                                                                                                                                                                                                                                                                                                                                                                                                                                                                                                                ",
"                                                                                                                                                                                                                                                                                                                                                                                                                                                                                                                                                                                                                                                                                                                                                                                                                                                                                                                                                                                                                                                                                                                                                                                                                                                                                                                                                                                                                                                                                                                                                                                                                                                                ",
"                                                                                                                                                                                                                                                                                                                                                                                                                                                                                                                                                                                                                                                                                                                                                                                                                                                                                                                                                                                                                                                                                                                                                                                                                                                                                                                                                                                                                                                                                                                                                                                                                                                                ",
"                                                                                                                                                                                                                                                                                                                                                                                                                                                                                                                                                                                                                                                                                                                                                                                                                                                                                                                                                                                                                                                                                                                                                                                                                                                                                                                                                                                                                                                                                                                                                                                                                                                                ",
"                                                                                                                                                                                                                                                                                                                                                                                                                                                                                                                                                                                                                                                                                                                                                                                                                                                                                                                                                                                                                                                                                                                                                                                                                                                                                                                                                                                                                                                                                                                                                                                                                                                                ",
"                                                                                                                                                                                                                                                                                                                                                                                                                                                                                                                                                                                                                                                                                                                                                                                                                                                                                                                                                                                                                                                                                                                                                                                                                                                                                                                                                                                                                                                                                                                                                                                                                                                                ",
"                                                                                                                                                                                                                                                                                                                                                                                                                                                                                                                                                                                                                                                                                                                                                                                                                                                                                                                                                                                                                                                                                                                                                                                                                                                                                                                                                                                                                                                                                                                                                                                                                                                                "
};
