/* XPM */
static char *info_button[] = {
/* columns rows colors chars-per-pixel */
"200 60 13 1 ",
"  c #000000",
". c #04152C",
"X c #09346D",
"o c #062856",
"O c #16488D",
"+ c #1958AF",
"@ c #235FB3",
"# c #2461B5",
"$ c #427BC2",
"% c #6092CC",
"& c #F9F9F9",
"* c #CFDFEF",
"= c #A5C4E3",
/* pixels */
"          .oooXXXXXXXXXXXXXXXXXXXXXXXXXXXXXXXXXXXXXXXXXXXXXXXXXXXXXXXXXXXXXXXXXXXXXXXXXXXXXXXXXXXXXXXXXXXXXXXXXXXXXXXXXXXXXXXXXXXXXXXXXXXXXXXXXXXXXXXXXXXXXXXXXXXXXXXXXXXXXXXXXXXXXXXXXXXXXXoo.         ",
"       .oXXXXXXXXXXXXXXXXXXXXXXXXXXXXXXXXXXXXXXXXXXXXXXXXXXXXXXXXXXXXXXXXXXXXXXXXXXXXXXXXXXXXXXXXXXXXXXXXXXXXXXXXXXXXXXXXXXXXXXXXXXXXXXXXXXXXXXXXXXXXXXXXXXXXXXXXXXXXXXXXXXXXXXXXXXXXXXXXXXXXXXXo.      ",
"     .XXXXXXXXXXXXXXXXXXXXXXXXXXXXXXXXXXXXXXXXXXXXXXXXXXXXXXXXXXXXXXXXXXXXXXXXXXXXXXXXXXXXXXXXXXXXXXXXXXXXXXXXXXXXXXXXXXXXXXXXXXXXXXXXXXXXXXXXXXXXXXXXXXXXXXXXXXXXXXXXXXXXXXXXXXXXXXXXXXXXXXXXXXXXX.    ",
"    oXXXXXXXXXXOOOOOOOOOOOOOOOOOOOOOOOOOOOOOOOOOOOOOOOOOOOOOOOOOOOOOOOOOOOOOOOOOOOOOOOOOOOOOOOOOOOOOOOOOOOOOOOOOOOOOOOOOOOOOOOOOOOOOOOOOOOOOOOOOOOOOOOOOOOOOOOOOOOOOOOOOOOOOOOOOOOOOOOOOOOXXXXXXXXXXo   ",
"  .XXXXXXXXOO+@###########################################################################################################################################################################@+OOXXXXXXXX  ",
" .XXXXXXXO+@##@@@@@@@@@@@@@@@@@@@@@@@@@@@@@@@@@@@@@@@@@@@@@@@@@@@@@@@@@@@@@@@@@@@@@@@@@@@@@@@@@@@@@@@@@@@@@@@@@@@@@@@@@@@@@@@@@@@@@@@@@@@@@@@@@@@@@@@@@@@@@@@@@@@@@@@@@@@@@@@@@@@@@@@@@@@@@@##+XXXXXXXo ",
" oXXXXXXO#@@@@@@@@@@@@@@@@@@@@@@@@@@@@@@@@@@@@@@@@@@@@@@@@@@@@@@@@@@@@@@@@@@@@@@@@@@@@@@@@@@@@@@@@@@@@@@@@@@@@@@@@@@@@@@@@@@@@@@@@@@@@@@@@@@@@@@@@@@@@@@@@@@@@@@@@@@@@@@@@@@@@@@@@@@@@@@@@@@@@@#OXXXXXXo",
"oXXXXXXO#@@@@@@@@@@@@@@@@@@@@@@@@@@@@@@@@@@@@@@@@@@@@@@@@@@@@@@@@@@@@@@@@@@@@@@@@@@@@@@@@@@@@@@@@@@@@@@@@@@@@@@@@@@@@@@@@@@@@@@@@@@@@@@@@@@@@@@@@@@@@@@@@@@@@@@@@@@@@@@@@@@@@@@@@@@@@@@@@@@@@@@@@XXXXXXX",
"XXXXXXX@@@@@@@@@@@@@@@@@@@@@@@@@@@@@@@@@@@@@@@@@@@@@@@@@@@@@@@@@@@@@@@@@@@@@@@@@@@@@@@@@@@@@@@@@@@@@@@@@@@@@@@@@@@@@@@@@@@@@@@@@@@@@@@@@@@@@@@@@@@@@@@@@@@@@@@@@@@@@@@@@@@@@@@@@@@@@@@@@@@@@@@@@@OXXXXXX",
"XXXXXXO#@@@@@@@@@@@@@@@@@@@@@@@@@@@@@@@@@@@@@@@@@@@@@@@@@@@@@@@@@@@@@@@@@@@@@@@@@@@@@@@@@@@@@@@@@@@@@@@@@@@@@@@@@@@@@@@@@@@@@@@@@@@@@@@@@@@@@@@@@@@@@@@@@@@@@@@@@@@@@@@@@@@@@@@@@@@@@@@@@@@@@@@@@@XXXXXX",
"XXXXXXO#@@@@@@@@@@@@@@@@@@@@@@@@@@@@@@@@@@@@@@@@@@@@@@@@@@@@@@@@@@@@@@@@@@@@@@@@@@@@@@@@@@@@@@@@@@@@@@@@@@@@@@@@@@@@@@@@@@@@@@@@@@@@@@@@@@@@@@@@@@@@@@@@@@@@@@@@@@@@@@@@@@@@@@@@@@@@@@@@@@@@@@@@@+XXXXXX",
"XXXXXXO#@@@@@@@@@@@@@@@@@@@@@@@@@@@@@@@@@@@@@@@@@@@@@@@@@@@@@@@@@@@@@@@@@@@@@@@@@@@@@@@@@@@@@@@@@@@@@@@@@@@@@@@@@@@@@@@@@@@@@@@@@@@@@@@@@@@@@@@@@@@@@@@@@@@@@@@@@@@@@@@@@@@@@@@@@@@@@@@@@@@@@@@@@+XXXXXX",
"XXXXXXO#@@@@@@@@@@@@@@@@@@@@@@@@@@@@@@@@@@@@@@@@@@@@@@@@@@@@@@@@@@@@@@@@@@@@@@@@@@@@@@@@@@@@@@@@@@@@@@@@@@@@@@@@@@@@@@@@@@@@@@@@@@@@@@@@@@@@@@@@@@@@@@@@@@@@@@@@@@@@@@@@@@@@@@@@@@@@@@@@@@@@@@@@@+XXXXXX",
"XXXXXXO#@@@@@@@@@@@@@@@@@@@@@@@@@@@@@@@@@@@@@@@@@@@@@@@@@@@@@@@@@@@@@@@@@@@@@@@@@@@@@@@@@@@@@@@@@@@@@@@@@@@@@@@@@@@@@@@@@@@@@@@@@@@@@@@@@@@@@@@@@@@@@@@@@@@@@@@@@@@@@@@@@@@@@@@@@@@@@@@@@@@@@@@@@+XXXXXX",
"XXXXXXO#@@@@@@@@@@@@@@@@@@@@@@@@@@@@@@@@@@@@@@@@@@@@@@@@@@@@@@@@@@@@@@@@@@@@@@@@@@@@@@@@@@@@@@@@@@@@@@@@@@@@@@@@@@@@@@@@@@@@@@@@@@@@@@@@@@@@@@@@@@@@@@@@@@@@@@@@@@@@@@@@@@@@@@@@@@@@@@@@@@@@@@@@@+XXXXXX",
"XXXXXXO#@@@@@@@@@@@@@@@@@@@@@@@@@@@@@@@@@@@@@@@@@@@@@@@@@@@@@@@@@@@@@@@@@@@@@@@@@@@@@@@@@@@@@@@@@@@@@@@@@@@@@@@@@@@@@@@@@@@@@@@@@@@@@@@@@@@@@@@@@@@@@@@@@@@@@@@@@@@@@@@@@@@@@@@@@@@@@@@@@@@@@@@@@+XXXXXX",
"XXXXXXO#@@@@@@@@@@@@@@@@@@@@@@@@@@@@@@@@@@@@@@@@@@@@@@@@@@@@@@@@@@@@@@@@@@@@@@@@@@@@@@@@@@@@@@@@@@@@@@@@@@@@@@@@@@@@@@@@@@@@@@@@@@@@@@@@@@@@@@@@@@@@@@@@@@@@@@@@@@@@@@@@@@@@@@@@@@@@@@@@@@@@@@@@@+XXXXXX",
"XXXXXXO#@@@@@@@@@@@@@@@@@@@@@@@@@@@@@@@@@@@@@@@@@@@@@@@@@@@@@@@@@@@@@@@@@@@@@@@@@@@@@@@@@@@@@@@@@@@@@@@@@@@@@@@@@@@@@@@@@@@@@@@@@@@@@@@@@@@@@@@@@@@@@@@@@@@@@@@@@@@@@@@@@@@@@@@@@@@@@@@@@@@@@@@@@+XXXXXX",
"XXXXXXO#@@@@@@@@@@@@@@@@@@@@@@@@@@@@@@@@@@@@@@@@@@@@@@@@@@@@@@@@@@@@@@@@@@@@@@@@@@@@@@@@@@@@@@@@@@@@@@@@@@@@@@@@@@@@@@@@@@@@@@@@@@@@##@@@@@@@@@@@##@@@@@@@@@@@@@@@@@@@@@@@@@@@@@@@@@@@@@@@@@@@@@@+XXXXXX",
"XXXXXXO#@@@@@@@@@@@@@@@@@@@@@@@@@@@@@@@@@@@@@@@@@@@@@@@@@@@@@@@@@@@@@#@@@@@@@@@@@@@@@@@@@@@@@@@@@@@@@@@@@@@@@@@@@@@@@@@@@@@@@@@@@@@@++@@##$$$##@@++@##@@@@@@@@@@@@@@@@@@@@@@@@@@@@@@@@@@@@@@@@@@@+XXXXXX",
"XXXXXXO#@@@@@@@@@@@@@@@@@@@@@@@@@@@@@@@@@@#@%******=@@@@@@@#********#@#@@@@@@@@@@$******=+#@@@@#+=*********************@@@@@@@@#@+@#%=**&&&&&&&**=%#++@#@@@@@@@@@@@@@@@@@@@@@@@@@@@@@@@@@@@@@@@@@+XXXXXX",
"XXXXXXO#@@@@@@@@@@@@@@@@@@@@@@@@@@@@@@@@@@#+%&&&&&&*+#@@@@@#&&&&&&&&*#@#@@@@@@@@+$&&&&&&=+#@@@@#+=&&&&&&&&&&&&&&&&&&&&&#@@@@@@@+#%*&&&&&&&&&&&&&&&&&*%@+@@@@@@@@@@@@@@@@@@@@@@@@@@@@@@@@@@@@@@@@@+XXXXXX",
"XXXXXXO#@@@@@@@@@@@@@@@@@@@@@@@@@@@@@@@@@@#+%&&&&&&=+#@@@@@#&&&&&&&&&&#@#@@@@@@@@$&&&&&&=+#@@@@#+=&&&&&&&&&&&&&&&&&&&&&#@@@@#@@=&&&&&&&&&&&&&&&&&&&&&&*%@@#@@@@@@@@@@@@@@@@@@@@@@@@@@@@@@@@@@@@@@+XXXXXX",
"XXXXXXO#@@@@@@@@@@@@@@@@@@@@@@@@@@@@@@@@@@#+%&&&&&&=+#@@@@@#&&&&&&&&&&&$+#@@@@@@@$&&&&&&=+#@@@@#+=&&&&&&&&&&&&&&&&&&&&*@@@@#+$*&&&&&&&&&**==**&&&&&&&&&&*#@#@@@@@@@@@@@@@@@@@@@@@@@@@@@@@@@@@@@@@+XXXXXX",
"XXXXXXO#@@@@@@@@@@@@@@@@@@@@@@@@@@@@@@@@@@@+%&&&&&&=+#@@@@@#&&&&&&&&&&&&$+#@@@@@@$&&&&&&=+#@@@@#+=&&&&&&%@#############@@@#+%&&&&&&&&*%$@@@+@@#$=&&&&&&&&&$@@@@@@@@@@@@@@@@@@@@@@@@@@@@@@@@@@@@@@+XXXXXX",
"XXXXXXO#@@@@@@@@@@@@@@@@@@@@@@@@@@@@@@@@@@#+%&&&&&&=+#@@@@@#&&&&&&&&&&&&&$+#@@@@@$&&&&&&=+#@@@@#+=&&&&&&%+@@@@@@@@@@@@@@@@@$&&&&&&&&%@+@@@@@@@@@+@=&&&&&&&*#@@@@@@@@@@@@@@@@@@@@@@@@@@@@@@@@@@@@@+XXXXXX",
"XXXXXXO#@@@@@@@@@@@@@@@@@@@@@@@@@@@@@@@@@@@+%&&&&&&=+#@@@@@#&&&&&&&&&&&&&&$+#@@@@$&&&&&&=+#@@@@#+=&&&&&&%@##@#######@@@@@@@*&&&&&&&%+@#@@@@@@@@@#@+=&&&&&&&=+@@@@@@@@@@@@@@@@@@@@@@@@@@@@@@@@@@@@+XXXXXX",
"XXXXXXO#@@@@@@@@@@@@@@@@@@@@@@@@@@@@@@@@@@@+%&&&&&&=+#@#@@@#&&&&&&&%*&&&&&&%+#@@@$&&&&&&=+#@@@@#+=&&&&&&%+@+++++++++@@@@@+%&&&&&&&%+#@@@@@@@@@@@@@@+*&&&&&&&#@@@@@@@@@@@@@@@@@@@@@@@@@@@@@@@@@@@@+XXXXXX",
"XXXXXXO#@@@@@@@@@@@@@@@@@@@@@@@@@@@@@@@@@@#+%&&&&&&=+#@@@@@#&&&&&&&##&&&&&&&%+@@@$&&&&&&=+@@@@@#+=&&&&&&=%%%%%%%%%%%$@@@@+=&&&&&&&#@@@@@@@@@@@@@@@#+%&&&&&&&%+#@@@@@@@@@@@@@@@@@@@@@@@@@@@@@@@@@@+XXXXXX",
"XXXXXXO#@@@@@@@@@@@@@@@@@@@@@@@@@@@@@@@@@@#+%&&&&&&=+#@@@@@#&&&&&&&$+#&&&&&&&%+#@$&&&&&&=+@@@@@#+=&&&&&&&&&&&&&&&&&&%+@@@@*&&&&&&*@@@@@@@@@@@@@@@@@@$&&&&&&&=+#@@@@@@@@@@@@@@@@@@@@@@@@@@@@@@@@@@+XXXXXX",
"XXXXXXO#@@@@@@@@@@@@@@@@@@@@@@@@@@@@@@@@@@#+%&&&&&&=+#@@@@@#&&&&&&&#@@#&&&&&&&%+@$&&&&&&=+#@@@@#+=&&&&&&&&&&&&&&&&&&%+#@@@*&&&&&&*@@@@@@@@@@@@@@@@@@$&&&&&&&=+#@@@@@@@@@@@@@@@@@@@@@@@@@@@@@@@@@@+XXXXXX",
"XXXXXXO#@@@@@@@@@@@@@@@@@@@@@@@@@@@@@@@@@@#@%&&&&&&=+#@@@@@@&&&&&&&#@#@#&&&&&&&%+%&&&&&&=+@@@@@#+=&&&&&&&&&&&&&&&&&&%+#@@+*&&&&&&*#@@@@@@@@@@@@@@@@+%&&&&&&&%+#@@@@@@@@@@@@@@@@@@@@@@@@@@@@@@@@@@+XXXXXX",
"XXXXXXO#@@@@@@@@@@@@@@@@@@@@@@@@@@@@@@@@@@#+%&&&&&&=+#@@@@@#&&&&&&&#@@#+#&&&&&&&%#&&&&&&=+#@@@@#+=&&&&&&=%%%%%%%%%%%#@@@#+%&&&&&&&%+#@@@@@@@@@@@@@#+=&&&&&&&$@@@@@@@@@@@@@@@@@@@@@@@@@@@@@@@@@@@@+XXXXXX",
"XXXXXXO#@@@@@@@@@@@@@@@@@@@@@@@@@@@@@@@@@@#+%&&&&&&*+#@@@@@#&&&&&&&#@@@#@#&&&&&&&%&&&&&&=+#@@@@#+=&&&&&&%+@+++++++++@@@@@@#&&&&&&&*@@#@@@@@@@@@@@#+%&&&&&&&=+@@@@@@@@@@@@@@@@@@@@@@@@@@@@@@@@@@@@+XXXXXX",
"XXXXXXO#@@@@@@@@@@@@@@@@@@@@@@@@@@@@@@@@@@#+%&&&&&&=+@@@@@@#&&&&&&&#@@@@#@#&&&&&&&&&&&&&=+#@@@@#+=&&&&&&%+#@@@@@@@@@@@@@@#+%&&&&&&&*#+@@@#@#@@@@++%&&&&&&&&#@@@@@@@@@@@@@@@@@@@@@@@@@@@@@@@@@@@@@+XXXXXX",
"XXXXXXO#@@@@@@@@@@@@@@@@@@@@@@@@@@@@@@@@@@#+%&&&&&&=+#@@@@@#&&&&&&&#@@@@@#@#&&&&&&&&&&&&=+#@@@@#+=&&&&&&%+@@@@@@@@@@@@@@@@#+=&&&&&&&&=$@++++++@#%=&&&&&&&&$@@@@@@@@@@@@@@@@@@@@@@@@@@@@@@@@@@@@@@+XXXXXX",
"XXXXXXO#@@@@@@@@@@@@@@@@@@@@@@@@@@@@@@@@@@@+%&&&&&&=+#@@@@@#&&&&&&&#@@@@@@#@#&&&&&&&&&&&=+#@@@@#+=&&&&&&%+@@@@@@@@@@@@@@@@@#+%&&&&&&&&&*======*&&&&&&&&&*#+#@@@@@@@@@@@@@@@@@@@@@@@@@@@@@@@@@@@@@+XXXXXX",
"XXXXXXO#@@@@@@@@@@@@@@@@@@@@@@@@@@@@@@@@@@@+%&&&&&&=+#@@@@@#&&&&&&&#@@@@@@@#@#&&&&&&&&&&=+@@@@@#+=&&&&&&%+@@@@@@@@@@@@@@@@@@@+#=&&&&&&&&&&&&&&&&&&&&&&*%@@#@@@@@@@@@@@@@@@@@@@@@@@@@@@@@@@@@@@@@@+XXXXXX",
"XXXXXXO#@@@@@@@@@@@@@@@@@@@@@@@@@@@@@@@@@@#+%&&&&&&*+#@@@@@#&&&&&&&#@@@@@@@@#@#&&&&&&&&&=+@@@@@#+=&&&&&&%+#@@@@@@@@@@@@@@@@@@#@+$=*&&&&&&&&&&&&&&&&&*%@+@@@@@@@@@@@@@@@@@@@@@@@@@@@@@@@@@@@@@@@@@+XXXXXX",
"XXXXXXO#@@@@@@@@@@@@@@@@@@@@@@@@@@@@@@@@@@@+%******=@@@@@@@@*******#@@@@@@@@@#@#********=+@@@@@#+=******%@@@@@@@@@@@@@@@@@@@@@@#@+@$%=**&&&&&&&**=%#@+@#@@@@@@@@@@@@@@@@@@@@@@@@@@@@@@@@@@@@@@@@@+XXXXXX",
"XXXXXXO#@@@@@@@@@@@@@@@@@@@@@@@@@@@@@@@@@@@@@@@@@@@@@@@@@@@@@@@@@@@@@@@@@@@@@@#@@@@@@@@@@@@@@@@@@@@@@@@@@@@@@@@@@@@@@@@@@@@@@@@@@#@@++@@#$$$$##@@++@##@@@@@@@@@@@@@@@@@@@@@@@@@@@@@@@@@@@@@@@@@@@+XXXXXX",
"XXXXXXO#@@@@@@@@@@@@@@@@@@@@@@@@@@@@@@@@@@@@@@@@@@@@@@@@@@@@@@@@@@@@@@@@@@@@@@@@@@@@@@@@@@@@@@@@@@@@@@@@@@@@@@@@@@@@@@@@@@@@@@@@@@@@##@@@@@@@@@@@#@@@@@@@@@@@@@@@@@@@@@@@@@@@@@@@@@@@@@@@@@@@@@@@+XXXXXX",
"XXXXXXO#@@@@@@@@@@@@@@@@@@@@@@@@@@@@@@@@@@@@@@@@@@@@@@@@@@@@@@@@@@@@@@@@@@@@@@@@@@@@@@@@@@@@@@@@@@@@@@@@@@@@@@@@@@@@@@@@@@@@@@@@@@@@@@@@@@@@@@@@@@@@@@@@@@@@@@@@@@@@@@@@@@@@@@@@@@@@@@@@@@@@@@@@@+XXXXXX",
"XXXXXXO#@@@@@@@@@@@@@@@@@@@@@@@@@@@@@@@@@@@@@@@@@@@@@@@@@@@@@@@@@@@@@@@@@@@@@@@@@@@@@@@@@@@@@@@@@@@@@@@@@@@@@@@@@@@@@@@@@@@@@@@@@@@@@@@@@@@@@@@@@@@@@@@@@@@@@@@@@@@@@@@@@@@@@@@@@@@@@@@@@@@@@@@@@+XXXXXX",
"XXXXXXO#@@@@@@@@@@@@@@@@@@@@@@@@@@@@@@@@@@@@@@@@@@@@@@@@@@@@@@@@@@@@@@@@@@@@@@@@@@@@@@@@@@@@@@@@@@@@@@@@@@@@@@@@@@@@@@@@@@@@@@@@@@@@@@@@@@@@@@@@@@@@@@@@@@@@@@@@@@@@@@@@@@@@@@@@@@@@@@@@@@@@@@@@@+XXXXXX",
"XXXXXXO#@@@@@@@@@@@@@@@@@@@@@@@@@@@@@@@@@@@@@@@@@@@@@@@@@@@@@@@@@@@@@@@@@@@@@@@@@@@@@@@@@@@@@@@@@@@@@@@@@@@@@@@@@@@@@@@@@@@@@@@@@@@@@@@@@@@@@@@@@@@@@@@@@@@@@@@@@@@@@@@@@@@@@@@@@@@@@@@@@@@@@@@@@+XXXXXX",
"XXXXXXO#@@@@@@@@@@@@@@@@@@@@@@@@@@@@@@@@@@@@@@@@@@@@@@@@@@@@@@@@@@@@@@@@@@@@@@@@@@@@@@@@@@@@@@@@@@@@@@@@@@@@@@@@@@@@@@@@@@@@@@@@@@@@@@@@@@@@@@@@@@@@@@@@@@@@@@@@@@@@@@@@@@@@@@@@@@@@@@@@@@@@@@@@@+XXXXXX",
"XXXXXXO#@@@@@@@@@@@@@@@@@@@@@@@@@@@@@@@@@@@@@@@@@@@@@@@@@@@@@@@@@@@@@@@@@@@@@@@@@@@@@@@@@@@@@@@@@@@@@@@@@@@@@@@@@@@@@@@@@@@@@@@@@@@@@@@@@@@@@@@@@@@@@@@@@@@@@@@@@@@@@@@@@@@@@@@@@@@@@@@@@@@@@@@@@+XXXXXX",
"XXXXXXO#@@@@@@@@@@@@@@@@@@@@@@@@@@@@@@@@@@@@@@@@@@@@@@@@@@@@@@@@@@@@@@@@@@@@@@@@@@@@@@@@@@@@@@@@@@@@@@@@@@@@@@@@@@@@@@@@@@@@@@@@@@@@@@@@@@@@@@@@@@@@@@@@@@@@@@@@@@@@@@@@@@@@@@@@@@@@@@@@@@@@@@@@@+XXXXXX",
"XXXXXXO#@@@@@@@@@@@@@@@@@@@@@@@@@@@@@@@@@@@@@@@@@@@@@@@@@@@@@@@@@@@@@@@@@@@@@@@@@@@@@@@@@@@@@@@@@@@@@@@@@@@@@@@@@@@@@@@@@@@@@@@@@@@@@@@@@@@@@@@@@@@@@@@@@@@@@@@@@@@@@@@@@@@@@@@@@@@@@@@@@@@@@@@@@+XXXXXX",
"XXXXXXO#@@@@@@@@@@@@@@@@@@@@@@@@@@@@@@@@@@@@@@@@@@@@@@@@@@@@@@@@@@@@@@@@@@@@@@@@@@@@@@@@@@@@@@@@@@@@@@@@@@@@@@@@@@@@@@@@@@@@@@@@@@@@@@@@@@@@@@@@@@@@@@@@@@@@@@@@@@@@@@@@@@@@@@@@@@@@@@@@@@@@@@@@@@XXXXXX",
"XXXXXXX@@@@@@@@@@@@@@@@@@@@@@@@@@@@@@@@@@@@@@@@@@@@@@@@@@@@@@@@@@@@@@@@@@@@@@@@@@@@@@@@@@@@@@@@@@@@@@@@@@@@@@@@@@@@@@@@@@@@@@@@@@@@@@@@@@@@@@@@@@@@@@@@@@@@@@@@@@@@@@@@@@@@@@@@@@@@@@@@@@@@@@@@@@OXXXXXX",
"oXXXXXXO#@@@@@@@@@@@@@@@@@@@@@@@@@@@@@@@@@@@@@@@@@@@@@@@@@@@@@@@@@@@@@@@@@@@@@@@@@@@@@@@@@@@@@@@@@@@@@@@@@@@@@@@@@@@@@@@@@@@@@@@@@@@@@@@@@@@@@@@@@@@@@@@@@@@@@@@@@@@@@@@@@@@@@@@@@@@@@@@@@@@@@@#+XXXXXXX",
" XXXXXXX+#@@@@@@@@@@@@@@@@@@@@@@@@@@@@@@@@@@@@@@@@@@@@@@@@@@@@@@@@@@@@@@@@@@@@@@@@@@@@@@@@@@@@@@@@@@@@@@@@@@@@@@@@@@@@@@@@@@@@@@@@@@@@@@@@@@@@@@@@@@@@@@@@@@@@@@@@@@@@@@@@@@@@@@@@@@@@@@@@@@@@#@XXXXXXX.",
" .XXXXXXXO@#@@@@@@@@@@@@@@@@@@@@@@@@@@@@@@@@@@@@@@@@@@@@@@@@@@@@@@@@@@@@@@@@@@@@@@@@@@@@@@@@@@@@@@@@@@@@@@@@@@@@@@@@@@@@@@@@@@@@@@@@@@@@@@@@@@@@@@@@@@@@@@@@@@@@@@@@@@@@@@@@@@@@@@@@@@@@@@@@#@OXXXXXXXo ",
"  .XXXXXXXXO+@############################################################################################################################################################################@@OXXXXXXXXo  ",
"   .XXXXXXXXXXOOOOOOOOOOOOOOOOOOOOOOOOOOOOOOOOOOOOOOOOOOOOOOOOOOOOOOOOOOOOOOOOOOOOOOOOOOOOOOOOOOOOOOOOOOOOOOOOOOOOOOOOOOOOOOOOOOOOOOOOOOOOOOOOOOOOOOOOOOOOOOOOOOOOOOOOOOOOOOOOOOOOOOOOOOOOXXXXXXXXXX.   ",
"     oXXXXXXXXXXXXXXXXXXXXXXXXXXXXXXXXXXXXXXXXXXXXXXXXXXXXXXXXXXXXXXXXXXXXXXXXXXXXXXXXXXXXXXXXXXXXXXXXXXXXXXXXXXXXXXXXXXXXXXXXXXXXXXXXXXXXXXXXXXXXXXXXXXXXXXXXXXXXXXXXXXXXXXXXXXXXXXXXXXXXXXXXXXXXo.    ",
"       .XXXXXXXXXXXXXXXXXXXXXXXXXXXXXXXXXXXXXXXXXXXXXXXXXXXXXXXXXXXXXXXXXXXXXXXXXXXXXXXXXXXXXXXXXXXXXXXXXXXXXXXXXXXXXXXXXXXXXXXXXXXXXXXXXXXXXXXXXXXXXXXXXXXXXXXXXXXXXXXXXXXXXXXXXXXXXXXXXXXXXXXXo.      ",
"         .oooXXXXXXXXXXXXXXXXXXXXXXXXXXXXXXXXXXXXXXXXXXXXXXXXXXXXXXXXXXXXXXXXXXXXXXXXXXXXXXXXXXXXXXXXXXXXXXXXXXXXXXXXXXXXXXXXXXXXXXXXXXXXXXXXXXXXXXXXXXXXXXXXXXXXXXXXXXXXXXXXXXXXXXXXXXXXXXooo.         "
};
