/* XPM */
static char * meteoro[] = {
"392 392 9551 3",
"   	c None",
".  	c #000000",
"+  	c #C4C5C5",
"@  	c #C2C3C3",
"#  	c #C2C2C2",
"$  	c #C0C1C1",
"%  	c #FFFCF3",
"&  	c #F0C4A9",
"*  	c #EABEA3",
"=  	c #E8B598",
"-  	c #E9BBA0",
";  	c #EABCA1",
">  	c #E6B499",
",  	c #FCE9D7",
"'  	c #A7A7A8",
")  	c #DBCCBC",
"!  	c #CF8160",
"~  	c #D05D31",
"{  	c #DC5B2D",
"]  	c #DD5B27",
"^  	c #DD5B25",
"/  	c #C5633C",
"(  	c #E7B9A0",
"_  	c #A6A7A7",
":  	c #FFF3E7",
"<  	c #E08763",
"[  	c #E9591B",
"}  	c #F1561C",
"|  	c #F65622",
"1  	c #F55318",
"2  	c #DC5C28",
"3  	c #E9AD8F",
"4  	c #A6A6A6",
"5  	c #CCBCAB",
"6  	c #DE8560",
"7  	c #ED551D",
"8  	c #F9531A",
"9  	c #FC531D",
"0  	c #F8541C",
"a  	c #DC5C29",
"b  	c #E9AD90",
"c  	c #A6A6A5",
"d  	c #F8F0E5",
"e  	c #D77F5C",
"f  	c #EB5722",
"g  	c #FC5317",
"h  	c #FD5318",
"i  	c #F7541A",
"j  	c #EAB092",
"k  	c #A6A5A4",
"l  	c #5D5D5C",
"m  	c #585757",
"n  	c #1C1A17",
"o  	c #1D1B18",
"p  	c #1C1A18",
"q  	c #1D1B19",
"r  	c #171613",
"s  	c #F6EFE3",
"t  	c #D08362",
"u  	c #DD5B2C",
"v  	c #E9591C",
"w  	c #EE581C",
"x  	c #ED591D",
"y  	c #D35D30",
"z  	c #E5B499",
"A  	c #F7E7D8",
"B  	c #F9CFB5",
"C  	c #F6CEB4",
"D  	c #F6CDB5",
"E  	c #F9D2BA",
"F  	c #F9D2B9",
"G  	c #F8D1B8",
"H  	c #FAD4BE",
"I  	c #FAD5BE",
"J  	c #F8D3BD",
"K  	c #F8D3BC",
"L  	c #F6CCB2",
"M  	c #D89172",
"N  	c #D17853",
"O  	c #D6764F",
"P  	c #E18059",
"Q  	c #DF815B",
"R  	c #D17B58",
"S  	c #F1D5C3",
"T  	c #818181",
"U  	c #F4D4BF",
"V  	c #C46741",
"W  	c #D65D2D",
"X  	c #E05C29",
"Y  	c #E15B28",
"Z  	c #E05A29",
"`  	c #E55C29",
" . 	c #E15B29",
".. 	c #E25B2C",
"+. 	c #DB6237",
"@. 	c #C26845",
"#. 	c #EDC1A8",
"$. 	c #E4D7CC",
"%. 	c #EFEAE2",
"&. 	c #B1ADA4",
"*. 	c #B2B2B0",
"=. 	c #B1B2B2",
"-. 	c #606161",
";. 	c #F2D1BA",
">. 	c #D7663B",
",. 	c #F3561A",
"'. 	c #FA5318",
"). 	c #FB5419",
"!. 	c #F9561A",
"~. 	c #FA5519",
"{. 	c #F95617",
"]. 	c #F65816",
"^. 	c #F65719",
"/. 	c #F6551B",
"(. 	c #D26032",
"_. 	c #F2D0BA",
":. 	c #F1D5C0",
"<. 	c #D4683B",
"[. 	c #EE571B",
"}. 	c #F7541B",
"|. 	c #F4561C",
"1. 	c #F1571E",
"2. 	c #F5571D",
"3. 	c #F4561D",
"4. 	c #F3571D",
"5. 	c #F5551D",
"6. 	c #FA541F",
"7. 	c #F3561C",
"8. 	c #DC5F2E",
"9. 	c #F4D1B9",
"0. 	c #ECC6AE",
"a. 	c #D6673B",
"b. 	c #F0561D",
"c. 	c #F5551C",
"d. 	c #F5571E",
"e. 	c #F2571D",
"f. 	c #F6561E",
"g. 	c #F5561D",
"h. 	c #F4581E",
"i. 	c #FB531D",
"j. 	c #FB561D",
"k. 	c #D66134",
"l. 	c #F1CDB5",
"m. 	c #3F3F3F",
"n. 	c #636362",
"o. 	c #636363",
"p. 	c #606060",
"q. 	c #525353",
"r. 	c #262728",
"s. 	c #F4E1CF",
"t. 	c #D8653D",
"u. 	c #F2581D",
"v. 	c #F5551B",
"w. 	c #F6571F",
"x. 	c #F6551C",
"y. 	c #F4571E",
"z. 	c #F4571F",
"A. 	c #F45724",
"B. 	c #CB5E32",
"C. 	c #F1CDB7",
"D. 	c #131313",
"E. 	c #636262",
"F. 	c #63615F",
"G. 	c #515151",
"H. 	c #A9AAA9",
"I. 	c #F9E2CE",
"J. 	c #F8D8C3",
"K. 	c #F8DBC7",
"L. 	c #F9DECB",
"M. 	c #F8DDCA",
"N. 	c #FAE2D0",
"O. 	c #F9E0CE",
"P. 	c #E5BFA7",
"Q. 	c #E9C8B2",
"R. 	c #EFCBB5",
"S. 	c #EED4BF",
"T. 	c #EEBCA1",
"U. 	c #D57854",
"V. 	c #D26941",
"W. 	c #D1683F",
"X. 	c #D96C45",
"Y. 	c #D66B43",
"Z. 	c #D76B44",
"`. 	c #D46B43",
" + 	c #D86C45",
".+ 	c #D36941",
"++ 	c #D66B44",
"@+ 	c #C57454",
"#+ 	c #F3D5C5",
"$+ 	c #5D5A56",
"%+ 	c #EDD7C3",
"&+ 	c #F7D9C5",
"*+ 	c #F8D9C4",
"=+ 	c #F7DAC4",
"-+ 	c #F9DFCB",
";+ 	c #F0D1BC",
">+ 	c #F0E5D7",
",+ 	c #373737",
"'+ 	c #A9A195",
")+ 	c #D79474",
"!+ 	c #CC6D49",
"~+ 	c #D96C46",
"{+ 	c #D96B46",
"]+ 	c #DE6B48",
"^+ 	c #DE6B47",
"/+ 	c #D96B45",
"(+ 	c #D86E49",
"_+ 	c #DD6B45",
":+ 	c #DE6B46",
"<+ 	c #DA6B45",
"[+ 	c #C86E4B",
"}+ 	c #D7815E",
"|+ 	c #F6DFCC",
"1+ 	c #998780",
"2+ 	c #A89892",
"3+ 	c #BAACA8",
"4+ 	c #6C4B3C",
"5+ 	c #6C4C3C",
"6+ 	c #9C8A83",
"7+ 	c #F8EFEB",
"8+ 	c #F8EFEA",
"9+ 	c #F8EDE9",
"0+ 	c #FEFBF9",
"a+ 	c #E4DFDC",
"b+ 	c #D69273",
"c+ 	c #C96E4B",
"d+ 	c #D76B45",
"e+ 	c #D76D46",
"f+ 	c #D76F4B",
"g+ 	c #CC714D",
"h+ 	c #E7B29B",
"i+ 	c #3B3935",
"j+ 	c #010101",
"k+ 	c #A69889",
"l+ 	c #E49472",
"m+ 	c #E75A20",
"n+ 	c #F35720",
"o+ 	c #F5571F",
"p+ 	c #F45720",
"q+ 	c #F4561F",
"r+ 	c #F4561E",
"s+ 	c #F2571C",
"t+ 	c #F05821",
"u+ 	c #F15721",
"v+ 	c #F4551F",
"w+ 	c #F5561F",
"x+ 	c #F6541E",
"y+ 	c #EE5922",
"z+ 	c #E65A26",
"A+ 	c #CE704D",
"B+ 	c #F6F0ED",
"C+ 	c #F8F4F1",
"D+ 	c #CE8667",
"E+ 	c #E05C2C",
"F+ 	c #F05622",
"G+ 	c #ED5626",
"H+ 	c #DB5C2E",
"I+ 	c #E9B297",
"J+ 	c #3A3631",
"K+ 	c #D2C7BD",
"L+ 	c #E79473",
"M+ 	c #F15812",
"N+ 	c #FB5515",
"O+ 	c #F85616",
"P+ 	c #F75716",
"Q+ 	c #F65717",
"R+ 	c #F45719",
"S+ 	c #F75718",
"T+ 	c #F95519",
"U+ 	c #F85518",
"V+ 	c #F45818",
"W+ 	c #F45622",
"X+ 	c #DA714A",
"Y+ 	c #F5EEEB",
"Z+ 	c #B1ABA7",
"`+ 	c #DB8460",
" @ 	c #EA5827",
".@ 	c #F85617",
"+@ 	c #F65518",
"@@ 	c #F8551A",
"#@ 	c #E25725",
"$@ 	c #E8AC91",
"%@ 	c #3A3732",
"&@ 	c #DDD9D1",
"*@ 	c #E3916F",
"=@ 	c #ED591C",
"-@ 	c #FA5518",
";@ 	c #F9551B",
">@ 	c #F7571B",
",@ 	c #F6571B",
"'@ 	c #F3571A",
")@ 	c #F4561A",
"!@ 	c #F5561B",
"~@ 	c #F85519",
"{@ 	c #F85517",
"]@ 	c #F95516",
"^@ 	c #F75618",
"/@ 	c #F8541B",
"(@ 	c #F6561A",
"_@ 	c #F45914",
":@ 	c #F1561E",
"<@ 	c #D3724C",
"[@ 	c #F5EBDF",
"}@ 	c #C4BEBB",
"|@ 	c #DA825E",
"1@ 	c #FA5416",
"2@ 	c #FA531A",
"3@ 	c #E4A385",
"4@ 	c #372C25",
"5@ 	c #E8E5DF",
"6@ 	c #DF8F6D",
"7@ 	c #EB5827",
"8@ 	c #F7561D",
"9@ 	c #F7571E",
"0@ 	c #F6571D",
"a@ 	c #F7561E",
"b@ 	c #F6551D",
"c@ 	c #F5561A",
"d@ 	c #F55815",
"e@ 	c #F65520",
"f@ 	c #F5551E",
"g@ 	c #F75616",
"h@ 	c #F5E9DC",
"i@ 	c #D2CCCA",
"j@ 	c #D97F5B",
"k@ 	c #EB5625",
"l@ 	c #F55419",
"m@ 	c #DD5927",
"n@ 	c #E3A98C",
"o@ 	c #38302A",
"p@ 	c #6E6D6C",
"q@ 	c #FCEFE1",
"r@ 	c #FBECDE",
"s@ 	c #FCF0EA",
"t@ 	c #FBEBDC",
"u@ 	c #FBEADB",
"v@ 	c #F9DEC8",
"w@ 	c #E78F6C",
"x@ 	c #EC5627",
"y@ 	c #F5571C",
"z@ 	c #F4581C",
"A@ 	c #EC5B2A",
"B@ 	c #E26236",
"C@ 	c #DC6134",
"D@ 	c #DC663C",
"E@ 	c #DB653C",
"F@ 	c #DB653B",
"G@ 	c #D96035",
"H@ 	c #D86138",
"I@ 	c #DC6135",
"J@ 	c #E36335",
"K@ 	c #D56437",
"L@ 	c #CB7554",
"M@ 	c #F5EEEC",
"N@ 	c #E1DFDD",
"O@ 	c #D99C81",
"P@ 	c #CE683E",
"Q@ 	c #D7663C",
"R@ 	c #D4673D",
"S@ 	c #D1643B",
"T@ 	c #CB6C46",
"U@ 	c #EBBCA5",
"V@ 	c #3B3936",
"W@ 	c #F6EFEC",
"X@ 	c #C39481",
"Y@ 	c #D17B55",
"Z@ 	c #D7724C",
"`@ 	c #E37D57",
" # 	c #D7714C",
".# 	c #E2794F",
"+# 	c #E66A37",
"@# 	c #F1571A",
"## 	c #FA5714",
"$# 	c #F85318",
"%# 	c #F35718",
"&# 	c #E75A1B",
"*# 	c #DE8B6A",
"=# 	c #F5EBDE",
"-# 	c #F2EFED",
";# 	c #FEFCFA",
"># 	c #EEEAE9",
",# 	c #EDE9E8",
"'# 	c #EDE9E7",
")# 	c #ECE7E0",
"!# 	c #F3ECE1",
"~# 	c #F7EDDF",
"{# 	c #EADDCD",
"]# 	c #FCF6ED",
"^# 	c #EAEAEA",
"/# 	c #5C5C5B",
"(# 	c #FBF3E8",
"_# 	c #E1C1AA",
":# 	c #ECC9B4",
"<# 	c #DFB9A0",
"[# 	c #DFB8A0",
"}# 	c #EBDFCF",
"|# 	c #EEE9E1",
"1# 	c #363636",
"2# 	c #F9EDE1",
"3# 	c #D37E5A",
"4# 	c #E55722",
"5# 	c #F3541A",
"6# 	c #F95522",
"7# 	c #FA5622",
"8# 	c #F45624",
"9# 	c #F6581D",
"0# 	c #F55613",
"a# 	c #FB5619",
"b# 	c #F8541E",
"c# 	c #F6561D",
"d# 	c #E35823",
"e# 	c #E7AC8F",
"f# 	c #3B3E40",
"g# 	c #303030",
"h# 	c #595959",
"i# 	c #111111",
"j# 	c #3B3B3B",
"k# 	c #4A4A4A",
"l# 	c #575757",
"m# 	c #1B1B1B",
"n# 	c #4B4B4B",
"o# 	c #F9EDE0",
"p# 	c #D87652",
"q# 	c #F1551E",
"r# 	c #F2551B",
"s# 	c #F7581E",
"t# 	c #F95616",
"u# 	c #FA541D",
"v# 	c #EA5723",
"w# 	c #E39F81",
"x# 	c #FAF2EB",
"y# 	c #D57D59",
"z# 	c #F25625",
"A# 	c #F8561E",
"B# 	c #F4551B",
"C# 	c #F7571F",
"D# 	c #F9551C",
"E# 	c #F05917",
"F# 	c #F65617",
"G# 	c #ED551F",
"H# 	c #60493A",
"I# 	c #CB7655",
"J# 	c #EE5624",
"K# 	c #FA561E",
"L# 	c #FC5316",
"M# 	c #F55417",
"N# 	c #F8571F",
"O# 	c #F65621",
"P# 	c #F6561C",
"Q# 	c #F35817",
"R# 	c #EB5721",
"S# 	c #E4A183",
"T# 	c #9FA0A0",
"U# 	c #A9A9A8",
"V# 	c #B5A797",
"W# 	c #B5A696",
"X# 	c #B6A797",
"Y# 	c #B5A595",
"Z# 	c #B4A494",
"`# 	c #FAE6D4",
" $ 	c #DA815C",
".$ 	c #E45A23",
"+$ 	c #EC5920",
"@$ 	c #F1581E",
"#$ 	c #F8541A",
"$$ 	c #EF561C",
"%$ 	c #E45C2E",
"&$ 	c #E05B30",
"*$ 	c #DF5D2F",
"=$ 	c #E35B2E",
"-$ 	c #D45E37",
";$ 	c #DDA487",
">$ 	c #C9CACA",
",$ 	c #88847D",
"'$ 	c #B5A495",
")$ 	c #B6A495",
"!$ 	c #F8EDE4",
"~$ 	c #FFF5EC",
"{$ 	c #FFF6EE",
"]$ 	c #B4A293",
"^$ 	c #B6A595",
"/$ 	c #B19987",
"($ 	c #B6A796",
"_$ 	c #B2ADA5",
":$ 	c #505050",
"<$ 	c #FCEEDD",
"[$ 	c #E0A082",
"}$ 	c #DE8D6A",
"|$ 	c #E18C69",
"1$ 	c #E29271",
"2$ 	c #E28D6B",
"3$ 	c #E78D6A",
"4$ 	c #E06436",
"5$ 	c #F25618",
"6$ 	c #E45728",
"7$ 	c #DF906D",
"8$ 	c #EBC2AC",
"9$ 	c #EDC9BB",
"0$ 	c #ECC7B4",
"a$ 	c #EAC5B1",
"b$ 	c #EFCBBB",
"c$ 	c #F9E7DA",
"d$ 	c #A3A3A4",
"e$ 	c #FEEDE0",
"f$ 	c #E0A184",
"g$ 	c #E49F7F",
"h$ 	c #E58F6D",
"i$ 	c #E78E6D",
"j$ 	c #E78F6D",
"k$ 	c #E58F6C",
"l$ 	c #E28F6D",
"m$ 	c #D28A6A",
"n$ 	c #F6D9C4",
"o$ 	c #7D7D7D",
"p$ 	c #4F4F4F",
"q$ 	c #F6DAC7",
"r$ 	c #DC5A29",
"s$ 	c #E85A1B",
"t$ 	c #E8591E",
"u$ 	c #EB5620",
"v$ 	c #F2561B",
"w$ 	c #F85512",
"x$ 	c #FD531D",
"y$ 	c #E25A2E",
"z$ 	c #EDC2AD",
"A$ 	c #2D2B29",
"B$ 	c #0A0A09",
"C$ 	c #353535",
"D$ 	c #E1E1E1",
"E$ 	c #0A0A0A",
"F$ 	c #FBDCC7",
"G$ 	c #C86037",
"H$ 	c #E45823",
"I$ 	c #ED581B",
"J$ 	c #EB571F",
"K$ 	c #E85A1C",
"L$ 	c #E65A1D",
"M$ 	c #EA571F",
"N$ 	c #E9581E",
"O$ 	c #DD5C25",
"P$ 	c #D06137",
"Q$ 	c #E9BDA3",
"R$ 	c #3C3D3E",
"S$ 	c #FBE6D5",
"T$ 	c #CF6B45",
"U$ 	c #F1561F",
"V$ 	c #F85418",
"W$ 	c #F75617",
"X$ 	c #F6551E",
"Y$ 	c #F9571E",
"Z$ 	c #F85413",
"`$ 	c #F25712",
" % 	c #EA5A19",
".% 	c #EC5728",
"+% 	c #EEC4B3",
"@% 	c #2A2929",
"#% 	c #FBDAC4",
"$% 	c #D5663A",
"%% 	c #EF5820",
"&% 	c #F05912",
"*% 	c #F05B15",
"=% 	c #F35818",
"-% 	c #F6571C",
";% 	c #F3581F",
">% 	c #F65718",
",% 	c #F8561C",
"'% 	c #DF5F33",
")% 	c #EDBCA2",
"!% 	c #7B7B7C",
"~% 	c #141414",
"{% 	c #E9D3BF",
"]% 	c #CF6A45",
"^% 	c #F6541F",
"/% 	c #F85618",
"(% 	c #F7551C",
"_% 	c #F85421",
":% 	c #F6571E",
"<% 	c #EB5A11",
"[% 	c #EE5727",
"}% 	c #EABEA8",
"|% 	c #2A2825",
"1% 	c #FBDBC4",
"2% 	c #D4673E",
"3% 	c #F45517",
"4% 	c #F3561B",
"5% 	c #F8561B",
"6% 	c #F75815",
"7% 	c #FB561B",
"8% 	c #E45E2E",
"9% 	c #F0C0A4",
"0% 	c #7B7B7B",
"a% 	c #080808",
"b% 	c #E7D0BC",
"c% 	c #D26D48",
"d% 	c #F7541F",
"e% 	c #FA5419",
"f% 	c #F25524",
"g% 	c #F9541C",
"h% 	c #F95517",
"i% 	c #EF5A14",
"j% 	c #E95729",
"k% 	c #EBBBA1",
"l% 	c #2A2723",
"m% 	c #FCDFCC",
"n% 	c #D16D45",
"o% 	c #F35523",
"p% 	c #FB531B",
"q% 	c #F85419",
"r% 	c #EF5B16",
"s% 	c #F55916",
"t% 	c #F75717",
"u% 	c #DF5F32",
"v% 	c #EFBFA4",
"w% 	c #282828",
"x% 	c #ECD6C3",
"y% 	c #D96E48",
"z% 	c #F05625",
"A% 	c #E15C31",
"B% 	c #E35A2B",
"C% 	c #ED5528",
"D% 	c #E75924",
"E% 	c #E75A28",
"F% 	c #D95D33",
"G% 	c #EDBFA8",
"H% 	c #DFDFDF",
"I% 	c #DFDDDC",
"J% 	c #DFDFDE",
"K% 	c #DEDDDD",
"L% 	c #F6CFB6",
"M% 	c #D7653A",
"N% 	c #F35522",
"O% 	c #FC531B",
"P% 	c #FB5316",
"Q% 	c #E65924",
"R% 	c #E95925",
"S% 	c #EA5728",
"T% 	c #E15B2C",
"U% 	c #C9633C",
"V% 	c #E9BFA6",
"W% 	c #3E3F40",
"X% 	c #EED9C5",
"Y% 	c #F55520",
"Z% 	c #E55B29",
"`% 	c #DC9171",
" & 	c #E1A081",
".& 	c #E5AC91",
"+& 	c #E5AD91",
"@& 	c #E7B094",
"#& 	c #ECC2AC",
"$& 	c #FCEFE9",
"%& 	c #2A2A29",
"&& 	c #FBEADC",
"*& 	c #E3AA8C",
"=& 	c #E89B79",
"-& 	c #E3A889",
";& 	c #E2AB8D",
">& 	c #DE9D7C",
",& 	c #E8906C",
"'& 	c #E05E30",
")& 	c #F3581D",
"!& 	c #F55719",
"~& 	c #F65618",
"{& 	c #E05E2C",
"]& 	c #E09C7F",
"^& 	c #E3A285",
"/& 	c #E4A487",
"(& 	c #E7AC90",
"_& 	c #E7B095",
":& 	c #E5B59C",
"<& 	c #F6E7DE",
"[& 	c #4D4E4E",
"}& 	c #393939",
"|& 	c #F1DDCA",
"1& 	c #D66B45",
"2& 	c #F45520",
"3& 	c #F95318",
"4& 	c #E05F30",
"5& 	c #E6BAA1",
"6& 	c #B9BABA",
"7& 	c #A4A5A6",
"8& 	c #DBDCDC",
"9& 	c #7C7E7E",
"0& 	c #E8B498",
"a& 	c #CD5E35",
"b& 	c #E6592C",
"c& 	c #E05A2B",
"d& 	c #E05B2B",
"e& 	c #E15A2C",
"f& 	c #E15723",
"g& 	c #E95920",
"h& 	c #EF5917",
"i& 	c #F15A15",
"j& 	c #ED591F",
"k& 	c #DA673B",
"l& 	c #F7E1CF",
"m& 	c #7C7E7F",
"n& 	c #575A5B",
"o& 	c #171F23",
"p& 	c #E7D1BD",
"q& 	c #F75519",
"r& 	c #F7551B",
"s& 	c #DD6238",
"t& 	c #E4BDA3",
"u& 	c #ECBBA0",
"v& 	c #DC5D2E",
"w& 	c #F4571C",
"x& 	c #F6541B",
"y& 	c #F3551A",
"z& 	c #F15818",
"A& 	c #EE5B13",
"B& 	c #EF5822",
"C& 	c #DA673E",
"D& 	c #F7E4D5",
"E& 	c #E5CAB5",
"F& 	c #DE6338",
"G& 	c #DFAC91",
"H& 	c #EBBFA5",
"I& 	c #DE5D30",
"J& 	c #F35719",
"K& 	c #F0561B",
"L& 	c #F25917",
"M& 	c #F8551C",
"N& 	c #DB663A",
"O& 	c #F8E2D2",
"P& 	c #DFBBA4",
"Q& 	c #D66B46",
"R& 	c #F35520",
"S& 	c #F45819",
"T& 	c #DD6339",
"U& 	c #E7BFA6",
"V& 	c #999A9B",
"W& 	c #EBBDA2",
"X& 	c #DC5D30",
"Y& 	c #F45716",
"Z& 	c #F55416",
"`& 	c #F7551A",
" * 	c #F5571B",
".* 	c #F35819",
"+* 	c #FB541C",
"@* 	c #F3571E",
"#* 	c #D56539",
"$* 	c #F7DEC9",
"%* 	c #555451",
"&* 	c #524A42",
"** 	c #534C44",
"=* 	c #514940",
"-* 	c #EDEAE9",
";* 	c #F6DBC7",
">* 	c #D36F4B",
",* 	c #EC5923",
"'* 	c #F1581F",
")* 	c #EB5924",
"!* 	c #D36943",
"~* 	c #E7C1A9",
"{* 	c #ECBCA2",
"]* 	c #D05E33",
"^* 	c #E95A27",
"/* 	c #EE571D",
"(* 	c #EC5922",
"_* 	c #EC5A25",
":* 	c #EF5825",
"<* 	c #EF5725",
"[* 	c #EA5927",
"}* 	c #E85A27",
"|* 	c #D2663C",
"1* 	c #F9E3D2",
"2* 	c #FFF3E8",
"3* 	c #F4C1A6",
"4* 	c #F4C3A7",
"5* 	c #F4C2A6",
"6* 	c #F3BFA2",
"7* 	c #DB8E6D",
"8* 	c #D68664",
"9* 	c #D98867",
"0* 	c #E08A68",
"a* 	c #D68462",
"b* 	c #D98E70",
"c* 	c #FAEEE1",
"d* 	c #626262",
"e* 	c #9A9A9B",
"f* 	c #F5DBC7",
"g* 	c #D89576",
"h* 	c #D88361",
"i* 	c #DF8967",
"j* 	c #D98664",
"k* 	c #D88564",
"l* 	c #DF8C6B",
"m* 	c #E69270",
"n* 	c #DB8767",
"o* 	c #DA8766",
"p* 	c #E08C6B",
"q* 	c #D78564",
"r* 	c #D6886A",
"s* 	c #F6E8E1",
"t* 	c #F8DCCA",
"u* 	c #C66641",
"v* 	c #DA5F35",
"w* 	c #D86038",
"x* 	c #DA5D30",
"y* 	c #D26037",
"z* 	c #C36D4C",
"A* 	c #F7DCC7",
"B* 	c #BDB3AC",
"C* 	c #888379",
"D* 	c #837468",
"E* 	c #878176",
"F* 	c #888782",
"G* 	c #828383",
"H* 	c #E6E5E4",
"I* 	c #878177",
"J* 	c #816D5F",
"K* 	c #806C5E",
"L* 	c #888378",
"M* 	c #BCBAB6",
"N* 	c #FFFFFD",
"O* 	c #D7D6D3",
"P* 	c #86827B",
"Q* 	c #FDFCF9",
"R* 	c #FFFDFA",
"S* 	c #9E9B95",
"T* 	c #898887",
"U* 	c #4D4D4D",
"V* 	c #F5D4C4",
"W* 	c #DB5F2E",
"X* 	c #ED5919",
"Y* 	c #F0581E",
"Z* 	c #F6571A",
"`* 	c #D2653C",
" = 	c #F8E5D6",
".= 	c #F1CFBF",
"+= 	c #E6632A",
"@= 	c #F55813",
"#= 	c #F85513",
"$= 	c #F95513",
"%= 	c #F75318",
"&= 	c #D2643B",
"*= 	c #F6E1CF",
"== 	c #F5D6C6",
"-= 	c #DF6131",
";= 	c #F35615",
">= 	c #F15814",
",= 	c #F0591D",
"'= 	c #D96A43",
")= 	c #FAE4CF",
"!= 	c #F4D6C9",
"~= 	c #D46036",
"{= 	c #E9572A",
"]= 	c #F25725",
"^= 	c #EE5821",
"/= 	c #E6572A",
"(= 	c #CD6741",
"_= 	c #939393",
":= 	c #919292",
"<= 	c #919191",
"[= 	c #918E89",
"}= 	c #918E88",
"|= 	c #3A3A3B",
"1= 	c #F2DED1",
"2= 	c #CD805F",
"3= 	c #D67855",
"4= 	c #D2714C",
"5= 	c #D4744F",
"6= 	c #CC8466",
"7= 	c #FAE8D5",
"8= 	c #C9C8C5",
"9= 	c #F7D8C0",
"0= 	c #F4CDB4",
"a= 	c #F4CCB2",
"b= 	c #F4CCB3",
"c= 	c #F4CEB5",
"d= 	c #FADDC8",
"e= 	c #94908B",
"f= 	c #2D2B27",
"g= 	c #F4F0EE",
"h= 	c #C8C4C2",
"i= 	c #F1EEED",
"j= 	c #F1EEEC",
"k= 	c #F2EFEE",
"l= 	c #929190",
"m= 	c #D0C7B9",
"n= 	c #D78F6F",
"o= 	c #CE653B",
"p= 	c #D76536",
"q= 	c #DA6030",
"r= 	c #DB6131",
"s= 	c #DB6137",
"t= 	c #DB6030",
"u= 	c #DB602F",
"v= 	c #D36337",
"w= 	c #DC623A",
"x= 	c #E16035",
"y= 	c #D3673C",
"z= 	c #DDA082",
"A= 	c #7C746C",
"B= 	c #DE8563",
"C= 	c #E85823",
"D= 	c #F25916",
"E= 	c #F55624",
"F= 	c #F85719",
"G= 	c #F7561F",
"H= 	c #F95620",
"I= 	c #FA5317",
"J= 	c #E95924",
"K= 	c #E19B7C",
"L= 	c #6B6157",
"M= 	c #E18866",
"N= 	c #EF5424",
"O= 	c #F85412",
"P= 	c #F8531A",
"Q= 	c #F95520",
"R= 	c #F9551A",
"S= 	c #F9531B",
"T= 	c #F95319",
"U= 	c #FA5516",
"V= 	c #EB5923",
"W= 	c #E29C7F",
"X= 	c #C9BDAE",
"Y= 	c #DF8562",
"Z= 	c #EF5523",
"`= 	c #F85514",
" - 	c #F6581F",
".- 	c #F5581E",
"+- 	c #F7551E",
"@- 	c #F8551E",
"#- 	c #F4571B",
"$- 	c #F75619",
"%- 	c #EB5925",
"&- 	c #E29B7F",
"*- 	c #695C52",
"=- 	c #C8BBAB",
"-- 	c #DE8561",
";- 	c #F8551B",
">- 	c #F4581B",
",- 	c #EF5821",
"'- 	c #F45722",
")- 	c #F45524",
"!- 	c #F25620",
"~- 	c #F25821",
"{- 	c #E15B2D",
"]- 	c #E19C7E",
"^- 	c #6B6057",
"/- 	c #525252",
"(- 	c #FDFAF5",
"_- 	c #FDE5D3",
":- 	c #FDE6D3",
"<- 	c #FDE4D2",
"[- 	c #FEE9D7",
"}- 	c #FEE8D6",
"|- 	c #FEEEDE",
"1- 	c #FCE8DE",
"2- 	c #FCEAE0",
"3- 	c #FCEBE1",
"4- 	c #F6D3BB",
"5- 	c #E3845E",
"6- 	c #F05822",
"7- 	c #F85319",
"8- 	c #ED5917",
"9- 	c #E06738",
"0- 	c #E06C41",
"a- 	c #DA6941",
"b- 	c #DB6C45",
"c- 	c #D76637",
"d- 	c #CB6B44",
"e- 	c #E1A183",
"f- 	c #6B645C",
"g- 	c #6A6A6B",
"h- 	c #F6E3D0",
"i- 	c #C67858",
"j- 	c #CF6F47",
"k- 	c #D36E46",
"l- 	c #D8683F",
"m- 	c #D56E46",
"n- 	c #D76940",
"o- 	c #D57149",
"p- 	c #D47048",
"q- 	c #D37048",
"r- 	c #D76A41",
"s- 	c #D3714A",
"t- 	c #E75928",
"u- 	c #F75418",
"v- 	c #E35B22",
"w- 	c #E7A587",
"x- 	c #FAE3D3",
"y- 	c #C89F87",
"z- 	c #CAA28A",
"A- 	c #F6DDCE",
"B- 	c #FEF6EA",
"C- 	c #FEFCFB",
"D- 	c #5B5B5B",
"E- 	c #717272",
"F- 	c #F0C9B0",
"G- 	c #D6683C",
"H- 	c #EB591C",
"I- 	c #F2561C",
"J- 	c #F9561F",
"K- 	c #F8541F",
"L- 	c #F4551A",
"M- 	c #F65624",
"N- 	c #FB5621",
"O- 	c #FE5318",
"P- 	c #FB5319",
"Q- 	c #F9541D",
"R- 	c #EAB599",
"S- 	c #081519",
"T- 	c #242424",
"U- 	c #222222",
"V- 	c #747575",
"W- 	c #EEC4AB",
"X- 	c #DA6335",
"Y- 	c #F75319",
"Z- 	c #FB551B",
"`- 	c #F8561A",
" ; 	c #F65817",
".; 	c #FA571E",
"+; 	c #FC531C",
"@; 	c #F95420",
"#; 	c #FC541E",
"$; 	c #DD5B28",
"%; 	c #E8B99F",
"&; 	c #EABDA3",
"*; 	c #DE653E",
"=; 	c #F2551C",
"-; 	c #F7571D",
";; 	c #F8561D",
">; 	c #F15523",
",; 	c #F25719",
"'; 	c #F8531B",
"); 	c #E05927",
"!; 	c #9C9D9E",
"~; 	c #1D1D1D",
"{; 	c #1D1D1C",
"]; 	c #191919",
"^; 	c #1D1C1A",
"/; 	c #F7DDC8",
"(; 	c #DE653F",
"_; 	c #F3551C",
":; 	c #F3581E",
"<; 	c #DF5E33",
"[; 	c #E7AD90",
"}; 	c #101010",
"|; 	c #1C1C1C",
"1; 	c #7F7F7F",
"2; 	c #FEEFE1",
"3; 	c #FCE9DA",
"4; 	c #FCE6D7",
"5; 	c #FCE6D6",
"6; 	c #FCE8D9",
"7; 	c #FDEBDC",
"8; 	c #FFFAEF",
"9; 	c #C0C0BF",
"0; 	c #343434",
"a; 	c #F6EADF",
"b; 	c #FCE5D1",
"c; 	c #FEEEE1",
"d; 	c #FDEEDF",
"e; 	c #F4C3A8",
"f; 	c #E16338",
"g; 	c #F55720",
"h; 	c #EE5817",
"i; 	c #DF5E2E",
"j; 	c #D86135",
"k; 	c #D66233",
"l; 	c #D66335",
"m; 	c #D46337",
"n; 	c #C36642",
"o; 	c #E7B99F",
"p; 	c #A7A8A8",
"q; 	c #C1C1C0",
"r; 	c #D4C5B3",
"s; 	c #D1B7A4",
"t; 	c #E8D5C6",
"u; 	c #FCEADC",
"v; 	c #FEF0E2",
"w; 	c #FDF9F2",
"x; 	c #666666",
"y; 	c #9B9B9B",
"z; 	c #FFFEFA",
"A; 	c #D78362",
"B; 	c #DA815E",
"C; 	c #DE835E",
"D; 	c #E0845F",
"E; 	c #E3AB8F",
"F; 	c #E2DDD3",
"G; 	c #BEBDBC",
"H; 	c #F7D4BD",
"I; 	c #D18464",
"J; 	c #D68260",
"K; 	c #DC8562",
"L; 	c #D88360",
"M; 	c #D6805E",
"N; 	c #E3764D",
"O; 	c #ED5927",
"P; 	c #E9A584",
"Q; 	c #F2D6C2",
"R; 	c #F5DBCA",
"S; 	c #F3D8C7",
"T; 	c #F6DAC8",
"U; 	c #F5DED4",
"V; 	c #FDF4EC",
"W; 	c #E3DACC",
"X; 	c #DC9779",
"Y; 	c #DB8260",
"Z; 	c #DE8461",
"`; 	c #E18561",
" > 	c #DE835F",
".> 	c #D48664",
"+> 	c #F4D4BD",
"@> 	c #797166",
"#> 	c #E7A98B",
"$> 	c #EE551E",
"%> 	c #EC581B",
"&> 	c #EB5919",
"*> 	c #DC5A28",
"=> 	c #D48E70",
"-> 	c #E3E1E0",
";> 	c #BBBAB8",
">> 	c #EFBCA1",
",> 	c #D95E2A",
"'> 	c #EF561B",
")> 	c #F0551E",
"!> 	c #EF561E",
"~> 	c #E8581F",
"{> 	c #EF5920",
"]> 	c #F65720",
"^> 	c #FB5617",
"/> 	c #ED591B",
"(> 	c #D85F2F",
"_> 	c #F0CFBB",
":> 	c #E0CBB7",
"<> 	c #D4714C",
"[> 	c #ED5726",
"}> 	c #EA591D",
"|> 	c #DB5F33",
"1> 	c #F3CBB3",
"2> 	c #7B7A7A",
"3> 	c #7D7166",
"4> 	c #E8A587",
"5> 	c #E25B29",
"6> 	c #E65A27",
"7> 	c #D89676",
"8> 	c #F1F0EF",
"9> 	c #EFBCA0",
"0> 	c #DD5D27",
"a> 	c #FB5517",
"b> 	c #FA5319",
"c> 	c #F6561F",
"d> 	c #FC551A",
"e> 	c #EF581C",
"f> 	c #D76134",
"g> 	c #F3D3C0",
"h> 	c #232323",
"i> 	c #EBD7C5",
"j> 	c #D87149",
"k> 	c #F45613",
"l> 	c #EE5B17",
"m> 	c #E15D2E",
"n> 	c #F1C5AB",
"o> 	c #7D7368",
"p> 	c #E19B7B",
"q> 	c #E65723",
"r> 	c #EC571E",
"s> 	c #D78E6E",
"t> 	c #DAD8D7",
"u> 	c #F25812",
"v> 	c #F3551D",
"w> 	c #F7561C",
"x> 	c #F8571E",
"y> 	c #FE531E",
"z> 	c #DD5E32",
"A> 	c #F5D5C0",
"B> 	c #020202",
"C> 	c #DFC7B2",
"D> 	c #DD7651",
"E> 	c #F55525",
"F> 	c #F9551E",
"G> 	c #F55518",
"H> 	c #F2581A",
"I> 	c #DF5E31",
"J> 	c #F4CDB5",
"K> 	c #7D776D",
"L> 	c #E09E81",
"M> 	c #EB5926",
"N> 	c #F05524",
"O> 	c #FA541E",
"P> 	c #EE5620",
"Q> 	c #DD8E6C",
"R> 	c #6D6C6A",
"S> 	c #EEBDA5",
"T> 	c #DD5D28",
"U> 	c #F25A14",
"V> 	c #F75522",
"W> 	c #FB531C",
"X> 	c #FD531E",
"Y> 	c #DC5E34",
"Z> 	c #EDCBB5",
"`> 	c #E7DDD1",
" , 	c #DE7049",
"., 	c #F75523",
"+, 	c #F75419",
"@, 	c #F1581B",
"#, 	c #DE5E32",
"$, 	c #F0C2A7",
"%, 	c #CDCDCD",
"&, 	c #F0E7DD",
"*, 	c #F1E9DC",
"=, 	c #F2EEEC",
"-, 	c #F1EADF",
";, 	c #F1EAE0",
">, 	c #F0E7DA",
",, 	c #F2E1CE",
"', 	c #E8AA8E",
"), 	c #D05F36",
"!, 	c #DF5E35",
"~, 	c #E55929",
"{, 	c #E35B2C",
"], 	c #D15F35",
"^, 	c #D59B7F",
"/, 	c #A1A1A1",
"(, 	c #F1EDE8",
"_, 	c #F1EBE1",
":, 	c #F2F0EE",
"<, 	c #FCF4E8",
"[, 	c #EFBAA0",
"}, 	c #D95C2B",
"|, 	c #F45519",
"1, 	c #F45715",
"2, 	c #ED5A12",
"3, 	c #EE5A12",
"4, 	c #F85420",
"5, 	c #FB5622",
"6, 	c #E75C2B",
"7, 	c #E45B29",
"8, 	c #E45A28",
"9, 	c #DF5A28",
"0, 	c #E15C2F",
"a, 	c #CA6742",
"b, 	c #F0CDB7",
"c, 	c #B8B8B6",
"d, 	c #FBE6D3",
"e, 	c #D37853",
"f, 	c #E7592D",
"g, 	c #DF5D2D",
"h, 	c #D46132",
"i, 	c #C7643F",
"j, 	c #EEC6AE",
"k, 	c #050505",
"l, 	c #DED9D1",
"m, 	c #E1A384",
"n, 	c #DD9272",
"o, 	c #E59372",
"p, 	c #D99171",
"q, 	c #E29B7A",
"r, 	c #EBB799",
"s, 	c #EBB89D",
"t, 	c #ECBBA1",
"u, 	c #EDBEA5",
"v, 	c #E8BA9F",
"w, 	c #F7E9DE",
"x, 	c #A9A69F",
"y, 	c #ECB598",
"z, 	c #DD9877",
"A, 	c #E59373",
"B, 	c #E59474",
"C, 	c #E59575",
"D, 	c #E49575",
"E, 	c #DC9878",
"F, 	c #E58056",
"G, 	c #F37A24",
"H, 	c #FA7B1D",
"I, 	c #F87A1A",
"J, 	c #F57815",
"K, 	c #F77817",
"L, 	c #F8721C",
"M, 	c #F45A1B",
"N, 	c #EE5A13",
"O, 	c #E0612D",
"P, 	c #E7A486",
"Q, 	c #EDBFA6",
"R, 	c #EBBCA2",
"S, 	c #ECBA9F",
"T, 	c #E9BEA4",
"U, 	c #FBF1E6",
"V, 	c #BCA492",
"W, 	c #DEA185",
"X, 	c #E89674",
"Y, 	c #DD9577",
"Z, 	c #E9B294",
"`, 	c #ECBDA3",
" ' 	c #E7AE94",
".' 	c #EEC0A6",
"+' 	c #DFA68A",
"@' 	c #F8EADD",
"#' 	c #7A7A7A",
"$' 	c #D3C9BA",
"%' 	c #D17A57",
"&' 	c #E45927",
"*' 	c #EE571F",
"=' 	c #E9581F",
"-' 	c #E95822",
";' 	c #EE581F",
">' 	c #EB5822",
",' 	c #F25720",
"'' 	c #EF5721",
")' 	c #DA5B2C",
"!' 	c #F9F4EE",
"~' 	c #3D4041",
"{' 	c #7E7F80",
"]' 	c #969697",
"^' 	c #6F7071",
"/' 	c #A69A8C",
"(' 	c #E09170",
"_' 	c #DB5928",
":' 	c #EB5726",
"<' 	c #EB5626",
"[' 	c #ED5623",
"}' 	c #ED5525",
"|' 	c #EF5425",
"1' 	c #F05425",
"2' 	c #EC5726",
"3' 	c #E15A20",
"4' 	c #EB6D1B",
"5' 	c #FE8C1D",
"6' 	c #FB9015",
"7' 	c #FB9317",
"8' 	c #FE9219",
"9' 	c #FF8F1D",
"0' 	c #FC801F",
"a' 	c #EF6012",
"b' 	c #F35914",
"c' 	c #F85614",
"d' 	c #F0581F",
"e' 	c #D5673A",
"f' 	c #E5CDB8",
"g' 	c #8B8C8C",
"h' 	c #88898A",
"i' 	c #969797",
"j' 	c #5F6061",
"k' 	c #FCE0CE",
"l' 	c #D1653A",
"m' 	c #E85922",
"n' 	c #F05817",
"o' 	c #EA5914",
"p' 	c #D36539",
"q' 	c #F4D9C3",
"r' 	c #5C5E5F",
"s' 	c #979898",
"t' 	c #979797",
"u' 	c #929393",
"v' 	c #292A2B",
"w' 	c #CDB4A0",
"x' 	c #D97B58",
"y' 	c #F4561B",
"z' 	c #FA5620",
"A' 	c #F9551F",
"B' 	c #ED5728",
"C' 	c #DEA387",
"D' 	c #564E46",
"E' 	c #D4CAC0",
"F' 	c #E79472",
"G' 	c #EE5720",
"H' 	c #F9561B",
"I' 	c #F6541A",
"J' 	c #F7561B",
"K' 	c #F5581B",
"L' 	c #EF5912",
"M' 	c #F06A13",
"N' 	c #FD891B",
"O' 	c #FA9215",
"P' 	c #F7930F",
"Q' 	c #F99212",
"R' 	c #FB9019",
"S' 	c #FB801E",
"T' 	c #EF5F13",
"U' 	c #F35A14",
"V' 	c #F95619",
"W' 	c #F35820",
"X' 	c #D2A88F",
"Y' 	c #F6D5C1",
"Z' 	c #D9663C",
"`' 	c #F45717",
" ) 	c #F3591A",
".) 	c #EA581B",
"+) 	c #D3663B",
"@) 	c #F8E3D4",
"#) 	c #D0BEAB",
"$) 	c #DF7D5B",
"%) 	c #F15617",
"&) 	c #F55716",
"*) 	c #F4581A",
"=) 	c #F6541C",
"-) 	c #F5561C",
";) 	c #EB5826",
">) 	c #E1A689",
",) 	c #5D5851",
"') 	c #F55817",
")) 	c #F65716",
"!) 	c #F55915",
"~) 	c #F46915",
"{) 	c #FE8B1F",
"]) 	c #F9911A",
"^) 	c #FA9113",
"/) 	c #FB9113",
"() 	c #FB8C19",
"_) 	c #FC861C",
":) 	c #F45B18",
"<) 	c #F85717",
"[) 	c #F4581F",
"}) 	c #D96940",
"|) 	c #D7B39B",
"1) 	c #FCDFCB",
"2) 	c #D86539",
"3) 	c #F55718",
"4) 	c #F85619",
"5) 	c #ED5825",
"6) 	c #D4663C",
"7) 	c #F8E4D5",
"8) 	c #D0BDAA",
"9) 	c #D77A57",
"0) 	c #ED591A",
"a) 	c #F4581D",
"b) 	c #E05B21",
"c) 	c #E4A789",
"d) 	c #5C5750",
"e) 	c #A7A094",
"f) 	c #E29170",
"g) 	c #F05522",
"h) 	c #F4571A",
"i) 	c #F7561A",
"j) 	c #F46A15",
"k) 	c #FD8F23",
"l) 	c #F78F16",
"m) 	c #FC8E15",
"n) 	c #FB9111",
"o) 	c #FC9014",
"p) 	c #FA8519",
"q) 	c #F05E16",
"r) 	c #D8693F",
"s) 	c #D8B6A0",
"t) 	c #AFAFAF",
"u) 	c #FADECF",
"v) 	c #D76439",
"w) 	c #F95618",
"x) 	c #F3581C",
"y) 	c #D5653B",
"z) 	c #595A5A",
"A) 	c #837D76",
"B) 	c #82766A",
"C) 	c #9B9188",
"D) 	c #FDF8F4",
"E) 	c #FDF8F3",
"F) 	c #DBD5D0",
"G) 	c #82766B",
"H) 	c #82776B",
"I) 	c #81756A",
"J) 	c #837C72",
"K) 	c #82776C",
"L) 	c #82786D",
"M) 	c #817569",
"N) 	c #837D73",
"O) 	c #837D74",
"P) 	c #827C72",
"Q) 	c #E8E4DE",
"R) 	c #FCE9D9",
"S) 	c #D57954",
"T) 	c #F15822",
"U) 	c #FA551B",
"V) 	c #E15B23",
"W) 	c #61605B",
"X) 	c #FEF7F2",
"Y) 	c #DBD3CE",
"Z) 	c #ABA098",
"`) 	c #FDF6F2",
" ! 	c #9F968E",
".! 	c #7E7266",
"+! 	c #FFFAF6",
"@! 	c #FCF0E5",
"#! 	c #E5916E",
"$! 	c #E45924",
"%! 	c #EF5719",
"&! 	c #F1561A",
"*! 	c #F2561A",
"=! 	c #F45416",
"-! 	c #EE5910",
";! 	c #ED6C11",
">! 	c #FE8E25",
",! 	c #FC8B1F",
"'! 	c #FB901A",
")! 	c #FA9112",
"!! 	c #FE8E1D",
"~! 	c #FD861F",
"{! 	c #DB6A41",
"]! 	c #DEB9A3",
"^! 	c #84827F",
"/! 	c #81766A",
"(! 	c #827B71",
"_! 	c #DEDBD7",
":! 	c #F9D7BF",
"<! 	c #D76338",
"[! 	c #F8541D",
"}! 	c #D6663A",
"|! 	c #F8E2D1",
"1! 	c #FEFCF7",
"2! 	c #F1C4A9",
"3! 	c #ECB092",
"4! 	c #ECB192",
"5! 	c #E0B19D",
"6! 	c #EDB192",
"7! 	c #EDB092",
"8! 	c #ECAE90",
"9! 	c #EBAB8E",
"0! 	c #EBAC8F",
"a! 	c #EBAB8F",
"b! 	c #EAAB8E",
"c! 	c #EAAC90",
"d! 	c #EAAC8F",
"e! 	c #E8A88A",
"f! 	c #E9A889",
"g! 	c #EBA383",
"h! 	c #DD6A3E",
"i! 	c #F25822",
"j! 	c #F6561B",
"k! 	c #E4A78A",
"l! 	c #F5E7DA",
"m! 	c #E1AD97",
"n! 	c #ECB091",
"o! 	c #E2B3A0",
"p! 	c #EDB091",
"q! 	c #EBAC90",
"r! 	c #E9A98B",
"s! 	c #EAA889",
"t! 	c #DA8941",
"u! 	c #EF7017",
"v! 	c #F07015",
"w! 	c #F37016",
"x! 	c #F57017",
"y! 	c #F46F17",
"z! 	c #F57618",
"A! 	c #F07313",
"B! 	c #F67618",
"C! 	c #F37814",
"D! 	c #F07412",
"E! 	c #F67319",
"F! 	c #F9731D",
"G! 	c #F05C15",
"H! 	c #F75620",
"I! 	c #F5D6C4",
"J! 	c #FAE7D6",
"K! 	c #EEB498",
"L! 	c #E6A789",
"M! 	c #EB9E7C",
"N! 	c #E06031",
"O! 	c #F75623",
"P! 	c #F25818",
"Q! 	c #F9E2D1",
"R! 	c #BCAEA0",
"S! 	c #D88968",
"T! 	c #DE5A28",
"U! 	c #DD5A28",
"V! 	c #DE5B2A",
"W! 	c #E35B2A",
"X! 	c #E9572B",
"Y! 	c #E9582C",
"Z! 	c #E85828",
"`! 	c #E85B29",
" ~ 	c #E85B28",
".~ 	c #E75824",
"+~ 	c #E75923",
"@~ 	c #E65B21",
"#~ 	c #E75B21",
"$~ 	c #E85926",
"%~ 	c #E85B2A",
"&~ 	c #E45A29",
"*~ 	c #EA5B22",
"=~ 	c #EB5A25",
"-~ 	c #F75414",
";~ 	c #F3561D",
">~ 	c #EACABD",
",~ 	c #CE663F",
"'~ 	c #E05B2C",
")~ 	c #E45C22",
"!~ 	c #E45B21",
"~~ 	c #E85C28",
"{~ 	c #E85B21",
"]~ 	c #E85824",
"^~ 	c #E75925",
"/~ 	c #D85E29",
"(~ 	c #F37F1D",
"_~ 	c #FC8E1B",
":~ 	c #FD8E1B",
"<~ 	c #FD8E1A",
"[~ 	c #FE8E1B",
"}~ 	c #FD8D1A",
"|~ 	c #F7901B",
"1~ 	c #FD9123",
"2~ 	c #FC8120",
"3~ 	c #EA5F0C",
"4~ 	c #F05911",
"5~ 	c #EF5B10",
"6~ 	c #F05D11",
"7~ 	c #F35713",
"8~ 	c #F6581E",
"9~ 	c #F95715",
"0~ 	c #F85615",
"a~ 	c #F7571C",
"b~ 	c #F45623",
"c~ 	c #DA6A41",
"d~ 	c #F5D6C3",
"e~ 	c #A2A3A3",
"f~ 	c #ECC0A6",
"g~ 	c #DF5B28",
"h~ 	c #D85D2B",
"i~ 	c #DF5C2A",
"j~ 	c #EE5921",
"k~ 	c #D5663B",
"l~ 	c #B2A293",
"m~ 	c #D88664",
"n~ 	c #EC5921",
"o~ 	c #EB591D",
"p~ 	c #F2581E",
"q~ 	c #F65514",
"r~ 	c #F8551D",
"s~ 	c #F4551E",
"t~ 	c #F75520",
"u~ 	c #F85520",
"v~ 	c #F75518",
"w~ 	c #FB5420",
"x~ 	c #FC541F",
"y~ 	c #F0561C",
"z~ 	c #DEA385",
"A~ 	c #5C544B",
"B~ 	c #E7C5B7",
"C~ 	c #E45E2F",
"D~ 	c #F95421",
"E~ 	c #F5571A",
"F~ 	c #F7541D",
"G~ 	c #EE5819",
"H~ 	c #F87A1B",
"I~ 	c #FA9117",
"J~ 	c #F79411",
"K~ 	c #F99315",
"L~ 	c #FB9215",
"M~ 	c #FA9313",
"N~ 	c #F89210",
"O~ 	c #F69411",
"P~ 	c #F69313",
"Q~ 	c #FB911C",
"R~ 	c #FC7B20",
"S~ 	c #F15719",
"T~ 	c #F9541F",
"U~ 	c #FA541B",
"V~ 	c #FA5715",
"W~ 	c #F15723",
"X~ 	c #D66A3F",
"Y~ 	c #C6C6C7",
"Z~ 	c #EAB99D",
"`~ 	c #E15C2E",
" { 	c #F45816",
".{ 	c #FA5718",
"+{ 	c #F15623",
"@{ 	c #DD8866",
"#{ 	c #EA5721",
"${ 	c #EE5A18",
"%{ 	c #F95417",
"&{ 	c #FA5418",
"*{ 	c #FC551B",
"={ 	c #FB5318",
"-{ 	c #FD5319",
";{ 	c #F65623",
">{ 	c #E75921",
",{ 	c #EBA88A",
"'{ 	c #5C534A",
"){ 	c #E3C0B2",
"!{ 	c #E25F32",
"~{ 	c #F35714",
"{{ 	c #FA5616",
"]{ 	c #FA5417",
"^{ 	c #FC5519",
"/{ 	c #FA541C",
"({ 	c #F4551D",
"_{ 	c #EF5818",
":{ 	c #FA9017",
"<{ 	c #FA9214",
"[{ 	c #FE9114",
"}{ 	c #FD9113",
"|{ 	c #F99314",
"1{ 	c #F99211",
"2{ 	c #FE901B",
"3{ 	c #FB7B20",
"4{ 	c #F05719",
"5{ 	c #FB531A",
"6{ 	c #F65818",
"7{ 	c #D96A40",
"8{ 	c #585A5B",
"9{ 	c #EFC9B2",
"0{ 	c #E35C2E",
"a{ 	c #FA551D",
"b{ 	c #FA551C",
"c{ 	c #D4663B",
"d{ 	c #F7DEC8",
"e{ 	c #FFF6ED",
"f{ 	c #D68865",
"g{ 	c #EB5824",
"h{ 	c #F45718",
"i{ 	c #FA551A",
"j{ 	c #F9541B",
"k{ 	c #F65616",
"l{ 	c #F45916",
"m{ 	c #F55717",
"n{ 	c #F55618",
"o{ 	c #F35622",
"p{ 	c #E45826",
"q{ 	c #E2A082",
"r{ 	c #B37F67",
"s{ 	c #DF6033",
"t{ 	c #F7571A",
"u{ 	c #FC531A",
"v{ 	c #F25813",
"w{ 	c #F87A19",
"x{ 	c #F6921A",
"y{ 	c #FC9215",
"z{ 	c #FD9114",
"A{ 	c #FE9015",
"B{ 	c #FD8F17",
"C{ 	c #FB9012",
"D{ 	c #FB911A",
"E{ 	c #FC7B1E",
"F{ 	c #ED5B11",
"G{ 	c #F55818",
"H{ 	c #D76B42",
"I{ 	c #F4D1BF",
"J{ 	c #EABBA0",
"K{ 	c #DF5D30",
"L{ 	c #F65318",
"M{ 	c #FC531F",
"N{ 	c #F8561F",
"O{ 	c #B7B7B7",
"P{ 	c #B8B9B9",
"Q{ 	c #B8B8B8",
"R{ 	c #E6E5E2",
"S{ 	c #FCEEDF",
"T{ 	c #D98563",
"U{ 	c #ED5821",
"V{ 	c #FA5316",
"W{ 	c #F35916",
"X{ 	c #F25913",
"Y{ 	c #F65721",
"Z{ 	c #EA5826",
"`{ 	c #EA592B",
" ] 	c #EE5724",
".] 	c #E95823",
"+] 	c #EA581E",
"@] 	c #EE5820",
"#] 	c #ED5822",
"$] 	c #DD5E31",
"%] 	c #E2A88B",
"&] 	c #554D44",
"*] 	c #6C6B6B",
"=] 	c #B8B9BA",
"-] 	c #B8B9B8",
";] 	c #F9DDCB",
">] 	c #DF5D32",
",] 	c #F3561F",
"'] 	c #F35915",
")] 	c #F25A15",
"!] 	c #F15912",
"~] 	c #F45814",
"{] 	c #F55917",
"]] 	c #F15917",
"^] 	c #F05915",
"/] 	c #EC5C0E",
"(] 	c #F67A17",
"_] 	c #F89313",
":] 	c #FA9315",
"<] 	c #FF8F1C",
"[] 	c #FB8F19",
"}] 	c #FD8F1D",
"|] 	c #FC7B1F",
"1] 	c #F0581B",
"2] 	c #EE5823",
"3] 	c #E7582A",
"4] 	c #CF6A44",
"5] 	c #F6D8C6",
"6] 	c #202020",
"7] 	c #BABBBB",
"8] 	c #737475",
"9] 	c #B5B6B7",
"0] 	c #72716B",
"a] 	c #EDC4AB",
"b] 	c #D65E32",
"c] 	c #F5561E",
"d] 	c #ED5922",
"e] 	c #EA5924",
"f] 	c #EB5825",
"g] 	c #F7DFCC",
"h] 	c #FDFAF6",
"i] 	c #EEC0A5",
"j] 	c #EDC3A9",
"k] 	c #EEC8B0",
"l] 	c #EEC9B2",
"m] 	c #EEBCA2",
"n] 	c #E67B50",
"o] 	c #ED5721",
"p] 	c #F26616",
"q] 	c #F46A17",
"r] 	c #F36815",
"s] 	c #F16B12",
"t] 	c #F36915",
"u] 	c #F6611B",
"v] 	c #FB541E",
"w] 	c #F9541E",
"x] 	c #E55928",
"y] 	c #DF805B",
"z] 	c #CF8466",
"A] 	c #DE9476",
"B] 	c #DF977A",
"C] 	c #DC8B6C",
"D] 	c #DB8B6B",
"E] 	c #D78665",
"F] 	c #D98665",
"G] 	c #D88B6C",
"H] 	c #D49479",
"I] 	c #EFCEBB",
"J] 	c #D3D2D0",
"K] 	c #FDEEE3",
"L] 	c #ECBFA4",
"M] 	c #ECC3A9",
"N] 	c #EFC8B0",
"O] 	c #EBA585",
"P] 	c #F25912",
"Q] 	c #F56917",
"R] 	c #F16714",
"S] 	c #F16B14",
"T] 	c #F16C12",
"U] 	c #F26A13",
"V] 	c #EF6813",
"W] 	c #ED6710",
"X] 	c #EB6A16",
"Y] 	c #EF6C10",
"Z] 	c #E96D0C",
"`] 	c #F78017",
" ^ 	c #FC9018",
".^ 	c #F79412",
"+^ 	c #FA9116",
"@^ 	c #FB8A19",
"#^ 	c #F67E17",
"$^ 	c #F97F1A",
"%^ 	c #F87F1A",
"&^ 	c #FB7F1B",
"*^ 	c #FA7F20",
"=^ 	c #F8731B",
"-^ 	c #F45917",
";^ 	c #F35717",
">^ 	c #DF5C2D",
",^ 	c #D8805D",
"'^ 	c #D8805E",
")^ 	c #DB8A6A",
"!^ 	c #D18B6D",
"~^ 	c #DDA58B",
"{^ 	c #FFF4EA",
"]^ 	c #9C9B9A",
"^^ 	c #F8DAC4",
"/^ 	c #EEC4AA",
"(^ 	c #EFC3A9",
"_^ 	c #EDC3AA",
":^ 	c #F3CCB5",
"<^ 	c #F3CCB4",
"[^ 	c #F0CCB5",
"}^ 	c #EEC9B0",
"|^ 	c #EAA07F",
"1^ 	c #DD5C2F",
"2^ 	c #FB541B",
"3^ 	c #FC5419",
"4^ 	c #E95C27",
"5^ 	c #DA7F5B",
"6^ 	c #DA805D",
"7^ 	c #DA805E",
"8^ 	c #D79A7F",
"9^ 	c #FEF2E6",
"0^ 	c #FAEFE8",
"a^ 	c #D07B57",
"b^ 	c #DB5B2F",
"c^ 	c #DD5B2F",
"d^ 	c #DA602E",
"e^ 	c #D95C2E",
"f^ 	c #DF5C31",
"g^ 	c #E5592A",
"h^ 	c #EF581F",
"i^ 	c #F15713",
"j^ 	c #F7701B",
"k^ 	c #FE8A25",
"l^ 	c #FE8A1D",
"m^ 	c #FD8E1D",
"n^ 	c #FE8E1E",
"o^ 	c #FE8A24",
"p^ 	c #F7771B",
"q^ 	c #F65516",
"r^ 	c #DC6133",
"s^ 	c #F3CDB5",
"t^ 	c #ADAEAD",
"u^ 	c #C1C1C1",
"v^ 	c #090604",
"w^ 	c #080403",
"x^ 	c #CACACA",
"y^ 	c #E2E2E2",
"z^ 	c #DCDCDC",
"A^ 	c #58595B",
"B^ 	c #F0D3BE",
"C^ 	c #CA5F36",
"D^ 	c #DC5B2F",
"E^ 	c #E25A2C",
"F^ 	c #E95A28",
"G^ 	c #F65418",
"H^ 	c #FA571D",
"I^ 	c #F16214",
"J^ 	c #FD8424",
"K^ 	c #FE8925",
"L^ 	c #FE8C1E",
"M^ 	c #FE8C20",
"N^ 	c #FE8924",
"O^ 	c #FF8C1F",
"P^ 	c #FF8D1F",
"Q^ 	c #FC8F1A",
"R^ 	c #FE911A",
"S^ 	c #FB9218",
"T^ 	c #FA9114",
"U^ 	c #FA9016",
"V^ 	c #F07712",
"W^ 	c #E66209",
"X^ 	c #E95D0C",
"Y^ 	c #EB5D0D",
"Z^ 	c #EB5C0D",
"`^ 	c #F15811",
" / 	c #FB5521",
"./ 	c #F2561F",
"+/ 	c #DB6E44",
"@/ 	c #F7E1D1",
"#/ 	c #DFDEDC",
"$/ 	c #BEBEBE",
"%/ 	c #E3E3E3",
"&/ 	c #090705",
"*/ 	c #858382",
"=/ 	c #DE9A7C",
"-/ 	c #CF5C31",
";/ 	c #DB5E2E",
">/ 	c #D95E2E",
",/ 	c #DE5C2E",
"'/ 	c #DE5C2D",
")/ 	c #DD5C2E",
"!/ 	c #DC5C2D",
"~/ 	c #D55E2F",
"{/ 	c #D65C2F",
"]/ 	c #DD5B2D",
"^/ 	c #F45915",
"// 	c #EF571B",
"(/ 	c #DD7044",
"_/ 	c #E9CAB2",
":/ 	c #D5D5D5",
"</ 	c #CECECE",
"[/ 	c #131110",
"}/ 	c #8A8A8A",
"|/ 	c #363637",
"1/ 	c #FBEDDF",
"2/ 	c #E47445",
"3/ 	c #F05624",
"4/ 	c #F85718",
"5/ 	c #F85522",
"6/ 	c #F47616",
"7/ 	c #FB8C18",
"8/ 	c #F69410",
"9/ 	c #F7781A",
"0/ 	c #EC5D0F",
"a/ 	c #F45714",
"b/ 	c #F75613",
"c/ 	c #FA5716",
"d/ 	c #FC541C",
"e/ 	c #F4551C",
"f/ 	c #D36235",
"g/ 	c #F6DACA",
"h/ 	c #B5B6B6",
"i/ 	c #EEB89C",
"j/ 	c #DE5B26",
"k/ 	c #F75819",
"l/ 	c #EF5F11",
"m/ 	c #FD841F",
"n/ 	c #FC9017",
"o/ 	c #FC9214",
"p/ 	c #FC9119",
"q/ 	c #FF901A",
"r/ 	c #FC9416",
"s/ 	c #FC8F18",
"t/ 	c #F57918",
"u/ 	c #EA5C0E",
"v/ 	c #FA551E",
"w/ 	c #F45521",
"x/ 	c #D57651",
"y/ 	c #F6F1EF",
"z/ 	c #423C39",
"A/ 	c #DD9B7B",
"B/ 	c #E85925",
"C/ 	c #F0561A",
"D/ 	c #FB5620",
"E/ 	c #D6714A",
"F/ 	c #BE9D88",
"G/ 	c #999A9A",
"H/ 	c #FCEBDC",
"I/ 	c #EE5923",
"J/ 	c #FB5317",
"K/ 	c #FA561D",
"L/ 	c #F87C18",
"M/ 	c #FC9213",
"N/ 	c #F8920F",
"O/ 	c #F97D19",
"P/ 	c #FC5622",
"Q/ 	c #F0571C",
"R/ 	c #F7DAC8",
"S/ 	c #AEAFAF",
"T/ 	c #F3C6AD",
"U/ 	c #E25823",
"V/ 	c #FA5615",
"W/ 	c #FC561A",
"X/ 	c #F85623",
"Y/ 	c #F35620",
"Z/ 	c #FC541B",
"`/ 	c #EE6310",
" ( 	c #FC9019",
".( 	c #F8920E",
"+( 	c #FB9211",
"@( 	c #FB9210",
"#( 	c #F9920F",
"$( 	c #FA9210",
"%( 	c #FA9310",
"&( 	c #F8930F",
"*( 	c #F1940C",
"=( 	c #F69311",
"-( 	c #F57A1D",
";( 	c #EE5815",
">( 	c #FA5420",
",( 	c #FB561A",
"'( 	c #FB5519",
")( 	c #F15725",
"!( 	c #CE7958",
"~( 	c #2D241E",
"{( 	c #DE9E7F",
"]( 	c #E05A20",
"^( 	c #EF5910",
"/( 	c #FC5318",
"(( 	c #F75818",
"_( 	c #F1571B",
":( 	c #D67149",
"<( 	c #C0A28E",
"[( 	c #D8734D",
"}( 	c #F75515",
"|( 	c #FA571F",
"1( 	c #EE5913",
"2( 	c #F47414",
"3( 	c #FB9018",
"4( 	c #FB9216",
"5( 	c #F99310",
"6( 	c #FC9316",
"7( 	c #FB7B1E",
"8( 	c #F45518",
"9( 	c #F75622",
"0( 	c #F25521",
"a( 	c #D56235",
"b( 	c #F6D7C1",
"c( 	c #F0CAB1",
"d( 	c #DD5B26",
"e( 	c #F75817",
"f( 	c #FA5521",
"g( 	c #E95E0C",
"h( 	c #FC8322",
"i( 	c #FC8C19",
"j( 	c #FB9117",
"k( 	c #FB9213",
"l( 	c #FC9011",
"m( 	c #FD9214",
"n( 	c #FD9012",
"o( 	c #FA9312",
"p( 	c #F79218",
"q( 	c #F67A1D",
"r( 	c #F05A11",
"s( 	c #F9561C",
"t( 	c #F7581F",
"u( 	c #F75719",
"v( 	c #D2714A",
"w( 	c #F5F0ED",
"x( 	c #2D231D",
"y( 	c #EA5822",
"z( 	c #F75513",
"A( 	c #FA5614",
"B( 	c #F65317",
"C( 	c #F45614",
"D( 	c #F2561E",
"E( 	c #EBEAEA",
"F( 	c #F8DDC7",
"G( 	c #EF5623",
"H( 	c #F3571C",
"I( 	c #F55816",
"J( 	c #EA5D0E",
"K( 	c #F57717",
"L( 	c #FF8D20",
"M( 	c #FA9018",
"N( 	c #F99116",
"O( 	c #FB7A1E",
"P( 	c #E7591A",
"Q( 	c #EF5525",
"R( 	c #F35623",
"S( 	c #F25522",
"T( 	c #F25622",
"U( 	c #F45620",
"V( 	c #EF5921",
"W( 	c #F7551D",
"X( 	c #F15524",
"Y( 	c #CF6740",
"Z( 	c #F6D6BF",
"`( 	c #DEDEDE",
" _ 	c #EFCAB2",
"._ 	c #D65B2D",
"+_ 	c #F35917",
"@_ 	c #F45A14",
"#_ 	c #F55819",
"$_ 	c #F25A13",
"%_ 	c #EE640F",
"&_ 	c #FD851F",
"*_ 	c #FE8C1C",
"=_ 	c #FC911A",
"-_ 	c #FB9115",
";_ 	c #FB9119",
">_ 	c #F89119",
",_ 	c #FA9219",
"'_ 	c #FA9218",
")_ 	c #FF8B23",
"!_ 	c #F7751D",
"~_ 	c #F55622",
"{_ 	c #ED5624",
"]_ 	c #CD7451",
"^_ 	c #CECCCB",
"/_ 	c #DB9675",
"(_ 	c #E85923",
"__ 	c #F75417",
":_ 	c #EF5A15",
"<_ 	c #F3571F",
"[_ 	c #F2581F",
"}_ 	c #F05921",
"|_ 	c #ED5625",
"1_ 	c #CF714C",
"2_ 	c #BF9E89",
"3_ 	c #BABABA",
"4_ 	c #FCEEE6",
"5_ 	c #FAD8C1",
"6_ 	c #FAD6BE",
"7_ 	c #F9D5BD",
"8_ 	c #FAD5BD",
"9_ 	c #FBD8C2",
"0_ 	c #FAD8C2",
"a_ 	c #F9D7C2",
"b_ 	c #F6D2B9",
"c_ 	c #F0BCA1",
"d_ 	c #E47240",
"e_ 	c #FD531B",
"f_ 	c #F25819",
"g_ 	c #F26215",
"h_ 	c #F16614",
"i_ 	c #EE6611",
"j_ 	c #F16713",
"k_ 	c #EC610F",
"l_ 	c #EB660F",
"m_ 	c #F57915",
"n_ 	c #FC8520",
"o_ 	c #FD811F",
"p_ 	c #FA8419",
"q_ 	c #FC8620",
"r_ 	c #E4802F",
"s_ 	c #D06F47",
"t_ 	c #D3734C",
"u_ 	c #D47550",
"v_ 	c #D0734F",
"w_ 	c #D6754F",
"x_ 	c #D5744D",
"y_ 	c #D4734F",
"z_ 	c #D3734E",
"A_ 	c #D5744E",
"B_ 	c #D8744E",
"C_ 	c #D8744F",
"D_ 	c #D6744E",
"E_ 	c #D5744F",
"F_ 	c #D4724D",
"G_ 	c #D8734C",
"H_ 	c #D77550",
"I_ 	c #CB714D",
"J_ 	c #F7DDC9",
"K_ 	c #A3A3A3",
"L_ 	c #808180",
"M_ 	c #FBD6BE",
"N_ 	c #FAD6BD",
"O_ 	c #F8D3BB",
"P_ 	c #F7D0B6",
"Q_ 	c #ECA889",
"R_ 	c #F7551F",
"S_ 	c #F05818",
"T_ 	c #F26315",
"U_ 	c #EC640F",
"V_ 	c #F06913",
"W_ 	c #EF6E11",
"X_ 	c #FC881A",
"Y_ 	c #FC8F16",
"Z_ 	c #FD8B1A",
"`_ 	c #FB841B",
" : 	c #FC7F1E",
".: 	c #FB851A",
"+: 	c #FD871F",
"@: 	c #FD8520",
"#: 	c #FE8620",
"$: 	c #FC7F21",
"%: 	c #F7701A",
"&: 	c #EC5B0F",
"*: 	c #F15A16",
"=: 	c #EE581B",
"-: 	c #E16131",
";: 	c #DA754D",
">: 	c #D87551",
",: 	c #D3714D",
"': 	c #D37450",
"): 	c #D2754F",
"!: 	c #DA997A",
"~: 	c #F7F1EE",
"{: 	c #F9DCC8",
"]: 	c #F9D6C0",
"^: 	c #F2C6AC",
"/: 	c #E18964",
"(: 	c #E55822",
"_: 	c #EC581E",
":: 	c #DF6236",
"<: 	c #CB6A44",
"[: 	c #D4744D",
"}: 	c #CE6E49",
"|: 	c #CB6D49",
"1: 	c #D68967",
"2: 	c #EDE3D7",
"3: 	c #F0C9B7",
"4: 	c #C46540",
"5: 	c #DA6337",
"6: 	c #D86338",
"7: 	c #D86439",
"8: 	c #DA6438",
"9: 	c #DC6238",
"0: 	c #DF6138",
"a: 	c #E26430",
"b: 	c #EF5E13",
"c: 	c #FA7C1E",
"d: 	c #FD8522",
"e: 	c #FE8720",
"f: 	c #FE8825",
"g: 	c #F47318",
"h: 	c #E8600B",
"i: 	c #ED5B0F",
"j: 	c #EF5B14",
"k: 	c #EC5F0E",
"l: 	c #E75F18",
"m: 	c #E58F6A",
"n: 	c #F7D8C3",
"o: 	c #D3BCAE",
"p: 	c #B2927E",
"q: 	c #B6A291",
"r: 	c #B19581",
"s: 	c #B19481",
"t: 	c #B7AA9B",
"u: 	c #B19582",
"v: 	c #BAB6AC",
"w: 	c #E2E3E3",
"x: 	c #808080",
"y: 	c #E0A287",
"z: 	c #C8643E",
"A: 	c #D56438",
"B: 	c #D06338",
"C: 	c #D66A41",
"D: 	c #D7673D",
"E: 	c #E75F2E",
"F: 	c #F15622",
"G: 	c #F16314",
"H: 	c #FD821F",
"I: 	c #FE881F",
"J: 	c #FD881E",
"K: 	c #FE8820",
"L: 	c #FD8A1D",
"M: 	c #FC8A1A",
"N: 	c #FF9019",
"O: 	c #FD8C1A",
"P: 	c #F07012",
"Q: 	c #EC5F0F",
"R: 	c #F15E13",
"S: 	c #ED5F0E",
"T: 	c #ED5F10",
"U: 	c #EE5D0F",
"V: 	c #EC5E0E",
"W: 	c #ED5F11",
"X: 	c #EE6313",
"Y: 	c #EE5F11",
"Z: 	c #F25E15",
"`: 	c #F16114",
" < 	c #F05916",
".< 	c #F15819",
"+< 	c #F4571D",
"@< 	c #EA581F",
"#< 	c #DD7D57",
"$< 	c #F9DDC6",
"%< 	c #D5BFB1",
"&< 	c #FBE9DE",
"*< 	c #E5CFC3",
"=< 	c #CBBFB1",
"-< 	c #C0BEB7",
";< 	c #B6B6B6",
">< 	c #C9BCAB",
",< 	c #D58867",
"'< 	c #D1643C",
")< 	c #D7663E",
"!< 	c #D26A41",
"~< 	c #D4643A",
"{< 	c #E35D2C",
"]< 	c #F65519",
"^< 	c #E89875",
"/< 	c #F9E4D7",
"(< 	c #F2EEE7",
"_< 	c #D2C2B5",
":< 	c #BAA08F",
"<< 	c #FBEAE0",
"[< 	c #C6AE9F",
"}< 	c #D6D0C5",
"|< 	c #F3CAB2",
"1< 	c #F05920",
"2< 	c #EE5D10",
"3< 	c #F97C1D",
"4< 	c #FD9020",
"5< 	c #FC8F19",
"6< 	c #F47518",
"7< 	c #ED5B12",
"8< 	c #E9562A",
"9< 	c #DC9677",
"0< 	c #FFFCF8",
"a< 	c #7F7C76",
"b< 	c #DD9D81",
"c< 	c #F0591A",
"d< 	c #F1571D",
"e< 	c #F9551D",
"f< 	c #F16514",
"g< 	c #FE8D20",
"h< 	c #FA9216",
"i< 	c #F99112",
"j< 	c #FC8F17",
"k< 	c #FC9013",
"l< 	c #FB9214",
"m< 	c #FA9311",
"n< 	c #F99313",
"o< 	c #F89314",
"p< 	c #FC8D1B",
"q< 	c #EE6A12",
"r< 	c #EE5A15",
"s< 	c #F25814",
"t< 	c #F35619",
"u< 	c #EB5828",
"v< 	c #DE8866",
"w< 	c #FFFBF4",
"x< 	c #8F8F8F",
"y< 	c #C4AC98",
"z< 	c #E18966",
"A< 	c #E85826",
"B< 	c #F15820",
"C< 	c #EE581E",
"D< 	c #F65517",
"E< 	c #EA5923",
"F< 	c #E29474",
"G< 	c #665B50",
"H< 	c #7E7E7D",
"I< 	c #F2C3AA",
"J< 	c #DC5C24",
"K< 	c #F05C10",
"L< 	c #FB831A",
"M< 	c #FB9322",
"N< 	c #FE8D1E",
"O< 	c #F57519",
"P< 	c #F05814",
"Q< 	c #E19777",
"R< 	c #E7E4DF",
"S< 	c #7D7972",
"T< 	c #DF9D81",
"U< 	c #F3581B",
"V< 	c #F2591E",
"W< 	c #F15815",
"X< 	c #FD8D1C",
"Y< 	c #F99210",
"Z< 	c #FA9213",
"`< 	c #EE6610",
" [ 	c #F2581C",
".[ 	c #FD531C",
"+[ 	c #EA5A27",
"@[ 	c #DE8D6C",
"#[ 	c #968779",
"$[ 	c #C9B8A6",
"%[ 	c #F95714",
"&[ 	c #EA5920",
"*[ 	c #E29676",
"=[ 	c #6A6056",
"-[ 	c #F0C2A9",
";[ 	c #FA5619",
">[ 	c #F65416",
",[ 	c #F9541A",
"'[ 	c #F05E11",
")[ 	c #FA821A",
"![ 	c #FC9221",
"~[ 	c #FC9012",
"{[ 	c #FD8F1E",
"][ 	c #EF5814",
"^[ 	c #EF5624",
"/[ 	c #E09676",
"([ 	c #8B857A",
"_[ 	c #ECEAE7",
":[ 	c #E09F83",
"<[ 	c #E75726",
"[[ 	c #F75614",
"}[ 	c #F26615",
"|[ 	c #FD8D22",
"1[ 	c #FB9416",
"2[ 	c #FB9017",
"3[ 	c #FE8B20",
"4[ 	c #F25817",
"5[ 	c #FA561A",
"6[ 	c #E95622",
"7[ 	c #927C6C",
"8[ 	c #C8B6A4",
"9[ 	c #F15520",
"0[ 	c #FB5615",
"a[ 	c #FA5415",
"b[ 	c #EC5721",
"c[ 	c #F1C7AE",
"d[ 	c #DC5C23",
"e[ 	c #F55317",
"f[ 	c #F75517",
"g[ 	c #FB5418",
"h[ 	c #F67E18",
"i[ 	c #FE8E1F",
"j[ 	c #ED5817",
"k[ 	c #F35A15",
"l[ 	c #E75722",
"m[ 	c #DD987A",
"n[ 	c #9A958B",
"o[ 	c #7F7C75",
"p[ 	c #E8A88B",
"q[ 	c #FE531D",
"r[ 	c #FA9118",
"s[ 	c #FF8B20",
"t[ 	c #F2571E",
"u[ 	c #DD8D6C",
"v[ 	c #978A7C",
"w[ 	c #F8F1E6",
"x[ 	c #F15425",
"y[ 	c #EF571D",
"z[ 	c #E25A21",
"A[ 	c #E19A7B",
"B[ 	c #F0C6AD",
"C[ 	c #DE5A25",
"D[ 	c #F05623",
"E[ 	c #F3591D",
"F[ 	c #F05C16",
"G[ 	c #EA5E10",
"H[ 	c #EA5E0D",
"I[ 	c #E7630A",
"J[ 	c #F67C17",
"K[ 	c #FD8923",
"L[ 	c #FE8D1F",
"M[ 	c #FB8818",
"N[ 	c #EB8138",
"O[ 	c #D66536",
"P[ 	c #E06038",
"Q[ 	c #DE6339",
"R[ 	c #D86536",
"S[ 	c #D0663D",
"T[ 	c #DFA084",
"U[ 	c #7F7D77",
"V[ 	c #E85A29",
"W[ 	c #F95615",
"X[ 	c #F45713",
"Y[ 	c #F36515",
"Z[ 	c #FE8826",
"`[ 	c #FE8D1D",
" } 	c #FC8E19",
".} 	c #FE8B1E",
"+} 	c #FD891D",
"@} 	c #FE881D",
"#} 	c #FD861E",
"$} 	c #F26515",
"%} 	c #EE561D",
"&} 	c #E06032",
"*} 	c #DD693C",
"=} 	c #D76436",
"-} 	c #D8653C",
";} 	c #D4653A",
">} 	c #D9653D",
",} 	c #D9653E",
"'} 	c #D1663D",
")} 	c #DE9C7E",
"!} 	c #978A7D",
"~} 	c #F8F3EC",
"{} 	c #D38868",
"]} 	c #D4653D",
"^} 	c #D66537",
"/} 	c #DB683D",
"(} 	c #DC693C",
"_} 	c #DF6339",
":} 	c #DB683A",
"<} 	c #CF663E",
"[} 	c #E8E4E1",
"}} 	c #7B7B7A",
"|} 	c #F2C8AF",
"1} 	c #DE5B2C",
"2} 	c #EF5A1A",
"3} 	c #FA8B18",
"4} 	c #F88A16",
"5} 	c #F98A17",
"6} 	c #FA8A18",
"7} 	c #F98B17",
"8} 	c #E7750B",
"9} 	c #EB600E",
"0} 	c #EF6213",
"a} 	c #E9621C",
"b} 	c #E7A282",
"c} 	c #F7DECB",
"d} 	c #F8ECE7",
"e} 	c #F8ECE8",
"f} 	c #FDF9F5",
"g} 	c #B2B2B2",
"h} 	c #E6E6E5",
"i} 	c #E2A286",
"j} 	c #E75825",
"k} 	c #F75816",
"l} 	c #F25E13",
"m} 	c #F05F15",
"n} 	c #F06215",
"o} 	c #F06412",
"p} 	c #F06312",
"q} 	c #EF6212",
"r} 	c #F05F12",
"s} 	c #F25F14",
"t} 	c #F35E15",
"u} 	c #E75926",
"v} 	c #EAA788",
"w} 	c #F8E6D8",
"x} 	c #A28C84",
"y} 	c #785443",
"z} 	c #734D3A",
"A} 	c #92786E",
"B} 	c #847A6F",
"C} 	c #504F4F",
"D} 	c #656666",
"E} 	c #FDF4F0",
"F} 	c #F9EDE9",
"G} 	c #9B847B",
"H} 	c #F1E5E0",
"I} 	c #775342",
"J} 	c #C6B5B0",
"K} 	c #EADDD9",
"L} 	c #918177",
"M} 	c #6A6A6A",
"N} 	c #919190",
"O} 	c #F1C6AD",
"P} 	c #F9561D",
"Q} 	c #F65723",
"R} 	c #F05E17",
"S} 	c #FC821F",
"T} 	c #FA9115",
"U} 	c #FC8F1C",
"V} 	c #EF6F11",
"W} 	c #F55715",
"X} 	c #E35821",
"Y} 	c #E3AD90",
"Z} 	c #BEC0C0",
"`} 	c #7C7A77",
" | 	c #E4A387",
".| 	c #E55926",
"+| 	c #F65319",
"@| 	c #F9571C",
"#| 	c #F2571F",
"$| 	c #EDC3AF",
"%| 	c #969696",
"&| 	c #A4A4A4",
"*| 	c #D95E2F",
"=| 	c #ED5C11",
"-| 	c #FA8F17",
";| 	c #F99113",
">| 	c #FB9114",
",| 	c #EE6E10",
"'| 	c #DF5A24",
")| 	c #E2AC8F",
"!| 	c #BFC0C1",
"~| 	c #E4A386",
"{| 	c #FA561F",
"]| 	c #FA551F",
"^| 	c #F8551F",
"/| 	c #F9561E",
"(| 	c #E15C2C",
"_| 	c #EFC2AA",
":| 	c #292724",
"<| 	c #B6B5B5",
"[| 	c #DB5C2B",
"}| 	c #FC841E",
"|| 	c #FD9112",
"1| 	c #EF6D11",
"2| 	c #E25A28",
"3| 	c #E4AE90",
"4| 	c #E4A388",
"5| 	c #FC5521",
"6| 	c #FA5520",
"7| 	c #FE531B",
"8| 	c #E05A2A",
"9| 	c #F1C4AB",
"0| 	c #03060A",
"a| 	c #ECECEC",
"b| 	c #DD5C2C",
"c| 	c #EE5E11",
"d| 	c #FD881D",
"e| 	c #FC9111",
"f| 	c #FE8F1A",
"g| 	c #E05B25",
"h| 	c #7D7D7B",
"i| 	c #EB5A24",
"j| 	c #F75416",
"k| 	c #F3571B",
"l| 	c #F15816",
"m| 	c #F5581F",
"n| 	c #F7541E",
"o| 	c #EE5A17",
"p| 	c #292420",
"q| 	c #BDBDBD",
"r| 	c #FBF8F5",
"s| 	c #FAF0E3",
"t| 	c #FAEDDD",
"u| 	c #FAEEDF",
"v| 	c #FBEEDF",
"w| 	c #FAEAD8",
"x| 	c #F0B89B",
"y| 	c #DF5A27",
"z| 	c #FE8D19",
"A| 	c #EF6D12",
"B| 	c #F2571A",
"C| 	c #DF5A25",
"D| 	c #E1A486",
"E| 	c #BFC1C0",
"F| 	c #FCF5EB",
"G| 	c #FAF0E2",
"H| 	c #FBF2E9",
"I| 	c #FAF1E4",
"J| 	c #FAF1E7",
"K| 	c #FAEEE6",
"L| 	c #E39978",
"M| 	c #F85411",
"N| 	c #F1561B",
"O| 	c #EF5A1D",
"P| 	c #E65B26",
"Q| 	c #E15E2E",
"R| 	c #E15F2F",
"S| 	c #E15D2D",
"T| 	c #E65B2F",
"U| 	c #E55B2A",
"V| 	c #E45B2B",
"W| 	c #DD5D2C",
"X| 	c #DC5E2F",
"Y| 	c #E15E2F",
"Z| 	c #D36234",
"`| 	c #292520",
" 1 	c #C7C8C7",
".1 	c #D48260",
"+1 	c #E2835F",
"@1 	c #E2815C",
"#1 	c #E4774A",
"$1 	c #F15D12",
"%1 	c #FE8E1A",
"&1 	c #FD541F",
"*1 	c #DF5B26",
"=1 	c #F0EEED",
"-1 	c #E4A98C",
";1 	c #D68966",
">1 	c #E1825E",
",1 	c #E4845C",
"'1 	c #E4703F",
")1 	c #F55517",
"!1 	c #F95614",
"~1 	c #EA5720",
"{1 	c #E18058",
"]1 	c #F1C8B0",
"^1 	c #DFAE94",
"/1 	c #E5BDA4",
"(1 	c #EBD7C4",
"_1 	c #E3BBA1",
":1 	c #E3BBA2",
"<1 	c #EBD5C2",
"[1 	c #E9D1BC",
"}1 	c #E8CDB8",
"|1 	c #E7C0A7",
"11 	c #E2B89F",
"21 	c #DBA68B",
"31 	c #DCA78C",
"41 	c #E9B9A2",
"51 	c #ECC3AB",
"61 	c #E7C5AF",
"71 	c #282727",
"81 	c #CECDCD",
"91 	c #E3A788",
"01 	c #DB5B28",
"a1 	c #EA591E",
"b1 	c #EF6C12",
"c1 	c #F0EEEC",
"d1 	c #D08465",
"e1 	c #E25B2B",
"f1 	c #E85928",
"g1 	c #EF5625",
"h1 	c #F2551E",
"i1 	c #F75413",
"j1 	c #FB5614",
"k1 	c #E55820",
"l1 	c #E09475",
"m1 	c #FFFEFD",
"n1 	c #454546",
"o1 	c #1D1E1E",
"p1 	c #080A0B",
"q1 	c #0C0E0E",
"r1 	c #686868",
"s1 	c #696969",
"t1 	c #424242",
"u1 	c #D2D1D1",
"v1 	c #E4A888",
"w1 	c #F45417",
"x1 	c #F9571D",
"y1 	c #F26C15",
"z1 	c #F75720",
"A1 	c #F0EDEC",
"B1 	c #F55515",
"C1 	c #F55513",
"D1 	c #E35B1C",
"E1 	c #D7987B",
"F1 	c #E3E3E2",
"G1 	c #F26C16",
"H1 	c #E05A27",
"I1 	c #BFC0C0",
"J1 	c #F0EDEB",
"K1 	c #D68A68",
"L1 	c #ED582A",
"M1 	c #F75516",
"N1 	c #F75512",
"O1 	c #E35A20",
"P1 	c #D69476",
"Q1 	c #F8571D",
"R1 	c #D48F6F",
"S1 	c #EC5729",
"T1 	c #F95313",
"U1 	c #FB5516",
"V1 	c #DD9170",
"W1 	c #AEAEAE",
"X1 	c #ACA8A0",
"Y1 	c #A89989",
"Z1 	c #FFF9F0",
"`1 	c #FFF8F0",
" 2 	c #F5ECE3",
".2 	c #ACA599",
"+2 	c #ABABAB",
"@2 	c #BFBDB8",
"#2 	c #0B0B0B",
"$2 	c #B0B0B0",
"%2 	c #DFDCD8",
"&2 	c #FFFCF5",
"*2 	c #FFFEF8",
"=2 	c #FFFCF6",
"-2 	c #FFFCF4",
";2 	c #D88C6A",
">2 	c #E75A27",
",2 	c #E35929",
"'2 	c #DA5929",
")2 	c #DC5C26",
"!2 	c #D9592D",
"~2 	c #DA9273",
"{2 	c #ACA69A",
"]2 	c #ABA497",
"^2 	c #ADA9A0",
"/2 	c #ACA598",
"(2 	c #ABA69C",
"_2 	c #FFFAF3",
":2 	c #FFF7EF",
"<2 	c #AC9C8E",
"[2 	c #AA9C8D",
"}2 	c #A8A8A6",
"|2 	c #89898A",
"12 	c #ACA79C",
"22 	c #A9A295",
"32 	c #FDF5ED",
"42 	c #ABA79F",
"52 	c #6F6F6F",
"62 	c #F5F2EE",
"72 	c #E6AD8F",
"82 	c #E49E80",
"92 	c #E59E80",
"02 	c #E6A183",
"a2 	c #E49B7B",
"b2 	c #E4AC8E",
"c2 	c #F9F2EF",
"d2 	c #BEBCB6",
"e2 	c #ED5E11",
"f2 	c #D4D1CE",
"g2 	c #ECBCA1",
"h2 	c #DF9777",
"i2 	c #E69E7F",
"j2 	c #E49A7A",
"k2 	c #E4997A",
"l2 	c #E59978",
"m2 	c #E06C40",
"n2 	c #ED5824",
"o2 	c #E35922",
"p2 	c #E57F53",
"q2 	c #EBAE90",
"r2 	c #EFBAA1",
"s2 	c #E7B299",
"t2 	c #E9AA8D",
"u2 	c #E7B399",
"v2 	c #F4D8CA",
"w2 	c #C2C2C1",
"x2 	c #DCD9D6",
"y2 	c #E19979",
"z2 	c #E49A79",
"A2 	c #E39B7B",
"B2 	c #E39A7B",
"C2 	c #E69D80",
"D2 	c #E69F81",
"E2 	c #E69D7F",
"F2 	c #EAA588",
"G2 	c #E59A79",
"H2 	c #E3997A",
"I2 	c #E49978",
"J2 	c #E59A7A",
"K2 	c #E49D7F",
"L2 	c #E69E80",
"M2 	c #E6A384",
"N2 	c #E6A485",
"O2 	c #E6AD90",
"P2 	c #F6F1EE",
"Q2 	c #CBCAC8",
"R2 	c #E6AB8D",
"S2 	c #E09A7B",
"T2 	c #E59E81",
"U2 	c #E59F81",
"V2 	c #DF9A7C",
"W2 	c #F3D1B9",
"X2 	c #D9C6B3",
"Y2 	c #D16B42",
"Z2 	c #E25921",
"`2 	c #E65A1E",
" 3 	c #E55A20",
".3 	c #E85723",
"+3 	c #D06239",
"@3 	c #F4E8DC",
"#3 	c #F5F5F5",
"$3 	c #EC5E10",
"%3 	c #CAAF9C",
"&3 	c #CE7C5A",
"*3 	c #E25C2E",
"=3 	c #EC5628",
"-3 	c #EC5629",
";3 	c #F55623",
">3 	c #E55C2B",
",3 	c #E4E2E0",
"'3 	c #1E1C18",
")3 	c #23211E",
"!3 	c #221D18",
"~3 	c #A8A8A7",
"{3 	c #151515",
"]3 	c #F8F1ED",
"^3 	c #D27F5B",
"/3 	c #DE5B2D",
"(3 	c #E95A26",
"_3 	c #EA5628",
":3 	c #EB5628",
"<3 	c #E85829",
"[3 	c #EA5722",
"}3 	c #EA5627",
"|3 	c #EB5627",
"13 	c #E95727",
"23 	c #E75826",
"33 	c #E65926",
"43 	c #E65925",
"53 	c #E85825",
"63 	c #E65922",
"73 	c #E15928",
"83 	c #C5714F",
"93 	c #F6EEE2",
"03 	c #CF8260",
"a3 	c #D75B2F",
"b3 	c #E25825",
"c3 	c #CC6037",
"d3 	c #E5AE92",
"e3 	c #262626",
"f3 	c #D76B3F",
"g3 	c #F4E8DB",
"h3 	c #F8F8F7",
"i3 	c #121212",
"j3 	c #F2DCCE",
"k3 	c #D27B58",
"l3 	c #E2A78C",
"m3 	c #5C5850",
"n3 	c #F9F1ED",
"o3 	c #D37F5B",
"p3 	c #E9591F",
"q3 	c #F65820",
"r3 	c #F45721",
"s3 	c #F15624",
"t3 	c #CD7553",
"u3 	c #D0C0AF",
"v3 	c #DC8763",
"w3 	c #EE5527",
"x3 	c #EAB192",
"y3 	c #DC6A3B",
"z3 	c #DF5F34",
"A3 	c #F4E5D8",
"B3 	c #BFBFBF",
"C3 	c #D77A56",
"D3 	c #FC531E",
"E3 	c #E95C28",
"F3 	c #F4EDE9",
"G3 	c #D37F5A",
"H3 	c #FB541F",
"I3 	c #D87C58",
"J3 	c #F6F2EF",
"K3 	c #D0C0B0",
"L3 	c #EF5520",
"M3 	c #D5714C",
"N3 	c #F05527",
"O3 	c #E05E32",
"P3 	c #F2E0CD",
"Q3 	c #F8581F",
"R3 	c #FE9018",
"S3 	c #212121",
"T3 	c #DA7B57",
"U3 	c #E05A22",
"V3 	c #DE9F81",
"W3 	c #594C43",
"X3 	c #6C584B",
"Y3 	c #D37F5C",
"Z3 	c #FD531A",
"`3 	c #D2704A",
" 4 	c #CCC3B4",
".4 	c #D57F5A",
"+4 	c #DF5C2C",
"@4 	c #E8B293",
"#4 	c #2A2A2A",
"$4 	c #D06A42",
"%4 	c #E35A25",
"&4 	c #EA591B",
"*4 	c #C96640",
"=4 	c #EF5913",
"-4 	c #F45815",
";4 	c #EC5A0F",
">4 	c #EA630D",
",4 	c #FA911B",
"'4 	c #FD8F1A",
")4 	c #EE6D10",
"!4 	c #D9D9D9",
"~4 	c #D6D2C8",
"{4 	c #D6D0C6",
"]4 	c #D6D3CA",
"^4 	c #D7D6D5",
"/4 	c #F8F7F6",
"(4 	c #F9E4D6",
"_4 	c #D37C58",
":4 	c #EB571D",
"<4 	c #ED581D",
"[4 	c #E4592A",
"}4 	c #E65822",
"|4 	c #D95C2A",
"14 	c #E3A486",
"24 	c #D6D3D0",
"34 	c #D5CCBE",
"44 	c #D6D2C9",
"54 	c #D6D3CB",
"64 	c #D7D7D7",
"74 	c #898A8A",
"84 	c #F8EBDD",
"94 	c #D47855",
"04 	c #E6562A",
"a4 	c #FB571D",
"b4 	c #F55316",
"c4 	c #D9724A",
"d4 	c #F9E4D2",
"e4 	c #E0E0DE",
"f4 	c #D7D7D8",
"g4 	c #D7D8D8",
"h4 	c #D7D8D7",
"i4 	c #FDECDA",
"j4 	c #D48563",
"k4 	c #DB5F30",
"l4 	c #E75927",
"m4 	c #E95921",
"n4 	c #ED561D",
"o4 	c #D55D32",
"p4 	c #1A1A1A",
"q4 	c #EDEAE3",
"r4 	c #E2AC96",
"s4 	c #E49F80",
"t4 	c #DC8A68",
"u4 	c #DF9071",
"v4 	c #E29D7E",
"w4 	c #E3B198",
"x4 	c #BDB7B4",
"y4 	c #FA5720",
"z4 	c #FD551E",
"A4 	c #F66E19",
"B4 	c #F47215",
"C4 	c #F46D18",
"D4 	c #F36D16",
"E4 	c #F57018",
"F4 	c #FB8719",
"G4 	c #FF8D1B",
"H4 	c #F16C14",
"I4 	c #FC561E",
"J4 	c #E4AE91",
"K4 	c #818384",
"L4 	c #838383",
"M4 	c #FDF2EA",
"N4 	c #E7B69B",
"O4 	c #E9B295",
"P4 	c #E9B396",
"Q4 	c #E8A282",
"R4 	c #E46E41",
"S4 	c #F65614",
"T4 	c #FD5419",
"U4 	c #E55B2B",
"V4 	c #DC7A54",
"W4 	c #E5A182",
"X4 	c #DE8C6C",
"Y4 	c #DF9C7E",
"Z4 	c #E29F80",
"`4 	c #DB8C6A",
" 5 	c #ECBFA6",
".5 	c #B7B5B3",
"+5 	c #FDEDE1",
"@5 	c #E6B397",
"#5 	c #EAB295",
"$5 	c #E9B599",
"%5 	c #E7B398",
"&5 	c #E6B59A",
"*5 	c #E6A98B",
"=5 	c #E3AE91",
"-5 	c #ECAC8E",
";5 	c #DC663D",
">5 	c #EC5526",
",5 	c #F45619",
"'5 	c #F45616",
")5 	c #F5541D",
"!5 	c #DE673D",
"~5 	c #E9B093",
"{5 	c #E6AC8E",
"]5 	c #E8B295",
"^5 	c #E6AC8F",
"/5 	c #E7B498",
"(5 	c #E4A181",
"_5 	c #DE997C",
":5 	c #DD8E6D",
"<5 	c #DA8967",
"[5 	c #DD8F6E",
"}5 	c #E19B7D",
"|5 	c #F3D8C5",
"15 	c #C8C9C9",
"25 	c #A1A3A3",
"35 	c #E3A888",
"45 	c #DC5C2E",
"55 	c #F15916",
"65 	c #F06413",
"75 	c #FD861D",
"85 	c #FF8E1E",
"95 	c #FE8B1C",
"05 	c #FF8A24",
"a5 	c #FE8A1F",
"b5 	c #FE8F1B",
"c5 	c #F46C18",
"d5 	c #F05819",
"e5 	c #FCECE4",
"f5 	c #CC653D",
"g5 	c #DC5A2A",
"h5 	c #E05921",
"i5 	c #E05A26",
"j5 	c #E35820",
"k5 	c #EA5821",
"l5 	c #F25624",
"m5 	c #DA5D2B",
"n5 	c #EAB59A",
"o5 	c #DBDAD7",
"p5 	c #868888",
"q5 	c #C6C6C6",
"r5 	c #C6C6C5",
"s5 	c #C6C7C7",
"t5 	c #474747",
"u5 	c #F5D7CA",
"v5 	c #CB6944",
"w5 	c #DB5929",
"x5 	c #E15A27",
"y5 	c #E25923",
"z5 	c #E75727",
"A5 	c #E65722",
"B5 	c #E65721",
"C5 	c #E65620",
"D5 	c #EF5622",
"E5 	c #F8571B",
"F5 	c #F45618",
"G5 	c #EC591F",
"H5 	c #F25914",
"I5 	c #ED5720",
"J5 	c #E9561E",
"K5 	c #E8561E",
"L5 	c #E85721",
"M5 	c #E85720",
"N5 	c #DF5822",
"O5 	c #DC582B",
"P5 	c #C8623A",
"Q5 	c #ECBB9F",
"R5 	c #CFCDC8",
"S5 	c #C5C6C7",
"T5 	c #F8F9F9",
"U5 	c #001318",
"V5 	c #C7C7C7",
"W5 	c #EE6710",
"X5 	c #F99117",
"Y5 	c #FC921E",
"Z5 	c #FE901A",
"`5 	c #FC9114",
" 6 	c #FD8E1F",
".6 	c #F15A17",
"+6 	c #E5B49A",
"@6 	c #FBEAE2",
"#6 	c #D9683F",
"$6 	c #F05A15",
"%6 	c #F8571C",
"&6 	c #EBBEA5",
"*6 	c #9A9B9B",
"=6 	c #BB8E77",
"-6 	c #D5643D",
";6 	c #F05811",
">6 	c #F7581D",
",6 	c #DD5D33",
"'6 	c #DF5A26",
")6 	c #EE650F",
"!6 	c #F99215",
"~6 	c #F89413",
"{6 	c #FB9118",
"]6 	c #FD8C1C",
"^6 	c #F36C16",
"/6 	c #FD541D",
"(6 	c #F55418",
"_6 	c #E7B59A",
":6 	c #DA643A",
"<6 	c #F55614",
"[6 	c #F95412",
"}6 	c #F65415",
"|6 	c #DB5D2D",
"16 	c #EABA9F",
"26 	c #B48068",
"36 	c #FC561B",
"46 	c #DB5E33",
"56 	c #F4C7AD",
"66 	c #E4A887",
"76 	c #EE6410",
"86 	c #FE8A20",
"96 	c #FD9013",
"06 	c #FA9211",
"a6 	c #F06E12",
"b6 	c #3E4243",
"c6 	c #F85516",
"d6 	c #D85E32",
"e6 	c #B6836C",
"f6 	c #E15F2C",
"g6 	c #F1571C",
"h6 	c #D46032",
"i6 	c #F6CDB4",
"j6 	c #181818",
"k6 	c #454545",
"l6 	c #454444",
"m6 	c #44403B",
"n6 	c #F4F3F2",
"o6 	c #F2F1F0",
"p6 	c #D5D5D4",
"q6 	c #060606",
"r6 	c #434343",
"s6 	c #454544",
"t6 	c #45433F",
"u6 	c #44403A",
"v6 	c #3A352E",
"w6 	c #F3F2F1",
"x6 	c #F2F0EF",
"y6 	c #F4F3F3",
"z6 	c #2F2F2F",
"A6 	c #454340",
"B6 	c #3D3B36",
"C6 	c #FBF7F1",
"D6 	c #E5A484",
"E6 	c #DF5B23",
"F6 	c #EE6010",
"G6 	c #FB8F18",
"H6 	c #FD9014",
"I6 	c #FC8C16",
"J6 	c #F25815",
"K6 	c #F25816",
"L6 	c #E2AC8E",
"M6 	c #FBFBFA",
"N6 	c #2D2D2D",
"O6 	c #454442",
"P6 	c #454441",
"Q6 	c #3E3E3D",
"R6 	c #F4F4F4",
"S6 	c #FAE4D3",
"T6 	c #D56436",
"U6 	c #EA5925",
"V6 	c #ED5924",
"W6 	c #CF5E33",
"X6 	c #2E2E2E",
"Y6 	c #605E5C",
"Z6 	c #F2F2F1",
"`6 	c #939292",
" 7 	c #F2D4C5",
".7 	c #DE5E30",
"+7 	c #EF5723",
"@7 	c #EF571E",
"#7 	c #EF5823",
"$7 	c #F05621",
"%7 	c #F05723",
"&7 	c #F0561F",
"*7 	c #E95A25",
"=7 	c #D46135",
"-7 	c #F5CBB2",
";7 	c #6D6D6D",
">7 	c #FEF6EC",
",7 	c #F3CCB8",
"'7 	c #F7C9AF",
")7 	c #F6C8AE",
"!7 	c #F3C7AC",
"~7 	c #393330",
"{7 	c #F7F7F6",
"]7 	c #F5DBC9",
"^7 	c #F4D1BC",
"/7 	c #F6CAB1",
"(7 	c #F6C9AF",
"_7 	c #F5C8AE",
":7 	c #F5C4A9",
"<7 	c #F5C5A9",
"[7 	c #F2CAB2",
"}7 	c #D5D5D6",
"|7 	c #EEEEEE",
"17 	c #F4CFB9",
"27 	c #F5C9B1",
"37 	c #F7CBB3",
"47 	c #F4C7AE",
"57 	c #E99572",
"67 	c #E7591C",
"77 	c #F55714",
"87 	c #FD8B1C",
"97 	c #FC9212",
"07 	c #F79219",
"a7 	c #F9930F",
"b7 	c #F36C17",
"c7 	c #EE5912",
"d7 	c #E6926F",
"e7 	c #F3CCB6",
"f7 	c #EAC3AE",
"g7 	c #DFB29A",
"h7 	c #F3CBB7",
"i7 	c #F4CEB9",
"j7 	c #F5CAB3",
"k7 	c #F5C9B2",
"l7 	c #F2CAB6",
"m7 	c #F2BC9F",
"n7 	c #FD5317",
"o7 	c #DD774F",
"p7 	c #D07E5D",
"q7 	c #D77F5D",
"r7 	c #D57F5D",
"s7 	c #CF815F",
"t7 	c #EDC2A9",
"u7 	c #9A9A9A",
"v7 	c #B3B4B4",
"w7 	c #F5C9B0",
"x7 	c #F6C8AD",
"y7 	c #F3CAB5",
"z7 	c #EAAF92",
"A7 	c #E55A29",
"B7 	c #F55615",
"C7 	c #DE6335",
"D7 	c #DC7E58",
"E7 	c #D07E5B",
"F7 	c #D17E5C",
"G7 	c #D67E5B",
"H7 	c #D67F5B",
"I7 	c #D5805D",
"J7 	c #D27D5B",
"K7 	c #D27E5B",
"L7 	c #D67F5D",
"M7 	c #D7805C",
"N7 	c #D87F5C",
"O7 	c #D67F5C",
"P7 	c #DD8461",
"Q7 	c #CF7C5C",
"R7 	c #F4D5C3",
"S7 	c #6C6A67",
"T7 	c #F4D0B9",
"U7 	c #C56C49",
"V7 	c #D95F30",
"W7 	c #DE5F30",
"X7 	c #DA6035",
"Y7 	c #C7714F",
"Z7 	c #EBE4DB",
"`7 	c #55493F",
" 8 	c #E2A183",
".8 	c #C7623B",
"+8 	c #D85F32",
"@8 	c #DA5E30",
"#8 	c #DD5F30",
"$8 	c #E05D28",
"%8 	c #D45F31",
"&8 	c #CB7854",
"*8 	c #D4D2CC",
"=8 	c #DD9879",
"-8 	c #D16138",
";8 	c #DF5D2B",
">8 	c #DF5E30",
",8 	c #E15E31",
"'8 	c #E85C2B",
")8 	c #F0571E",
"!8 	c #FB9013",
"~8 	c #FB9312",
"{8 	c #FB9116",
"]8 	c #F99217",
"^8 	c #FA9212",
"/8 	c #FD8D1B",
"(8 	c #F35716",
"_8 	c #E75E29",
":8 	c #E25F31",
"<8 	c #E15D31",
"[8 	c #E25F30",
"}8 	c #DF5F30",
"|8 	c #E26031",
"18 	c #E35D31",
"28 	c #DF5F31",
"38 	c #E05E31",
"48 	c #DF5E2F",
"58 	c #E25C2C",
"68 	c #F25820",
"78 	c #F25623",
"88 	c #D96034",
"98 	c #D9D2CA",
"08 	c #FFF9F4",
"a8 	c #FFF8F3",
"b8 	c #FFF8F2",
"c8 	c #FFFFFE",
"d8 	c #535353",
"e8 	c #F1CFB8",
"f8 	c #D0653C",
"g8 	c #E36032",
"h8 	c #E35A28",
"i8 	c #E45D2A",
"j8 	c #E25D32",
"k8 	c #E25F2F",
"l8 	c #F0581D",
"m8 	c #E55A27",
"n8 	c #DF845F",
"o8 	c #FCEBDF",
"p8 	c #8C7A6B",
"q8 	c #907E6F",
"r8 	c #8D7666",
"s8 	c #8F7C6D",
"t8 	c #948C81",
"u8 	c #978376",
"v8 	c #AD9F94",
"w8 	c #948E83",
"x8 	c #FFFEF9",
"y8 	c #8F897D",
"z8 	c #F3EFEA",
"A8 	c #8E796A",
"B8 	c #E6E1DA",
"C8 	c #949494",
"D8 	c #6C6C6C",
"E8 	c #F6D4BE",
"F8 	c #D26238",
"G8 	c #F55621",
"H8 	c #F7541C",
"I8 	c #F55524",
"J8 	c #D46E49",
"K8 	c #E7DAC8",
"L8 	c #564B42",
"M8 	c #E3A184",
"N8 	c #F45523",
"O8 	c #FB5421",
"P8 	c #CF7652",
"Q8 	c #D4D2CE",
"R8 	c #898278",
"S8 	c #DA9475",
"T8 	c #ED5923",
"U8 	c #FB9217",
"V8 	c #F35813",
"W8 	c #F5DACA",
"X8 	c #F0CDB5",
"Y8 	c #DD5C27",
"Z8 	c #F3581A",
"`8 	c #E45926",
" 9 	c #DE8662",
".9 	c #94887A",
"+9 	c #DC6239",
"@9 	c #F65522",
"#9 	c #D76F49",
"$9 	c #E7DAC9",
"%9 	c #C5C1BE",
"&9 	c #FC5319",
"*9 	c #CC6D44",
"=9 	c #D5D4D4",
"-9 	c #F6DDD4",
";9 	c #EFC0A5",
">9 	c #F15B14",
",9 	c #DA8A69",
"'9 	c #927B6C",
")9 	c #F0C7B0",
"!9 	c #DB6235",
"~9 	c #F9F7F5",
"{9 	c #E35C26",
"]9 	c #ED581C",
"^9 	c #F45817",
"/9 	c #F2551D",
"(9 	c #CF6F4A",
"_9 	c #D4D0C6",
":9 	c #C0BCB5",
"<9 	c #EE5824",
"[9 	c #F3CBB2",
"}9 	c #F6551A",
"|9 	c #DD8A69",
"19 	c #707071",
"29 	c #848485",
"39 	c #848484",
"49 	c #837F78",
"59 	c #83817B",
"69 	c #9D978D",
"79 	c #F6D7C0",
"89 	c #D3653C",
"99 	c #E8591F",
"09 	c #EE591B",
"a9 	c #D16B43",
"b9 	c #EAE1D4",
"c9 	c #4E4F4F",
"d9 	c #858586",
"e9 	c #F8F1EB",
"f9 	c #E19C7D",
"g9 	c #E25B21",
"h9 	c #F65815",
"i9 	c #F25617",
"j9 	c #F55619",
"k9 	c #E95722",
"l9 	c #CE7450",
"m9 	c #D4D1CA",
"n9 	c #B2ADA6",
"o9 	c #FD8E1C",
"p9 	c #DB6034",
"q9 	c #F6DDD1",
"r9 	c #DD5C28",
"s9 	c #F05820",
"t9 	c #F15720",
"u9 	c #F35821",
"v9 	c #DE5D31",
"w9 	c #292828",
"x9 	c #FBF0E3",
"y9 	c #F8DEC8",
"z9 	c #F7D2B9",
"A9 	c #F5D0B8",
"B9 	c #F5CFB5",
"C9 	c #F2BB9D",
"D9 	c #CB7A5A",
"E9 	c #D5714B",
"F9 	c #D6724D",
"G9 	c #D67753",
"H9 	c #DA8B6B",
"I9 	c #DCD9D7",
"J9 	c #F7EAD9",
"K9 	c #F2D6C0",
"L9 	c #F8DEC9",
"M9 	c #F5D7C1",
"N9 	c #F8DAC5",
"O9 	c #F5D0B7",
"P9 	c #ED9771",
"Q9 	c #ED5818",
"R9 	c #DD5D2F",
"S9 	c #D6704B",
"T9 	c #C87352",
"U9 	c #D8987D",
"V9 	c #A9A49D",
"W9 	c #FE8A1E",
"X9 	c #FD8F1C",
"Y9 	c #F36D15",
"Z9 	c #F0CBB3",
"`9 	c #DE5B27",
" 0 	c #EF5A16",
".0 	c #F36616",
"+0 	c #F06313",
"@0 	c #EA610E",
"#0 	c #EF6111",
"$0 	c #F06212",
"%0 	c #F35C14",
"&0 	c #ED591E",
"*0 	c #DC6840",
"=0 	c #D16F49",
"-0 	c #D6734E",
";0 	c #D5724D",
">0 	c #D8724D",
",0 	c #D9724D",
"'0 	c #CC7653",
")0 	c #DC9B7D",
"!0 	c #988C7F",
"~0 	c #EEC2A9",
"{0 	c #C76A46",
"]0 	c #D1653E",
"^0 	c #D4683F",
"/0 	c #D9643C",
"(0 	c #D0643D",
"_0 	c #CA8364",
":0 	c #F9E5D3",
"<0 	c #F4EEEB",
"[0 	c #F4F0ED",
"}0 	c #BAB3B1",
"|0 	c #472C1D",
"10 	c #DAD6D4",
"20 	c #090807",
"30 	c #D59C80",
"40 	c #CD643D",
"50 	c #DA653C",
"60 	c #D96437",
"70 	c #D9673E",
"80 	c #E45C2B",
"90 	c #F65417",
"00 	c #DB8A68",
"a0 	c #F3E9DE",
"b0 	c #F5F0EE",
"c0 	c #9B928F",
"d0 	c #C5BFBD",
"e0 	c #F8F5F3",
"f0 	c #424243",
"g0 	c #9D988F",
"h0 	c #F4CBB2",
"i0 	c #E15925",
"j0 	c #EF5E11",
"k0 	c #FB7E1E",
"l0 	c #FD8423",
"m0 	c #FD8E22",
"n0 	c #FE8D21",
"o0 	c #FC8523",
"p0 	c #EE660F",
"q0 	c #E45828",
"r0 	c #E9A484",
"s0 	c #FAF2E8",
"t0 	c #665750",
"u0 	c #E2DCDB",
"v0 	c #4B3124",
"w0 	c #4F362B",
"x0 	c #452715",
"y0 	c #F5EFED",
"z0 	c #F4EDEA",
"A0 	c #F4EBE0",
"B0 	c #FDF8F5",
"C0 	c #999998",
"D0 	c #EAB69A",
"E0 	c #DD5C29",
"F0 	c #F45820",
"G0 	c #E95923",
"H0 	c #CC7756",
"I0 	c #F9F2EE",
"J0 	c #E3E2E1",
"K0 	c #D58E6F",
"L0 	c #E95725",
"M0 	c #F35724",
"N0 	c #F45419",
"O0 	c #CB896C",
"P0 	c #36251C",
"Q0 	c #8C867C",
"R0 	c #E09777",
"S0 	c #EE6E11",
"T0 	c #A2A3A4",
"U0 	c #EFCAB1",
"V0 	c #F9921B",
"W0 	c #F7921B",
"X0 	c #F7921C",
"Y0 	c #EF6D13",
"Z0 	c #F15A13",
"`0 	c #E15929",
" a 	c #717170",
".a 	c #0F1011",
"+a 	c #767676",
"@a 	c #444444",
"#a 	c #F0B99D",
"$a 	c #EB5728",
"%a 	c #F35419",
"&a 	c #E75720",
"*a 	c #A49891",
"=a 	c #ED5620",
"-a 	c #F95316",
";a 	c #E3582B",
">a 	c #D08A6A",
",a 	c #392A22",
"'a 	c #DF9676",
")a 	c #FD8C1B",
"!a 	c #EECAB2",
"~a 	c #F06012",
"{a 	c #FB8020",
"]a 	c #F79314",
"^a 	c #F16815",
"/a 	c #F95720",
"(a 	c #FC5520",
"_a 	c #E5592D",
":a 	c #EDC2AC",
"<a 	c #2A2826",
"[a 	c #160D01",
"}a 	c #E9B69B",
"|a 	c #E7592B",
"1a 	c #F85315",
"2a 	c #D57B56",
"3a 	c #FBF5F1",
"4a 	c #D88D6D",
"5a 	c #FB561F",
"6a 	c #F75411",
"7a 	c #FB5315",
"8a 	c #EC5724",
"9a 	c #D59171",
"0a 	c #3C3028",
"aa 	c #FFFFFA",
"ba 	c #EF5626",
"ca 	c #FC5621",
"da 	c #F65419",
"ea 	c #ED640F",
"fa 	c #F89312",
"ga 	c #F79614",
"ha 	c #FE8C1F",
"ia 	c #F25621",
"ja 	c #8E8F90",
"ka 	c #E8B397",
"la 	c #FC831D",
"ma 	c #FC9115",
"na 	c #F06512",
"oa 	c #F75714",
"pa 	c #F35712",
"qa 	c #E85624",
"ra 	c #E9BCA4",
"sa 	c #B4B4B5",
"ta 	c #474849",
"ua 	c #F6F2ED",
"va 	c #EEB598",
"wa 	c #DB592D",
"xa 	c #F2541C",
"ya 	c #D47B57",
"za 	c #F9F3EF",
"Aa 	c #04090F",
"Ba 	c #F0EAE3",
"Ca 	c #D59071",
"Da 	c #E35A21",
"Ea 	c #F45420",
"Fa 	c #E35924",
"Ga 	c #D28D6F",
"Ha 	c #B1AFAD",
"Ia 	c #CECBC6",
"Ja 	c #E09778",
"Ka 	c #EF5627",
"La 	c #FC8B1C",
"Ma 	c #FB9313",
"Na 	c #F69511",
"Oa 	c #F89818",
"Pa 	c #FD9016",
"Qa 	c #FE8B22",
"Ra 	c #F66F19",
"Sa 	c #B4B4B4",
"Ta 	c #E45B2A",
"Ua 	c #F1581A",
"Va 	c #EA620C",
"Wa 	c #FD891E",
"Xa 	c #FC9016",
"Ya 	c #FE8A23",
"Za 	c #EB6217",
"`a 	c #EE581A",
" b 	c #EF551B",
".b 	c #E25828",
"+b 	c #E8BBA3",
"@b 	c #292723",
"#b 	c #FFFBF5",
"$b 	c #FDEFE8",
"%b 	c #FCEFE7",
"&b 	c #FBECE4",
"*b 	c #FBE9D9",
"=b 	c #F9D9C1",
"-b 	c #EDAF90",
";b 	c #C86A44",
">b 	c #D86236",
",b 	c #D2673C",
"'b 	c #C76641",
")b 	c #D0815E",
"!b 	c #FBF3EF",
"~b 	c #FFFFFF",
"{b 	c #FEF4EC",
"]b 	c #FEF1E8",
"^b 	c #FEECDB",
"/b 	c #E28C68",
"(b 	c #E7591D",
"_b 	c #F25824",
":b 	c #DC5F33",
"<b 	c #D66435",
"[b 	c #D46639",
"}b 	c #C86741",
"|b 	c #D4987B",
"1b 	c #89847A",
"2b 	c #F25B18",
"3b 	c #EE5E12",
"4b 	c #EF5C10",
"5b 	c #ED600E",
"6b 	c #E96C0D",
"7b 	c #FA8C17",
"8b 	c #F89316",
"9b 	c #FB9314",
"0b 	c #FA9316",
"ab 	c #FB8D1A",
"bb 	c #FE891F",
"cb 	c #FE8920",
"db 	c #FE8722",
"eb 	c #F46C17",
"fb 	c #FB541D",
"gb 	c #F7DAC7",
"hb 	c #FEF8F0",
"ib 	c #FCE8D4",
"jb 	c #FCEBD9",
"kb 	c #FBE8D3",
"lb 	c #FBE4CF",
"mb 	c #F9E4D1",
"nb 	c #EFB89C",
"ob 	c #E25C30",
"pb 	c #EC5E0F",
"qb 	c #EE5C10",
"rb 	c #EA600C",
"sb 	c #E8680C",
"tb 	c #FC8421",
"ub 	c #FD8E24",
"vb 	c #FC8D1F",
"wb 	c #FB8426",
"xb 	c #D86636",
"yb 	c #CD663E",
"zb 	c #CD653C",
"Ab 	c #D3673E",
"Bb 	c #C66640",
"Cb 	c #F0C7AF",
"Db 	c #9A9999",
"Eb 	c #C9C9CA",
"Fb 	c #E7BBA1",
"Gb 	c #C77452",
"Hb 	c #D3724B",
"Ib 	c #CF754F",
"Jb 	c #CE7550",
"Kb 	c #CA7652",
"Lb 	c #D69374",
"Mb 	c #F5D2BD",
"Nb 	c #F5D4C2",
"Ob 	c #F5D2BF",
"Pb 	c #F6D8C7",
"Qb 	c #F7DCCB",
"Rb 	c #FDECDD",
"Sb 	c #72706D",
"Tb 	c #BDB3A4",
"Ub 	c #D58F70",
"Vb 	c #CF744E",
"Wb 	c #D0744E",
"Xb 	c #D1744D",
"Yb 	c #D3744D",
"Zb 	c #DC764F",
"`b 	c #E55F2D",
" c 	c #F45418",
".c 	c #DD5926",
"+c 	c #D5A991",
"@c 	c #F4CFBD",
"#c 	c #F4CEB8",
"$c 	c #F8E1D0",
"%c 	c #F1F1F1",
"&c 	c #8D8982",
"*c 	c #E19778",
"=c 	c #F5581A",
"-c 	c #F16215",
";c 	c #FC7F20",
">c 	c #FC871C",
",c 	c #FC8919",
"'c 	c #FD851E",
")c 	c #FC841F",
"!c 	c #F98018",
"~c 	c #FC9113",
"{c 	c #FB8E1A",
"]c 	c #EE6812",
"^c 	c #F26617",
"/c 	c #F15F14",
"(c 	c #807F7E",
"_c 	c #E3A78C",
":c 	c #CB7652",
"<c 	c #D46E46",
"[c 	c #D3744E",
"}c 	c #D07A55",
"|c 	c #DF6F47",
"1c 	c #EE5621",
"2c 	c #F36615",
"3c 	c #FB7F1D",
"4c 	c #FB821B",
"5c 	c #FB8819",
"6c 	c #FB8919",
"7c 	c #FA8119",
"8c 	c #ED670F",
"9c 	c #F06213",
"0c 	c #F26114",
"ac 	c #ED6610",
"bc 	c #ED620E",
"cc 	c #DA6231",
"dc 	c #ECB396",
"ec 	c #F5CBB1",
"fc 	c #FBDFC9",
"gc 	c #FADEC9",
"hc 	c #F7D6BF",
"ic 	c #F7DCC8",
"jc 	c #FFF9EF",
"kc 	c #2D2C2C",
"lc 	c #E1A080",
"mc 	c #ED581E",
"nc 	c #DF5C33",
"oc 	c #ADA69A",
"pc 	c #BCAB9B",
"qc 	c #DB805D",
"rc 	c #EC591D",
"sc 	c #F0571B",
"tc 	c #E15A28",
"uc 	c #E3A488",
"vc 	c #353431",
"wc 	c #807F7F",
"xc 	c #A5A29D",
"yc 	c #DE987B",
"zc 	c #FF901B",
"Ac 	c #F79410",
"Bc 	c #EE6510",
"Cc 	c #F1591A",
"Dc 	c #F5DBCB",
"Ec 	c #9C9A96",
"Fc 	c #E3A386",
"Gc 	c #DF5C2E",
"Hc 	c #EB5529",
"Ic 	c #FF8B24",
"Jc 	c #F99316",
"Kc 	c #EF6211",
"Lc 	c #F65715",
"Mc 	c #D76335",
"Nc 	c #EDC8B1",
"Oc 	c #6F6E6C",
"Pc 	c #353330",
"Qc 	c #C5C4C4",
"Rc 	c #EDEDEC",
"Sc 	c #EFEFEF",
"Tc 	c #333333",
"Uc 	c #030303",
"Vc 	c #E49E7F",
"Wc 	c #E35824",
"Xc 	c #E39270",
"Yc 	c #E07F5B",
"Zc 	c #DC8F72",
"`c 	c #A7A49F",
" d 	c #F15813",
".d 	c #FE9116",
"+d 	c #FA9314",
"@d 	c #F89311",
"#d 	c #918F8A",
"$d 	c #F16513",
"%d 	c #FF8B1F",
"&d 	c #EF6410",
"*d 	c #E4BCA3",
"=d 	c #E5A587",
"-d 	c #E85822",
";d 	c #BCAB9A",
">d 	c #DE805C",
",d 	c #E4A488",
"'d 	c #ACA9A3",
")d 	c #F16D15",
"!d 	c #FC901A",
"~d 	c #D66235",
"{d 	c #FF8C1D",
"]d 	c #FE891D",
"^d 	c #E4BCA2",
"/d 	c #ADAEAF",
"(d 	c #E6A688",
"_d 	c #E35A2A",
":d 	c #E49878",
"<d 	c #A9A49A",
"[d 	c #EFE1D5",
"}d 	c #F65619",
"|d 	c #E95A21",
"1d 	c #80807F",
"2d 	c #FFFDF9",
"3d 	c #EE5A11",
"4d 	c #FD8D21",
"5d 	c #F89218",
"6d 	c #F26415",
"7d 	c #F85621",
"8d 	c #D66234",
"9d 	c #F6DED4",
"0d 	c #7F7D78",
"ad 	c #E35B20",
"bd 	c #F16615",
"cd 	c #FE8D23",
"dd 	c #FE9115",
"ed 	c #EB640E",
"fd 	c #F8571A",
"gd 	c #FA531B",
"hd 	c #CACBCB",
"id 	c #E1A88C",
"jd 	c #CF5C2E",
"kd 	c #DC5E2A",
"ld 	c #DB5E2B",
"md 	c #D76234",
"nd 	c #C8623C",
"od 	c #ACADAC",
"pd 	c #DEDDDB",
"qd 	c #D0CABF",
"rd 	c #CBBAA8",
"sd 	c #F7EADD",
"td 	c #D9C9B9",
"ud 	c #EEDFD1",
"vd 	c #F9DCC6",
"wd 	c #E77F55",
"xd 	c #EE5920",
"yd 	c #F9F2E9",
"zd 	c #FFF0E4",
"Ad 	c #FFF2E6",
"Bd 	c #FEF1E5",
"Cd 	c #FAE7D8",
"Dd 	c #DD9171",
"Ed 	c #F6541D",
"Fd 	c #F05813",
"Gd 	c #F99216",
"Hd 	c #F65521",
"Id 	c #F85721",
"Jd 	c #F35715",
"Kd 	c #F05B13",
"Ld 	c #EE5814",
"Md 	c #EF5A13",
"Nd 	c #F25E16",
"Od 	c #F55616",
"Pd 	c #DB6335",
"Qd 	c #F1CEB7",
"Rd 	c #EDE7DD",
"Sd 	c #CECAC1",
"Td 	c #CCC3B3",
"Ud 	c #CEC8BD",
"Vd 	c #F7F2EA",
"Wd 	c #CDC8BD",
"Xd 	c #CECAC0",
"Yd 	c #E7E4DC",
"Zd 	c #E0DBD2",
"`d 	c #D8CEC1",
" e 	c #E09B7B",
".e 	c #E35B21",
"+e 	c #F05918",
"@e 	c #EC5C0F",
"#e 	c #EC5B11",
"$e 	c #EB5B0E",
"%e 	c #FD8D1D",
"&e 	c #FA9217",
"*e 	c #E06236",
"=e 	c #E2B398",
"-e 	c #DBCDC3",
";e 	c #F1D6CA",
">e 	c #EDD0C6",
",e 	c #F0D1C7",
"'e 	c #F1D2C9",
")e 	c #F4DAD1",
"!e 	c #FDF3EA",
"~e 	c #F9EBE2",
"{e 	c #D99B7E",
"]e 	c #E08F70",
"^e 	c #E18F70",
"/e 	c #DF9070",
"(e 	c #DE9071",
"_e 	c #E38B66",
":e 	c #E65F2A",
"<e 	c #F85521",
"[e 	c #F95314",
"}e 	c #DF9D82",
"|e 	c #7F7E7B",
"1e 	c #F4F2F0",
"2e 	c #DFAD91",
"3e 	c #D98968",
"4e 	c #DF8E6F",
"5e 	c #E29070",
"6e 	c #E28968",
"7e 	c #DD6B40",
"8e 	c #EE5523",
"9e 	c #FE8D1C",
"0e 	c #F3551B",
"ae 	c #F75721",
"be 	c #F66C19",
"ce 	c #F8781B",
"de 	c #FA7F1C",
"ee 	c #F9791D",
"fe 	c #F97C1F",
"ge 	c #FA7D1F",
"he 	c #F8741B",
"ie 	c #F35A16",
"je 	c #F0571A",
"ke 	c #E57A54",
"le 	c #DC8665",
"me 	c #DF8A69",
"ne 	c #DE8A69",
"oe 	c #DC8663",
"pe 	c #DD8663",
"qe 	c #DE8763",
"re 	c #E28A64",
"se 	c #E26F44",
"te 	c #F36717",
"ue 	c #F97B1D",
"ve 	c #F97B1F",
"we 	c #F87F1E",
"xe 	c #F87E1E",
"ye 	c #F87E1F",
"ze 	c #F98317",
"Ae 	c #FC8D1A",
"Be 	c #DC6033",
"Ce 	c #E5BAA0",
"De 	c #F8E7D9",
"Ee 	c #C86842",
"Fe 	c #E75820",
"Ge 	c #E35825",
"He 	c #F5541A",
"Ie 	c #F85515",
"Je 	c #F75412",
"Ke 	c #F4EEEC",
"Le 	c #D3805E",
"Me 	c #E2592A",
"Ne 	c #ED5524",
"Oe 	c #EE5525",
"Pe 	c #EC5624",
"Qe 	c #F9571F",
"Re 	c #F26E16",
"Se 	c #FD931D",
"Te 	c #FD9118",
"Ue 	c #FC8524",
"Ve 	c #EF5C14",
"We 	c #EE5723",
"Xe 	c #EF5526",
"Ye 	c #EB561E",
"Ze 	c #ED5722",
"`e 	c #EC561D",
" f 	c #ED5820",
".f 	c #EE561E",
"+f 	c #ED571F",
"@f 	c #EE561F",
"#f 	c #F35519",
"$f 	c #F05816",
"%f 	c #F56D19",
"&f 	c #FE8B23",
"*f 	c #FC921F",
"=f 	c #FF911E",
"-f 	c #FC9217",
";f 	c #D3683E",
">f 	c #F85511",
",f 	c #F55512",
"'f 	c #F5581C",
")f 	c #F95518",
"!f 	c #DA7F5C",
"~f 	c #F45615",
"{f 	c #EE6B12",
"]f 	c #FB8E18",
"^f 	c #F99311",
"/f 	c #F99111",
"(f 	c #F05B11",
"_f 	c #F95717",
":f 	c #FB551E",
"<f 	c #F45514",
"[f 	c #F16D11",
"}f 	c #EA640D",
"|f 	c #DE6238",
"1f 	c #E5B99F",
"2f 	c #F9E7D9",
"3f 	c #FB5417",
"4f 	c #F3EBDF",
"5f 	c #DA7F5D",
"6f 	c #F35814",
"7f 	c #FA531C",
"8f 	c #F17213",
"9f 	c #FC8F15",
"0f 	c #FB551A",
"af 	c #F55514",
"bf 	c #F99214",
"cf 	c #DD6338",
"df 	c #6B6B6B",
"ef 	c #989898",
"ff 	c #F9E5D5",
"gf 	c #FA5618",
"hf 	c #E8582B",
"if 	c #DF9E81",
"jf 	c #FBF4E9",
"kf 	c #F35625",
"lf 	c #F07212",
"mf 	c #FD9023",
"nf 	c #FB7D1D",
"of 	c #EE5B11",
"pf 	c #F05812",
"qf 	c #F26C14",
"rf 	c #F99616",
"sf 	c #F79419",
"tf 	c #FB911B",
"uf 	c #FD8925",
"vf 	c #ED680F",
"wf 	c #D86335",
"xf 	c #F0C8B1",
"yf 	c #6C6D6D",
"zf 	c #8E8E8E",
"Af 	c #D6D6D4",
"Bf 	c #342E29",
"Cf 	c #BCBAB9",
"Df 	c #D3683F",
"Ef 	c #E65B1E",
"Ff 	c #E55A25",
"Gf 	c #E55B20",
"Hf 	c #E45A26",
"If 	c #EB562A",
"Jf 	c #EA5729",
"Kf 	c #D65E33",
"Lf 	c #E1A387",
"Mf 	c #FCF6F3",
"Nf 	c #ED5A11",
"Of 	c #F37217",
"Pf 	c #FD9024",
"Qf 	c #FE8E21",
"Rf 	c #FF8F1A",
"Sf 	c #FE8E20",
"Tf 	c #FC8323",
"Uf 	c #F35B15",
"Vf 	c #ED5D10",
"Wf 	c #EB5C0E",
"Xf 	c #F16E12",
"Yf 	c #FC8221",
"Zf 	c #EE6011",
"`f 	c #D86435",
" g 	c #EBE5DF",
".g 	c #E7B59B",
"+g 	c #DBA287",
"@g 	c #DCA388",
"#g 	c #E8A88C",
"$g 	c #E4A78B",
"%g 	c #DA997B",
"&g 	c #F6DFD4",
"*g 	c #F9E5D6",
"=g 	c #EF581B",
"-g 	c #F45617",
";g 	c #E9926B",
">g 	c #E0997A",
",g 	c #E7A98C",
"'g 	c #E7A88B",
")g 	c #E4A284",
"!g 	c #EAB294",
"~g 	c #EBAD8F",
"{g 	c #E29E7F",
"]g 	c #DF9E80",
"^g 	c #F6E2D3",
"/g 	c #7F7F80",
"(g 	c #F3ECE3",
"_g 	c #F66D19",
":g 	c #F77419",
"<g 	c #F47715",
"[g 	c #F47615",
"}g 	c #F27515",
"|g 	c #F27318",
"1g 	c #F57318",
"2g 	c #F47217",
"3g 	c #F16F15",
"4g 	c #F17216",
"5g 	c #F46817",
"6g 	c #FB561C",
"7g 	c #F8721B",
"8g 	c #F67716",
"9g 	c #F07512",
"0g 	c #F88117",
"ag 	c #F27614",
"bg 	c #F67219",
"cg 	c #F57218",
"dg 	c #F67218",
"eg 	c #F7741A",
"fg 	c #F05E15",
"gg 	c #F2CEB8",
"hg 	c #FEF5EE",
"ig 	c #D95B2D",
"jg 	c #EC561E",
"kg 	c #EE541A",
"lg 	c #EB581E",
"mg 	c #D9592B",
"ng 	c #E7B297",
"og 	c #F9E7D8",
"pg 	c #CCA18A",
"qg 	c #A2A4A4",
"rg 	c #A2A2A2",
"sg 	c #9F9F9F",
"tg 	c #E1E0DF",
"ug 	c #A1A09B",
"vg 	c #A2A099",
"wg 	c #9E9D9C",
"xg 	c #585858",
"yg 	c #FAF7F5",
"zg 	c #F35525",
"Ag 	c #F85620",
"Bg 	c #F26D15",
"Cg 	c #F15913",
"Dg 	c #FE8C26",
"Eg 	c #FC911B",
"Fg 	c #FC9117",
"Gg 	c #FC8F1B",
"Hg 	c #FE8F21",
"Ig 	c #F8791B",
"Jg 	c #EB5D0E",
"Kg 	c #ED5A0F",
"Lg 	c #F15B12",
"Mg 	c #F75521",
"Ng 	c #F7751A",
"Og 	c #FD901F",
"Pg 	c #FC931C",
"Qg 	c #FC8E17",
"Rg 	c #FD901B",
"Sg 	c #F79315",
"Tg 	c #FA7E1E",
"Ug 	c #EC6410",
"Vg 	c #F25713",
"Wg 	c #DC8866",
"Xg 	c #E75823",
"Yg 	c #EAB79D",
"Zg 	c #F9E8DA",
"`g 	c #D96538",
" h 	c #DD5F2D",
".h 	c #BC937D",
"+h 	c #F3EEEC",
"@h 	c #F89216",
"#h 	c #F7921A",
"$h 	c #FB8D19",
"%h 	c #F6761A",
"&h 	c #FE8F19",
"*h 	c #FD801F",
"=h 	c #F35816",
"-h 	c #F55521",
";h 	c #D7643B",
">h 	c #DACDC6",
",h 	c #DD8B6A",
"'h 	c #E65825",
")h 	c #F9E6D7",
"!h 	c #E05F2E",
"~h 	c #BC957F",
"{h 	c #464646",
"]h 	c #D9815E",
"^h 	c #EA5921",
"/h 	c #F25718",
"(h 	c #FD9015",
"_h 	c #FC9015",
":h 	c #FB9112",
"<h 	c #F99213",
"[h 	c #F98F1B",
"}h 	c #F67619",
"|h 	c #FC821E",
"1h 	c #F95514",
"2h 	c #F0C8B0",
"3h 	c #E38E6D",
"4h 	c #535455",
"5h 	c #F9E4D3",
"6h 	c #D6683E",
"7h 	c #E05E2D",
"8h 	c #C19F8A",
"9h 	c #313131",
"0h 	c #F6F1EC",
"ah 	c #E7581F",
"bh 	c #F75615",
"ch 	c #F16C15",
"dh 	c #FF8B22",
"eh 	c #FA9119",
"fh 	c #F6941A",
"gh 	c #FE8A21",
"hh 	c #EF6511",
"ih 	c #F95317",
"jh 	c #EF5A12",
"kh 	c #F7761A",
"lh 	c #FB9016",
"mh 	c #FC831C",
"nh 	c #ED5F0F",
"oh 	c #F35516",
"ph 	c #F1CAB3",
"qh 	c #737272",
"rh 	c #76726D",
"sh 	c #78726A",
"th 	c #FDF9F6",
"uh 	c #FCF8F4",
"vh 	c #FCF7F4",
"wh 	c #FBE5D1",
"xh 	c #EA8B62",
"yh 	c #E05A23",
"zh 	c #2C2C2C",
"Ah 	c #F4F3F1",
"Bh 	c #968F88",
"Ch 	c #74695F",
"Dh 	c #FCF8F5",
"Eh 	c #FCF6EF",
"Fh 	c #F6D6BE",
"Gh 	c #E06030",
"Hh 	c #B6856D",
"Ih 	c #726F68",
"Jh 	c #746F65",
"Kh 	c #757067",
"Lh 	c #746F66",
"Mh 	c #757068",
"Nh 	c #737069",
"Oh 	c #F9F7F4",
"Ph 	c #FBEBD9",
"Qh 	c #D77A55",
"Rh 	c #EE5C13",
"Sh 	c #ED5D0F",
"Th 	c #F15B13",
"Uh 	c #E95F0D",
"Vh 	c #EB710E",
"Wh 	c #FA8E17",
"Xh 	c #F69412",
"Yh 	c #F5940F",
"Zh 	c #F5950E",
"`h 	c #FA911A",
" i 	c #FD8F1B",
".i 	c #FF8C21",
"+i 	c #FE8725",
"@i 	c #F25B13",
"#i 	c #EE5911",
"$i 	c #EA5E0C",
"%i 	c #FC7F22",
"&i 	c #EF5B0F",
"*i 	c #E7572B",
"=i 	c #EE5627",
"-i 	c #D2643D",
";i 	c #F1CCB6",
">i 	c #6C6D6C",
",i 	c #F0C9B1",
"'i 	c #F1BB9F",
")i 	c #F1BA9E",
"!i 	c #EDB295",
"~i 	c #EDB496",
"{i 	c #EDAE8F",
"]i 	c #E1764F",
"^i 	c #FCEFDE",
"/i 	c #F0BC9F",
"(i 	c #EBAF93",
"_i 	c #ECB496",
":i 	c #EDAB8B",
"<i 	c #DF5F35",
"[i 	c #EC591E",
"}i 	c #B6846D",
"|i 	c #FEF6ED",
"1i 	c #F1BC9F",
"2i 	c #F2BBA0",
"3i 	c #F2BCA0",
"4i 	c #F0BA9E",
"5i 	c #EBAB8C",
"6i 	c #E57444",
"7i 	c #F36217",
"8i 	c #F36E16",
"9i 	c #EF6E13",
"0i 	c #F27514",
"ai 	c #F17514",
"bi 	c #EF7012",
"ci 	c #EC840C",
"di 	c #F4A30D",
"ei 	c #F5A90C",
"fi 	c #F5AA0C",
"gi 	c #F79C16",
"hi 	c #EF850E",
"ii 	c #F9791B",
"ji 	c #FA771D",
"ki 	c #F9751C",
"li 	c #F26217",
"mi 	c #F46B18",
"ni 	c #F56E17",
"oi 	c #F06E13",
"pi 	c #EF6E12",
"qi 	c #F17314",
"ri 	c #F78117",
"si 	c #F05B12",
"ti 	c #FD9315",
"ui 	c #FB8C1F",
"vi 	c #F27714",
"wi 	c #FA7F1D",
"xi 	c #FA791D",
"yi 	c #FB7F1E",
"zi 	c #F25D16",
"Ai 	c #E65A28",
"Bi 	c #E5845B",
"Ci 	c #D99678",
"Di 	c #D9977A",
"Ei 	c #DA8F70",
"Fi 	c #D98F70",
"Gi 	c #D79A7E",
"Hi 	c #FCF2E6",
"Ii 	c #6C6C6D",
"Ji 	c #313232",
"Ki 	c #F6EDE3",
"Li 	c #C67453",
"Mi 	c #D55F34",
"Ni 	c #DD5B2A",
"Oi 	c #DE5E31",
"Pi 	c #F0CBB4",
"Qi 	c #C56641",
"Ri 	c #DB5B29",
"Si 	c #DD5F35",
"Ti 	c #D65E30",
"Ui 	c #E15D2F",
"Vi 	c #EF561D",
"Wi 	c #F7D7C1",
"Xi 	c #C3643F",
"Yi 	c #D85D2A",
"Zi 	c #DE5A29",
"`i 	c #E25C22",
" j 	c #E25B20",
".j 	c #FB901B",
"+j 	c #F99013",
"@j 	c #F3A10D",
"#j 	c #FEC212",
"$j 	c #FEC511",
"%j 	c #FDC70B",
"&j 	c #FFC706",
"*j 	c #FEC611",
"=j 	c #FCB61A",
"-j 	c #E46C07",
";j 	c #EE5B10",
">j 	c #F65713",
",j 	c #EE5A10",
"'j 	c #EE5F0F",
")j 	c #FC7E21",
"!j 	c #F9801A",
"~j 	c #E46508",
"{j 	c #E85F0C",
"]j 	c #ED5B10",
"^j 	c #EA5D0D",
"/j 	c #F5DAC5",
"(j 	c #FBF4EC",
"_j 	c #FDFAF7",
":j 	c #FAF8F6",
"<j 	c #F2F1F1",
"[j 	c #252525",
"}j 	c #3B3B3C",
"|j 	c #F7EDE1",
"1j 	c #D87954",
"2j 	c #5F5F5F",
"3j 	c #F55820",
"4j 	c #F6D2BB",
"5j 	c #D46235",
"6j 	c #F2581B",
"7j 	c #F35613",
"8j 	c #F3A30B",
"9j 	c #FEC40C",
"0j 	c #FCC905",
"aj 	c #FBCB03",
"bj 	c #FCCB03",
"cj 	c #FFC806",
"dj 	c #E46B07",
"ej 	c #F9581D",
"fj 	c #EE5F12",
"gj 	c #FA811D",
"hj 	c #F79312",
"ij 	c #FC9317",
"jj 	c #F37715",
"kj 	c #F77B1A",
"lj 	c #EA5D0C",
"mj 	c #D2683F",
"nj 	c #F8E9E2",
"oj 	c #4A4A4B",
"pj 	c #5E5E5E",
"qj 	c #727272",
"rj 	c #494949",
"sj 	c #F7EDE2",
"tj 	c #F35614",
"uj 	c #F65511",
"vj 	c #F0591F",
"wj 	c #E95720",
"xj 	c #E6A586",
"yj 	c #E6BFA7",
"zj 	c #DD6136",
"Aj 	c #FD541A",
"Bj 	c #FB551C",
"Cj 	c #DB5E34",
"Dj 	c #FA561C",
"Ej 	c #FEC40A",
"Fj 	c #FBCA04",
"Gj 	c #FB7D20",
"Hj 	c #FD9220",
"Ij 	c #F2960C",
"Jj 	c #FB9415",
"Kj 	c #F27814",
"Lj 	c #FA7D1E",
"Mj 	c #F95512",
"Nj 	c #F9EAE5",
"Oj 	c #F4EADF",
"Pj 	c #CE6D48",
"Qj 	c #EB5523",
"Rj 	c #F1CBB4",
"Sj 	c #F1581D",
"Tj 	c #DD5F32",
"Uj 	c #B5826A",
"Vj 	c #F7D8C2",
"Wj 	c #D9653A",
"Xj 	c #F65714",
"Yj 	c #FE9021",
"Zj 	c #FC9315",
"`j 	c #F5950F",
" k 	c #F3A30A",
".k 	c #FEC112",
"+k 	c #FBC905",
"@k 	c #FBCB04",
"#k 	c #FCC806",
"$k 	c #FDC706",
"%k 	c #FCB51A",
"&k 	c #FB5720",
"*k 	c #EC5C11",
"=k 	c #F77D1B",
"-k 	c #F7930E",
";k 	c #F89310",
">k 	c #F89410",
",k 	c #F97F18",
"'k 	c #EF5A11",
")k 	c #FA7F22",
"!k 	c #D6663E",
"~k 	c #999999",
"{k 	c #777879",
"]k 	c #FBECDA",
"^k 	c #CE7856",
"/k 	c #F05B14",
"(k 	c #EC5A1A",
"_k 	c #F25723",
":k 	c #EF571F",
"<k 	c #EE5521",
"[k 	c #F25523",
"}k 	c #E15B31",
"|k 	c #E5A88B",
"1k 	c #AEAEAF",
"2k 	c #FDFCFC",
"3k 	c #F1CDB6",
"4k 	c #D66232",
"5k 	c #EE591C",
"6k 	c #F1D2C6",
"7k 	c #494B4C",
"8k 	c #ADAEAE",
"9k 	c #A9A9A9",
"0k 	c #F4D1BA",
"ak 	c #F17214",
"bk 	c #F79511",
"ck 	c #F1970A",
"dk 	c #F7AB12",
"ek 	c #FDC71B",
"fk 	c #FEC808",
"gk 	c #FFC902",
"hk 	c #FFC804",
"ik 	c #FEC711",
"jk 	c #F7581C",
"kk 	c #F05A12",
"lk 	c #EE5816",
"mk 	c #E7610A",
"nk 	c #F67D18",
"ok 	c #F99318",
"pk 	c #FC931E",
"qk 	c #FD9217",
"rk 	c #F8921B",
"sk 	c #FE9022",
"tk 	c #F87C1A",
"uk 	c #F6581C",
"vk 	c #FB8022",
"wk 	c #F05A16",
"xk 	c #F8E6D7",
"yk 	c #E2DED9",
"zk 	c #F6DECB",
"Ak 	c #F6DDC9",
"Bk 	c #F8D5BD",
"Ck 	c #DC6C43",
"Dk 	c #EB581F",
"Ek 	c #F25711",
"Fk 	c #E55B28",
"Gk 	c #DD714C",
"Hk 	c #D97B57",
"Ik 	c #DA7C57",
"Jk 	c #D97955",
"Kk 	c #DC7B55",
"Lk 	c #D37C59",
"Mk 	c #EAC9B8",
"Nk 	c #FBF1EC",
"Ok 	c #F5DFCD",
"Pk 	c #F5DBC6",
"Qk 	c #F0B091",
"Rk 	c #E56030",
"Sk 	c #E6612D",
"Tk 	c #E9AA8B",
"Uk 	c #F7DECD",
"Vk 	c #F4DBC6",
"Wk 	c #F6DAC4",
"Xk 	c #F7E0D1",
"Yk 	c #F5DCC7",
"Zk 	c #F6DBC6",
"`k 	c #F2D2BA",
" l 	c #FAEADB",
".l 	c #FDF7F0",
"+l 	c #F3D9C4",
"@l 	c #EBBEA4",
"#l 	c #F5D3BB",
"$l 	c #F0B699",
"%l 	c #E05F2F",
"&l 	c #F25918",
"*l 	c #F56A18",
"=l 	c #F16914",
"-l 	c #EA650D",
";l 	c #EC6510",
">l 	c #ED6511",
",l 	c #EF6810",
"'l 	c #E96B0D",
")l 	c #EB7D0C",
"!l 	c #F59C0E",
"~l 	c #F29E0A",
"{l 	c #F3A508",
"]l 	c #F1A108",
"^l 	c #F2A308",
"/l 	c #F4A80B",
"(l 	c #FAB50E",
"_l 	c #FBB80F",
":l 	c #FBB710",
"<l 	c #F6A411",
"[l 	c #E8650B",
"}l 	c #F5551A",
"|l 	c #F36916",
"1l 	c #EB650E",
"2l 	c #E8690C",
"3l 	c #EB650D",
"4l 	c #E9680C",
"5l 	c #FB821C",
"6l 	c #FB811C",
"7l 	c #FC821C",
"8l 	c #FB8122",
"9l 	c #F6721A",
"0l 	c #ED5910",
"al 	c #F26416",
"bl 	c #F06A11",
"cl 	c #EF6A10",
"dl 	c #F57D15",
"el 	c #F05A17",
"fl 	c #3A3A3A",
"gl 	c #C46F4B",
"hl 	c #D26135",
"il 	c #E25E34",
"jl 	c #DC5E30",
"kl 	c #D86230",
"ll 	c #E45A27",
"ml 	c #D95C2D",
"nl 	c #E9B69D",
"ol 	c #E8E7E5",
"pl 	c #E7E6E5",
"ql 	c #E7E4E3",
"rl 	c #E6E5E3",
"sl 	c #C4C3C2",
"tl 	c #757574",
"ul 	c #ECBDA4",
"vl 	c #C5633D",
"wl 	c #D35D31",
"xl 	c #D9633A",
"yl 	c #E05E35",
"zl 	c #E15D30",
"Al 	c #DB5F34",
"Bl 	c #E15E34",
"Cl 	c #E05E34",
"Dl 	c #DB6139",
"El 	c #DB5E32",
"Fl 	c #DC5D2F",
"Gl 	c #DA5F31",
"Hl 	c #D15E32",
"Il 	c #C26641",
"Jl 	c #E1A386",
"Kl 	c #C46642",
"Ll 	c #DA6238",
"Ml 	c #CF6139",
"Nl 	c #CA6039",
"Ol 	c #D9602E",
"Pl 	c #EF5C15",
"Ql 	c #FB7F1F",
"Rl 	c #FE8921",
"Sl 	c #FC891A",
"Tl 	c #FD891C",
"Ul 	c #FA901C",
"Vl 	c #F9A618",
"Wl 	c #FDC211",
"Xl 	c #FDC010",
"Yl 	c #FDC00E",
"Zl 	c #FEC512",
"`l 	c #FBB70E",
" m 	c #F09E06",
".m 	c #F09C07",
"+m 	c #F2970C",
"@m 	c #F98F15",
"#m 	c #FE881E",
"$m 	c #FC8A19",
"%m 	c #E85E0B",
"&m 	c #F05B16",
"*m 	c #EE5C0F",
"=m 	c #FE891E",
"-m 	c #FD8A1E",
";m 	c #FB801C",
">m 	c #F5D7C4",
",m 	c #D2673F",
"'m 	c #F95414",
")m 	c #D95D2E",
"!m 	c #E9BAA8",
"~m 	c #404040",
"{m 	c #E9E9E8",
"]m 	c #E05A2E",
"^m 	c #F35618",
"/m 	c #F35524",
"(m 	c #E25A29",
"_m 	c #E09E82",
":m 	c #7F7B74",
"<m 	c #EAB79A",
"[m 	c #DA5E32",
"}m 	c #F7531B",
"|m 	c #F35722",
"1m 	c #EF5F10",
"2m 	c #FC8A1C",
"3m 	c #F99413",
"4m 	c #F5A811",
"5m 	c #FEC712",
"6m 	c #FCC807",
"7m 	c #FDCA09",
"8m 	c #FCBA0F",
"9m 	c #F09A07",
"0m 	c #FB8718",
"am 	c #FD9215",
"bm 	c #FB8F1A",
"cm 	c #F27315",
"dm 	c #F05C11",
"em 	c #EE600F",
"fm 	c #FC831E",
"gm 	c #FD9017",
"hm 	c #F4D4C1",
"im 	c #FD5418",
"jm 	c #D76137",
"km 	c #E9BCA9",
"lm 	c #706E6D",
"mm 	c #F65615",
"nm 	c #E8572B",
"om 	c #E8A98B",
"pm 	c #7D786E",
"qm 	c #F45913",
"rm 	c #FE8E1C",
"sm 	c #F4A809",
"tm 	c #FEC810",
"um 	c #FCBB0F",
"vm 	c #F3990B",
"wm 	c #F8921A",
"xm 	c #E9610D",
"ym 	c #FD9221",
"zm 	c #EE6110",
"Am 	c #FA7B1C",
"Bm 	c #D7B098",
"Cm 	c #D76A42",
"Dm 	c #FA5517",
"Em 	c #FA561B",
"Fm 	c #EDC0AD",
"Gm 	c #EAEAE9",
"Hm 	c #E45B28",
"Im 	c #EAB698",
"Jm 	c #DC5D31",
"Km 	c #EF5C13",
"Lm 	c #FC901C",
"Mm 	c #FD9115",
"Nm 	c #F5950D",
"Om 	c #FEC70F",
"Pm 	c #FDC805",
"Qm 	c #FCC906",
"Rm 	c #F3990C",
"Sm 	c #FD911C",
"Tm 	c #F06011",
"Um 	c #FB861B",
"Vm 	c #FB9315",
"Wm 	c #FE8F1F",
"Xm 	c #EF5914",
"Ym 	c #ED6110",
"Zm 	c #F69318",
"`m 	c #D4693F",
" n 	c #F7E0CB",
".n 	c #343332",
"+n 	c #D46A43",
"@n 	c #DF5D2E",
"#n 	c #EABAA4",
"$n 	c #D1D1D1",
"%n 	c #D6D6D6",
"&n 	c #FAFAFA",
"*n 	c #E9B497",
"=n 	c #F1551B",
"-n 	c #DE9C7F",
";n 	c #7F796F",
">n 	c #EAEAEB",
",n 	c #EBEBEB",
"'n 	c #FEF8ED",
")n 	c #EBB192",
"!n 	c #F45516",
"~n 	c #ED620F",
"{n 	c #F98318",
"]n 	c #F79310",
"^n 	c #F79311",
"/n 	c #F3950C",
"(n 	c #F4A709",
"_n 	c #FCC805",
":n 	c #FDC80D",
"<n 	c #F4980C",
"[n 	c #FE9016",
"}n 	c #EB5B10",
"|n 	c #E7660B",
"1n 	c #FB9219",
"2n 	c #FD8F18",
"3n 	c #FB8B19",
"4n 	c #F56F19",
"5n 	c #F65819",
"6n 	c #F15C12",
"7n 	c #FB831B",
"8n 	c #FF8F1F",
"9n 	c #FB8021",
"0n 	c #EE5925",
"an 	c #D7704A",
"bn 	c #FFFFFB",
"cn 	c #E7D6C8",
"dn 	c #D3BCAD",
"en 	c #FFF2E7",
"fn 	c #FEEEE2",
"gn 	c #FDE7D5",
"hn 	c #F3C5AB",
"in 	c #DB683F",
"jn 	c #F15921",
"kn 	c #E05B29",
"ln 	c #EDB497",
"mn 	c #F8E3D6",
"nn 	c #F9E7DB",
"on 	c #FAE9DD",
"pn 	c #D0B6A5",
"qn 	c #E0C7B8",
"rn 	c #F8E2D6",
"sn 	c #F9E3D7",
"tn 	c #F9E6DA",
"un 	c #FDEFE4",
"vn 	c #F9E6D9",
"wn 	c #FAE2CD",
"xn 	c #F0AB8B",
"yn 	c #E45825",
"zn 	c #F05A14",
"An 	c #F15F13",
"Bn 	c #ED610E",
"Cn 	c #ED6011",
"Dn 	c #F05E13",
"En 	c #E8641D",
"Fn 	c #EA9D7B",
"Gn 	c #FBE8DA",
"Hn 	c #FBE9DD",
"In 	c #FBE7D4",
"Jn 	c #FADDC6",
"Kn 	c #EEAF8F",
"Ln 	c #E95829",
"Mn 	c #F35F15",
"Nn 	c #E46708",
"On 	c #F68918",
"Pn 	c #F4990E",
"Qn 	c #F09B07",
"Rn 	c #F09B08",
"Sn 	c #F19B08",
"Tn 	c #F6AA0B",
"Un 	c #FECA0C",
"Vn 	c #FCCA04",
"Wn 	c #F79317",
"Xn 	c #ED600F",
"Yn 	c #E9610B",
"Zn 	c #E56809",
"`n 	c #FA901A",
" o 	c #FC8C1A",
".o 	c #FB871A",
"+o 	c #FC841D",
"@o 	c #FE8926",
"#o 	c #F05815",
"$o 	c #EE5F10",
"%o 	c #EF5F0F",
"&o 	c #ED6010",
"*o 	c #E8630A",
"=o 	c #FC851C",
"-o 	c #FB8B18",
";o 	c #FC8B19",
">o 	c #FD871D",
",o 	c #FD8621",
"'o 	c #F9771E",
")o 	c #D7693C",
"!o 	c #D26A3F",
"~o 	c #DA663C",
"{o 	c #DC663A",
"]o 	c #D07752",
"^o 	c #FAE8D7",
"/o 	c #F7D1B8",
"(o 	c #C56F4B",
"_o 	c #D56A41",
":o 	c #D9663B",
"<o 	c #D5693E",
"[o 	c #D76336",
"}o 	c #E4642E",
"|o 	c #EF5B15",
"1o 	c #F4541D",
"2o 	c #EE5825",
"3o 	c #D96840",
"4o 	c #DA673C",
"5o 	c #DB663B",
"6o 	c #DD683C",
"7o 	c #DF6A3D",
"8o 	c #DD693D",
"9o 	c #DB683C",
"0o 	c #DB6538",
"ao 	c #DA663B",
"bo 	c #D96439",
"co 	c #E16231",
"do 	c #FC7D1F",
"eo 	c #FC8B1A",
"fo 	c #FD8928",
"go 	c #E48130",
"ho 	c #D46B42",
"io 	c #D56B41",
"jo 	c #D66C41",
"ko 	c #FC7D21",
"lo 	c #FD8421",
"mo 	c #F48D15",
"no 	c #FDB21C",
"oo 	c #FDBA18",
"po 	c #FDBC0F",
"qo 	c #FDBE10",
"ro 	c #FDBF10",
"so 	c #FEC013",
"to 	c #FDBB17",
"uo 	c #FEC113",
"vo 	c #FDC111",
"wo 	c #FDC011",
"xo 	c #FDC80A",
"yo 	c #FEC804",
"zo 	c #FDCB02",
"Ao 	c #FDCC09",
"Bo 	c #FC891B",
"Co 	c #FE8E19",
"Do 	c #EC700F",
"Eo 	c #E7620A",
"Fo 	c #EE5E0F",
"Go 	c #EF5E12",
"Ho 	c #EE5C11",
"Io 	c #ED5C12",
"Jo 	c #F26715",
"Ko 	c #FD871E",
"Lo 	c #FC851D",
"Mo 	c #FC8921",
"No 	c #FC8A1B",
"Oo 	c #FD8B1B",
"Po 	c #FE8D1A",
"Qo 	c #FE8F17",
"Ro 	c #FD911A",
"So 	c #F07213",
"To 	c #E46208",
"Uo 	c #EE5B0F",
"Vo 	c #E2764E",
"Wo 	c #F5D4C1",
"Xo 	c #FEF0E4",
"Yo 	c #FAE5D9",
"Zo 	c #FAE6D9",
"`o 	c #FBE6DB",
" p 	c #D1C8BB",
".p 	c #D8D8D9",
"+p 	c #AFB0B0",
"@p 	c #F5C5AA",
"#p 	c #F55814",
"$p 	c #FC5619",
"%p 	c #EC5925",
"&p 	c #ED5826",
"*p 	c #F05721",
"=p 	c #F25721",
"-p 	c #F05720",
";p 	c #F0571F",
">p 	c #F8931A",
",p 	c #F6741A",
"'p 	c #EC581C",
")p 	c #F15521",
"!p 	c #EF581D",
"~p 	c #FC9118",
"{p 	c #FA9413",
"]p 	c #F1980A",
"^p 	c #FCB717",
"/p 	c #FCC909",
"(p 	c #FCC90A",
"_p 	c #FCC907",
":p 	c #FDCB08",
"<p 	c #FEC90E",
"[p 	c #FDC80C",
"}p 	c #FDC70F",
"|p 	c #FFCA01",
"1p 	c #FB9414",
"2p 	c #FC9220",
"3p 	c #EB5C0F",
"4p 	c #F37216",
"5p 	c #FD9121",
"6p 	c #FD901A",
"7p 	c #FA930F",
"8p 	c #F17115",
"9p 	c #ED5B13",
"0p 	c #F25A16",
"ap 	c #B39682",
"bp 	c #D1D2D2",
"cp 	c #F3C1A5",
"dp 	c #FD9224",
"ep 	c #F7761B",
"fp 	c #F05A18",
"gp 	c #FCCA08",
"hp 	c #FEC80B",
"ip 	c #FDCC08",
"jp 	c #F89212",
"kp 	c #EF5718",
"lp 	c #DB7F5C",
"mp 	c #B49783",
"np 	c #595B5C",
"op 	c #F95413",
"pp 	c #FE9117",
"qp 	c #F6751A",
"rp 	c #FE851F",
"sp 	c #FFC903",
"tp 	c #FFCA02",
"up 	c #F89317",
"vp 	c #F99312",
"wp 	c #FD901C",
"xp 	c #FD9222",
"yp 	c #DD7A54",
"zp 	c #B49784",
"Ap 	c #292929",
"Bp 	c #D5D3D2",
"Cp 	c #F2C4AA",
"Dp 	c #D76033",
"Ep 	c #FB821A",
"Fp 	c #FE9119",
"Gp 	c #EE5D11",
"Hp 	c #FA8319",
"Ip 	c #FD9218",
"Jp 	c #F8940F",
"Kp 	c #F09E07",
"Lp 	c #FAB40D",
"Mp 	c #FDCB09",
"Np 	c #F09A08",
"Op 	c #F69413",
"Pp 	c #F89918",
"Qp 	c #F69315",
"Rp 	c #FD9019",
"Sp 	c #FC9223",
"Tp 	c #EE5A14",
"Up 	c #DF7A55",
"Vp 	c #FFFCF9",
"Wp 	c #E5D9C8",
"Xp 	c #E7DBCA",
"Yp 	c #FCEAD9",
"Zp 	c #E9D5C2",
"`p 	c #FAE3CE",
" q 	c #F2BFA3",
".q 	c #DA6133",
"+q 	c #ED5527",
"@q 	c #EF5D11",
"#q 	c #EB5E0D",
"$q 	c #EC5C10",
"%q 	c #E95A19",
"&q 	c #EC5B10",
"*q 	c #EA5A18",
"=q 	c #E95C15",
"-q 	c #EA5D0F",
";q 	c #ED6310",
">q 	c #E6640A",
",q 	c #E46608",
"'q 	c #E56609",
")q 	c #E56608",
"!q 	c #ED830E",
"~q 	c #F1970B",
"{q 	c #F2960A",
"]q 	c #F1960A",
"^q 	c #EA7E0C",
"/q 	c #E9600B",
"(q 	c #E66509",
"_q 	c #E8620B",
":q 	c #EA5E0E",
"<q 	c #F28F0E",
"[q 	c #F09809",
"}q 	c #FECB0C",
"|q 	c #FDCA02",
"1q 	c #FECA02",
"2q 	c #FECA01",
"3q 	c #FCCA03",
"4q 	c #FDCA03",
"5q 	c #FCCA05",
"6q 	c #FCBB0C",
"7q 	c #F1990A",
"8q 	c #F09709",
"9q 	c #F1960D",
"0q 	c #F1960B",
"aq 	c #F89417",
"bq 	c #F6940F",
"cq 	c #FC901B",
"dq 	c #ED5A10",
"eq 	c #E95F0C",
"fq 	c #EF7312",
"gq 	c #FD8922",
"hq 	c #FC8A1E",
"iq 	c #F36A17",
"jq 	c #DE7954",
"kq 	c #BAA897",
"lq 	c #A6A7A6",
"mq 	c #EFC8AF",
"nq 	c #CB7C5B",
"oq 	c #D97D58",
"pq 	c #DC805F",
"qq 	c #D98260",
"rq 	c #DA825F",
"sq 	c #E2754B",
"tq 	c #EE5622",
"uq 	c #F67019",
"vq 	c #F9801B",
"wq 	c #F9811A",
"xq 	c #F98118",
"yq 	c #F98219",
"zq 	c #FA821B",
"Aq 	c #F98218",
"Bq 	c #FA8718",
"Cq 	c #FB851C",
"Dq 	c #FB8420",
"Eq 	c #FA8619",
"Fq 	c #FB871C",
"Gq 	c #FA831B",
"Hq 	c #FB861D",
"Iq 	c #FB831F",
"Jq 	c #F88718",
"Kq 	c #F88C16",
"Lq 	c #FBA71A",
"Mq 	c #F9AA18",
"Nq 	c #F7A80D",
"Oq 	c #F8A80D",
"Pq 	c #F8AA0C",
"Qq 	c #FABA0F",
"Rq 	c #FABA0D",
"Sq 	c #FABA0B",
"Tq 	c #FABD0B",
"Uq 	c #FBB90F",
"Vq 	c #F9AF16",
"Wq 	c #F8A80E",
"Xq 	c #F9A916",
"Yq 	c #F9AD15",
"Zq 	c #F8A913",
"`q 	c #F8A912",
" r 	c #F8AB0C",
".r 	c #FBB60F",
"+r 	c #FAB70F",
"@r 	c #F9B60D",
"#r 	c #FCC509",
"$r 	c #FCCB06",
"%r 	c #FEC903",
"&r 	c #FECB06",
"*r 	c #FDC709",
"=r 	c #FBB70F",
"-r 	c #F9B00C",
";r 	c #F27214",
">r 	c #F06612",
",r 	c #ED6510",
"'r 	c #EA680D",
")r 	c #F37914",
"!r 	c #FA8321",
"~r 	c #FA841A",
"{r 	c #FA831C",
"]r 	c #FA8518",
"^r 	c #ED6810",
"/r 	c #EF6313",
"(r 	c #F06712",
"_r 	c #F26514",
":r 	c #F46417",
"<r 	c #F16613",
"[r 	c #F2591C",
"}r 	c #F55722",
"|r 	c #E6B195",
"1r 	c #CD5E33",
"2r 	c #E8591D",
"3r 	c #EE5D17",
"4r 	c #FE9123",
"5r 	c #FD8F16",
"6r 	c #F7930D",
"7r 	c #F49C0F",
"8r 	c #FDBC15",
"9r 	c #FCCC06",
"0r 	c #FDC90B",
"ar 	c #FDC60B",
"br 	c #FDC904",
"cr 	c #FDCA08",
"dr 	c #FEC806",
"er 	c #FEC807",
"fr 	c #FCC50A",
"gr 	c #FFC906",
"hr 	c #FEC707",
"ir 	c #FCCA07",
"jr 	c #FDC908",
"kr 	c #FECC09",
"lr 	c #FECC08",
"mr 	c #FCC90B",
"nr 	c #FDCC07",
"or 	c #FDCA04",
"pr 	c #FDC60C",
"qr 	c #FEC805",
"rr 	c #FDCB05",
"sr 	c #FDC905",
"tr 	c #FEC809",
"ur 	c #FEC906",
"vr 	c #FECA09",
"wr 	c #F19B0A",
"xr 	c #F49413",
"yr 	c #FF8E1C",
"zr 	c #FD8620",
"Ar 	c #E9600C",
"Br 	c #FD9324",
"Cr 	c #F9931E",
"Dr 	c #F48C14",
"Er 	c #FA9015",
"Fr 	c #F06112",
"Gr 	c #F25915",
"Hr 	c #F95622",
"Ir 	c #DE805D",
"Jr 	c #E9AB8F",
"Kr 	c #F35815",
"Lr 	c #F67D16",
"Mr 	c #F99414",
"Nr 	c #F89211",
"Or 	c #FA9111",
"Pr 	c #F59312",
"Qr 	c #F19F09",
"Rr 	c #FECC0A",
"Sr 	c #FDCA07",
"Tr 	c #FDCB04",
"Ur 	c #FCCB02",
"Vr 	c #F59510",
"Wr 	c #FA8F16",
"Xr 	c #F8531C",
"Yr 	c #EB5B0F",
"Zr 	c #F87E18",
"`r 	c #F89318",
" s 	c #E87F54",
".s 	c #B8A18F",
"+s 	c #A6A7A8",
"@s 	c #EE5E10",
"#s 	c #FD9318",
"$s 	c #FE8F18",
"%s 	c #FB9212",
"&s 	c #F39B0C",
"*s 	c #FDCB07",
"=s 	c #FBCA05",
"-s 	c #FFC803",
";s 	c #FCC904",
">s 	c #FBCB05",
",s 	c #F7940F",
"'s 	c #F26516",
")s 	c #EF5F12",
"!s 	c #FA801B",
"~s 	c #FB9316",
"{s 	c #FD8F19",
"]s 	c #FD8A1C",
"^s 	c #F15918",
"/s 	c #F65620",
"(s 	c #F3551F",
"_s 	c #E87E54",
":s 	c #BAA694",
"<s 	c #707171",
"[s 	c #A5A5A4",
"}s 	c #DF5A29",
"|s 	c #F55617",
"1s 	c #F25C16",
"2s 	c #FD9018",
"3s 	c #F89214",
"4s 	c #F19C0A",
"5s 	c #FCC808",
"6s 	c #FEC907",
"7s 	c #FFC807",
"8s 	c #FEC909",
"9s 	c #FECB0B",
"0s 	c #FE9019",
"as 	c #F89219",
"bs 	c #F99717",
"cs 	c #E67F57",
"ds 	c #B69A87",
"es 	c #E5E5E5",
"fs 	c #F9F6F2",
"gs 	c #FAF6F3",
"hs 	c #F9F6F3",
"is 	c #F9F5F1",
"js 	c #FBF7F4",
"ks 	c #F9F5F3",
"ls 	c #FBF3EA",
"ms 	c #E8AB8E",
"ns 	c #F15B15",
"os 	c #EE5B12",
"ps 	c #EF5B12",
"qs 	c #EF5B13",
"rs 	c #F69420",
"ss 	c #F39429",
"ts 	c #F49425",
"us 	c #F49426",
"vs 	c #F79326",
"ws 	c #F39425",
"xs 	c #F59C1B",
"ys 	c #FBC629",
"zs 	c #FBC729",
"As 	c #FBC728",
"Bs 	c #FCC622",
"Cs 	c #FCC624",
"Ds 	c #FBC726",
"Es 	c #FBC72C",
"Fs 	c #FCC61F",
"Gs 	c #FCC928",
"Hs 	c #FBC72A",
"Is 	c #FECB0D",
"Js 	c #FDC907",
"Ks 	c #FEC80F",
"Ls 	c #FDC60E",
"Ms 	c #FCC609",
"Ns 	c #FEC411",
"Os 	c #FDB61A",
"Ps 	c #F19A0A",
"Qs 	c #EE6D12",
"Rs 	c #E56209",
"Ss 	c #F57E15",
"Ts 	c #F2970A",
"Us 	c #F6950F",
"Vs 	c #F5960F",
"Ws 	c #FF8D1E",
"Xs 	c #FD8C1D",
"Ys 	c #FE9120",
"Zs 	c #FF8E1B",
"`s 	c #ED5827",
" t 	c #E35C2C",
".t 	c #DB5B2B",
"+t 	c #D75E2D",
"@t 	c #BDAE9D",
"#t 	c #FCFBFA",
"$t 	c #E3AE92",
"%t 	c #DD9778",
"&t 	c #D88F6E",
"*t 	c #D99273",
"=t 	c #DA9577",
"-t 	c #DA8B6A",
";t 	c #DA8C6C",
">t 	c #DA8D6D",
",t 	c #DA8E6E",
"'t 	c #E07E54",
")t 	c #FA771E",
"!t 	c #FA7A1E",
"~t 	c #F77C18",
"{t 	c #F77C16",
"]t 	c #F67817",
"^t 	c #F77A17",
"/t 	c #F77C17",
"(t 	c #F17513",
"_t 	c #F6941F",
":t 	c #D9832C",
"<t 	c #BF6E26",
"[t 	c #B86927",
"}t 	c #B96928",
"|t 	c #B96927",
"1t 	c #AF6D22",
"2t 	c #BA8222",
"3t 	c #BB8420",
"4t 	c #BA8223",
"5t 	c #BC8322",
"6t 	c #DCA72E",
"7t 	c #FEC613",
"8t 	c #FFC904",
"9t 	c #FCBC0B",
"0t 	c #F2A208",
"at 	c #F89D17",
"bt 	c #FE9017",
"ct 	c #F77D17",
"dt 	c #F67518",
"et 	c #F87A18",
"ft 	c #F28012",
"gt 	c #F9A218",
"ht 	c #FCB318",
"it 	c #FAB30D",
"jt 	c #F7AC0C",
"kt 	c #F2A209",
"lt 	c #F47C15",
"mt 	c #F47116",
"nt 	c #F46E17",
"ot 	c #F37315",
"pt 	c #F56F17",
"qt 	c #F16D14",
"rt 	c #F26E15",
"st 	c #F46B17",
"tt 	c #E5591B",
"ut 	c #E17E55",
"vt 	c #E7AB90",
"wt 	c #EDBCA4",
"xt 	c #EDBCA3",
"yt 	c #EDBAA0",
"zt 	c #EEBEA3",
"At 	c #BFBEBC",
"Bt 	c #E8E3DA",
"Ct 	c #D0805F",
"Dt 	c #E85A21",
"Et 	c #E85921",
"Ft 	c #E95A22",
"Gt 	c #EC5720",
"Ht 	c #E75B1A",
"It 	c #EB5914",
"Jt 	c #F05A19",
"Kt 	c #F36A15",
"Lt 	c #FD9116",
"Mt 	c #F59528",
"Nt 	c #C5772D",
"Ot 	c #985429",
"Pt 	c #92563C",
"Qt 	c #91563F",
"Rt 	c #915643",
"St 	c #925943",
"Tt 	c #925942",
"Ut 	c #925840",
"Vt 	c #91563D",
"Wt 	c #92563E",
"Xt 	c #92563B",
"Yt 	c #92563F",
"Zt 	c #8D5636",
"`t 	c #8F5638",
" u 	c #905639",
".u 	c #8E5637",
"+u 	c #905634",
"@u 	c #91542D",
"#u 	c #92542C",
"$u 	c #925418",
"%u 	c #C7912B",
"&u 	c #FBC72D",
"*u 	c #FBBB0B",
"=u 	c #F5940C",
"-u 	c #F69512",
";u 	c #F49414",
">u 	c #F8B00E",
",u 	c #FDC610",
"'u 	c #FCC708",
")u 	c #FEC610",
"!u 	c #FEC612",
"~u 	c #F79313",
"{u 	c #F7771A",
"]u 	c #EB5A0F",
"^u 	c #F35913",
"/u 	c #E35A1D",
"(u 	c #D28160",
"_u 	c #FFFDFB",
":u 	c #767575",
"<u 	c #76746E",
"[u 	c #75726D",
"}u 	c #FEFEFD",
"|u 	c #E9E6E5",
"1u 	c #DB7C56",
"2u 	c #F0571D",
"3u 	c #F85716",
"4u 	c #F45612",
"5u 	c #F26A14",
"6u 	c #F89411",
"7u 	c #F4952A",
"8u 	c #C3752D",
"9u 	c #905436",
"0u 	c #8C5746",
"au 	c #895745",
"bu 	c #8B5849",
"cu 	c #8E5B4B",
"du 	c #8E5A4A",
"eu 	c #8D5748",
"fu 	c #8A5848",
"gu 	c #8C5747",
"hu 	c #8D5746",
"iu 	c #8C5843",
"ju 	c #8E5746",
"ku 	c #8F5647",
"lu 	c #8F5747",
"mu 	c #8E5647",
"nu 	c #8F5646",
"ou 	c #8F5746",
"pu 	c #905947",
"qu 	c #905745",
"ru 	c #8F5741",
"su 	c #8E573F",
"tu 	c #8C553E",
"uu 	c #91542F",
"vu 	c #C6912B",
"wu 	c #FAC72E",
"xu 	c #FFC808",
"yu 	c #FCBA0C",
"zu 	c #F6931A",
"Au 	c #F79413",
"Bu 	c #F89315",
"Cu 	c #F3950D",
"Du 	c #F8B10E",
"Eu 	c #FB7A1F",
"Fu 	c #F35612",
"Gu 	c #E75821",
"Hu 	c #D59275",
"Iu 	c #E3E2E2",
"Ju 	c #E9E7E6",
"Ku 	c #D67C58",
"Lu 	c #F0541C",
"Mu 	c #F75621",
"Nu 	c #F35918",
"Ou 	c #FE8B1B",
"Pu 	c #F49528",
"Qu 	c #905534",
"Ru 	c #8B5943",
"Su 	c #8C583F",
"Tu 	c #8D573D",
"Uu 	c #8E5740",
"Vu 	c #8E5742",
"Wu 	c #8E5741",
"Xu 	c #8D5740",
"Yu 	c #8D573A",
"Zu 	c #905743",
"`u 	c #8D573C",
" v 	c #8E573D",
".v 	c #8E573E",
"+v 	c #8E5744",
"@v 	c #8D573F",
"#v 	c #8D573B",
"$v 	c #8C583D",
"%v 	c #8C5644",
"&v 	c #92542F",
"*v 	c #C7912A",
"=v 	c #FCB70E",
"-v 	c #F5930E",
";v 	c #FA9110",
">v 	c #ED5723",
",v 	c #DD9777",
"'v 	c #DB7A55",
")v 	c #F95418",
"!v 	c #F26A15",
"~v 	c #F9920E",
"{v 	c #F7941E",
"]v 	c #915535",
"^v 	c #8C5944",
"/v 	c #8F5744",
"(v 	c #8F5742",
"_v 	c #8F5843",
":v 	c #905844",
"<v 	c #8D5844",
"[v 	c #8B5944",
"}v 	c #8F5645",
"|v 	c #8D5744",
"1v 	c #8D563F",
"2v 	c #8D5841",
"3v 	c #8C5842",
"4v 	c #8D5741",
"5v 	c #8D5843",
"6v 	c #8E5843",
"7v 	c #8E573C",
"8v 	c #8F5634",
"9v 	c #FCC724",
"0v 	c #FEC904",
"av 	c #FCB80E",
"bv 	c #F59410",
"cv 	c #F8B00D",
"dv 	c #FCC80A",
"ev 	c #FEC910",
"fv 	c #F5AA09",
"gv 	c #F15911",
"hv 	c #D89777",
"iv 	c #7C7C7C",
"jv 	c #A19F97",
"kv 	c #9F998D",
"lv 	c #A19A8E",
"mv 	c #A9A398",
"nv 	c #FCEDDB",
"ov 	c #D68969",
"pv 	c #EA5727",
"qv 	c #EE5716",
"rv 	c #F25619",
"sv 	c #EC5A12",
"tv 	c #EE6E0F",
"uv 	c #FA9528",
"vv 	c #F59323",
"wv 	c #FA9427",
"xv 	c #F69322",
"yv 	c #F6931E",
"zv 	c #F59322",
"Av 	c #F6931F",
"Bv 	c #F69320",
"Cv 	c #F59321",
"Dv 	c #F69422",
"Ev 	c #F79420",
"Fv 	c #F69421",
"Gv 	c #F8941C",
"Hv 	c #F3942E",
"Iv 	c #C37733",
"Jv 	c #915435",
"Kv 	c #8A5641",
"Lv 	c #8A5946",
"Mv 	c #8A5847",
"Nv 	c #885645",
"Ov 	c #8A5645",
"Pv 	c #895645",
"Qv 	c #8C5646",
"Rv 	c #8A5745",
"Sv 	c #895744",
"Tv 	c #8A5744",
"Uv 	c #8B5744",
"Vv 	c #855644",
"Wv 	c #865744",
"Xv 	c #915B47",
"Yv 	c #905428",
"Zv 	c #F8C333",
"`v 	c #FDC919",
" w 	c #FDC918",
".w 	c #FDC81B",
"+w 	c #FBC62A",
"@w 	c #FECA1C",
"#w 	c #FCCB05",
"$w 	c #FECA0D",
"%w 	c #F9B40D",
"&w 	c #F4950E",
"*w 	c #F6940E",
"=w 	c #F59411",
"-w 	c #F6930E",
";w 	c #F89412",
">w 	c #F2990A",
",w 	c #FDC71C",
"'w 	c #FCC40F",
")w 	c #FCC709",
"!w 	c #FDC50C",
"~w 	c #FEC215",
"{w 	c #F9AC16",
"]w 	c #E9571E",
"^w 	c #E65A1B",
"/w 	c #EA591F",
"(w 	c #D35B2A",
"_w 	c #D49274",
":w 	c #F2F2F2",
"<w 	c #9F998E",
"[w 	c #A09B92",
"}w 	c #A19D95",
"|w 	c #9F988C",
"1w 	c #B6B3AD",
"2w 	c #ACACAC",
"3w 	c #E9B79C",
"4w 	c #ECAE8F",
"5w 	c #EDAF91",
"6w 	c #ECAD90",
"7w 	c #ECAD8F",
"8w 	c #E8A788",
"9w 	c #DF7045",
"0w 	c #F46917",
"aw 	c #F67318",
"bw 	c #F57417",
"cw 	c #F57416",
"dw 	c #F67418",
"ew 	c #F27317",
"fw 	c #EE7B22",
"gw 	c #C6762A",
"hw 	c #C3752A",
"iw 	c #CD7C31",
"jw 	c #CD7C32",
"kw 	c #CD7B32",
"lw 	c #CC7B32",
"mw 	c #CC7B33",
"nw 	c #CE7C31",
"ow 	c #C7782C",
"pw 	c #C6762B",
"qw 	c #CE7D31",
"rw 	c #C1812A",
"sw 	c #B56D48",
"tw 	c #976B5B",
"uw 	c #976C5B",
"vw 	c #976D5C",
"ww 	c #976D5D",
"xw 	c #976E5D",
"yw 	c #976E5E",
"zw 	c #986E5E",
"Aw 	c #986F5F",
"Bw 	c #986F60",
"Cw 	c #966D5D",
"Dw 	c #8D5E4B",
"Ew 	c #8D5643",
"Fw 	c #8C5541",
"Gw 	c #915532",
"Hw 	c #A76739",
"Iw 	c #D09534",
"Jw 	c #CE982F",
"Kw 	c #CF9930",
"Lw 	c #D09930",
"Mw 	c #D49421",
"Nw 	c #FEC914",
"Ow 	c #FDC806",
"Pw 	c #FFC805",
"Qw 	c #FFC905",
"Rw 	c #FDC30B",
"Sw 	c #F9B20E",
"Tw 	c #F5A90A",
"Uw 	c #F7AE0D",
"Vw 	c #F6AD0C",
"Ww 	c #F4A90A",
"Xw 	c #F7AF0D",
"Yw 	c #F4AA0A",
"Zw 	c #F4A80A",
"`w 	c #F5AA0B",
" x 	c #F6AB0F",
".x 	c #F49F0F",
"+x 	c #F38F15",
"@x 	c #F59016",
"#x 	c #F39015",
"$x 	c #F59116",
"%x 	c #F9841D",
"&x 	c #F87A1C",
"*x 	c #F57715",
"=x 	c #F67816",
"-x 	c #F9791C",
";x 	c #DC7954",
">x 	c #E6A587",
",x 	c #DD9D7F",
"'x 	c #DFAA90",
")x 	c #F3D7C9",
"!x 	c #E4E4E3",
"~x 	c #FDF5EA",
"{x 	c #EAAD8E",
"]x 	c #EBAC8E",
"^x 	c #ECAC8D",
"/x 	c #E6B094",
"(x 	c #FEEBDE",
"_x 	c #CC744E",
":x 	c #DC5D2D",
"<x 	c #DC5C27",
"[x 	c #DF5927",
"}x 	c #F05525",
"|x 	c #FA781D",
"1x 	c #FE901C",
"2x 	c #FE9014",
"3x 	c #FD9122",
"4x 	c #E0882E",
"5x 	c #9E5B24",
"6x 	c #915636",
"7x 	c #925534",
"8x 	c #925533",
"9x 	c #925433",
"0x 	c #925535",
"ax 	c #92563A",
"bx 	c #925532",
"cx 	c #91563C",
"dx 	c #925531",
"ex 	c #986A58",
"fx 	c #A88378",
"gx 	c #A38075",
"hx 	c #A37F70",
"ix 	c #A28274",
"jx 	c #A18073",
"kx 	c #A18173",
"lx 	c #A18174",
"mx 	c #A28174",
"nx 	c #A28172",
"ox 	c #A28173",
"px 	c #A58173",
"qx 	c #A47F6F",
"rx 	c #A98375",
"sx 	c #986C5C",
"tx 	c #8B5645",
"ux 	c #8E5849",
"vx 	c #915534",
"wx 	c #905528",
"xx 	c #91552A",
"yx 	c #91552B",
"zx 	c #905622",
"Ax 	c #925530",
"Bx 	c #905525",
"Cx 	c #905524",
"Dx 	c #8F5734",
"Ex 	c #90551E",
"Fx 	c #A66D1C",
"Gx 	c #F7C130",
"Hx 	c #FECA0B",
"Ix 	c #FEC70D",
"Jx 	c #FEC80E",
"Kx 	c #FEC70B",
"Lx 	c #FEC70E",
"Mx 	c #FEC607",
"Nx 	c #FEC508",
"Ox 	c #FEC30B",
"Px 	c #FEBF17",
"Qx 	c #EB7D0B",
"Rx 	c #E56409",
"Sx 	c #EA5E0F",
"Tx 	c #E85E0F",
"Ux 	c #E65B1D",
"Vx 	c #EA5A1D",
"Wx 	c #F15717",
"Xx 	c #E5AB93",
"Yx 	c #D7D5D5",
"Zx 	c #EDECEB",
"`x 	c #A4A2A1",
" y 	c #35322D",
".y 	c #FBE8D6",
"+y 	c #C96D49",
"@y 	c #DA5A2A",
"#y 	c #E65A22",
"$y 	c #DB5A29",
"%y 	c #C46641",
"&y 	c #3E3E3E",
"*y 	c #D47148",
"=y 	c #F79216",
"-y 	c #E0892E",
";y 	c #96542B",
">y 	c #8E5743",
",y 	c #905642",
"'y 	c #8E5541",
")y 	c #8D5739",
"!y 	c #9B705F",
"~y 	c #A38277",
"{y 	c #9F8176",
"]y 	c #9D7E73",
"^y 	c #A28277",
"/y 	c #A28275",
"(y 	c #A38177",
"_y 	c #A28177",
":y 	c #A08175",
"<y 	c #A28276",
"[y 	c #A38176",
"}y 	c #A68274",
"|y 	c #946858",
"1y 	c #915A46",
"2y 	c #8F5743",
"3y 	c #8F5844",
"4y 	c #905843",
"5y 	c #A56D1B",
"6y 	c #F7C031",
"7y 	c #FECB09",
"8y 	c #FCCB04",
"9y 	c #EB8708",
"0y 	c #FA5721",
"ay 	c #FC541A",
"by 	c #E35C2B",
"cy 	c #E6AD93",
"dy 	c #777572",
"ey 	c #D16D47",
"fy 	c #D2683C",
"gy 	c #FA5315",
"hy 	c #F85713",
"iy 	c #F95419",
"jy 	c #F9781C",
"ky 	c #FF8F1B",
"ly 	c #E1892D",
"my 	c #96542C",
"ny 	c #8A5945",
"oy 	c #8B5942",
"py 	c #8C583E",
"qy 	c #8C5840",
"ry 	c #8C5841",
"sy 	c #8B5843",
"ty 	c #996D5D",
"uy 	c #A58278",
"vy 	c #A58177",
"wy 	c #A48177",
"xy 	c #A18076",
"yy 	c #A28075",
"zy 	c #A48379",
"Ay 	c #A68177",
"By 	c #A58277",
"Cy 	c #A08176",
"Dy 	c #A28378",
"Ey 	c #A38379",
"Fy 	c #A98377",
"Gy 	c #996E5D",
"Hy 	c #8A5542",
"Iy 	c #8F573D",
"Jy 	c #915741",
"Ky 	c #905845",
"Ly 	c #8D5642",
"My 	c #8D5742",
"Ny 	c #8C5745",
"Oy 	c #905842",
"Py 	c #FEC017",
"Qy 	c #EB8608",
"Ry 	c #FB5520",
"Sy 	c #FD5420",
"Ty 	c #E35928",
"Uy 	c #E6AE93",
"Vy 	c #5D5A55",
"Wy 	c #1E1E1E",
"Xy 	c #EAD4C0",
"Yy 	c #D76D47",
"Zy 	c #F5541E",
"`y 	c #FEEDE1",
" z 	c #D77047",
".z 	c #ED5C10",
"+z 	c #F8931C",
"@z 	c #955532",
"#z 	c #8A5541",
"$z 	c #8C5742",
"%z 	c #8B5541",
"&z 	c #8D5641",
"*z 	c #905945",
"=z 	c #90563E",
"-z 	c #A58276",
";z 	c #A38275",
">z 	c #A48278",
",z 	c #A28076",
"'z 	c #9E7F74",
")z 	c #9E8075",
"!z 	c #A18177",
"~z 	c #A18074",
"{z 	c #A28278",
"]z 	c #A48072",
"^z 	c #946757",
"/z 	c #895644",
"(z 	c #905742",
"_z 	c #8F573F",
":z 	c #8B5440",
"<z 	c #8E5845",
"[z 	c #A66D26",
"}z 	c #FCCA06",
"|z 	c #FEC016",
"1z 	c #EB7C0B",
"2z 	c #EF5C12",
"3z 	c #FA571C",
"4z 	c #E05B2A",
"5z 	c #E1A78C",
"6z 	c #E6CFBB",
"7z 	c #D8714C",
"8z 	c #D66339",
"9z 	c #EFC2A9",
"0z 	c #FFEFE3",
"az 	c #D57148",
"bz 	c #F55918",
"cz 	c #E85F0B",
"dz 	c #FF8C20",
"ez 	c #F8921C",
"fz 	c #F79513",
"gz 	c #F69423",
"hz 	c #F59427",
"iz 	c #F7901F",
"jz 	c #F7931F",
"kz 	c #F49526",
"lz 	c #E18937",
"mz 	c #96552E",
"nz 	c #8E5641",
"oz 	c #8D5541",
"pz 	c #8E5642",
"qz 	c #8F5945",
"rz 	c #8A5743",
"sz 	c #895743",
"tz 	c #99705F",
"uz 	c #A58274",
"vz 	c #A28176",
"wz 	c #A38278",
"xz 	c #A4847A",
"yz 	c #A38175",
"zz 	c #A48175",
"Az 	c #A48274",
"Bz 	c #A78277",
"Cz 	c #A98478",
"Dz 	c #A38076",
"Ez 	c #A18275",
"Fz 	c #A88376",
"Gz 	c #956958",
"Hz 	c #865848",
"Iz 	c #8C5948",
"Jz 	c #875643",
"Kz 	c #895843",
"Lz 	c #F6C135",
"Mz 	c #FDC823",
"Nz 	c #FDC80F",
"Oz 	c #FDCC06",
"Pz 	c #FDC70D",
"Qz 	c #FCC920",
"Rz 	c #FDC822",
"Sz 	c #FDC80B",
"Tz 	c #FDC80E",
"Uz 	c #FEC80D",
"Vz 	c #EE8212",
"Wz 	c #F05C13",
"Xz 	c #F55620",
"Yz 	c #ED581F",
"Zz 	c #EA5823",
"`z 	c #EC561F",
" A 	c #EC551F",
".A 	c #EC571F",
"+A 	c #D75C2C",
"@A 	c #E1A88D",
"#A 	c #B6B7B7",
"$A 	c #D0D1D1",
"%A 	c #696A6A",
"&A 	c #D8D8D7",
"*A 	c #FAE2CE",
"=A 	c #CF704A",
"-A 	c #E85A26",
";A 	c #EF5919",
">A 	c #F15718",
",A 	c #E8561F",
"'A 	c #D2643A",
")A 	c #F6D5BF",
"!A 	c #6C6C6B",
"~A 	c #BFA591",
"{A 	c #D47248",
"]A 	c #F2561D",
"^A 	c #F36A16",
"/A 	c #F26914",
"(A 	c #F46716",
"_A 	c #F36816",
":A 	c #F26B14",
"<A 	c #EC6A0F",
"[A 	c #F89615",
"}A 	c #F99411",
"|A 	c #F7931A",
"1A 	c #EA8F2D",
"2A 	c #DB832B",
"3A 	c #D6802C",
"4A 	c #D5802C",
"5A 	c #D6802F",
"6A 	c #C6793F",
"7A 	c #9B623F",
"8A 	c #936451",
"9A 	c #966655",
"0A 	c #926352",
"aA 	c #936555",
"bA 	c #936454",
"cA 	c #946556",
"dA 	c #906453",
"eA 	c #8E604F",
"fA 	c #916454",
"gA 	c #8E6252",
"hA 	c #9E7768",
"iA 	c #A18276",
"jA 	c #A38276",
"kA 	c #A28175",
"lA 	c #A07F75",
"mA 	c #9D7665",
"nA 	c #9F7767",
"oA 	c #9F7667",
"pA 	c #9D7565",
"qA 	c #9E7667",
"rA 	c #A0786C",
"sA 	c #A68073",
"tA 	c #A58275",
"uA 	c #A38070",
"vA 	c #9A6F5F",
"wA 	c #8F6353",
"xA 	c #926555",
"yA 	c #906353",
"zA 	c #916453",
"AA 	c #92614E",
"BA 	c #8C5540",
"CA 	c #A26735",
"DA 	c #DBA530",
"EA 	c #DFAA29",
"FA 	c #DAA430",
"GA 	c #DFAB29",
"HA 	c #E0AC27",
"IA 	c #D49D2A",
"JA 	c #D39C2B",
"KA 	c #D09730",
"LA 	c #D0972F",
"MA 	c #D7A026",
"NA 	c #F5BF2A",
"OA 	c #FBCB0C",
"PA 	c #FDBF16",
"QA 	c #F6A30D",
"RA 	c #F6A013",
"SA 	c #F6A116",
"TA 	c #FBA11A",
"UA 	c #FCA21A",
"VA 	c #F7A216",
"WA 	c #F8A512",
"XA 	c #F8A118",
"YA 	c #F9A118",
"ZA 	c #FA9720",
"`A 	c #F16313",
" B 	c #F35B16",
".B 	c #E75E25",
"+B 	c #E18462",
"@B 	c #DC8563",
"#B 	c #DE8762",
"$B 	c #DA8663",
"%B 	c #DD8662",
"&B 	c #DC8561",
"*B 	c #D88662",
"=B 	c #DC8662",
"-B 	c #D68765",
";B 	c #F2D6C5",
">B 	c #5E5C59",
",B 	c #D2C5BF",
"'B 	c #EFCBB4",
")B 	c #F3CBB4",
"!B 	c #EECCB6",
"~B 	c #EECCB5",
"{B 	c #F2CFB8",
"]B 	c #F4CDB7",
"^B 	c #F4CCB5",
"/B 	c #EFCCB5",
"(B 	c #DA9070",
"_B 	c #E08B6A",
":B 	c #E38868",
"<B 	c #E18868",
"[B 	c #DE8A68",
"}B 	c #F6DECA",
"|B 	c #E8D1C3",
"1B 	c #D86F48",
"2B 	c #FD8E1E",
"3B 	c #F7941A",
"4B 	c #D57922",
"5B 	c #9A5114",
"6B 	c #97542A",
"7B 	c #97552B",
"8B 	c #98562A",
"9B 	c #965632",
"0B 	c #9A6246",
"aB 	c #A98071",
"bB 	c #A68272",
"cB 	c #A68173",
"dB 	c #A98273",
"eB 	c #A78272",
"fB 	c #AA8273",
"gB 	c #A78274",
"hB 	c #A88272",
"iB 	c #A78273",
"jB 	c #A88273",
"kB 	c #A98174",
"lB 	c #A68070",
"mB 	c #A68273",
"nB 	c #A58376",
"oB 	c #A18277",
"pB 	c #A18176",
"qB 	c #A17969",
"rB 	c #895B4A",
"sB 	c #875846",
"tB 	c #885745",
"uB 	c #8A5846",
"vB 	c #8E5645",
"wB 	c #875645",
"xB 	c #885A48",
"yB 	c #A17868",
"zB 	c #A58175",
"AB 	c #A48070",
"BB 	c #A68172",
"CB 	c #A48074",
"DB 	c #A58174",
"EB 	c #AA8172",
"FB 	c #8A5642",
"GB 	c #8C5943",
"HB 	c #8F5745",
"IB 	c #90563F",
"JB 	c #93552C",
"KB 	c #8F5424",
"LB 	c #8E552A",
"MB 	c #945530",
"NB 	c #90552B",
"OB 	c #5D1E09",
"PB 	c #5A1B05",
"QB 	c #5B1B04",
"RB 	c #5C1A02",
"SB 	c #612304",
"TB 	c #D9A532",
"UB 	c #FCC915",
"VB 	c #FDC70E",
"WB 	c #FBB513",
"XB 	c #E36B07",
"YB 	c #E7610E",
"ZB 	c #EB5B0D",
"`B 	c #EA5C0F",
" C 	c #E8600D",
".C 	c #E75F0B",
"+C 	c #E85F0D",
"@C 	c #F8761B",
"#C 	c #FD8B1D",
"$C 	c #F8751C",
"%C 	c #F9E2D0",
"&C 	c #D0CDC6",
"*C 	c #D5D6D5",
"=C 	c #D7D7D6",
"-C 	c #CFD0CF",
";C 	c #CFCECE",
">C 	c #CFCFCE",
",C 	c #CFD0D0",
"'C 	c #CFCFCF",
")C 	c #C86139",
"!C 	c #DE5A26",
"~C 	c #DE592C",
"{C 	c #E0592D",
"]C 	c #DD5C2B",
"^C 	c #DE5A2B",
"/C 	c #DA5C2A",
"(C 	c #D45F32",
"_C 	c #CD6E4A",
":C 	c #F6DBC5",
"<C 	c #E1D6C8",
"[C 	c #CEC9BE",
"}C 	c #CECCC4",
"|C 	c #CFCDCD",
"1C 	c #565656",
"2C 	c #C3AE9C",
"3C 	c #D86E47",
"4C 	c #F87C1C",
"5C 	c #F6941B",
"6C 	c #936353",
"7C 	c #A08074",
"8C 	c #A18175",
"9C 	c #A38274",
"0C 	c #A38378",
"aC 	c #A37E6E",
"bC 	c #8A5A47",
"cC 	c #8A5B49",
"dC 	c #A27969",
"eC 	c #A78173",
"fC 	c #A88171",
"gC 	c #9A705F",
"hC 	c #875745",
"iC 	c #5E2410",
"jC 	c #591F0A",
"kC 	c #571D06",
"lC 	c #5A200B",
"mC 	c #5A1F0B",
"nC 	c #5D2508",
"oC 	c #E6B136",
"pC 	c #FEC81A",
"qC 	c #FEC902",
"rC 	c #FECA03",
"sC 	c #FECA04",
"tC 	c #E46B08",
"uC 	c #F6551F",
"vC 	c #D46C46",
"wC 	c #F4E3D4",
"xC 	c #F75624",
"yC 	c #D1663C",
"zC 	c #F6E0CD",
"AC 	c #F5E8DB",
"BC 	c #D67047",
"CC 	c #FC9112",
"DC 	c #8E5745",
"EC 	c #A28379",
"FC 	c #8E5A46",
"GC 	c #8F5642",
"HC 	c #A68176",
"IC 	c #A78172",
"JC 	c #905643",
"KC 	c #5D240E",
"LC 	c #581D07",
"MC 	c #5B210C",
"NC 	c #FDC819",
"OC 	c #EB5D0F",
"PC 	c #F7791A",
"QC 	c #FD8E19",
"RC 	c #F75316",
"SC 	c #CF6A43",
"TC 	c #D8C4B1",
"UC 	c #FBEEE1",
"VC 	c #E95E0D",
"WC 	c #F5951E",
"XC 	c #A58379",
"YC 	c #8C5A48",
"ZC 	c #8F5740",
"`C 	c #8A5747",
" D 	c #581D08",
".D 	c #FCC815",
"+D 	c #F7791B",
"@D 	c #FB7C1D",
"#D 	c #E95821",
"$D 	c #D06A43",
"%D 	c #DCCAB7",
"&D 	c #070707",
"*D 	c #F05523",
"=D 	c #F8E1CD",
"-D 	c #353432",
";D 	c #2F2E2B",
">D 	c #D57048",
",D 	c #FA921A",
"'D 	c #F59422",
")D 	c #A68275",
"!D 	c #A48176",
"~D 	c #A37D6E",
"{D 	c #8A5B4B",
"]D 	c #8B5745",
"^D 	c #8B5845",
"/D 	c #8B5844",
"(D 	c #8F5643",
"_D 	c #8C5845",
":D 	c #885846",
"<D 	c #A57B6C",
"[D 	c #885949",
"}D 	c #8C5849",
"|D 	c #8D5747",
"1D 	c #5A1E0A",
"2D 	c #5D220E",
"3D 	c #5A200A",
"4D 	c #FBCA06",
"5D 	c #FBCB06",
"6D 	c #FCCA0B",
"7D 	c #FCC908",
"8D 	c #FEC710",
"9D 	c #FDC715",
"0D 	c #FCB61D",
"aD 	c #F55516",
"bD 	c #F6791A",
"cD 	c #FE8B21",
"dD 	c #F87F18",
"eD 	c #E65B19",
"fD 	c #EC591C",
"gD 	c #DE5A27",
"hD 	c #FEEFE0",
"iD 	c #001016",
"jD 	c #E9B296",
"kD 	c #DD5C2D",
"lD 	c #E95629",
"mD 	c #D0673E",
"nD 	c #F7D9C2",
"oD 	c #F6DAC9",
"pD 	c #F6D4C0",
"qD 	c #F6D0B9",
"rD 	c #F7D2BB",
"sD 	c #F9DAC5",
"tD 	c #F3C2A6",
"uD 	c #D96F45",
"vD 	c #E7640F",
"wD 	c #E46707",
"xD 	c #F88119",
"yD 	c #EB902E",
"zD 	c #E08834",
"AD 	c #E08833",
"BD 	c #E18C3C",
"CD 	c #C87B36",
"DD 	c #90583E",
"ED 	c #885A49",
"FD 	c #8C5D4C",
"GD 	c #895A4A",
"HD 	c #A98A7F",
"ID 	c #A9897E",
"JD 	c #A9897F",
"KD 	c #A88A7F",
"LD 	c #A4857A",
"MD 	c #A8897F",
"ND 	c #A5857B",
"OD 	c #A6877D",
"PD 	c #A4857B",
"QD 	c #A98A80",
"RD 	c #A48275",
"SD 	c #A1796A",
"TD 	c #A2796A",
"UD 	c #A57D6D",
"VD 	c #A67D6D",
"WD 	c #A57D6E",
"XD 	c #A37B6C",
"YD 	c #A57E6E",
"ZD 	c #A27A6B",
"`D 	c #926656",
" E 	c #916655",
".E 	c #906454",
"+E 	c #906352",
"@E 	c #926655",
"#E 	c #936757",
"$E 	c #A3796A",
"%E 	c #A67C6D",
"&E 	c #A67D6E",
"*E 	c #A37A6C",
"=E 	c #A57F6F",
"-E 	c #A48277",
";E 	c #9C7161",
">E 	c #8C5E4D",
",E 	c #8F6150",
"'E 	c #916150",
")E 	c #5B1F0B",
"!E 	c #5C1E0A",
"~E 	c #5D220D",
"{E 	c #591E0A",
"]E 	c #5D230A",
"^E 	c #CA952C",
"/E 	c #E3AE33",
"(E 	c #E4AF32",
"_E 	c #E3AF32",
":E 	c #F5C134",
"<E 	c #FECC0D",
"[E 	c #FFCA03",
"}E 	c #FDC310",
"|E 	c #F7B10D",
"1E 	c #FBAF18",
"2E 	c #FAAB17",
"3E 	c #FAA817",
"4E 	c #F8B019",
"5E 	c #F79D21",
"6E 	c #E9630D",
"7E 	c #EC620E",
"8E 	c #EC6710",
"9E 	c #FD8320",
"0E 	c #FB851E",
"aE 	c #E28132",
"bE 	c #D87249",
"cE 	c #D97047",
"dE 	c #D97248",
"eE 	c #D97249",
"fE 	c #D87148",
"gE 	c #D77248",
"hE 	c #D58664",
"iE 	c #FFF7ED",
"jE 	c #DAD4D1",
"kE 	c #D6B49D",
"lE 	c #D5AF98",
"mE 	c #D4AE96",
"nE 	c #E9C8B5",
"oE 	c #E4C0AB",
"pE 	c #EBA384",
"qE 	c #EF591B",
"rE 	c #E55B2C",
"sE 	c #D77249",
"tE 	c #D5744C",
"uE 	c #D27956",
"vE 	c #D36E47",
"wE 	c #D27E5D",
"xE 	c #F9E8D9",
"yE 	c #F9E2CF",
"zE 	c #D36639",
"AE 	c #D56639",
"BE 	c #D66437",
"CE 	c #D9622F",
"DE 	c #F17E2C",
"EE 	c #FE8B1D",
"FE 	c #FD8A1A",
"GE 	c #F6931D",
"HE 	c #C77427",
"IE 	c #995819",
"JE 	c #9B5A1B",
"KE 	c #A35B27",
"LE 	c #A15A29",
"ME 	c #9D5B2F",
"NE 	c #9B674F",
"OE 	c #A47E6F",
"PE 	c #A67E6E",
"QE 	c #A77D6E",
"RE 	c #A37E70",
"SE 	c #AF8E83",
"TE 	c #D3B3A5",
"UE 	c #D0B4A7",
"VE 	c #CEB4A7",
"WE 	c #D1B5A8",
"XE 	c #D1B4AA",
"YE 	c #D0B4A9",
"ZE 	c #D0B3A8",
"`E 	c #CFB3A8",
" F 	c #D0B3A7",
".F 	c #CFB4A9",
"+F 	c #D1B3A9",
"@F 	c #D4B4A8",
"#F 	c #B39083",
"$F 	c #875948",
"%F 	c #8A5C4A",
"&F 	c #8C5C4B",
"*F 	c #8C5C4A",
"=F 	c #895947",
"-F 	c #8B5B4A",
";F 	c #D5B0A2",
">F 	c #D8B3A6",
",F 	c #D6B3A6",
"'F 	c #D5B2A3",
")F 	c #D1B3A6",
"!F 	c #D1B2A6",
"~F 	c #D4B2A6",
"{F 	c #D3AFA1",
"]F 	c #996E5E",
"^F 	c #895A47",
"/F 	c #885B4A",
"(F 	c #9F7565",
"_F 	c #AB8477",
":F 	c #A27B6C",
"<F 	c #A47D6D",
"[F 	c #A27C6E",
"}F 	c #9F7464",
"|F 	c #5E240F",
"1F 	c #5D210D",
"2F 	c #5C210D",
"3F 	c #652409",
"4F 	c #652205",
"5F 	c #652206",
"6F 	c #672606",
"7F 	c #C28B24",
"8F 	c #FCC823",
"9F 	c #FEC90D",
"0F 	c #F6AB0D",
"aF 	c #E36D07",
"bF 	c #E66709",
"cF 	c #E66909",
"dF 	c #E46E07",
"eF 	c #EC6D18",
"fF 	c #FE8821",
"gF 	c #FE8723",
"hF 	c #E9610C",
"iF 	c #F15E12",
"jF 	c #E36019",
"kF 	c #E1916E",
"lF 	c #F8E8DF",
"mF 	c #C4B1A7",
"nF 	c #FEF1EA",
"oF 	c #FBEEE7",
"pF 	c #E7D9D0",
"qF 	c #AE978A",
"rF 	c #F2E2DB",
"sF 	c #987C6A",
"tF 	c #9A7F6D",
"uF 	c #FDF1E9",
"vF 	c #FCEFE8",
"wF 	c #FCF3ED",
"xF 	c #171717",
"yF 	c #807F7C",
"zF 	c #CC6840",
"AF 	c #D96234",
"BF 	c #D8673E",
"CF 	c #D5673D",
"DF 	c #D46538",
"EF 	c #E36234",
"FF 	c #F1581C",
"GF 	c #DA734A",
"HF 	c #F8E5D8",
"IF 	c #DFD0C7",
"JF 	c #987B69",
"KF 	c #92705E",
"LF 	c #F2E3DC",
"MF 	c #FFFAF4",
"NF 	c #F0590F",
"OF 	c #F69316",
"PF 	c #F7931D",
"QF 	c #C27126",
"RF 	c #8E583F",
"SF 	c #8E5841",
"TF 	c #8D5640",
"UF 	c #8D5745",
"VF 	c #956B5A",
"WF 	c #A28071",
"XF 	c #AC8C81",
"YF 	c #D2B7AD",
"ZF 	c #D2B8AD",
"`F 	c #D1B8AC",
" G 	c #D0B7AC",
".G 	c #D2B6AC",
"+G 	c #D1B6AC",
"@G 	c #D2B6AD",
"#G 	c #D2B7AC",
"$G 	c #D2B8AC",
"%G 	c #D3B7AF",
"&G 	c #D1B6AD",
"*G 	c #D6B8AD",
"=G 	c #B48B7C",
"-G 	c #855645",
";G 	c #8D5644",
">G 	c #8E5944",
",G 	c #966B5B",
"'G 	c #D7B5A7",
")G 	c #D3B6AA",
"!G 	c #D1B7AB",
"~G 	c #D2B8AB",
"{G 	c #D3B9AD",
"]G 	c #D4B8AB",
"^G 	c #D1B9AD",
"/G 	c #D1B8AE",
"(G 	c #D1B7AD",
"_G 	c #D5B7AB",
":G 	c #D7B4A6",
"<G 	c #8C5641",
"[G 	c #9E7E73",
"}G 	c #A48276",
"|G 	c #A08174",
"1G 	c #A48071",
"2G 	c #A47C6C",
"3G 	c #885744",
"4G 	c #5D1E08",
"5G 	c #581E08",
"6G 	c #581E07",
"7G 	c #591E09",
"8G 	c #5A1F0A",
"9G 	c #591A04",
"0G 	c #BF8825",
"aG 	c #FBC82A",
"bG 	c #F7A113",
"cG 	c #E85F0E",
"dG 	c #F67519",
"eG 	c #EE5810",
"fG 	c #E85727",
"gG 	c #E09878",
"hG 	c #CECBC5",
"iG 	c #7F7E7C",
"jG 	c #E35826",
"kG 	c #F75420",
"lG 	c #F75421",
"mG 	c #F1551D",
"nG 	c #EB591B",
"oG 	c #DB7B56",
"pG 	c #B2947F",
"qG 	c #F9E4D5",
"rG 	c #F85613",
"sG 	c #ED5E0F",
"tG 	c #F4951C",
"uG 	c #F6941C",
"vG 	c #C27027",
"wG 	c #8C553C",
"xG 	c #855746",
"yG 	c #875847",
"zG 	c #8A5746",
"AG 	c #976958",
"BG 	c #A58070",
"CG 	c #D0B8AE",
"DG 	c #CFB8AC",
"EG 	c #CFB5A9",
"FG 	c #CFB7AC",
"GG 	c #D0B8AC",
"HG 	c #D1B8AD",
"IG 	c #D1B7AE",
"JG 	c #D0B5AB",
"KG 	c #D5B8AC",
"LG 	c #B48C7C",
"MG 	c #905645",
"NG 	c #8D5846",
"OG 	c #D3B4A9",
"PG 	c #D2B7AE",
"QG 	c #D3B7AD",
"RG 	c #D0B8AF",
"SG 	c #D5B9B0",
"TG 	c #D6B5A8",
"UG 	c #895844",
"VG 	c #905641",
"WG 	c #A98276",
"XG 	c #9F7F73",
"YG 	c #A28273",
"ZG 	c #A27B6B",
"`G 	c #885845",
" H 	c #5D1E07",
".H 	c #611D03",
"+H 	c #5B200B",
"@H 	c #591F0B",
"#H 	c #5D1D06",
"$H 	c #FCC723",
"%H 	c #F9A51A",
"&H 	c #E85F13",
"*H 	c #ED5E12",
"=H 	c #8D8A83",
"-H 	c #E2A186",
";H 	c #DE7C58",
">H 	c #BCAC9B",
",H 	c #FB8519",
"'H 	c #F49415",
")H 	c #F79316",
"!H 	c #F39428",
"~H 	c #C17027",
"{H 	c #93542F",
"]H 	c #8C5741",
"^H 	c #8D5946",
"/H 	c #A78171",
"(H 	c #AF8E82",
"_H 	c #D6B9AF",
":H 	c #CFB8AD",
"<H 	c #CFB6AA",
"[H 	c #CFB7AB",
"}H 	c #D1B8AF",
"|H 	c #CFB5AA",
"1H 	c #D3B5A8",
"2H 	c #8A5949",
"3H 	c #91563E",
"4H 	c #956959",
"5H 	c #D5B5A9",
"6H 	c #D3B8B0",
"7H 	c #D7B5A9",
"8H 	c #9A7161",
"9H 	c #8B5746",
"0H 	c #A98376",
"aH 	c #9F8075",
"bH 	c #A08277",
"cH 	c #A18278",
"dH 	c #895A49",
"eH 	c #905640",
"fH 	c #8D5A44",
"gH 	c #5E220E",
"hH 	c #581A04",
"iH 	c #C28B21",
"jH 	c #FECC0E",
"kH 	c #FECA08",
"lH 	c #FAA716",
"mH 	c #E75F0C",
"nH 	c #FD871C",
"oH 	c #F89213",
"pH 	c #FD9321",
"qH 	c #EB5C10",
"rH 	c #DF987A",
"sH 	c #8D8B85",
"tH 	c #B1AFAC",
"uH 	c #DB7D59",
"vH 	c #BBA795",
"wH 	c #4E4E4F",
"xH 	c #D96231",
"yH 	c #FB8619",
"zH 	c #F8971A",
"AH 	c #F6921C",
"BH 	c #F39516",
"CH 	c #F09332",
"DH 	c #C17028",
"EH 	c #8D5540",
"FH 	c #8B5644",
"GH 	c #8A5B4A",
"HH 	c #946857",
"IH 	c #AF8E81",
"JH 	c #D1B5AB",
"KH 	c #D0B5AA",
"LH 	c #D3B8AC",
"MH 	c #D4B9AD",
"NH 	c #D3B7AB",
"OH 	c #DAB8AB",
"PH 	c #B38B7C",
"QH 	c #895949",
"RH 	c #8B5945",
"SH 	c #8F5A46",
"TH 	c #8A5843",
"UH 	c #D5B5AA",
"VH 	c #D4B8AD",
"WH 	c #D9B6A8",
"XH 	c #986D5D",
"YH 	c #AA8274",
"ZH 	c #A37F72",
"`H 	c #9E7F73",
" I 	c #905B47",
".I 	c #5B1E0A",
"+I 	c #F9A410",
"@I 	c #EE5F13",
"#I 	c #FD9322",
"$I 	c #EA5C0D",
"%I 	c #84817B",
"&I 	c #DE9D81",
"*I 	c #DC5C2F",
"=I 	c #F95523",
"-I 	c #F95623",
";I 	c #C6AD9D",
">I 	c #1C1D20",
",I 	c #F6921B",
"'I 	c #EA902E",
")I 	c #EB9034",
"!I 	c #EB902F",
"~I 	c #F09331",
"{I 	c #E68E3B",
"]I 	c #AE6E3E",
"^I 	c #8F583B",
"/I 	c #8C5947",
"(I 	c #91685A",
"_I 	c #A38477",
":I 	c #B29185",
"<I 	c #D3B7AC",
"[I 	c #D1B6AA",
"}I 	c #D7B4A5",
"|I 	c #D7B3A5",
"1I 	c #D5B1A3",
"2I 	c #D9B5A8",
"3I 	c #B28E80",
"4I 	c #895C4C",
"5I 	c #875A4A",
"6I 	c #8C5E4E",
"7I 	c #8C5F4F",
"8I 	c #8B5C4A",
"9I 	c #875B4A",
"0I 	c #D2B9AD",
"aI 	c #DAB9AB",
"bI 	c #9A7162",
"cI 	c #865847",
"dI 	c #8C5B46",
"eI 	c #9B7161",
"fI 	c #AA8071",
"gI 	c #A67F6F",
"hI 	c #A88071",
"iI 	c #A98275",
"jI 	c #A58172",
"kI 	c #9D7465",
"lI 	c #8A5C4C",
"mI 	c #895B4B",
"nI 	c #8D5F4E",
"oI 	c #895A48",
"pI 	c #8D5C4B",
"qI 	c #8D5842",
"rI 	c #5F230F",
"sI 	c #F25B14",
"tI 	c #EC5D10",
"uI 	c #FA861A",
"vI 	c #FD8C1F",
"wI 	c #FD8724",
"xI 	c #FC8C1B",
"yI 	c #FD8B1F",
"zI 	c #FD8823",
"AI 	c #EA5B15",
"BI 	c #E1A68C",
"CI 	c #C96945",
"DI 	c #D76A44",
"EI 	c #DA6942",
"FI 	c #DF663F",
"GI 	c #DF643C",
"HI 	c #DA643B",
"II 	c #DA653B",
"JI 	c #D86942",
"KI 	c #CD6843",
"LI 	c #CE8160",
"MI 	c #CABBAD",
"NI 	c #F8E6DE",
"OI 	c #F4942A",
"PI 	c #C2712B",
"QI 	c #A65616",
"RI 	c #A25C2A",
"SI 	c #9B5A30",
"TI 	c #A76C44",
"UI 	c #A37969",
"VI 	c #A27D6D",
"WI 	c #A47E6E",
"XI 	c #A47B6B",
"YI 	c #A27E71",
"ZI 	c #B29287",
"`I 	c #CCAFA4",
" J 	c #CEB3A8",
".J 	c #CEB2A8",
"+J 	c #CBADA1",
"@J 	c #D5B9AF",
"#J 	c #D2B6AB",
"$J 	c #D2B8AE",
"%J 	c #D4B5A9",
"&J 	c #A58176",
"*J 	c #8F6354",
"=J 	c #8B5F4F",
"-J 	c #B58E80",
";J 	c #D6B1A2",
">J 	c #CFAA9C",
",J 	c #CFAB9D",
"'J 	c #D5B1A2",
")J 	c #D1B0A2",
"!J 	c #D2B0A2",
"~J 	c #D3AEA0",
"{J 	c #D0B0A2",
"]J 	c #D1B1A3",
"^J 	c #D4B8AF",
"/J 	c #AD8677",
"(J 	c #A37D6D",
"_J 	c #A87E6F",
":J 	c #A37A6A",
"<J 	c #976C5C",
"[J 	c #8B5D4D",
"}J 	c #8A5D4D",
"|J 	c #8D5C4C",
"1J 	c #8B5D4E",
"2J 	c #A28072",
"3J 	c #A27C6C",
"4J 	c #8D5B49",
"5J 	c #F85814",
"6J 	c #FB8422",
"7J 	c #E9620C",
"8J 	c #EE610F",
"9J 	c #EF6110",
"0J 	c #F05F16",
"aJ 	c #EA610D",
"bJ 	c #F35B1A",
"cJ 	c #F8F2ED",
"dJ 	c #F5E3D1",
"eJ 	c #F4E3D0",
"fJ 	c #F7E5D2",
"gJ 	c #F3E0CC",
"hJ 	c #F3E0CD",
"iJ 	c #FAEBDC",
"jJ 	c #F4E1CD",
"kJ 	c #F8E6D3",
"lJ 	c #F4E2CF",
"mJ 	c #F9F0E8",
"nJ 	c #D96237",
"oJ 	c #FB851B",
"pJ 	c #F3952D",
"qJ 	c #B56B27",
"rJ 	c #96552D",
"sJ 	c #90563A",
"tJ 	c #8E5739",
"uJ 	c #9C7162",
"vJ 	c #B5978D",
"wJ 	c #D3B8AD",
"xJ 	c #D1B7AC",
"yJ 	c #CFB2A7",
"zJ 	c #D8B9AE",
"AJ 	c #A37A6B",
"BJ 	c #8E5844",
"CJ 	c #845543",
"DJ 	c #B38F80",
"EJ 	c #DBB9AC",
"FJ 	c #D6B6A9",
"GJ 	c #D4B8AC",
"HJ 	c #D8B8AD",
"IJ 	c #D5B9AD",
"JJ 	c #D3B8AF",
"KJ 	c #D5B7AD",
"LJ 	c #D4B7AD",
"MJ 	c #D4B7AE",
"NJ 	c #D3B7AE",
"OJ 	c #D5B7AC",
"PJ 	c #D4B7AA",
"QJ 	c #966A5A",
"RJ 	c #8E5747",
"SJ 	c #895847",
"TJ 	c #986D5C",
"UJ 	c #A38173",
"VJ 	c #A38073",
"WJ 	c #A37B6B",
"XJ 	c #885948",
"YJ 	c #5B1B06",
"ZJ 	c #F85815",
"`J 	c #FC9218",
" K 	c #F95515",
".K 	c #252627",
"+K 	c #676767",
"@K 	c #838384",
"#K 	c #17181A",
"$K 	c #F8E6E0",
"%K 	c #D96239",
"&K 	c #FE9113",
"*K 	c #F3952C",
"=K 	c #8A5944",
"-K 	c #9C7163",
";K 	c #A08075",
">K 	c #B4958A",
",K 	c #D3B6AD",
"'K 	c #D0B8AD",
")K 	c #D9B8AC",
"!K 	c #A47A6B",
"~K 	c #855643",
"{K 	c #D4B9B0",
"]K 	c #D2B8AF",
"^K 	c #D3B6AE",
"/K 	c #D2B7AF",
"(K 	c #AB8C81",
"_K 	c #865644",
":K 	c #8B5847",
"<K 	c #A18274",
"[K 	c #A27A6A",
"}K 	c #5C1B09",
"|K 	c #FD8C1E",
"1K 	c #F69314",
"2K 	c #FD541B",
"3K 	c #FB551D",
"4K 	c #797979",
"5K 	c #D8643A",
"6K 	c #B1682A",
"7K 	c #9F7566",
"8K 	c #A57A6B",
"9K 	c #8D5646",
"0K 	c #DAB8AA",
"aK 	c #905644",
"bK 	c #5C1C09",
"cK 	c #FECB0E",
"dK 	c #EE6811",
"eK 	c #EE571E",
"fK 	c #89857E",
"gK 	c #858687",
"hK 	c #F8E1CE",
"iK 	c #D9663A",
"jK 	c #AE652D",
"kK 	c #8F5644",
"lK 	c #8C5844",
"mK 	c #8B5946",
"nK 	c #9C7263",
"oK 	c #D4B6A8",
"pK 	c #D2B6AE",
"qK 	c #D8B8AC",
"rK 	c #D0B3A9",
"sK 	c #A98274",
"tK 	c #895948",
"uK 	c #5C1C0A",
"vK 	c #FECA10",
"wK 	c #FBCA03",
"xK 	c #FEC803",
"yK 	c #FDCA01",
"zK 	c #FBCB02",
"AK 	c #E6600A",
"BK 	c #F89215",
"CK 	c #FE8922",
"DK 	c #FFFFFC",
"EK 	c #F8F5F1",
"FK 	c #FCF0E9",
"GK 	c #FEF5EF",
"HK 	c #FDF1E5",
"IK 	c #FEF4ED",
"JK 	c #FDEFE3",
"KK 	c #F5C8AF",
"LK 	c #D76330",
"MK 	c #E7640B",
"NK 	c #F78723",
"OK 	c #F6932C",
"PK 	c #F2942B",
"QK 	c #F29224",
"RK 	c #EE912A",
"SK 	c #E8913D",
"TK 	c #B16936",
"UK 	c #8D563E",
"VK 	c #8D5840",
"WK 	c #895945",
"XK 	c #9C7467",
"YK 	c #A08177",
"ZK 	c #A18378",
"`K 	c #D4B6A9",
" L 	c #8B5A48",
".L 	c #B48D7F",
"+L 	c #DAB6A9",
"@L 	c #D4B4A7",
"#L 	c #D7B6AA",
"$L 	c #D1B7AF",
"%L 	c #D2B5AD",
"&L 	c #D2B5AC",
"*L 	c #D4B7AC",
"=L 	c #D4B5AA",
"-L 	c #AD8D81",
";L 	c #A68072",
">L 	c #A78070",
",L 	c #A77F6F",
"'L 	c #AA8171",
")L 	c #855745",
"!L 	c #8A5947",
"~L 	c #8B5A49",
"{L 	c #885946",
"]L 	c #A68476",
"^L 	c #5F2410",
"/L 	c #581C08",
"(L 	c #BC832E",
"_L 	c #F9C531",
":L 	c #FBC526",
"<L 	c #FAC62D",
"[L 	c #FBC62C",
"}L 	c #F7C32F",
"|L 	c #F7C328",
"1L 	c #F7A60E",
"2L 	c #E36907",
"3L 	c #F05D13",
"4L 	c #F25D14",
"5L 	c #EB5E11",
"6L 	c #FE8F24",
"7L 	c #FD8523",
"8L 	c #FDF0E6",
"9L 	c #FDF4ED",
"0L 	c #FDF4EE",
"aL 	c #FFF9F3",
"bL 	c #F6F6F5",
"cL 	c #F0E8E2",
"dL 	c #A19185",
"eL 	c #FEF6F1",
"fL 	c #FDF2EC",
"gL 	c #FEF5F0",
"hL 	c #D8CBC4",
"iL 	c #8F7869",
"jL 	c #AFA399",
"kL 	c #D5815F",
"lL 	c #D6805C",
"mL 	c #D8835F",
"nL 	c #DD8A68",
"oL 	c #DE8640",
"pL 	c #F27F25",
"qL 	c #F27F26",
"rL 	c #F98019",
"sL 	c #F38125",
"tL 	c #C37227",
"uL 	c #B06326",
"vL 	c #AF6324",
"wL 	c #A8683A",
"xL 	c #A76D48",
"yL 	c #A27159",
"zL 	c #A07566",
"AL 	c #A07567",
"BL 	c #A1786A",
"CL 	c #A0796C",
"DL 	c #B5968C",
"EL 	c #C4A89D",
"FL 	c #C5A89D",
"GL 	c #CEAFA3",
"HL 	c #D0B4AA",
"IL 	c #C4A69C",
"JL 	c #C2A196",
"KL 	c #C3A296",
"LL 	c #C4A194",
"ML 	c #C4A093",
"NL 	c #AF8778",
"OL 	c #9A7061",
"PL 	c #996E5F",
"QL 	c #9B6F60",
"RL 	c #9A6F60",
"SL 	c #A17B6C",
"TL 	c #AE8C7F",
"UL 	c #B09186",
"VL 	c #AD8F84",
"WL 	c #AB8C82",
"XL 	c #AA8A80",
"YL 	c #AC8D83",
"ZL 	c #AD8E84",
"`L 	c #B09085",
" M 	c #AF9085",
".M 	c #AD8B7F",
"+M 	c #B58D7E",
"@M 	c #8D5F4F",
"#M 	c #8F5C49",
"$M 	c #916350",
"%M 	c #8C5D4B",
"&M 	c #B48C7D",
"*M 	c #C8A496",
"=M 	c #C7A396",
"-M 	c #C5A69B",
";M 	c #C5A79C",
">M 	c #CDAEA1",
",M 	c #C7AA9F",
"'M 	c #BEA095",
")M 	c #A57C6D",
"!M 	c #864E3A",
"~M 	c #814935",
"{M 	c #804834",
"]M 	c #7B442F",
"^M 	c #844C38",
"/M 	c #652B17",
"(M 	c #7B3A0D",
"_M 	c #895116",
":M 	c #885016",
"<M 	c #C18A28",
"[M 	c #FDCA23",
"}M 	c #FEC905",
"|M 	c #F9B30E",
"1M 	c #F0890E",
"2M 	c #FA7D1D",
"3M 	c #FB7D1E",
"4M 	c #F88217",
"5M 	c #F87D18",
"6M 	c #EE6C12",
"7M 	c #ED6A14",
"8M 	c #F26214",
"9M 	c #DD6537",
"0M 	c #D87F59",
"aM 	c #D5805B",
"bM 	c #D68461",
"cM 	c #D27D59",
"dM 	c #D48360",
"eM 	c #DFA285",
"fM 	c #F2EADD",
"gM 	c #FCEDE5",
"hM 	c #D5815C",
"iM 	c #D6805B",
"jM 	c #D27C58",
"kM 	c #D27B57",
"lM 	c #D87E5B",
"mM 	c #D87F5D",
"nM 	c #CF7C59",
"oM 	c #F3D3BC",
"pM 	c #D95F2E",
"qM 	c #F35723",
"rM 	c #F35624",
"sM 	c #EA5919",
"tM 	c #F06316",
"uM 	c #EF9336",
"vM 	c #A45D1F",
"wM 	c #925431",
"xM 	c #91563A",
"yM 	c #915430",
"zM 	c #925432",
"AM 	c #8E573B",
"BM 	c #A68278",
"CM 	c #C0A398",
"DM 	c #D7B8AC",
"EM 	c #DBB7A8",
"FM 	c #B28A7B",
"GM 	c #845644",
"HM 	c #885844",
"IM 	c #8A5943",
"JM 	c #875744",
"KM 	c #C39D8F",
"LM 	c #D8B7A8",
"MM 	c #D5B6A9",
"NM 	c #D7B8AD",
"OM 	c #C8ABA0",
"PM 	c #662D1A",
"QM 	c #571D07",
"RM 	c #581D06",
"SM 	c #5A1E09",
"TM 	c #561C06",
"UM 	c #AB7321",
"VM 	c #FDC925",
"WM 	c #FDBC18",
"XM 	c #F99418",
"YM 	c #FF8E1F",
"ZM 	c #FF901C",
"`M 	c #F95613",
" N 	c #D9805E",
".N 	c #F3E8DA",
"+N 	c #D26337",
"@N 	c #ED5921",
"#N 	c #F2551F",
"$N 	c #D95E33",
"%N 	c #9A9A99",
"&N 	c #FB8918",
"*N 	c #F89319",
"=N 	c #EE9232",
"-N 	c #A55D29",
";N 	c #875845",
">N 	c #9D7364",
",N 	c #A68175",
"'N 	c #A78175",
")N 	c #D6BAB0",
"!N 	c #D4B9AE",
"~N 	c #D2B5AA",
"{N 	c #D9B8AA",
"]N 	c #956857",
"^N 	c #AB8172",
"/N 	c #A48273",
"(N 	c #A68277",
"_N 	c #A48174",
":N 	c #662C1A",
"<N 	c #FECB08",
"[N 	c #EB5A1B",
"}N 	c #DE7C57",
"|N 	c #F3E8DB",
"1N 	c #DB6434",
"2N 	c #EFC6AE",
"3N 	c #EF9332",
"4N 	c #8F5841",
"5N 	c #905A46",
"6N 	c #A07969",
"7N 	c #A38172",
"8N 	c #D5B9AE",
"9N 	c #D5B8AF",
"0N 	c #D3B7AA",
"aN 	c #A27F71",
"bN 	c #A48378",
"cN 	c #AA8377",
"dN 	c #A88276",
"eN 	c #875644",
"fN 	c #BE9B8D",
"gN 	c #5B200C",
"hN 	c #591D08",
"iN 	c #FDBB0A",
"jN 	c #F4970A",
"kN 	c #EB5922",
"lN 	c #DA6439",
"mN 	c #E9C0A7",
"nN 	c #EE922D",
"oN 	c #8A5A4A",
"pN 	c #A07A6A",
"qN 	c #D4B8AA",
"rN 	c #A77F70",
"sN 	c #A78276",
"tN 	c #A58378",
"uN 	c #A4837A",
"vN 	c #855544",
"wN 	c #C19C8E",
"xN 	c #D8B7AA",
"yN 	c #A38072",
"zN 	c #8D5542",
"AN 	c #682F1C",
"BN 	c #591F09",
"CN 	c #5F220F",
"DN 	c #571D08",
"EN 	c #F4990C",
"FN 	c #FD9117",
"GN 	c #F85715",
"HN 	c #EF5816",
"IN 	c #E65A29",
"JN 	c #D67A56",
"KN 	c #FAF1E6",
"LN 	c #5A5A5A",
"MN 	c #FBE9E1",
"NN 	c #D95F33",
"ON 	c #5E5F5F",
"PN 	c #F15919",
"QN 	c #FD8920",
"RN 	c #F89217",
"SN 	c #F79215",
"TN 	c #A45C2A",
"UN 	c #D4BAAE",
"VN 	c #B48E80",
"WN 	c #835544",
"XN 	c #885847",
"YN 	c #AA8375",
"ZN 	c #A78275",
"`N 	c #A78377",
" O 	c #A68276",
".O 	c #A98171",
"+O 	c #8D6150",
"@O 	c #865645",
"#O 	c #885644",
"$O 	c #83513F",
"%O 	c #BF9B8D",
"&O 	c #DAB9AD",
"*O 	c #8B5C4B",
"=O 	c #8F5944",
"-O 	c #8E5643",
";O 	c #69301C",
">O 	c #581E09",
",O 	c #5D200C",
"'O 	c #FDC924",
")O 	c #E55927",
"!O 	c #E65828",
"~O 	c #E6592D",
"{O 	c #E4592E",
"]O 	c #E55828",
"^O 	c #E45A2A",
"/O 	c #E65720",
"(O 	c #EF5815",
"_O 	c #FCECDC",
":O 	c #CDC6B8",
"<O 	c #C3BCAE",
"[O 	c #C4BBAD",
"}O 	c #C1BAAE",
"|O 	c #FADFCE",
"1O 	c #DC6337",
"2O 	c #DF5A2C",
"3O 	c #E6592B",
"4O 	c #DE5924",
"5O 	c #C95F36",
"6O 	c #ECC2A8",
"7O 	c #F06315",
"8O 	c #A45C29",
"9O 	c #A17767",
"0O 	c #C4A69B",
"aO 	c #B79488",
"bO 	c #B79487",
"cO 	c #B49082",
"dO 	c #B79183",
"eO 	c #976C5D",
"fO 	c #95695A",
"gO 	c #966A5B",
"hO 	c #946859",
"iO 	c #976857",
"jO 	c #936655",
"kO 	c #B28A7C",
"lO 	c #B99385",
"mO 	c #CDAC9F",
"nO 	c #D4B8AE",
"oO 	c #997264",
"pO 	c #9B7060",
"qO 	c #9C7362",
"rO 	c #9A7261",
"sO 	c #9B7160",
"tO 	c #8E5B49",
"uO 	c #7F4733",
"vO 	c #78412D",
"wO 	c #784330",
"xO 	c #79422F",
"yO 	c #7C432E",
"zO 	c #682F1B",
"AO 	c #FDCA24",
"BO 	c #E45D31",
"CO 	c #E9A381",
"DO 	c #E6B59B",
"EO 	c #E4AC90",
"FO 	c #E9BBA2",
"GO 	c #ECAA8A",
"HO 	c #E47548",
"IO 	c #FB531E",
"JO 	c #E16B3B",
"KO 	c #E49372",
"LO 	c #DE9170",
"MO 	c #E49473",
"NO 	c #E69A7A",
"OO 	c #E79F80",
"PO 	c #E48C69",
"QO 	c #E45B2C",
"RO 	c #EE5919",
"SO 	c #E3592C",
"TO 	c #E69E7E",
"UO 	c #E5B297",
"VO 	c #EBC4AD",
"WO 	c #E1A688",
"XO 	c #E8B79E",
"YO 	c #E9C3AD",
"ZO 	c #FCF3EA",
"`O 	c #DF5E32",
" P 	c #885A4B",
".P 	c #D3B9AE",
"+P 	c #D6BAAF",
"@P 	c #DCB9AB",
"#P 	c #C09A8B",
"$P 	c #865846",
"%P 	c #8B5B48",
"&P 	c #8C5744",
"*P 	c #8B5540",
"=P 	c #885743",
"-P 	c #C8A294",
";P 	c #D9B7A8",
">P 	c #D5B8AD",
",P 	c #D9B9AC",
"'P 	c #D4B7AB",
")P 	c #8F5D4A",
"!P 	c #8E5842",
"~P 	c #905741",
"{P 	c #733A26",
"]P 	c #F3980B",
"^P 	c #FC881C",
"/P 	c #F25626",
"(P 	c #D7653D",
"_P 	c #F1D2BE",
":P 	c #636465",
"<P 	c #FAE8D9",
"[P 	c #DA8664",
"}P 	c #EE591F",
"|P 	c #E35927",
"1P 	c #DB5F35",
"2P 	c #F5D5BE",
"3P 	c #A7A8A9",
"4P 	c #D6D6D7",
"5P 	c #323335",
"6P 	c #C0C0C0",
"7P 	c #E1AC90",
"8P 	c #FD8A24",
"9P 	c #9F7868",
"0P 	c #DAB7A8",
"aP 	c #C29C8D",
"bP 	c #8F5842",
"cP 	c #C7A192",
"dP 	c #D5B6A8",
"eP 	c #A58071",
"fP 	c #8D5E4A",
"gP 	c #571E08",
"hP 	c #FCBB0B",
"iP 	c #F4980A",
"jP 	c #FA8918",
"kP 	c #DD643A",
"lP 	c #EAD2BD",
"mP 	c #F3EEE6",
"nP 	c #FC5417",
"oP 	c #FE8923",
"pP 	c #A07665",
"qP 	c #D2B8B0",
"rP 	c #8B5D4B",
"sP 	c #915844",
"tP 	c #F4950F",
"uP 	c #FA8818",
"vP 	c #B3AC9F",
"wP 	c #D98969",
"xP 	c #E85A2E",
"yP 	c #F16316",
"zP 	c #EE9337",
"AP 	c #8E5646",
"BP 	c #895746",
"CP 	c #F3980C",
"DP 	c #FC8D19",
"EP 	c #EAD1BB",
"FP 	c #B5B1A7",
"GP 	c #CC7B58",
"HP 	c #E25824",
"IP 	c #F7D8C1",
"JP 	c #242322",
"KP 	c #23201C",
"LP 	c #231E1A",
"MP 	c #231F1B",
"NP 	c #7E7C77",
"OP 	c #EEBCA3",
"PP 	c #DE5B29",
"QP 	c #EC5D13",
"RP 	c #EC650F",
"SP 	c #FB9222",
"TP 	c #F59520",
"UP 	c #F49529",
"VP 	c #E89344",
"WP 	c #9F6036",
"XP 	c #9F7969",
"YP 	c #D4B6AA",
"ZP 	c #D9B8AD",
"`P 	c #D5B7AA",
" Q 	c #D6B7AD",
".Q 	c #BC9689",
"+Q 	c #835543",
"@Q 	c #895643",
"#Q 	c #C5A396",
"$Q 	c #F6C233",
"%Q 	c #FDC712",
"&Q 	c #FDC814",
"*Q 	c #FCC926",
"=Q 	c #FCC927",
"-Q 	c #F8B619",
";Q 	c #F2960B",
">Q 	c #F8900F",
",Q 	c #F05C12",
"'Q 	c #DD643B",
")Q 	c #E2B89E",
"!Q 	c #B5B0A7",
"~Q 	c #D78C6B",
"{Q 	c #D45C2E",
"]Q 	c #E45925",
"^Q 	c #EB5528",
"/Q 	c #E25925",
"(Q 	c #EB5629",
"_Q 	c #CD6740",
":Q 	c #F7D7C0",
"<Q 	c #3B3A38",
"[Q 	c #F9DECD",
"}Q 	c #EAB79C",
"|Q 	c #E9B096",
"1Q 	c #EAB49B",
"2Q 	c #EAB59B",
"3Q 	c #EBB397",
"4Q 	c #EA9771",
"5Q 	c #EB7627",
"6Q 	c #F37513",
"7Q 	c #F57515",
"8Q 	c #F7711A",
"9Q 	c #F67317",
"0Q 	c #EB711C",
"aQ 	c #CD7929",
"bQ 	c #C68027",
"cQ 	c #CC782A",
"dQ 	c #CB7C28",
"eQ 	c #BE7D3B",
"fQ 	c #A16B4C",
"gQ 	c #956754",
"hQ 	c #956856",
"iQ 	c #946958",
"jQ 	c #B18E80",
"kQ 	c #B7978B",
"lQ 	c #B8988D",
"mQ 	c #B8998D",
"nQ 	c #B8998E",
"oQ 	c #B99B90",
"pQ 	c #C8A99D",
"qQ 	c #D6B7AB",
"rQ 	c #D2AFA2",
"sQ 	c #B48C7E",
"tQ 	c #B89588",
"uQ 	c #B79283",
"vQ 	c #B79182",
"wQ 	c #B99484",
"xQ 	c #B99182",
"yQ 	c #B89182",
"zQ 	c #B99183",
"AQ 	c #B59182",
"BQ 	c #CFB3A9",
"CQ 	c #CAAA9D",
"DQ 	c #AD8577",
"EQ 	c #A68174",
"FQ 	c #AB8273",
"GQ 	c #AA8173",
"HQ 	c #AE8779",
"IQ 	c #CCAC9F",
"JQ 	c #C9AA9E",
"KQ 	c #B89A90",
"LQ 	c #B79589",
"MQ 	c #B6968A",
"NQ 	c #B4968B",
"OQ 	c #581D09",
"PQ 	c #8C4E21",
"QQ 	c #C08529",
"RQ 	c #C0852A",
"SQ 	c #C48C29",
"TQ 	c #F6B225",
"UQ 	c #F6AB0A",
"VQ 	c #F8AE0B",
"WQ 	c #F8AE0D",
"XQ 	c #F6A20E",
"YQ 	c #D96539",
"ZQ 	c #EFD5CA",
"`Q 	c #D99172",
" R 	c #E6A385",
".R 	c #DE9374",
"+R 	c #E09576",
"@R 	c #DF9576",
"#R 	c #E09779",
"$R 	c #E29F82",
"%R 	c #E09678",
"&R 	c #E19779",
"*R 	c #DF9374",
"=R 	c #DB9C7E",
"-R 	c #FFF8EF",
";R 	c #2B2319",
">R 	c #E9AE91",
",R 	c #D55D30",
"'R 	c #E35A2D",
")R 	c #E3572B",
"!R 	c #E25A2A",
"~R 	c #DE5928",
"{R 	c #E85F21",
"]R 	c #FD8D25",
"^R 	c #FD911B",
"/R 	c #FE8C1A",
"(R 	c #FD8E20",
"_R 	c #E98E2B",
":R 	c #9B5323",
"<R 	c #915633",
"[R 	c #925633",
"}R 	c #915428",
"|R 	c #915429",
"1R 	c #8E563C",
"2R 	c #A47C6D",
"3R 	c #CBA597",
"4R 	c #835444",
"5R 	c #825442",
"6R 	c #875544",
"7R 	c #885544",
"8R 	c #865543",
"9R 	c #865A4A",
"0R 	c #CCB1A6",
"aR 	c #D5BAAF",
"bR 	c #D8BAAF",
"cR 	c #D9BAAF",
"dR 	c #DBBBAF",
"eR 	c #D9B9AD",
"fR 	c #D8B9AF",
"gR 	c #DABAAE",
"hR 	c #D8B9AD",
"iR 	c #D4B8B0",
"jR 	c #CEB1A7",
"kR 	c #A48479",
"lR 	c #8C5440",
"mR 	c #581C09",
"nR 	c #561A05",
"oR 	c #5B1C06",
"pR 	c #561B08",
"qR 	c #904E1A",
"rR 	c #F9C533",
"sR 	c #FEC311",
"tR 	c #FEC60E",
"uR 	c #FEC312",
"vR 	c #FCB41B",
"wR 	c #EB640D",
"xR 	c #D86538",
"yR 	c #E2B79D",
"zR 	c #A8AAAA",
"AR 	c #00040C",
"BR 	c #EEEFF0",
"CR 	c #D6D7D7",
"DR 	c #6C6F70",
"ER 	c #AEAFB0",
"FR 	c #56595B",
"GR 	c #484C4D",
"HR 	c #B9B8B7",
"IR 	c #E7AA8F",
"JR 	c #E15A26",
"KR 	c #EF6812",
"LR 	c #FA9120",
"MR 	c #F79211",
"NR 	c #F5931E",
"OR 	c #E98E2A",
"PR 	c #99572E",
"QR 	c #8D5647",
"RR 	c #8F5F4D",
"SR 	c #A37E71",
"TR 	c #9F8175",
"UR 	c #A08073",
"VR 	c #C8AA9F",
"WR 	c #C7A294",
"XR 	c #8B5747",
"YR 	c #8E5644",
"ZR 	c #8D5544",
"`R 	c #8C5642",
" S 	c #895D4E",
".S 	c #CAADA2",
"+S 	c #D3B8AE",
"@S 	c #CDB1A6",
"#S 	c #5E230F",
"$S 	c #8E4E18",
"%S 	c #F9C433",
"&S 	c #FDC809",
"*S 	c #FCCC05",
"=S 	c #F05914",
"-S 	c #D86437",
";S 	c #EBD4C0",
">S 	c #CACAC9",
",S 	c #E05A1E",
"'S 	c #FA541A",
")S 	c #F25715",
"!S 	c #EF6711",
"~S 	c #F9901E",
"{S 	c #FB9014",
"]S 	c #E88E2E",
"^S 	c #9B592A",
"/S 	c #8D573E",
"(S 	c #8C5C49",
"_S 	c #A0796B",
":S 	c #CBA699",
"<S 	c #865746",
"[S 	c #CAACA1",
"}S 	c #D3B6AB",
"|S 	c #D4B7AF",
"1S 	c #D0B7AD",
"2S 	c #CFB4AA",
"3S 	c #591E08",
"4S 	c #581F08",
"5S 	c #5A1E07",
"6S 	c #5C1F09",
"7S 	c #5A1E08",
"8S 	c #8E4E19",
"9S 	c #FDC804",
"0S 	c #E8660B",
"aS 	c #D86537",
"bS 	c #E8CAB4",
"cS 	c #35322C",
"dS 	c #E8AE93",
"eS 	c #F06813",
"fS 	c #F8931E",
"gS 	c #9F5C26",
"hS 	c #8C5B4A",
"iS 	c #A37C6E",
"jS 	c #D3B7A9",
"kS 	c #CBA698",
"lS 	c #8C5846",
"mS 	c #895B49",
"nS 	c #CAADA1",
"oS 	c #D0B6AC",
"pS 	c #CCB0A5",
"qS 	c #905744",
"rS 	c #E7660A",
"sS 	c #F5551F",
"tS 	c #D76538",
"uS 	c #EBD4BF",
"vS 	c #DCDBDB",
"wS 	c #E9B59C",
"xS 	c #FE9013",
"yS 	c #98572D",
"zS 	c #8B5C4C",
"AS 	c #D6B6A8",
"BS 	c #C29F92",
"CS 	c #845545",
"DS 	c #8B5D4C",
"ES 	c #8A5644",
"FS 	c #8D5944",
"GS 	c #8B5642",
"HS 	c #895541",
"IS 	c #875949",
"JS 	c #D6B7AA",
"KS 	c #D6B7A9",
"LS 	c #D7B7AB",
"MS 	c #D6B8AE",
"NS 	c #8D5743",
"OS 	c #EE5917",
"PS 	c #D7653C",
"QS 	c #3A3835",
"RS 	c #EDB197",
"SS 	c #E35A29",
"TS 	c #C9A395",
"US 	c #C9A394",
"VS 	c #CAA394",
"WS 	c #BB9486",
"XS 	c #966C5C",
"YS 	c #9C7160",
"ZS 	c #8D6050",
"`S 	c #BC988B",
" T 	c #CAA395",
".T 	c #BFA095",
"+T 	c #A48076",
"@T 	c #8E6150",
"#T 	c #8C5A45",
"$T 	c #F8BA2D",
"%T 	c #FBB80E",
"&T 	c #FCBB13",
"*T 	c #FBB50E",
"=T 	c #F89E18",
"-T 	c #E46C08",
";T 	c #D7663D",
">T 	c #E3BDA4",
",T 	c #ECD5C9",
"'T 	c #E4B99F",
")T 	c #DDA78C",
"!T 	c #E9B59D",
"~T 	c #E8B49D",
"{T 	c #EBBEA8",
"]T 	c #929292",
"^T 	c #3B3835",
"/T 	c #CFB8AE",
"(T 	c #D2B9AE",
"_T 	c #B7988C",
":T 	c #865948",
"<T 	c #9A7163",
"[T 	c #DBB7AA",
"}T 	c #D8B4A5",
"|T 	c #D9B4A6",
"1T 	c #D2AEA0",
"2T 	c #A88577",
"3T 	c #A47F70",
"4T 	c #8E6152",
"5T 	c #875A49",
"6T 	c #BC9C91",
"7T 	c #AA8275",
"8T 	c #A78075",
"9T 	c #A67E6F",
"0T 	c #936756",
"aT 	c #5C1F0B",
"bT 	c #8D440D",
"cT 	c #ED9823",
"dT 	c #F09909",
"eT 	c #F09808",
"fT 	c #F99016",
"gT 	c #CF744D",
"hT 	c #E95E33",
"iT 	c #E36132",
"jT 	c #DD5E2F",
"kT 	c #CA643D",
"lT 	c #EFCFB8",
"mT 	c #D1D0D0",
"nT 	c #ECB198",
"oT 	c #BF998B",
"pT 	c #8B5848",
"qT 	c #885848",
"rT 	c #966E60",
"sT 	c #DBB8AA",
"tT 	c #D5B5A8",
"uT 	c #D8B8AB",
"vT 	c #D2B3A7",
"wT 	c #A88172",
"xT 	c #8D5D4A",
"yT 	c #BE998C",
"zT 	c #9F7F74",
"AT 	c #8D5A46",
"BT 	c #5B1F0A",
"CT 	c #5F1D05",
"DT 	c #8D410A",
"ET 	c #F0932B",
"FT 	c #F59412",
"GT 	c #FA9013",
"HT 	c #ED610F",
"IT 	c #F75715",
"JT 	c #D4CFC4",
"KT 	c #D2724C",
"LT 	c #ED5823",
"MT 	c #D85E2E",
"NT 	c #E9BAA0",
"OT 	c #D0B7AE",
"PT 	c #D1B6AB",
"QT 	c #BF9789",
"RT 	c #986F61",
"ST 	c #D6B8AB",
"TT 	c #A5877C",
"UT 	c #A68071",
"VT 	c #905D49",
"WT 	c #BF9889",
"XT 	c #611E04",
"YT 	c #FC871B",
"ZT 	c #EF6310",
"`T 	c #DB6740",
" U 	c #E4BEA6",
".U 	c #D4CEC3",
"+U 	c #DD754D",
"@U 	c #E05928",
"#U 	c #B0B0AF",
"$U 	c #ECB199",
"%U 	c #865745",
"&U 	c #8F5641",
"*U 	c #9A7367",
"=U 	c #A5867B",
"-U 	c #935F4C",
";U 	c #8D5943",
">U 	c #EC630F",
",U 	c #F45415",
"'U 	c #F2541E",
")U 	c #D96841",
"!U 	c #D2CBBD",
"~U 	c #DC774D",
"{U 	c #D95E32",
"]U 	c #31302C",
"^U 	c #EDB299",
"/U 	c #D7BAB0",
"(U 	c #845645",
"_U 	c #8B5742",
":U 	c #977265",
"<U 	c #8E6050",
"[U 	c #D0B6AB",
"}U 	c #A38074",
"|U 	c #8D4109",
"1U 	c #EA620D",
"2U 	c #DB6943",
"3U 	c #E3BEA6",
"4U 	c #D2CABC",
"5U 	c #DA7B56",
"6U 	c #F05725",
"7U 	c #D46239",
"8U 	c #E9BFA7",
"9U 	c #9A9B9A",
"0U 	c #8A8988",
"aU 	c #ECB299",
"bU 	c #D0B7AB",
"cU 	c #CEB1A6",
"dU 	c #CBAEA3",
"eU 	c #C9ADA3",
"fU 	c #CBAEA4",
"gU 	c #D4B0A2",
"hU 	c #BB9586",
"iU 	c #8C6151",
"jU 	c #8F6251",
"kU 	c #916455",
"lU 	c #916555",
"mU 	c #9D786C",
"nU 	c #D1B5AA",
"oU 	c #A6867B",
"pU 	c #A6857B",
"qU 	c #A9867A",
"rU 	c #AA8476",
"sU 	c #8C5D4D",
"tU 	c #8B5E4E",
"uU 	c #8A5D4B",
"vU 	c #D3AFA0",
"wU 	c #D0AFA3",
"xU 	c #CDAEA4",
"yU 	c #CBADA5",
"zU 	c #CBAEA5",
"AU 	c #CEB3AA",
"BU 	c #A78071",
"CU 	c #EE6210",
"DU 	c #DE6134",
"EU 	c #F4C9AE",
"FU 	c #F8E4D2",
"GU 	c #F8E4D3",
"HU 	c #F7E2CF",
"IU 	c #F7E1CD",
"JU 	c #F7E1CC",
"KU 	c #FDF6ED",
"LU 	c #A3A09E",
"MU 	c #F8E8DB",
"NU 	c #F8E6D6",
"OU 	c #F7E2D0",
"PU 	c #FAEAE0",
"QU 	c #BBBCBB",
"RU 	c #D99A7E",
"SU 	c #D8764F",
"TU 	c #D56B40",
"UU 	c #D56B3F",
"VU 	c #CA7857",
"WU 	c #F6E3D4",
"XU 	c #868687",
"YU 	c #7B7B79",
"ZU 	c #F36716",
"`U 	c #F89116",
" V 	c #AA8678",
".V 	c #8C5F4E",
"+V 	c #A87F70",
"@V 	c #D8B5A7",
"#V 	c #D3B4A7",
"$V 	c #D5B6AB",
"%V 	c #D0B5AC",
"&V 	c #A9867B",
"*V 	c #A57F70",
"=V 	c #A78174",
"-V 	c #925D49",
";V 	c #B38F81",
">V 	c #D6B9AD",
",V 	c #A28073",
"'V 	c #E16138",
")V 	c #DE6138",
"!V 	c #D86336",
"~V 	c #D7663A",
"{V 	c #DA663E",
"]V 	c #D9663F",
"^V 	c #D9663E",
"/V 	c #D66637",
"(V 	c #C76944",
"_V 	c #E0AD91",
":V 	c #000004",
"<V 	c #F4E5D6",
"[V 	c #C56B48",
"}V 	c #DF623A",
"|V 	c #C77451",
"1V 	c #F9F1E4",
"2V 	c #B6AFA5",
"3V 	c #EBE3D7",
"4V 	c #ECE9E7",
"5V 	c #ECEAE8",
"6V 	c #ECE8E5",
"7V 	c #EBE5DB",
"8V 	c #ECECEB",
"9V 	c #5F5F5D",
"0V 	c #F89118",
"aV 	c #AB8475",
"bV 	c #8B5641",
"cV 	c #A87F6F",
"dV 	c #D6B7AC",
"eV 	c #A8887E",
"fV 	c #A18075",
"gV 	c #966A59",
"hV 	c #845544",
"iV 	c #B18D7F",
"jV 	c #DC5A27",
"kV 	c #E2A889",
"lV 	c #1B1D1F",
"mV 	c #F0DECB",
"nV 	c #D05E34",
"oV 	c #F05626",
"pV 	c #CF6B44",
"qV 	c #D1B39D",
"rV 	c #AE8475",
"sV 	c #D7B7A9",
"tV 	c #363839",
"uV 	c #EBC5AC",
"vV 	c #DA5F2E",
"wV 	c #F65513",
"xV 	c #F15724",
"yV 	c #CC6A43",
"zV 	c #E2A586",
"AV 	c #EBC7AF",
"BV 	c #F25425",
"CV 	c #CF6A42",
"DV 	c #D7B6A8",
"EV 	c #A48173",
"FV 	c #D3B6A9",
"GV 	c #CFB6AB",
"HV 	c #8E5640",
"IV 	c #E6592A",
"JV 	c #E2A485",
"KV 	c #BEBFBF",
"LV 	c #8D8E8E",
"MV 	c #E8BDA3",
"NV 	c #DF6036",
"OV 	c #F15619",
"PV 	c #F15526",
"QV 	c #D56B43",
"RV 	c #EDB39C",
"SV 	c #AE8476",
"TV 	c #A38174",
"UV 	c #926756",
"VV 	c #DAB5A8",
"WV 	c #D3B2A4",
"XV 	c #D2B2A5",
"YV 	c #D1B1A2",
"ZV 	c #D4B3A5",
"`V 	c #D1B2A4",
" W 	c #D2B2A4",
".W 	c #D5B1A4",
"+W 	c #D8B7AC",
"@W 	c #D4B9AF",
"#W 	c #E65827",
"$W 	c #EA9E7D",
"%W 	c #FAE2D1",
"&W 	c #B29480",
"*W 	c #B39885",
"=W 	c #B2937F",
"-W 	c #B49B88",
";W 	c #FDEBE0",
">W 	c #FEEEE3",
",W 	c #D16941",
"'W 	c #D75D2E",
")W 	c #DD6436",
"!W 	c #DB643A",
"~W 	c #C97653",
"{W 	c #3B3A39",
"]W 	c #EDB39D",
"^W 	c #B69081",
"/W 	c #CEB1A5",
"(W 	c #996D5E",
"_W 	c #926657",
":W 	c #BB9A8E",
"<W 	c #915641",
"[W 	c #EE551D",
"}W 	c #E06940",
"|W 	c #D27650",
"1W 	c #D37650",
"2W 	c #D07650",
"3W 	c #D1764F",
"4W 	c #D37850",
"5W 	c #D47650",
"6W 	c #D3784F",
"7W 	c #CA704A",
"8W 	c #DE9372",
"9W 	c #EEC7B0",
"0W 	c #F8E2D5",
"aW 	c #C19A84",
"bW 	c #F6DBCE",
"cW 	c #DFC3B3",
"dW 	c #DFD0C6",
"eW 	c #DDDDDD",
"fW 	c #EDB39E",
"gW 	c #B68F81",
"hW 	c #D8B7A9",
"iW 	c #C0A094",
"jW 	c #EC5620",
"kW 	c #F15821",
"lW 	c #DB815F",
"mW 	c #8A5543",
"nW 	c #D1B7AA",
"oW 	c #C39D90",
"pW 	c #FA9014",
"qW 	c #F7531A",
"rW 	c #D77D59",
"sW 	c #AD8475",
"tW 	c #8A5545",
"uW 	c #9F8074",
"vW 	c #D7B9AF",
"wW 	c #D3AE9F",
"xW 	c #8D604F",
"yW 	c #8B5542",
"zW 	c #C39E90",
"AW 	c #D3B5AA",
"BW 	c #F3E8DC",
"CW 	c #AB8474",
"DW 	c #A8897E",
"EW 	c #895642",
"FW 	c #C39D8E",
"GW 	c #D6B6AA",
"HW 	c #F1E3D1",
"IW 	c #A58375",
"JW 	c #845646",
"KW 	c #885A4A",
"LW 	c #835545",
"MW 	c #A77E6F",
"NW 	c #DBB8AB",
"OW 	c #D6B9AE",
"PW 	c #D4B6AB",
"QW 	c #AE8F85",
"RW 	c #DAB7A9",
"SW 	c #DBB8A9",
"TW 	c #865544",
"UW 	c #855543",
"VW 	c #885643",
"WW 	c #DCBAAD",
"XW 	c #DBB9AD",
"YW 	c #EB5921",
"ZW 	c #D35C2E",
"`W 	c #D8602F",
" X 	c #D65C2D",
".X 	c #D8602E",
"+X 	c #D96130",
"@X 	c #D9612F",
"#X 	c #DB602E",
"$X 	c #DD5D2D",
"%X 	c #D9612E",
"&X 	c #DC5E2D",
"*X 	c #DE5F31",
"=X 	c #D26339",
"-X 	c #D98564",
";X 	c #F3ECE6",
">X 	c #C7A99E",
",X 	c #BE9C8F",
"'X 	c #C9A495",
")X 	c #BB9385",
"!X 	c #996F60",
"~X 	c #A0786A",
"{X 	c #9E7668",
"]X 	c #A07869",
"^X 	c #9D7668",
"/X 	c #B29085",
"(X 	c #AF8E84",
"_X 	c #AE8F84",
":X 	c #AF9086",
"<X 	c #A0786B",
"[X 	c #C0998A",
"}X 	c #C49E90",
"|X 	c #AA8374",
"1X 	c #9B7366",
"2X 	c #9A7366",
"3X 	c #9B7162",
"4X 	c #997366",
"5X 	c #BC9889",
"6X 	c #D6B8AC",
"7X 	c #906354",
"8X 	c #936250",
"9X 	c #8E5C47",
"0X 	c #E65928",
"aX 	c #E9A789",
"bX 	c #F0D8C8",
"cX 	c #F4DDD7",
"dX 	c #F4DED7",
"eX 	c #F2DCD6",
"fX 	c #F4DFD8",
"gX 	c #CAAEA6",
"hX 	c #8A5741",
"iX 	c #8E6552",
"jX 	c #936C5A",
"kX 	c #BFA69C",
"lX 	c #8C5C47",
"mX 	c #BB9C93",
"nX 	c #DCB8A9",
"oX 	c #895848",
"pX 	c #89594A",
"qX 	c #895742",
"rX 	c #C9AA9C",
"sX 	c #8C6050",
"tX 	c #D4AFA1",
"uX 	c #D3B4A8",
"vX 	c #D2B7AA",
"wX 	c #855747",
"xX 	c #AF8B7E",
"yX 	c #CAB0A6",
"zX 	c #8A5D4C",
"AX 	c #DA5E2F",
"BX 	c #F1BFA5",
"CX 	c #A5A5A5",
"DX 	c #A7A6A6",
"EX 	c #ECB29B",
"FX 	c #8C5848",
"GX 	c #8E5C4B",
"HX 	c #8C604F",
"IX 	c #D0B8AB",
"JX 	c #CBB0A6",
"KX 	c #8C5F4D",
"LX 	c #DF5B2C",
"MX 	c #141310",
"NX 	c #383633",
"OX 	c #8A5948",
"PX 	c #916554",
"QX 	c #A98172",
"RX 	c #CBAA9D",
"SX 	c #8E5D49",
"TX 	c #D7B6A7",
"UX 	c #D9B7A9",
"VX 	c #90563D",
"WX 	c #DF5B2D",
"XX 	c #EDC3AD",
"YX 	c #151412",
"ZX 	c #FC9116",
"`X 	c #A68379",
" Y 	c #D0AC9E",
".Y 	c #8F614F",
"+Y 	c #DAB6A7",
"@Y 	c #D4B6AE",
"#Y 	c #D9B7AA",
"$Y 	c #885642",
"%Y 	c #CCB0A6",
"&Y 	c #636261",
"*Y 	c #FA5617",
"=Y 	c #99562B",
"-Y 	c #A37C6F",
";Y 	c #B8988C",
">Y 	c #895846",
",Y 	c #AB8274",
"'Y 	c #A88275",
")Y 	c #DAB6A8",
"!Y 	c #DAB8AC",
"~Y 	c #885442",
"{Y 	c #AA8A7F",
"]Y 	c #CBAFA4",
"^Y 	c #A88274",
"/Y 	c #8E5A47",
"(Y 	c #FE8724",
"_Y 	c #E85C2A",
":Y 	c #E7582C",
"<Y 	c #E65B29",
"[Y 	c #E85A2A",
"}Y 	c #CE643E",
"|Y 	c #F0C8B4",
"1Y 	c #797978",
"2Y 	c #EF6811",
"3Y 	c #A27C6F",
"4Y 	c #AB8A7E",
"5Y 	c #B18F83",
"6Y 	c #AE8576",
"7Y 	c #946959",
"8Y 	c #956A59",
"9Y 	c #966B5A",
"0Y 	c #B38C7D",
"aY 	c #B28D7F",
"bY 	c #C8A699",
"cY 	c #B6988D",
"dY 	c #B7988D",
"eY 	c #8A5742",
"fY 	c #8C5640",
"gY 	c #CCAFA3",
"hY 	c #B99A8E",
"iY 	c #BC9C90",
"jY 	c #7C4430",
"kY 	c #6D3622",
"lY 	c #753C28",
"mY 	c #733B27",
"nY 	c #6E3622",
"oY 	c #713924",
"pY 	c #682F1A",
"qY 	c #5D1F0B",
"rY 	c #FD8725",
"sY 	c #E86132",
"tY 	c #E8A384",
"uY 	c #E1A084",
"vY 	c #E0A085",
"wY 	c #E09F84",
"xY 	c #E8B89E",
"yY 	c #FEF8F1",
"zY 	c #878785",
"AY 	c #ECB197",
"BY 	c #D5B7AE",
"CY 	c #DDB9AC",
"DY 	c #8B5842",
"EY 	c #C0998B",
"FY 	c #D7B9AE",
"GY 	c #9F8076",
"HY 	c #A17F75",
"IY 	c #8F5846",
"JY 	c #B28C7E",
"KY 	c #C6A89E",
"LY 	c #A48077",
"MY 	c #A47B6C",
"NY 	c #682E1B",
"OY 	c #5E210D",
"PY 	c #601F06",
"QY 	c #F4922C",
"RY 	c #FD881F",
"SY 	c #D96537",
"TY 	c #E7C1AA",
"UY 	c #848585",
"VY 	c #858585",
"WY 	c #9A9998",
"XY 	c #ECB097",
"YY 	c #E15825",
"ZY 	c #F26714",
"`Y 	c #FA9019",
" Z 	c #A37C70",
".Z 	c #D6B9B0",
"+Z 	c #D0B6AD",
"@Z 	c #D9B6A7",
"#Z 	c #CAA597",
"$Z 	c #865642",
"%Z 	c #8F573E",
"&Z 	c #D2B6AA",
"*Z 	c #AA8B80",
"=Z 	c #9E7F75",
"-Z 	c #B1897B",
";Z 	c #5B1E09",
">Z 	c #F5922F",
",Z 	c #EF5817",
"'Z 	c #DB643B",
")Z 	c #E7CAB3",
"!Z 	c #F16814",
"~Z 	c #F99317",
"{Z 	c #915842",
"]Z 	c #9E8074",
"^Z 	c #CAA596",
"/Z 	c #855542",
"(Z 	c #915843",
"_Z 	c #8B5948",
":Z 	c #BD9B8E",
"<Z 	c #D3B9AF",
"[Z 	c #D1B8B0",
"}Z 	c #C9ACA2",
"|Z 	c #A68375",
"1Z 	c #5F1F08",
"2Z 	c #5E1E07",
"3Z 	c #F09229",
"4Z 	c #FC9110",
"5Z 	c #FC881B",
"6Z 	c #DB663F",
"7Z 	c #2D2A23",
"8Z 	c #EAAE93",
"9Z 	c #F35C15",
"0Z 	c #FB8F16",
"aZ 	c #C8AAA0",
"bZ 	c #BC9B8F",
"cZ 	c #8E563F",
"dZ 	c #AC8D82",
"eZ 	c #8D5545",
"fZ 	c #8E5544",
"gZ 	c #8D5543",
"hZ 	c #8C5543",
"iZ 	c #B48D7E",
"jZ 	c #5C200C",
"kZ 	c #5E230E",
"lZ 	c #5D1D04",
"mZ 	c #F1942D",
"nZ 	c #DC653D",
"oZ 	c #E6B199",
"pZ 	c #D95A2B",
"qZ 	c #E85A1E",
"rZ 	c #E85C19",
"sZ 	c #EB5820",
"tZ 	c #E66219",
"uZ 	c #E98F2F",
"vZ 	c #9B592B",
"wZ 	c #91553A",
"xZ 	c #935639",
"yZ 	c #A77E70",
"zZ 	c #A58073",
"AZ 	c #C6A79B",
"BZ 	c #CAA496",
"CZ 	c #8A5643",
"DZ 	c #BB9C91",
"EZ 	c #915B4C",
"FZ 	c #906250",
"GZ 	c #D3B5A9",
"HZ 	c #AA8376",
"IZ 	c #875746",
"JZ 	c #885746",
"KZ 	c #5C1C03",
"LZ 	c #5F200A",
"MZ 	c #5F200B",
"NZ 	c #611D02",
"OZ 	c #611E03",
"PZ 	c #8C4109",
"QZ 	c #F2922D",
"RZ 	c #3B3B3A",
"SZ 	c #F2D3C3",
"TZ 	c #D69B82",
"UZ 	c #DA9476",
"VZ 	c #DC9173",
"WZ 	c #DD9375",
"XZ 	c #DC9072",
"YZ 	c #DE8460",
"ZZ 	c #EB762C",
"`Z 	c #F67D21",
" ` 	c #BF6E28",
".` 	c #BC6C29",
"+` 	c #B36926",
"@` 	c #B36F37",
"#` 	c #A46E50",
"$` 	c #9C6F60",
"%` 	c #A17666",
"&` 	c #A07666",
"*` 	c #9E7364",
"=` 	c #BE998B",
"-` 	c #C6A598",
";` 	c #C5A598",
">` 	c #C5A699",
",` 	c #A17A6B",
"'` 	c #A17A6C",
")` 	c #A17869",
"!` 	c #A27B6D",
"~` 	c #946250",
"{` 	c #B89486",
"]` 	c #C29B8C",
"^` 	c #C19A8B",
"/` 	c #BD9789",
"(` 	c #9D7263",
"_` 	c #9D7262",
":` 	c #9B776B",
"<` 	c #A27869",
"[` 	c #A47D6E",
"}` 	c #5B1E0B",
"|` 	c #793408",
"1` 	c #964E18",
"2` 	c #934B15",
"3` 	c #964D18",
"4` 	c #B45F22",
"5` 	c #EF7925",
"6` 	c #F9741B",
"7` 	c #F8741C",
"8` 	c #F9741C",
"9` 	c #F05E14",
"0` 	c #F45515",
"a` 	c #090908",
"b` 	c #CECDCC",
"c` 	c #281300",
"d` 	c #F6F4F3",
"e` 	c #382F26",
"f` 	c #F0EDEA",
"g` 	c #F3CFB7",
"h` 	c #E45A1F",
"i` 	c #EF5A18",
"j` 	c #ED6612",
"k` 	c #FB8B27",
"l` 	c #F2942C",
"m` 	c #F49423",
"n` 	c #F49421",
"o` 	c #F2941F",
"p` 	c #E89343",
"q` 	c #A45D2A",
"r` 	c #A07F74",
"s` 	c #BE9D91",
"t` 	c #DAB9AC",
"u` 	c #D0AC9F",
"v` 	c #BD9B8D",
"w` 	c #DCB9AC",
"x` 	c #D5B8AE",
"y` 	c #8F5541",
"z` 	c #5C1C04",
"A` 	c #A95E21",
"B` 	c #F2953A",
"C` 	c #F39439",
"D` 	c #F1852F",
"E` 	c #E76209",
"F` 	c #EF5911",
"G` 	c #F55415",
"H` 	c #DB663E",
"I` 	c #BD9B8C",
"J` 	c #A37B6D",
"K` 	c #AA5F22",
"L` 	c #F49639",
"M` 	c #F99415",
"N` 	c #FA8318",
"O` 	c #DC643A",
"P` 	c #EBD3BE",
"Q` 	c #6D6D6E",
"R` 	c #EEC1A8",
"S` 	c #E25D2C",
"T` 	c #D2B4A8",
"U` 	c #591D09",
"V` 	c #666667",
"W` 	c #EDC0A7",
"X` 	c #FA821C",
"Y` 	c #EE5D14",
"Z` 	c #E9CDB7",
"`` 	c #9F7968",
"  .	c #CCAEA4",
". .	c #895946",
"+ .	c #8B5743",
"@ .	c #8C5946",
"# .	c #621D02",
"$ .	c #601D04",
"% .	c #5B1D07",
"& .	c #5F1E06",
"* .	c #5F1C02",
"= .	c #F5963A",
"- .	c #FE8C23",
"; .	c #EF5C17",
"> .	c #F15525",
", .	c #EC5625",
"' .	c #F05526",
") .	c #FB5717",
"! .	c #B9988B",
"~ .	c #CAAB9F",
"{ .	c #CBACA0",
"] .	c #C9ABA0",
"^ .	c #CBAFA3",
"/ .	c #CEB1A8",
"( .	c #9A7265",
"_ .	c #976D5F",
": .	c #987165",
"< .	c #9A6F61",
"[ .	c #966C5E",
"} .	c #BC9D92",
"| .	c #CAAA9C",
"1 .	c #9D786A",
"2 .	c #A07868",
"3 .	c #6C311B",
"4 .	c #814111",
"5 .	c #814211",
"6 .	c #824211",
"7 .	c #7F3B0A",
"8 .	c #B96222",
"9 .	c #F48932",
"0 .	c #FA7D1C",
"a .	c #F9831B",
"b .	c #F35B18",
"c .	c #DE805B",
"d .	c #D7825F",
"e .	c #DB8360",
"f .	c #DA835F",
"g .	c #D48969",
"h .	c #FEF7F0",
"i .	c #D7B8AE",
"j .	c #D5B6AA",
"k .	c #C3A293",
"l .	c #5A1C06",
"m .	c #AD662E",
"n .	c #F29640",
"o .	c #F4963B",
"p .	c #F29036",
"q .	c #F2963C",
"r .	c #F49740",
"s .	c #F27D25",
"t .	c #E85D0B",
"u .	c #EF5C11",
"v .	c #ED5C0F",
"w .	c #E07346",
"x .	c #FAE9DB",
"y .	c #F0EEEB",
"z .	c #D6D5D5",
"A .	c #D7D5D2",
"B .	c #D7D4CC",
"C .	c #CBCBCB",
"D .	c #B5968B",
"E .	c #D9B8AB",
"F .	c #C3A092",
"G .	c #8A5A49",
"H .	c #5D1C06",
"I .	c #BD6C29",
"J .	c #F3952E",
"K .	c #FA921B",
"L .	c #FC911D",
"M .	c #FA8E20",
"N .	c #F77A1B",
"O .	c #D7744F",
"P .	c #E7DEDA",
"Q .	c #855847",
"R .	c #8F5748",
"S .	c #905944",
"T .	c #611B00",
"U .	c #BB6C28",
"V .	c #F3942C",
"W .	c #D7734E",
"X .	c #917D73",
"Y .	c #141719",
"Z .	c #E8BAA0",
"` .	c #8F5640",
" ..	c #A58479",
"...	c #B19288",
"+..	c #C9A496",
"@..	c #F49424",
"#..	c #F67D17",
"$..	c #FBF2ED",
"%..	c #38393A",
"&..	c #EBC0A8",
"*..	c #591B04",
"=..	c #F5921D",
"-..	c #444546",
";..	c #EBC1A8",
">..	c #F46316",
",..	c #8B5846",
"'..	c #A77D6D",
")..	c #D0B1A5",
"!..	c #D1B4A9",
"~..	c #D1B3A8",
"{..	c #D1B4A8",
"]..	c #D2B4A9",
"^..	c #CFB0A3",
"/..	c #CEB0A3",
"(..	c #CFB2A5",
"_..	c #D5B2A4",
":..	c #BB9688",
"<..	c #8A533F",
"[..	c #874F3B",
"}..	c #874E3A",
"|..	c #642A16",
"1..	c #F99219",
"2..	c #F15711",
"3..	c #FB571C",
"4..	c #E05D2F",
"5..	c #F16416",
"6..	c #915F4C",
"7..	c #A38377",
"8..	c #A3857A",
"9..	c #A08076",
"0..	c #A38479",
"a..	c #A3847A",
"b..	c #A4867B",
"c..	c #A28479",
"d..	c #A78578",
"e..	c #642B16",
"f..	c #5C210C",
"g..	c #5E250F",
"h..	c #5E2510",
"i..	c #5F2611",
"j..	c #59200A",
"k..	c #581B04",
"l..	c #FAECDF",
"m..	c #EF581E",
"n..	c #EF9330",
"o..	c #5F2610",
"p..	c #5F1B03",
"q..	c #BE6D29",
"r..	c #F6921E",
"s..	c #F67B19",
"t..	c #EF922F",
"u..	c #D1B5A9",
"v..	c #5F2510",
"w..	c #BF6E2A",
"x..	c #FAECDD",
"y..	c #F26113",
"z..	c #612713",
"A..	c #601B02",
"B..	c #D9724C",
"C..	c #F16415",
"D..	c #D2B5A9",
"E..	c #D1B2A8",
"F..	c #A5857A",
"G..	c #672C19",
"H..	c #5F1B01",
"I..	c #EED3BD",
"J..	c #CE6840",
"K..	c #D56536",
"L..	c #D96036",
"M..	c #DA6B3A",
"N..	c #FD8825",
"O..	c #F1902D",
"P..	c #AA5F27",
"Q..	c #955631",
"R..	c #9B572C",
"S..	c #9C582B",
"T..	c #9C582C",
"U..	c #945631",
"V..	c #8F5738",
"W..	c #A27E70",
"X..	c #A37E6F",
"Y..	c #A68076",
"Z..	c #A17F72",
"`..	c #A58072",
" +.	c #A17F74",
".+.	c #602611",
"++.	c #652304",
"@+.	c #642002",
"#+.	c #652102",
"$+.	c #672303",
"%+.	c #662202",
"&+.	c #C16D2A",
"*+.	c #FC8A26",
"=+.	c #EA5A26",
"-+.	c #E05F33",
";+.	c #D96136",
">+.	c #CC7F60",
",+.	c #FBF4EF",
"'+.	c #6E6E6E",
")+.	c #FAF5F0",
"!+.	c #F7E7DA",
"~+.	c #F4E2D0",
"{+.	c #F3E2D1",
"]+.	c #F3E2D2",
"^+.	c #EBB99E",
"/+.	c #DD682D",
"(+.	c #EC6310",
"_+.	c #F16116",
":+.	c #F16117",
"<+.	c #EE6C16",
"[+.	c #E5832C",
"}+.	c #E18A30",
"|+.	c #E78D2D",
"1+.	c #E98E2D",
"2+.	c #E28A30",
"3+.	c #D98940",
"4+.	c #B36F3B",
"5+.	c #8B5941",
"6+.	c #915E4A",
"7+.	c #906252",
"8+.	c #8E5D48",
"9+.	c #905D4A",
"0+.	c #91604E",
"a+.	c #946B5D",
"b+.	c #A7887E",
"c+.	c #A7897E",
"d+.	c #A6887D",
"e+.	c #A8897C",
"f+.	c #A7887C",
"g+.	c #A7877B",
"h+.	c #A8887B",
"i+.	c #A8897D",
"j+.	c #A8887C",
"k+.	c #A8887D",
"l+.	c #A7887D",
"m+.	c #A68171",
"n+.	c #925F4D",
"o+.	c #8E5E4A",
"p+.	c #905E4A",
"q+.	c #8F5F4E",
"r+.	c #8F5A45",
"s+.	c #854E39",
"t+.	c #622814",
"u+.	c #622A17",
"v+.	c #602713",
"w+.	c #632A18",
"x+.	c #632915",
"y+.	c #632002",
"z+.	c #C4762F",
"A+.	c #DA8639",
"B+.	c #DB852D",
"C+.	c #D7822F",
"D+.	c #DE872E",
"E+.	c #D67B2E",
"F+.	c #E97525",
"G+.	c #F36617",
"H+.	c #DD7F5C",
"I+.	c #F2D3BC",
"J+.	c #F4E4D6",
"K+.	c #F6E8DC",
"L+.	c #FBFBFB",
"M+.	c #888889",
"N+.	c #515253",
"O+.	c #F8E6DD",
"P+.	c #D76231",
"Q+.	c #F1591B",
"R+.	c #E76409",
"S+.	c #F48828",
"T+.	c #F4952C",
"U+.	c #F59526",
"V+.	c #F59527",
"W+.	c #ED923A",
"X+.	c #AE6624",
"Y+.	c #91553B",
"Z+.	c #895741",
"`+.	c #8A5844",
" @.	c #936959",
".@.	c #905B46",
"+@.	c #89513D",
"@@.	c #D38742",
"#@.	c #F39637",
"$@.	c #F29427",
"%@.	c #FC9425",
"&@.	c #F88F28",
"*@.	c #FC9025",
"=@.	c #F2731C",
"-@.	c #EC5A10",
";@.	c #DB8866",
">@.	c #CDC6BB",
",@.	c #F8E8E2",
"'@.	c #DD6639",
")@.	c #E85E0C",
"!@.	c #FB881E",
"~@.	c #F79518",
"{@.	c #B26A25",
"]@.	c #915539",
"^@.	c #8C573E",
"/@.	c #915640",
"(@.	c #8F5847",
"_@.	c #A08276",
":@.	c #A48073",
"<@.	c #8B5643",
"[@.	c #5D2008",
"}@.	c #F59413",
"|@.	c #F98F1A",
"1@.	c #D78764",
"2@.	c #FC881E",
"3@.	c #FC931D",
"4@.	c #F89617",
"5@.	c #F3942B",
"6@.	c #8E5748",
"7@.	c #905847",
"8@.	c #956A5A",
"9@.	c #A28077",
"0@.	c #A08275",
"a@.	c #916352",
"b@.	c #905946",
"c@.	c #88503C",
"d@.	c #D07D31",
"e@.	c #F7941B",
"f@.	c #F58F0E",
"g@.	c #F9910F",
"h@.	c #F17312",
"i@.	c #EF5B11",
"j@.	c #F9571A",
"k@.	c #B3A899",
"l@.	c #D7C4BC",
"m@.	c #B36A26",
"n@.	c #955534",
"o@.	c #8D583F",
"p@.	c #8D583C",
"q@.	c #A38376",
"r@.	c #A48377",
"s@.	c #A77E6E",
"t@.	c #8F6352",
"u@.	c #8D5845",
"v@.	c #8C5945",
"w@.	c #642003",
"x@.	c #FF8D1D",
"y@.	c #F57118",
"z@.	c #FE531C",
"A@.	c #D78765",
"B@.	c #B2A292",
"C@.	c #FA5413",
"D@.	c #F5941F",
"E@.	c #B36924",
"F@.	c #9A5427",
"G@.	c #96572C",
"H@.	c #94552E",
"I@.	c #93542E",
"J@.	c #97572C",
"K@.	c #A57F71",
"L@.	c #A78477",
"M@.	c #A07F73",
"N@.	c #936654",
"O@.	c #854D39",
"P@.	c #581C06",
"Q@.	c #5A1B06",
"R@.	c #5E1B02",
"S@.	c #5A1B04",
"T@.	c #6B2603",
"U@.	c #CD7A30",
"V@.	c #FC912B",
"W@.	c #FF8C22",
"X@.	c #FF8B21",
"Y@.	c #B2A393",
"Z@.	c #D86231",
"`@.	c #F79817",
" #.	c #DA8127",
".#.	c #D78234",
"+#.	c #D27E2C",
"@#.	c #D07E2E",
"##.	c #AE6C3A",
"$#.	c #936858",
"%#.	c #936857",
"&#.	c #A07E71",
"*#.	c #8E5A45",
"=#.	c #864F3B",
"-#.	c #68301B",
";#.	c #672F1B",
">#.	c #601D03",
",#.	c #BA6B2A",
"'#.	c #C67329",
")#.	c #C77428",
"!#.	c #C67326",
"~#.	c #C57328",
"{#.	c #C97329",
"]#.	c #EA7626",
"^#.	c #F06B14",
"/#.	c #DA8662",
"(#.	c #BCA596",
"_#.	c #D76331",
":#.	c #FA9411",
"<#.	c #F59521",
"[#.	c #F3952F",
"}#.	c #F19430",
"|#.	c #C27028",
"1#.	c #895C4B",
"2#.	c #A28074",
"3#.	c #905746",
"4#.	c #844D3A",
"5#.	c #611F05",
"6#.	c #601C03",
"7#.	c #E2882C",
"8#.	c #F4952B",
"9#.	c #F59525",
"0#.	c #F59524",
"a#.	c #F49427",
"b#.	c #FB9227",
"c#.	c #EF6A12",
"d#.	c #F15A12",
"e#.	c #DB8765",
"f#.	c #FFF5ED",
"g#.	c #F8E7E0",
"h#.	c #D96339",
"i#.	c #F49220",
"j#.	c #8F5840",
"k#.	c #A17E73",
"l#.	c #854E3A",
"m#.	c #611E05",
"n#.	c #611C01",
"o#.	c #E2882A",
"p#.	c #F06912",
"q#.	c #DC8565",
"r#.	c #DD6638",
"s#.	c #F0561E",
"t#.	c #F5921E",
"u#.	c #C27026",
"v#.	c #8C5B47",
"w#.	c #A37C6D",
"x#.	c #E3892C",
"y#.	c #EF6910",
"z#.	c #EF591F",
"A#.	c #DC8462",
"B#.	c #C6B0A2",
"C#.	c #F8E8E1",
"D#.	c #DB6535",
"E#.	c #F99516",
"F#.	c #F99218",
"G#.	c #8B5640",
"H#.	c #A17D6E",
"I#.	c #8F5845",
"J#.	c #E48B2D",
"K#.	c #DB8563",
"L#.	c #E7DDD2",
"M#.	c #F8E9E3",
"N#.	c #CC663F",
"O#.	c #E05D1E",
"P#.	c #F98221",
"Q#.	c #FD9219",
"R#.	c #FC9219",
"S#.	c #FA9317",
"T#.	c #945633",
"U#.	c #945634",
"V#.	c #935536",
"W#.	c #905536",
"X#.	c #A78376",
"Y#.	c #5F1E07",
"Z#.	c #5E1D05",
"`#.	c #6D2803",
" $.	c #EB872A",
".$.	c #EF5720",
"+$.	c #E95724",
"@$.	c #E15D29",
"#$.	c #E45822",
"$$.	c #D68C6C",
"%$.	c #FCF4EE",
"&$.	c #E6B299",
"*$.	c #DDA385",
"=$.	c #E1AF95",
"-$.	c #E4AF94",
";$.	c #E1A082",
">$.	c #E49D7E",
",$.	c #E17037",
"'$.	c #F4741B",
")$.	c #F6771A",
"!$.	c #F37B15",
"~$.	c #F88A19",
"{$.	c #DE862C",
"]$.	c #CB782E",
"^$.	c #C47529",
"/$.	c #CA772B",
"($.	c #C6742C",
"_$.	c #C77A38",
":$.	c #A55E2A",
"<$.	c #6F3622",
"[$.	c #763F2C",
"}$.	c #763E2C",
"|$.	c #783F2C",
"1$.	c #773F2C",
"2$.	c #7D4633",
"3$.	c #986D5E",
"4$.	c #976B5C",
"5$.	c #9A6E5C",
"6$.	c #733A28",
"7$.	c #6B3112",
"8$.	c #AC652D",
"9$.	c #AA5F21",
"0$.	c #B16420",
"a$.	c #AF5F21",
"b$.	c #ED731F",
"c$.	c #F57819",
"d$.	c #F67719",
"e$.	c #F45D17",
"f$.	c #EC5820",
"g$.	c #DF744D",
"h$.	c #E5AF94",
"i$.	c #DFA182",
"j$.	c #E2A587",
"k$.	c #ECC5B0",
"l$.	c #FBE5D3",
"m$.	c #F87F19",
"n$.	c #F79421",
"o$.	c #F59420",
"p$.	c #F49632",
"q$.	c #BD6E26",
"r$.	c #5B1E05",
"s$.	c #8D5B4B",
"t$.	c #6D3422",
"u$.	c #803704",
"v$.	c #E89342",
"w$.	c #F5942A",
"x$.	c #FC8B2D",
"y$.	c #EA6A18",
"z$.	c #E15A21",
"A$.	c #DB9D7D",
"B$.	c #F8F5F0",
"C$.	c #F0DCCF",
"D$.	c #D5704A",
"E$.	c #FB9110",
"F$.	c #F59423",
"G$.	c #BC6E26",
"H$.	c #621E03",
"I$.	c #8D5440",
"J$.	c #803706",
"K$.	c #ED922F",
"L$.	c #FD8B23",
"M$.	c #F06311",
"N$.	c #E55A2A",
"O$.	c #E3A487",
"P$.	c #242526",
"Q$.	c #C6B4A3",
"R$.	c #D56F48",
"S$.	c #ED922E",
"T$.	c #E3A78A",
"U$.	c #F5E9DD",
"V$.	c #F35616",
"W$.	c #F88017",
"X$.	c #8B5741",
"Y$.	c #F69310",
"Z$.	c #EA5726",
"`$.	c #E3916D",
" %.	c #BFA28D",
".%.	c #FA7C1D",
"+%.	c #F69219",
"@%.	c #FA9414",
"#%.	c #FA9223",
"$%.	c #C4742C",
"%%.	c #631E01",
"&%.	c #5A1D06",
"*%.	c #723A26",
"=%.	c #5E1D03",
"-%.	c #803705",
";%.	c #EE9237",
">%.	c #F36017",
",%.	c #D65D34",
"'%.	c #D9997C",
")%.	c #747474",
"!%.	c #C3AE9B",
"~%.	c #D76F47",
"{%.	c #FB5718",
"]%.	c #F97C1E",
"^%.	c #F87D1C",
"/%.	c #F67F16",
"(%.	c #F57C16",
"_%.	c #F7911C",
":%.	c #FC8D14",
"<%.	c #F9931D",
"[%.	c #D37F2C",
"}%.	c #904F17",
"|%.	c #904F18",
"1%.	c #914F18",
"2%.	c #98511B",
"3%.	c #97511B",
"4%.	c #95501A",
"5%.	c #96511A",
"6%.	c #9C521C",
"7%.	c #9B521C",
"8%.	c #8D4A1E",
"9%.	c #824A36",
"0%.	c #804B38",
"a%.	c #7F4934",
"b%.	c #804832",
"c%.	c #804835",
"d%.	c #804836",
"e%.	c #814A36",
"f%.	c #804736",
"g%.	c #7F4836",
"h%.	c #7E4835",
"i%.	c #804936",
"j%.	c #814834",
"k%.	c #8B533F",
"l%.	c #804833",
"m%.	c #804733",
"n%.	c #5E1F09",
"o%.	c #6B3117",
"p%.	c #8F4E17",
"q%.	c #99521B",
"r%.	c #98511A",
"s%.	c #B0531E",
"t%.	c #F08327",
"u%.	c #F6811A",
"v%.	c #F57C15",
"w%.	c #F67C18",
"x%.	c #F8781C",
"y%.	c #F25D17",
"z%.	c #FB5416",
"A%.	c #EF561A",
"B%.	c #E5774C",
"C%.	c #D98C6B",
"D%.	c #DC8D6C",
"E%.	c #DA9071",
"F%.	c #F6DCCD",
"G%.	c #E4D1C3",
"H%.	c #D97049",
"I%.	c #F39529",
"J%.	c #F3952A",
"K%.	c #F59629",
"L%.	c #F69425",
"M%.	c #F89533",
"N%.	c #F3963E",
"O%.	c #E58B4C",
"P%.	c #6D360B",
"Q%.	c #571C07",
"R%.	c #571C05",
"S%.	c #561C05",
"T%.	c #5A1D09",
"U%.	c #571C06",
"V%.	c #77412E",
"W%.	c #89523E",
"X%.	c #5E1C02",
"Y%.	c #984C1E",
"Z%.	c #EB9343",
"`%.	c #F49637",
" &.	c #EF9335",
".&.	c #F6852B",
"+&.	c #EC630E",
"@&.	c #F15B11",
"#&.	c #FB531F",
"$&.	c #E25B2A",
"%&.	c #E6B095",
"&&.	c #B9BABB",
"*&.	c #B9B9B8",
"=&.	c #C0A692",
"-&.	c #F05722",
";&.	c #F5941E",
">&.	c #E48B35",
",&.	c #6D2C05",
"'&.	c #7A4330",
")&.	c #5C220E",
"!&.	c #984F19",
"~&.	c #F2953C",
"{&.	c #FA921C",
"]&.	c #E95C0C",
"^&.	c #DF5B2B",
"/&.	c #E9B6A1",
"(&.	c #BE9C87",
"_&.	c #F99018",
":&.	c #FE911C",
"<&.	c #E78E32",
"[&.	c #793204",
"}&.	c #601D05",
"|&.	c #5E1D04",
"1&.	c #5C200B",
"2&.	c #5E200A",
"3&.	c #5F1E05",
"4&.	c #5F1F09",
"5&.	c #5B1D09",
"6&.	c #F06113",
"7&.	c #FC541D",
"8&.	c #EDBAA4",
"9&.	c #D8714A",
"0&.	c #F69317",
"a&.	c #F99115",
"b&.	c #F6931C",
"c&.	c #DF8835",
"d&.	c #713308",
"e&.	c #5D1D07",
"f&.	c #F06114",
"g&.	c #F75820",
"h&.	c #E55D2B",
"i&.	c #EBB8A2",
"j&.	c #4F4E4D",
"k&.	c #C5B2A0",
"l&.	c #D1704B",
"m&.	c #F15625",
"n&.	c #E35D1D",
"o&.	c #F69424",
"p&.	c #EA903A",
"q&.	c #783104",
"r&.	c #621D01",
"s&.	c #5C1F0A",
"t&.	c #5C1E09",
"u&.	c #5E200B",
"v&.	c #5E210C",
"w&.	c #5E220D",
"x&.	c #5D1F0A",
"y&.	c #5E1E06",
"z&.	c #974F18",
"A&.	c #FB8C1A",
"B&.	c #FB801D",
"C&.	c #D95E31",
"D&.	c #E8B49C",
"E&.	c #4F4D4A",
"F&.	c #C7BFB4",
"G&.	c #D58F71",
"H&.	c #D7754E",
"I&.	c #D7754F",
"J&.	c #D87F5B",
"K&.	c #D77D5A",
"L&.	c #D77651",
"M&.	c #D77851",
"N&.	c #EC7B2F",
"O&.	c #F98020",
"P&.	c #FC8420",
"Q&.	c #F68814",
"R&.	c #8B410C",
"S&.	c #813A0B",
"T&.	c #80390A",
"U&.	c #803A0A",
"V&.	c #80380C",
"W&.	c #81380F",
"X&.	c #682D15",
"Y&.	c #763E2A",
"Z&.	c #854C38",
"`&.	c #88513D",
" *.	c #8A543F",
".*.	c #844B37",
"+*.	c #89533F",
"@*.	c #864F3A",
"#*.	c #87503B",
"$*.	c #5B210D",
"%*.	c #763007",
"&*.	c #803A0B",
"**.	c #7C360A",
"=*.	c #7F390A",
"-*.	c #7F390B",
";*.	c #7A3811",
">*.	c #80380B",
",*.	c #A95918",
"'*.	c #F88321",
")*.	c #FB821E",
"!*.	c #FA8618",
"~*.	c #FB881A",
"{*.	c #FC8220",
"]*.	c #F9771D",
"^*.	c #DE764B",
"/*.	c #D6734D",
"(*.	c #DB7952",
"_*.	c #DA7650",
":*.	c #DA7952",
"<*.	c #D97752",
"[*.	c #DA7A53",
"}*.	c #D67D58",
"|*.	c #CE8261",
"1*.	c #F0D0BD",
"2*.	c #C8C2BC",
"3*.	c #745746",
"4*.	c #A3928A",
"5*.	c #FCF4F0",
"6*.	c #FBF4EE",
"7*.	c #9E8F86",
"8*.	c #7C685A",
"9*.	c #786354",
"0*.	c #735847",
"a*.	c #E1D7D2",
"b*.	c #F7E5D5",
"c*.	c #E15D1D",
"d*.	c #E95F0B",
"e*.	c #EC5E11",
"f*.	c #EF5E15",
"g*.	c #F05D15",
"h*.	c #F25C14",
"i*.	c #E7600B",
"j*.	c #ED7110",
"k*.	c #F59424",
"l*.	c #ED8F23",
"m*.	c #ED912B",
"n*.	c #EC902A",
"o*.	c #ED9028",
"p*.	c #ED9026",
"q*.	c #ED9025",
"r*.	c #EC902B",
"s*.	c #EC8E30",
"t*.	c #E28A42",
"u*.	c #904F21",
"v*.	c #591D07",
"w*.	c #5B220C",
"x*.	c #5D230E",
"y*.	c #5B210B",
"z*.	c #5A210B",
"A*.	c #5A2009",
"B*.	c #BB6C29",
"C*.	c #EC9135",
"D*.	c #ED9027",
"E*.	c #EC9029",
"F*.	c #EC8D2F",
"G*.	c #EB7425",
"H*.	c #F25B17",
"I*.	c #F15E15",
"J*.	c #DE6534",
"K*.	c #F9DAC6",
"L*.	c #C4B7B1",
"M*.	c #745645",
"N*.	c #A89A91",
"O*.	c #8E7C71",
"P*.	c #ECE3DE",
"Q*.	c #D7CDC7",
"R*.	c #765B4B",
"S*.	c #E8E7E7",
"T*.	c #ACA9A4",
"U*.	c #E29576",
"V*.	c #EF581A",
"W*.	c #F26815",
"X*.	c #FA9318",
"Y*.	c #FB9417",
"Z*.	c #FA9417",
"`*.	c #F9921A",
" =.	c #FA941A",
".=.	c #F9921D",
"+=.	c #F2942E",
"@=.	c #96490D",
"#=.	c #C0712C",
"$=.	c #F89426",
"%=.	c #FE911D",
"&=.	c #EE5B14",
"*=.	c #EE5822",
"==.	c #C1A69B",
"-=.	c #C2C0BC",
";=.	c #E29677",
">=.	c #F36715",
",=.	c #96490E",
"'=.	c #F89324",
")=.	c #D56336",
"!=.	c #A18573",
"~=.	c #6C675E",
"{=.	c #E09A7C",
"]=.	c #EF6912",
"^=.	c #FC9216",
"/=.	c #F79324",
"(=.	c #FB541A",
"_=.	c #F85416",
":=.	c #DD6333",
"<=.	c #CDBAAF",
"[=.	c #67635A",
"}=.	c #DA9C7F",
"|=.	c #E55A24",
"1=.	c #EA6A1B",
"2=.	c #FD9317",
"3=.	c #F4942D",
"4=.	c #F89429",
"5=.	c #F97F1E",
"6=.	c #E85A18",
"7=.	c #F35621",
"8=.	c #D96438",
"9=.	c #E6E6E6",
"0=.	c #E9BBA5",
"a=.	c #D47856",
"b=.	c #D1724C",
"c=.	c #D96E46",
"d=.	c #DA7148",
"e=.	c #D9693E",
"f=.	c #D66942",
"g=.	c #D66941",
"h=.	c #D4693B",
"i=.	c #D67147",
"j=.	c #D6714C",
"k=.	c #DD7042",
"l=.	c #FC8625",
"m=.	c #FC841C",
"n=.	c #FE8624",
"o=.	c #FE871F",
"p=.	c #FE851E",
"q=.	c #FE861E",
"r=.	c #9D5013",
"s=.	c #702B03",
"t=.	c #702B04",
"u=.	c #712B03",
"v=.	c #CB742B",
"w=.	c #F89030",
"x=.	c #FD8820",
"y=.	c #FD891F",
"z=.	c #E77B32",
"A=.	c #D06B43",
"B=.	c #D2734F",
"C=.	c #D2724D",
"D=.	c #DD6943",
"E=.	c #DB683E",
"F=.	c #DD6E48",
"G=.	c #D4693C",
"H=.	c #D1704A",
"I=.	c #CF8060",
"J=.	c #FFFDF8",
"K=.	c #EAE9E7",
"L=.	c #DFDBDA",
"M=.	c #F5F2F0",
"N=.	c #F0EBE9",
"O=.	c #F0E9E4",
"P=.	c #F3EBE0",
"Q=.	c #F0E6D9",
"R=.	c #FAF0E4",
"S=.	c #EDE0CF",
"T=.	c #F5E2CF",
"U=.	c #F0BB9F",
"V=.	c #DE622E",
"W=.	c #EF6010",
"X=.	c #EF6011",
"Y=.	c #EE6411",
"Z=.	c #F36416",
"`=.	c #EF6411",
" -.	c #EF610F",
".-.	c #F16113",
"+-.	c #EF6210",
"@-.	c #EB640F",
"#-.	c #EB7F2C",
"$-.	c #E78E37",
"%-.	c #E68D30",
"&-.	c #E68D2F",
"*-.	c #E78D2F",
"=-.	c #E78C2F",
"--.	c #EA832A",
";-.	c #E78D37",
">-.	c #ED721B",
",-.	c #E95F0E",
"'-.	c #EE630F",
")-.	c #E06418",
"!-.	c #F9EBDD",
"~-.	c #FBF8F7",
"{-.	c #F0EBEA",
"]-.	c #EFE8DE",
"^-.	c #A8A8A8",
"/-.	c #323232",
"(-.	c #171718",
"_-.	c #EFC9B1",
":-.	c #D66133",
"<-.	c #FA7C22",
"[-.	c #FC9318",
"}-.	c #FD9119",
"|-.	c #FC9418",
"1-.	c #F99119",
"2-.	c #FC9325",
"3-.	c #F26F15",
"4-.	c #E05826",
"5-.	c #6B6562",
"6-.	c #EFCDB6",
"7-.	c #F37214",
"8-.	c #E95827",
"9-.	c #D59274",
"0-.	c #433933",
"a-.	c #DB6133",
"b-.	c #FD5520",
"c-.	c #F65A1B",
"d-.	c #FB8C1C",
"e-.	c #F37316",
"f-.	c #ED5727",
"g-.	c #9A9694",
"h-.	c #F2D1BC",
"i-.	c #D65F31",
"j-.	c #F55421",
"k-.	c #F97A1B",
"l-.	c #FA9415",
"m-.	c #EF7013",
"n-.	c #E95919",
"o-.	c #F2571B",
"p-.	c #F5581D",
"q-.	c #E85927",
"r-.	c #D69070",
"s-.	c #3C2F28",
"t-.	c #F4D8C9",
"u-.	c #C96C47",
"v-.	c #D96134",
"w-.	c #D86030",
"x-.	c #DB6134",
"y-.	c #DC6235",
"z-.	c #DF6035",
"A-.	c #DB5D2E",
"B-.	c #DB5E2F",
"C-.	c #D85D2E",
"D-.	c #D75E2F",
"E-.	c #D35F34",
"F-.	c #D56032",
"G-.	c #EC7A30",
"H-.	c #FD8C20",
"I-.	c #FA8823",
"J-.	c #E3712D",
"K-.	c #D16033",
"L-.	c #D35E31",
"M-.	c #DC5C2C",
"N-.	c #DE5B2B",
"O-.	c #DC5E2C",
"P-.	c #DC5F2C",
"Q-.	c #DA5E2D",
"R-.	c #CC6136",
"S-.	c #D8987E",
"T-.	c #3D3732",
"U-.	c #D9D7D2",
"V-.	c #D0BEAC",
"W-.	c #CAA993",
"X-.	c #D2C4B3",
"Y-.	c #CBAA94",
"Z-.	c #C49982",
"`-.	c #C3967E",
" ;.	c #D8B2A0",
".;.	c #E7C6B6",
"+;.	c #C3927A",
"@;.	c #C29078",
"#;.	c #C29178",
"$;.	c #E1B9A9",
"%;.	c #EFCABC",
"&;.	c #F4D7C8",
"*;.	c #F3CCB2",
"=;.	c #E28259",
"-;.	c #E8661C",
";;.	c #EE6613",
">;.	c #F06514",
",;.	c #F06414",
"';.	c #EF6414",
");.	c #EF6513",
"!;.	c #EE6713",
"~;.	c #EF6713",
"{;.	c #EF6613",
"];.	c #F16414",
"^;.	c #F06713",
"/;.	c #F06714",
"(;.	c #F06214",
"_;.	c #F16715",
":;.	c #E16B34",
"<;.	c #E8A686",
"[;.	c #D8AF9D",
"};.	c #DCBAA8",
"|;.	c #F6DACB",
"1;.	c #E9C8B8",
"2;.	c #ECCBBC",
"3;.	c #D4B19D",
"4;.	c #C08A71",
"5;.	c #F0CBBD",
"6;.	c #BF896F",
"7;.	c #C9A18A",
"8;.	c #D5CDC1",
"9;.	c #161616",
"0;.	c #E55827",
"a;.	c #D76132",
"b;.	c #E8BDA4",
"c;.	c #090909",
"d;.	c #9E9185",
"e;.	c #E15D32",
"f;.	c #EED1BB",
"g;.	c #DE5C29",
"h;.	c #E9B79B",
"i;.	c #DE8562",
"j;.	c #99958C",
"k;.	c #DA9679",
"l;.	c #E25D30",
"m;.	c #CB663F",
"n;.	c #F3DED6",
"o;.	c #9B9A9B",
"p;.	c #F5E0D8",
"q;.	c #F3DAD3",
"r;.	c #F3DBD4",
"s;.	c #F2DAD2",
"t;.	c #F1D8D1",
"u;.	c #F2D9D2",
"v;.	c #F2D8D1",
"w;.	c #F2D7D0",
"x;.	c #F2D5C6",
"y;.	c #F2D6CA",
"z;.	c #F2D7CD",
"A;.	c #F1D6CF",
"B;.	c #F2D7CC",
"C;.	c #F1D2C2",
"D;.	c #EFD0BF",
"E;.	c #F0D0BF",
"F;.	c #F4DBCC",
"G;.	c #99908A",
"H;.	c #515152",
"I;.	c #C2C2C3",
"J;.	c #BEBEBF",
".  .  .  .  .  .  .  .  .  .  .  .  .  .  .  .  .  .  .  .  .  .  .  .  .  .  .  .  .  .  .  .  .  .  .  .  .  .  .  .  .  .  .  .  .  .  .  .  .  .  .  .  .  .  .  .  .  .  .  .  .  .  .  .  .  .  .  .  .  .  .  .  .  .  .  .  .  .  .  .  .  .  .  .  .  .  .  .  .  .  .  .  .  .  .  .  .  .  .  .  .  .  .  .  .  .  .  .  .  .  .  .  .  .  .  .  .  .  .  .  .  .  .  .  .  .  .  .  .  .  .  .  .  .  .  .  .  .  .  .  .  .  .  .  .  .  .  .  .  .  .  .  .  .  .  .  .  .  .  .  .  .  .  .  .  .  .  .  .  .  .  .  .  .  .  .  .  .  .  .  .  .  .  .  .  .  .  .  .  .  .  .  .  .  .  .  .  .  .  .  .  .  .  .  .  .  .  .  .  .  .  .  .  .  .  .  .  .  .  .  .  .  .  .  .  .  .  .  .  .  .  .  .  .  .  .  .  .  .  .  .  .  .  .  .  .  .  .  .  .  .  .  .  .  .  .  .  .  .  .  .  .  .  .  .  .  .  .  .  .  .  .  .  .  .  .  .  .  .  .  .  .  .  .  .  .  .  .  .  .  .  .  .  .  .  .  .  .  .  .  .  .  .  .  .  .  .  .  .  .  .  .  .  .  .  .  .  .  .  .  .  .  .  .  .  .  .  .  .  .  .  .  .  .  .  .  .  .  .  .  .  .  .  .  .  .  .  .  .  .  .  .  .  .  .  .  .  .  .  .  .  .  .  .  .  .  .  .  .  .  .  .  .  .  .  .  .  .  .  .  .  .  .  .  .  .  .  .  .  .  .  .  ",
".  .  .  .  .  .  .  .  .  .  .  .  .  .  .  .  .  .  .  .  .  .  .  .  .  .  .  .  .  .  .  .  .  .  .  .  .  .  .  .  .  .  .  .  .  .  .  .  .  .  .  .  .  .  .  .  .  .  .  .  .  .  .  .  .  .  .  .  .  .  .  .  .  .  .  .  .  .  .  .  .  .  .  .  .  .  .  .  .  .  .  .  .  .  .  .  .  .  .  .  .  .  .  .  .  .  .  .  .  .  .  .  .  .  .  .  .  .  .  .  .  .  .  .  .  .  .  .  .  .  .  .  .  .  .  .  .  .  .  .  .  .  .  .  .  .  .  .  .  .  .  .  .  .  .  .  .  .  .  .  .  .  .  .  .  .  .  .  .  .  .  .  .  .  .  .  .  .  .  .  .  .  .  .  .  .  .  .  .  .  .  .  .  .  .  .  .  .  .  .  .  .  .  .  .  .  .  .  .  .  .  .  .  .  .  .  .  .  .  .  .  .  .  .  .  .  .  .  .  .  .  .  .  .  .  .  .  .  .  .  .  .  .  .  .  .  .  .  .  .  .  .  .  .  .  .  .  .  .  .  .  .  .  .  .  .  .  .  .  .  .  .  .  .  .  .  .  .  .  .  .  .  .  .  .  .  .  .  .  .  .  .  .  .  .  .  .  .  .  .  .  .  .  .  .  .  .  .  .  .  .  .  .  .  .  .  .  .  .  .  .  .  .  .  .  .  .  .  .  .  .  .  .  .  .  .  .  .  .  .  .  .  .  .  .  .  .  .  .  .  .  .  .  .  .  .  .  .  .  .  .  .  .  .  .  .  .  .  .  .  .  .  .  .  .  .  .  .  .  .  .  .  .  .  .  .  .  .  .  .  .  .  ",
".  .  .  .  .  .  .  .  .  .  .  .  .  .  .  .  .  .  .  .  .  .  .  .  .  .  .  .  .  .  .  .  .  .  .  .  .  .  .  .  .  .  .  .  .  .  .  .  .  .  .  .  .  .  .  .  .  .  .  .  .  .  .  .  .  .  .  .  .  .  .  .  .  .  .  .  .  .  .  .  .  .  .  .  .  .  .  .  .  .  .  .  .  .  .  .  .  .  .  .  .  .  .  .  .  .  .  .  .  .  .  .  .  .  .  .  .  .  .  .  .  .  .  .  .  .  .  .  .  .  .  .  .  .  .  .  .  .  .  .  .  .  .  .  .  .  .  .  .  .  .  .  .  .  .  .  .  .  .  .  .  .  .  .  .  .  .  .  .  .  .  .  .  .  .  .  .  .  .  .  .  .  .  .  .  .  .  .  .  .  .  .  .  .  .  .  .  .  .  .  .  .  .  .  .  .  .  .  .  .  .  .  .  .  .  .  .  .  .  .  .  .  .  .  .  .  .  .  .  .  .  .  .  .  .  .  .  .  .  .  .  .  .  .  .  .  .  .  .  .  .  .  .  .  .  .  .  .  .  .  .  .  .  .  .  .  .  .  .  .  .  .  .  .  .  .  .  .  .  .  .  .  .  .  .  .  .  .  .  .  .  .  .  .  .  .  .  .  .  .  .  .  .  .  .  .  .  .  .  .  .  .  .  .  .  .  .  .  .  .  .  .  .  .  .  .  .  .  .  .  .  .  .  .  .  .  .  .  .  .  .  .  .  .  .  .  .  .  .  .  .  .  .  .  .  .  .  .  .  .  .  .  .  .  .  .  .  .  .  .  .  .  .  .  .  .  .  .  .  .  .  .  .  .  .  .  .  .  .  .  .  .  ",
".  .  .  .  .  .  .  .  .  .  .  .  .  .  .  .  .  .  .  .  .  .  .  .  .  .  .  .  .  .  .  .  .  .  .  .  .  .  .  .  .  .  .  .  .  .  .  .  .  .  .  .  .  .  .  .  .  .  .  .  .  .  .  .  .  .  .  .  .  .  .  .  .  .  .  .  .  .  .  .  .  .  .  .  .  .  .  .  .  .  .  .  .  .  .  .  .  .  .  .  .  .  .  .  .  .  .  .  .  .  .  .  .  .  .  .  .  .  .  .  .  .  .  .  .  .  .  .  .  .  .  .  .  .  .  .  .  .  .  .  .  .  .  .  .  .  .  .  .  .  .  .  .  .  .  .  .  .  .  .  .  .  .  .  .  .  .  .  .  .  .  .  .  .  .  .  .  .  .  .  .  .  .  .  .  .  .  .  .  .  .  .  .  .  .  .  .  .  .  .  .  .  .  .  .  .  .  .  .  .  .  .  .  .  .  .  .  .  .  .  .  .  .  .  .  .  .  .  .  .  .  .  .  .  .  .  .  .  .  .  .  .  .  .  .  .  .  .  .  .  .  .  .  .  .  .  .  .  .  .  .  .  .  .  .  .  .  .  .  .  .  .  .  .  .  .  .  .  .  .  .  .  .  .  .  .  .  .  .  .  .  .  .  .  .  .  .  .  .  .  .  .  .  .  .  .  .  .  .  .  .  .  .  .  .  .  .  .  .  .  .  .  .  .  .  .  .  .  .  .  .  .  .  .  .  .  .  .  .  .  .  .  .  .  .  .  .  .  .  .  .  .  .  .  .  .  .  .  .  .  .  .  .  .  .  .  .  .  .  .  .  .  .  .  .  .  .  .  .  .  .  .  .  .  .  .  .  .  .  .  .  .  ",
".  .  .  .  .  .  .  .  .  .  .  .  .  .  .  .  .  .  .  .  .  .  .  .  .  .  .  .  .  .  .  .  .  .  .  .  .  .  .  .  .  .  .  .  .  .  .  .  .  .  .  .  .  .  .  .  .  .  .  .  .  .  .  .  .  .  .  .  .  .  .  .  .  .  .  .  .  .  .  .  .  .  .  .  .  .  .  .  .  .  .  .  .  .  .  .  .  .  .  .  .  .  .  .  .  .  .  .  .  .  .  .  .  .  .  .  .  .  .  .  .  .  .  .  .  .  .  .  .  .  .  .  .  .  .  .  .  .  .  .  .  .  .  .  .  .  .  .  .  .  .  .  .  .  .  .  .  .  .  .  .  .  .  .  .  .  .  .  .  .  .  .  .  .  .  .  .  .  .  .  .  .  .  .  .  .  .  .  .  .  .  .  .  .  .  .  .  .  .  .  .  .  .  .  .  .  .  .  .  .  .  .  .  .  .  .  .  .  .  .  .  .  .  .  .  .  .  .  .  .  .  .  .  .  .  .  .  .  .  .  .  .  .  .  .  .  .  .  .  .  .  .  .  .  .  .  .  .  .  .  .  .  .  .  .  .  .  .  .  .  .  .  .  .  .  .  .  .  .  .  .  .  .  .  .  .  .  .  .  .  .  .  .  .  .  .  .  .  .  .  .  .  .  .  .  .  .  .  .  .  .  .  .  .  .  .  .  .  .  .  .  .  .  .  .  .  .  .  .  .  .  .  .  .  .  .  .  .  .  .  .  .  .  .  .  .  .  .  .  .  .  .  .  .  .  .  .  .  .  .  .  .  .  .  .  .  .  .  .  .  .  .  .  .  .  .  .  .  .  .  .  .  .  .  .  .  .  .  .  .  .  .  ",
".  .  .  .  .  .  .  .  .  .  .  .  .  .  .  .  .  .  .  .  .  .  .  .  .  .  .  .  .  .  .  .  .  .  .  .  .  .  .  .  .  .  .  .  .  .  .  .  .  .  .  .  .  .  .  .  .  .  .  .  .  .  .  .  .  .  .  .  .  .  .  .  .  .  .  .  .  .  .  .  .  .  .  .  .  .  .  .  .  .  .  .  .  .  .  .  .  .  .  .  .  .  .  .  .  .  .  .  .  .  .  .  .  .  .  .  .  .  .  .  .  .  .  .  .  .  .  .  .  .  .  .  .  .  .  .  .  .  .  .  .  .  .  .  .  .  .  .  .  .  .  .  .  .  .  .  .  .  .  .  .  .  .  .  .  .  .  .  .  .  .  .  .  .  .  .  .  .  .  .  .  .  .  .  .  .  .  .  .  .  .  .  .  .  .  .  .  .  .  .  .  .  .  .  .  .  .  .  .  .  .  .  .  .  .  .  .  .  .  .  .  .  .  .  .  .  .  .  .  .  .  .  .  .  .  .  .  .  .  .  .  .  .  .  .  .  .  .  .  .  .  .  .  .  .  .  .  .  .  .  .  .  .  .  .  .  .  .  .  .  .  .  .  .  .  .  .  .  .  .  .  .  .  .  .  .  .  .  .  .  .  .  .  .  .  .  .  .  .  .  .  .  .  .  .  .  .  .  .  .  .  .  .  .  .  .  .  .  .  .  .  .  .  .  .  .  .  .  .  .  .  .  .  .  .  .  .  .  .  .  .  .  .  .  .  .  .  .  .  .  .  .  .  .  .  .  .  .  .  .  .  .  .  .  .  .  .  .  .  .  .  .  .  .  .  .  .  .  .  .  .  .  .  .  .  .  .  .  .  .  .  .  ",
".  .  .  .  .  .  .  .  .  .  .  .  .  .  .  .  .  .  .  .  .  .  .  .  .  .  .  .  .  .  .  .  .  .  .  .  .  .  .  .  .  .  .  .  .  .  .  .  .  .  .  .  .  .  .  .  .  .  .  .  .  .  .  .  .  .  .  .  .  .  .  .  .  .  .  .  .  .  .  .  .  .  .  .  .  .  .  .  .  .  .  .  .  .  .  .  .  .  .  .  .  .  .  .  .  .  .  .  .  .  .  .  .  .  .  .  .  .  .  .  .  .  .  .  .  .  .  .  .  .  .  .  .  .  .  .  .  .  .  .  .  .  .  .  .  .  .  .  .  .  .  .  .  .  .  .  .  .  .  .  .  .  .  .  .  .  .  .  .  .  .  .  .  .  .  .  .  .  .  .  .  .  .  .  .  .  .  .  .  .  .  .  .  .  .  .  .  .  .  .  .  .  .  .  .  .  .  .  .  .  .  .  .  .  .  .  .  .  .  .  .  .  .  .  .  .  .  .  .  .  .  .  .  .  .  .  .  .  .  .  .  .  .  .  .  .  .  .  .  .  .  .  .  .  .  .  .  .  .  .  .  .  .  .  .  .  .  .  .  .  .  .  .  .  .  .  .  .  .  .  .  .  .  .  .  .  .  .  .  .  .  .  .  .  .  .  .  .  .  .  .  .  .  .  .  .  .  .  .  .  .  .  .  .  .  .  .  .  .  .  .  .  .  .  .  .  .  .  .  .  .  .  .  .  .  .  .  .  .  .  .  .  .  .  .  .  .  .  .  .  .  .  .  .  .  .  .  .  .  .  .  .  .  .  .  .  .  .  .  .  .  .  .  .  .  .  .  .  .  .  .  .  .  .  .  .  .  .  .  .  .  .  ",
".  .  .  .  .  .  .  .  .  .  .  .  .  .  .  .  .  .  .  .  .  .  .  .  .  .  .  .  .  .  .  .  .  .  .  .  .  .  .  .  .  .  .  .  .  .  .  .  .  .  .  .  .  .  .  .  .  .  .  .  .  .  .  .  .  .  .  .  .  .  .  .  .  .  .  .  .  .  .  .  .  .  .  .  .  .  .  .  .  .  .  .  .  .  .  .  .  .  .  .  .  .  .  .  .  .  .  .  .  .  .  .  .  .  .  .  .  .  .  .  .  .  .  .  .  .  .  .  .  .  .  .  .  .  .  .  .  .  .  .  .  .  .  .  .  .  .  .  .  .  .  .  .  .  .  .  .  .  .  .  .  .  .  .  .  .  .  .  .  .  .  .  .  .  .  .  .  .  .  .  .  .  .  .  .  .  .  .  .  .  .  .  .  .  .  .  .  .  .  .  .  .  .  .  .  .  .  .  .  .  .  .  .  .  .  .  .  .  .  .  .  .  .  .  .  .  .  .  .  .  .  .  .  .  .  .  .  .  .  .  .  .  .  .  .  .  .  .  .  .  .  .  .  .  .  .  .  .  .  .  .  .  .  .  .  .  .  .  .  .  .  .  .  .  .  .  .  .  .  .  .  .  .  .  .  .  .  .  .  .  .  .  .  .  .  .  .  .  .  .  .  .  .  .  .  .  .  .  .  .  .  .  .  .  .  .  .  .  .  .  .  .  .  .  .  .  .  .  .  .  .  .  .  .  .  .  .  .  .  .  .  .  .  .  .  .  .  .  .  .  .  .  .  .  .  .  .  .  .  .  .  .  .  .  .  .  .  .  .  .  .  .  .  .  .  .  .  .  .  .  .  .  .  .  .  .  .  .  .  .  .  .  ",
".  .  .  .  .  .  .  .  .  .  .  .  .  .  .  .  .  .  .  .  .  .  .  .  .  .  .  .  .  .  .  .  .  .  .  .  .  .  .  .  .  .  .  .  .  .  .  .  .  .  .  .  .  .  .  .  .  .  .  .  .  .  .  .  .  .  .  .  .  .  .  .  .  .  .  .  .  .  .  .  .  .  .  .  .  .  .  .  .  .  .  .  .  .  .  .  .  .  .  .  .  .  .  .  .  .  .  .  .  .  .  .  .  .  .  .  .  .  .  .  .  .  .  .  .  .  .  .  .  .  .  .  .  .  .  .  .  .  .  .  .  .  .  .  .  .  .  .  .  .  .  .  .  .  .  .  .  .  .  .  .  .  .  .  .  .  .  .  .  .  .  .  .  .  .  .  .  .  .  .  .  .  .  .  .  .  .  .  .  .  .  .  .  .  .  .  .  .  .  .  .  .  .  .  .  .  .  .  .  .  .  .  .  .  .  .  .  .  .  .  .  .  .  .  .  .  .  .  .  .  .  .  .  .  .  .  .  .  .  .  .  .  .  .  .  .  .  .  .  .  .  .  .  .  .  .  .  .  .  .  .  .  .  .  .  .  .  .  .  .  .  .  .  .  .  .  .  .  .  .  .  .  .  .  .  .  .  .  .  .  .  .  .  .  .  .  .  .  .  .  .  .  .  .  .  .  .  .  .  .  .  .  .  .  .  .  .  .  .  .  .  .  .  .  .  .  .  .  .  .  .  .  .  .  .  .  .  .  .  .  .  .  .  .  .  .  .  .  .  .  .  .  .  .  .  .  .  .  .  .  .  .  .  .  .  .  .  .  .  .  .  .  .  .  .  .  .  .  .  .  .  .  .  .  .  .  .  .  .  .  .  .  ",
".  .  .  .  .  .  .  .  .  .  .  .  .  .  .  .  .  .  .  .  .  .  .  .  .  .  .  .  .  .  .  .  .  .  .  .  .  .  .  .  .  .  .  .  .  .  .  .  .  .  .  .  .  .  .  .  .  .  .  .  .  .  .  .  .  .  .  .  .  .  .  .  .  .  .  .  .  .  .  .  .  .  .  .  .  .  .  .  .  .  .  .  .  .  .  .  .  .  .  .  .  .  .  .  .  .  .  .  .  .  .  .  .  .  .  .  .  .  .  .  .  .  .  .  .  .  .  .  .  .  .  .  .  .  .  .  .  .  .  .  .  .  .  .  .  .  .  .  .  .  .  .  .  .  .  .  .  .  .  .  .  .  .  .  .  .  .  .  .  .  .  .  .  .  .  .  .  .  .  .  .  .  .  .  .  .  .  .  .  .  .  .  .  .  .  .  .  .  .  .  .  .  .  .  .  .  .  .  .  .  .  .  .  .  .  .  .  .  .  .  .  .  .  .  .  .  .  .  .  .  .  .  .  .  .  .  .  .  .  .  .  .  .  .  .  .  .  .  .  .  .  .  .  .  .  .  .  .  .  .  .  .  .  .  .  .  .  .  .  .  .  .  .  .  .  .  .  .  .  .  .  .  .  .  .  .  .  .  .  .  .  .  .  .  .  .  .  .  .  .  .  .  .  .  .  .  .  .  .  .  .  .  .  .  .  .  .  .  .  .  .  .  .  .  .  .  .  .  .  .  .  .  .  .  .  .  .  .  .  .  .  .  .  .  .  .  .  .  .  .  .  .  .  .  .  .  .  .  .  .  .  .  .  .  .  .  .  .  .  .  .  .  .  .  .  .  .  .  .  .  .  .  .  .  .  .  .  .  .  .  .  .  ",
".  .  .  .  .  .  .  .  .  .  .  .  .  .  .  .  .  .  .  .  .  .  .  .  .  .  .  .  .  .  .  .  .  .  .  .  .  .  .  .  .  .  .  .  .  .  .  .  .  .  .  .  .  .  .  .  .  .  .  .  .  .  .  .  .  .  .  .  .  .  .  .  .  .  .  .  .  .  .  .  .  .  .  .  .  .  .  .  .  .  .  .  .  .  .  .  .  .  .  .  .  .  .  .  .  .  .  .  .  .  .  .  .  .  .  .  .  .  .  .  .  .  .  .  .  .  .  .  .  .  .  .  .  .  .  .  .  .  .  .  .  .  .  .  .  .  .  .  .  .  .  .  .  .  .  .  .  .  .  .  .  .  .  .  .  .  .  .  .  .  .  .  .  .  .  .  .  .  .  .  .  .  .  .  .  .  .  .  .  .  .  .  .  .  .  .  .  .  .  .  .  .  .  .  .  .  .  .  .  .  .  .  .  .  .  .  .  .  .  .  .  .  .  .  .  .  .  .  .  .  .  .  .  .  .  .  .  .  .  .  .  .  .  .  .  .  .  .  .  .  .  .  .  .  .  .  .  .  .  .  .  .  .  .  .  .  .  .  .  .  .  .  .  .  .  .  .  .  .  .  .  .  .  .  .  .  .  .  .  .  .  .  .  .  .  .  .  .  .  .  .  .  .  .  .  .  .  .  .  .  .  .  .  .  .  .  .  .  .  .  .  .  .  .  .  .  .  .  .  .  .  .  .  .  .  .  .  .  .  .  .  .  .  .  .  .  .  .  .  .  .  .  .  .  .  .  .  .  .  .  .  .  .  .  .  .  .  .  .  .  .  .  .  .  .  .  .  .  .  .  .  .  .  .  .  .  .  .  .  .  .  .  ",
".  .  .  .  .  .  .  .  .  .  .  .  .  .  .  .  .  .  .  .  .  .  .  .  .  .  .  .  .  .  .  .  .  .  .  .  .  .  .  .  .  .  .  .  .  .  .  .  .  .  .  .  .  .  .  .  .  .  .  .  .  .  .  .  .  .  .  .  .  .  .  .  .  .  .  .  .  .  .  .  .  .  .  .  .  .  .  .  .  .  .  .  .  .  .  .  .  .  .  .  .  .  .  .  .  .  .  .  .  .  .  .  .  .  .  .  .  .  .  .  .  .  .  .  .  .  .  .  .  .  .  .  .  .  .  .  .  .  .  .  .  .  .  .  .  .  .  .  .  .  .  .  .  .  .  .  .  .  .  .  .  .  .  .  .  .  .  .  .  .  .  .  .  .  .  .  .  .  .  .  .  .  .  .  .  .  .  .  .  .  .  .  .  .  .  .  .  .  .  .  .  .  .  .  .  .  .  .  .  .  .  .  .  .  .  .  .  .  .  .  .  .  .  .  .  .  .  .  .  .  .  .  .  .  .  .  .  .  .  .  .  .  .  .  .  .  .  .  .  .  .  .  .  .  .  .  .  .  .  .  .  .  .  .  .  .  .  .  .  .  .  .  .  .  .  .  .  .  .  .  .  .  .  .  .  .  .  .  .  .  .  .  .  .  .  .  .  .  .  .  .  .  .  .  .  .  .  .  .  .  .  .  .  .  .  .  .  .  .  .  .  .  .  .  .  .  .  .  .  .  .  .  .  .  .  .  .  .  .  .  .  .  .  .  .  .  .  .  .  .  .  .  .  .  .  .  .  .  .  .  .  .  .  .  .  .  .  .  .  .  .  .  .  .  .  .  .  .  .  .  .  .  .  .  .  .  .  .  .  .  .  .  ",
".  .  .  .  .  .  .  .  .  .  .  .  .  .  .  .  .  .  .  .  .  .  .  .  .  .  .  .  .  .  .  .  .  .  .  .  .  .  .  .  .  .  .  .  .  .  .  .  .  .  .  .  .  .  .  .  .  .  .  .  .  .  .  .  .  .  .  .  .  .  .  .  .  .  .  .  .  .  .  .  .  .  .  .  .  .  .  .  .  .  .  .  .  .  .  .  .  .  .  .  .  .  .  .  .  .  .  .  .  .  .  .  .  .  .  .  .  .  .  .  .  .  .  .  .  .  .  .  .  .  .  .  .  .  .  .  .  .  .  .  .  .  .  .  .  .  .  .  .  .  .  .  .  .  .  .  .  .  .  .  .  .  .  .  .  .  .  .  .  .  .  .  .  .  .  .  .  .  .  .  .  .  .  .  .  .  .  .  .  .  .  .  .  .  .  .  .  .  .  .  .  .  .  .  .  .  .  .  .  .  .  .  .  .  .  .  .  .  .  .  .  .  .  .  .  .  .  .  .  .  .  .  .  .  .  .  .  .  .  .  .  .  .  .  .  .  .  .  .  .  .  .  .  .  .  .  .  .  .  .  .  .  .  .  .  .  .  .  .  .  .  .  .  .  .  .  .  .  .  .  .  .  .  .  .  .  .  .  .  .  .  .  .  .  .  .  .  .  .  .  .  .  .  .  .  .  .  .  .  .  .  .  .  .  .  .  .  .  .  .  .  .  .  .  .  .  .  .  .  .  .  .  .  .  .  .  .  .  .  .  .  .  .  .  .  .  .  .  .  .  .  .  .  .  .  .  .  .  .  .  .  .  .  .  .  .  .  .  .  .  .  .  .  .  .  .  .  .  .  .  .  .  .  .  .  .  .  .  .  .  .  .  ",
".  .  .  .  .  .  .  .  .  .  .  .  .  .  .  .  .  .  .  .  .  .  .  .  .  .  .  .  .  .  .  .  .  .  .  .  .  .  .  .  .  .  .  .  .  .  .  .  .  .  .  .  .  .  .  .  .  .  .  .  .  .  .  .  .  .  .  .  .  .  .  .  .  .  .  .  .  .  .  .  .  .  .  .  .  .  .  .  .  .  .  .  .  .  .  .  .  .  .  .  .  .  .  .  .  .  .  .  .  .  .  .  .  .  .  .  .  .  .  .  .  .  .  .  .  .  .  .  .  .  .  .  .  .  .  .  .  .  .  .  .  .  .  .  .  .  .  .  .  .  .  .  .  .  .  .  .  .  .  .  .  .  .  .  .  .  .  .  .  .  .  .  .  .  .  .  .  .  .  .  .  .  .  .  .  .  .  .  .  .  .  .  .  .  .  .  .  .  .  .  .  .  .  .  .  .  .  .  .  .  .  .  .  .  .  .  .  .  .  .  .  .  .  .  .  .  .  .  .  .  .  .  .  .  .  .  .  .  .  .  .  .  .  .  .  .  .  .  .  .  .  .  .  .  .  .  .  .  .  .  .  .  .  .  .  .  .  .  .  .  .  .  .  .  .  .  .  .  .  .  .  .  .  .  .  .  .  .  .  .  .  .  .  .  .  .  .  .  .  .  .  .  .  .  .  .  .  .  .  .  .  .  .  .  .  .  .  .  .  .  .  .  .  .  .  .  .  .  .  .  .  .  .  .  .  .  .  .  .  .  .  .  .  .  .  .  .  .  .  .  .  .  .  .  .  .  .  .  .  .  .  .  .  .  .  .  .  .  .  .  .  .  .  .  .  .  .  .  .  .  .  .  .  .  .  .  .  .  .  .  .  .  ",
".  .  .  .  .  .  .  .  .  .  .  .  .  .  .  .  .  .  .  .  .  .  .  .  .  .  .  .  .  .  .  .  .  .  .  .  .  .  .  .  .  .  .  .  .  .  .  .  .  .  .  .  .  .  .  .  .  .  .  .  .  .  .  .  .  .  .  .  .  .  .  .  .  .  .  .  .  .  .  .  .  .  .  .  .  .  .  .  .  .  .  .  .  .  .  .  .  .  .  .  .  .  .  .  .  .  .  .  .  .  .  .  .  .  .  .  .  .  .  .  .  .  .  .  .  .  .  .  .  .  .  .  .  .  .  .  .  .  .  .  .  .  .  .  .  .  .  .  .  .  .  .  .  .  .  .  .  .  .  .  .  .  .  .  .  .  .  .  .  .  .  .  .  .  .  .  .  .  .  .  .  .  .  .  .  .  .  .  .  .  .  .  .  .  .  .  .  .  .  .  .  .  .  .  .  .  .  .  .  .  .  .  .  .  .  .  .  .  .  .  .  .  .  .  .  .  .  .  .  .  .  .  .  .  .  .  .  .  .  .  .  .  .  .  .  .  .  .  .  .  .  .  .  .  .  .  .  .  .  .  .  .  .  .  .  .  .  .  .  .  .  .  .  .  .  .  .  .  .  .  .  .  .  .  .  .  .  .  .  .  .  .  .  .  .  .  .  .  .  .  .  .  .  .  .  .  .  .  .  .  .  .  .  .  .  .  .  .  .  .  .  .  .  .  .  .  .  .  .  .  .  .  .  .  .  .  .  .  .  .  .  .  .  .  .  .  .  .  .  .  .  .  .  .  .  .  .  .  .  .  .  .  .  .  .  .  .  .  .  .  .  .  .  .  .  .  .  .  .  .  .  .  .  .  .  .  .  .  .  .  .  .  ",
".  .  .  .  .  .  .  .  .  .  .  .  .  .  .  .  .  .  .  .  .  .  .  .  .  .  .  .  .  .  .  .  .  .  .  .  .  .  .  .  .  .  .  .  .  .  .  .  .  .  .  .  .  .  .  .  .  .  .  .  .  .  .  .  .  .  .  .  .  .  .  .  .  .  .  .  .  .  .  .  .  .  .  .  .  .  .  .  .  .  .  .  .  .  .  .  .  .  .  .  .  .  .  .  .  .  .  .  .  .  .  .  .  .  .  .  .  .  .  .  .  .  .  .  .  .  .  .  .  .  .  .  .  .  .  .  .  .  .  .  .  .  .  .  .  .  .  .  .  .  .  .  .  .  .  .  .  .  .  .  .  .  .  .  .  .  .  .  .  .  .  .  .  .  .  .  .  .  .  .  .  .  .  .  .  .  .  .  .  .  .  .  .  .  .  .  .  .  .  .  .  .  .  .  .  .  .  .  .  .  .  .  .  .  .  .  .  .  .  .  .  .  .  .  .  .  .  .  .  .  .  .  .  .  .  .  .  .  .  .  .  .  .  .  .  .  .  .  .  .  .  .  .  .  .  .  .  .  .  .  .  .  .  .  .  .  .  .  .  .  .  .  .  .  .  .  .  .  .  .  .  .  .  .  .  .  .  .  .  .  .  .  .  .  .  .  .  .  .  .  .  .  .  .  .  .  .  .  .  .  .  .  .  .  .  .  .  .  .  .  .  .  .  .  .  .  .  .  .  .  .  .  .  .  .  .  .  .  .  .  .  .  .  .  .  .  .  .  .  .  .  .  .  .  .  .  .  .  .  .  .  .  .  .  .  .  .  .  .  .  .  .  .  .  .  .  .  .  .  .  .  .  .  .  .  .  .  .  .  .  .  .  ",
".  .  .  .  .  .  .  .  .  .  .  .  .  .  .  .  .  .  .  .  .  .  .  .  .  .  .  .  .  .  .  .  .  .  .  .  .  .  .  .  .  .  .  .  .  .  .  .  .  .  .  .  .  .  .  .  .  .  .  .  .  .  .  .  .  .  .  .  .  .  .  .  .  .  .  .  .  .  .  .  .  .  .  .  .  .  .  .  .  .  .  .  .  .  .  .  .  .  .  .  .  .  .  .  .  .  .  .  .  .  .  .  .  .  .  .  .  .  .  .  .  .  .  .  .  .  .  .  .  .  .  .  .  .  .  .  .  .  .  .  .  .  .  .  .  .  .  .  .  .  .  .  .  .  .  .  .  .  .  .  .  .  .  .  .  .  .  .  .  .  .  .  .  .  .  .  .  .  .  .  .  .  .  .  .  .  .  .  .  .  .  .  .  .  .  .  .  .  .  .  .  .  .  .  .  .  .  .  .  .  .  .  .  .  .  .  .  .  .  .  .  .  .  .  .  .  .  .  .  .  .  .  .  .  .  .  .  .  .  .  .  .  .  .  .  .  .  .  .  .  .  .  .  .  .  .  .  .  .  .  .  .  .  .  .  .  .  .  .  .  .  .  .  .  .  .  .  .  .  .  .  .  .  .  .  .  .  .  .  .  .  .  .  .  .  .  .  .  .  .  .  .  .  .  .  .  .  .  .  .  .  .  .  .  .  .  .  .  .  .  .  .  .  .  .  .  .  .  .  .  .  .  .  .  .  .  .  .  .  .  .  .  .  .  .  .  .  .  .  .  .  .  .  .  .  .  .  .  .  .  .  .  .  .  .  .  .  .  .  .  .  .  .  .  .  .  .  .  .  .  .  .  .  .  .  .  .  .  .  .  .  .  ",
".  .  .  .  .  .  .  .  .  .  .  .  .  .  .  .  .  .  .  .  .  .  .  .  .  .  .  .  .  .  .  .  .  .  .  .  .  .  .  .  .  .  .  .  .  .  .  .  .  .  .  .  .  .  .  .  .  .  .  .  .  .  .  .  .  .  .  .  .  .  .  .  .  .  .  .  .  .  .  .  .  .  .  .  .  .  .  .  .  .  .  .  .  .  .  .  .  .  .  .  .  .  .  .  .  .  .  .  .  .  .  .  .  .  .  .  .  .  .  .  .  .  .  .  .  .  .  .  .  .  .  .  .  .  .  .  .  .  .  .  .  .  .  .  .  .  .  .  .  .  .  .  .  .  .  .  .  .  .  .  .  .  .  .  .  .  .  .  .  .  .  .  .  .  .  .  .  .  .  .  .  .  .  .  .  .  .  .  .  .  .  .  .  .  .  .  .  .  .  .  .  .  .  .  .  .  .  .  .  .  .  .  .  .  .  .  .  .  .  .  .  .  .  .  .  .  .  .  .  .  .  .  .  .  .  .  .  .  .  .  .  .  .  .  .  .  .  .  .  .  .  .  .  .  .  .  .  .  .  .  .  .  .  .  .  .  .  .  .  .  .  .  .  .  .  .  .  .  .  .  .  .  .  .  .  .  .  .  .  .  .  .  .  .  .  .  .  .  .  .  .  .  .  .  .  .  .  .  .  .  .  .  .  .  .  .  .  .  .  .  .  .  .  .  .  .  .  .  .  .  .  .  .  .  .  .  .  .  .  .  .  .  .  .  .  .  .  .  .  .  .  .  .  .  .  .  .  .  .  .  .  .  .  .  .  .  .  .  .  .  .  .  .  .  .  .  .  .  .  .  .  .  .  .  .  .  .  .  .  .  .  .  ",
".  .  .  .  .  .  .  .  .  .  .  .  .  .  .  .  .  .  .  .  .  .  .  .  .  .  .  .  .  .  .  .  .  .  .  .  .  .  .  .  .  .  .  .  .  .  .  .  .  .  .  .  .  .  .  .  .  .  .  .  .  .  .  .  .  .  .  .  .  .  .  .  .  .  .  .  .  .  .  .  .  .  .  .  .  .  .  .  .  .  .  .  .  .  .  .  .  .  .  .  .  .  .  .  .  .  .  .  .  .  .  .  .  .  .  .  .  .  .  .  .  .  .  .  .  .  .  .  .  .  .  .  .  .  .  .  .  .  .  .  .  .  .  .  .  .  .  .  .  .  .  .  .  .  .  .  .  .  .  .  .  .  .  .  .  .  .  .  .  .  .  .  .  .  .  .  .  .  .  .  .  .  .  .  .  .  .  .  .  .  .  .  .  .  .  .  .  .  .  .  .  .  .  .  .  .  .  .  .  .  .  .  .  .  .  .  .  .  .  .  .  .  .  .  .  .  .  .  .  .  .  .  .  .  .  .  .  .  .  .  .  .  .  .  .  .  .  .  .  .  .  .  .  .  .  .  .  .  .  .  .  .  .  .  .  .  .  .  .  .  .  .  .  .  .  .  .  .  .  .  .  .  .  .  .  .  .  .  .  .  .  .  .  .  .  .  .  .  .  .  .  .  .  .  .  .  .  .  .  .  .  .  .  .  .  .  .  .  .  .  .  .  .  .  .  .  .  .  .  .  .  .  .  .  .  .  .  .  .  .  .  .  .  .  .  .  .  .  .  .  .  .  .  .  .  .  .  .  .  .  .  .  .  .  .  .  .  .  .  .  .  .  .  .  .  .  .  .  .  .  .  .  .  .  .  .  .  .  .  .  .  .  ",
".  .  .  .  .  .  .  .  .  .  .  .  .  .  .  .  .  .  .  .  .  .  .  .  .  .  .  .  .  .  .  .  .  .  .  .  .  .  .  .  .  .  .  .  .  .  .  .  .  .  .  .  .  .  .  .  .  .  .  .  .  .  .  .  .  .  .  .  .  .  .  .  .  .  .  .  .  .  .  .  .  .  .  .  .  .  .  .  .  .  .  .  .  .  .  .  .  .  .  .  .  .  .  .  .  .  .  .  .  .  .  .  .  .  .  .  .  .  .  .  .  .  .  .  .  .  .  .  .  .  .  .  .  .  .  .  .  .  .  .  .  .  .  .  .  .  .  .  .  .  .  .  .  .  .  .  .  .  .  .  .  .  .  .  .  .  .  .  .  .  .  .  .  .  .  .  .  .  .  .  .  .  .  .  .  .  .  .  .  .  .  .  .  .  .  .  .  .  .  .  .  .  .  .  .  .  .  .  .  .  .  .  .  .  .  .  .  .  .  .  .  .  .  .  .  .  .  .  .  .  .  .  .  .  .  .  .  .  .  .  .  .  .  .  .  .  .  .  .  .  .  .  .  .  .  .  .  .  .  .  .  .  .  .  .  .  .  .  .  .  .  .  .  .  .  .  .  .  .  .  .  .  .  .  .  .  .  .  .  .  .  .  .  .  .  .  .  .  .  .  .  .  .  .  .  .  .  .  .  .  .  .  .  .  .  .  .  .  .  .  .  .  .  .  .  .  .  .  .  .  .  .  .  .  .  .  .  .  .  .  .  .  .  .  .  .  .  .  .  .  .  .  .  .  .  .  .  .  .  .  .  .  .  .  .  .  .  .  .  .  .  .  .  .  .  .  .  .  .  .  .  .  .  .  .  .  .  .  .  .  .  .  ",
".  .  .  .  .  .  .  .  .  .  .  .  .  .  .  .  .  .  .  .  .  .  .  .  .  .  .  .  .  .  .  .  .  .  .  .  .  .  .  .  .  .  .  .  .  .  .  .  .  .  .  .  .  .  .  .  .  .  .  .  .  .  .  .  .  .  .  .  .  .  .  .  .  .  .  .  .  .  .  .  .  .  .  .  .  .  .  .  .  .  .  .  .  .  .  .  .  .  .  .  .  .  .  .  .  .  .  .  .  .  .  .  .  .  .  .  .  .  .  .  .  .  .  .  .  .  .  .  .  .  .  .  .  .  .  .  .  .  .  .  .  .  .  .  .  .  .  .  .  .  .  .  .  .  .  .  .  .  .  .  .  .  .  .  .  .  .  .  .  .  .  .  .  .  .  .  .  .  .  .  .  .  .  .  .  .  .  .  .  .  .  .  .  .  .  .  .  .  .  .  .  .  .  .  .  .  .  .  .  .  .  .  .  .  .  .  .  .  .  .  .  .  .  .  .  .  .  .  .  .  .  .  .  .  .  .  .  .  .  .  .  .  .  .  .  .  .  .  .  .  .  .  .  .  .  .  .  .  .  .  .  .  .  .  .  .  .  .  .  .  .  .  .  .  .  .  .  .  .  .  .  .  .  .  .  .  .  .  .  .  .  .  .  .  .  .  .  .  .  .  .  .  .  .  .  .  .  .  .  .  .  .  .  .  .  .  .  .  .  .  .  .  .  .  .  .  .  .  .  .  .  .  .  .  .  .  .  .  .  .  .  .  .  .  .  .  .  .  .  .  .  .  .  .  .  .  .  .  .  .  .  .  .  .  .  .  .  .  .  .  .  .  .  .  .  .  .  .  .  .  .  .  .  .  .  .  .  .  .  .  .  .  ",
".  .  .  .  .  .  .  .  .  .  .  .  .  .  .  .  .  .  .  .  .  .  .  .  .  .  .  .  .  .  .  .  .  .  .  .  .  .  .  .  .  .  .  .  .  .  .  .  .  .  .  .  .  .  .  .  .  .  .  .  .  .  .  .  .  .  .  .  .  .  .  .  .  .  .  .  .  .  .  .  .  .  .  .  .  .  .  .  .  .  .  .  .  .  .  .  .  .  .  .  .  .  .  .  .  .  .  .  .  .  .  .  .  .  .  .  .  .  .  .  .  .  .  .  .  .  .  .  .  .  .  .  .  .  .  .  .  .  .  .  .  .  .  .  .  .  .  .  .  .  .  .  .  .  .  .  .  .  .  .  .  .  .  .  .  .  .  .  .  .  .  .  .  .  .  .  .  .  .  .  .  .  .  .  .  .  .  .  .  .  .  .  .  .  .  .  .  .  .  .  .  .  .  .  .  .  .  .  .  .  .  .  .  .  .  .  .  .  .  .  .  .  .  .  .  .  .  .  .  .  .  .  .  .  .  .  .  .  .  .  .  .  .  .  .  .  .  .  .  .  .  .  .  .  .  .  .  .  .  .  .  .  .  .  .  .  .  .  .  .  .  .  .  .  .  .  .  .  .  .  .  .  .  .  .  .  .  .  .  .  .  .  .  .  .  .  .  .  .  .  .  .  .  .  .  .  .  .  .  .  .  .  .  .  .  .  .  .  .  .  .  .  .  .  .  .  .  .  .  .  .  .  .  .  .  .  .  .  .  .  .  .  .  .  .  .  .  .  .  .  .  .  .  .  .  .  .  .  .  .  .  .  .  .  .  .  .  .  .  .  .  .  .  .  .  .  .  .  .  .  .  .  .  .  .  .  .  .  .  .  .  .  ",
".  .  .  .  .  .  .  .  .  .  .  .  .  .  .  .  .  .  .  .  .  .  .  .  .  .  .  .  .  .  .  .  .  .  .  .  .  .  .  .  .  .  .  .  .  .  .  .  .  .  .  .  .  .  .  .  .  .  .  .  .  .  .  .  .  .  .  .  .  .  .  .  .  .  .  .  .  .  .  .  .  .  .  .  .  .  .  .  .  .  .  .  .  .  .  .  .  .  .  .  .  .  .  .  .  .  .  .  .  .  .  .  .  .  .  .  .  .  .  .  .  .  .  .  .  .  .  .  .  .  .  .  .  .  .  .  .  .  .  .  .  .  .  .  .  .  .  .  .  .  .  .  .  .  .  .  .  .  .  .  .  .  .  .  .  .  .  .  .  .  .  .  .  .  .  .  .  .  .  .  .  .  .  .  .  .  .  .  .  .  .  .  .  .  .  .  .  .  .  .  .  .  .  .  .  .  .  .  .  .  .  .  .  .  .  .  .  .  .  .  .  .  .  .  .  .  .  .  .  .  .  .  .  .  .  .  .  .  .  .  .  .  .  .  .  .  .  .  .  .  .  .  .  .  .  .  .  .  .  .  .  .  .  .  .  .  .  .  .  .  .  .  .  .  .  .  .  .  .  .  .  .  .  .  .  .  .  .  .  .  .  .  .  .  .  .  .  .  .  .  .  .  .  .  .  .  .  .  .  .  .  .  .  .  .  .  .  .  .  .  .  .  .  .  .  .  .  .  .  .  .  .  .  .  .  .  .  .  .  .  .  .  .  .  .  .  .  .  .  .  .  .  .  .  .  .  .  .  .  .  .  .  .  .  .  .  .  .  .  .  .  .  .  .  .  .  .  .  .  .  .  .  .  .  .  .  .  .  .  .  .  .  ",
".  .  .  .  .  .  .  .  .  .  .  .  .  .  .  .  .  .  .  .  .  .  .  .  .  .  .  .  .  .  .  .  .  .  .  .  .  .  .  .  .  .  .  .  .  .  .  .  .  .  .  .  .  .  .  .  .  .  .  .  .  .  .  .  .  .  .  .  .  .  .  .  .  .  .  .  .  .  .  .  .  .  .  .  .  .  .  .  .  .  .  .  .  .  .  .  .  .  .  .  .  .  .  .  .  .  .  .  .  .  .  .  .  .  .  .  .  .  .  .  .  .  .  .  .  .  .  .  .  .  .  .  .  .  .  .  .  .  .  .  .  .  .  .  .  .  .  .  .  .  .  .  .  .  .  .  .  .  .  .  .  .  .  .  .  .  .  .  .  .  .  .  .  .  .  .  .  .  .  .  .  .  .  .  .  .  .  .  .  .  .  .  .  .  .  .  .  .  .  .  .  .  .  .  .  .  .  .  .  .  .  .  .  .  .  .  .  .  .  .  .  .  .  .  .  .  .  .  .  .  .  .  .  .  .  .  .  .  .  .  .  .  .  .  .  .  .  .  .  .  .  .  .  .  .  .  .  .  .  .  .  .  .  .  .  .  .  .  .  .  .  .  .  .  .  .  .  .  .  .  .  .  .  .  .  .  .  .  .  .  .  .  .  .  .  .  .  .  .  .  .  .  .  .  .  .  .  .  .  .  .  .  .  .  .  .  .  .  .  .  .  .  .  .  .  .  .  .  .  .  .  .  .  .  .  .  .  .  .  .  .  .  .  .  .  .  .  .  .  .  .  .  .  .  .  .  .  .  .  .  .  .  .  .  .  .  .  .  .  .  .  .  .  .  .  .  .  .  .  .  .  .  .  .  .  .  .  .  .  .  .  .  ",
".  .  .  .  .  .  .  .  .  .  .  .  .  .  .  .  .  .  .  .  .  .  .  .  .  .  .  .  .  .  .  .  .  .  .  .  .  .  .  .  .  .  .  .  .  .  .  .  .  .  .  .  .  .  .  .  .  .  .  .  .  .  .  .  .  .  .  .  .  .  .  .  .  .  .  .  .  .  .  .  .  .  .  .  .  .  .  .  .  .  .  .  .  .  .  .  .  .  .  .  .  .  .  .  .  .  .  .  .  .  .  .  .  .  .  .  .  .  .  .  .  .  .  .  .  .  .  .  .  .  .  .  .  .  .  .  .  .  .  .  .  .  .  .  .  .  .  .  .  .  .  .  .  .  .  .  .  .  .  .  .  .  .  .  .  .  .  .  .  .  .  .  .  .  .  .  .  .  .  .  .  .  .  .  .  .  .  .  .  .  .  .  .  .  .  .  .  .  .  .  .  .  .  .  .  .  .  .  .  .  .  .  .  .  .  .  .  .  .  .  .  .  .  .  .  .  .  .  .  .  .  .  .  .  .  .  .  .  .  .  .  .  .  .  .  .  .  .  .  .  .  .  .  .  .  .  .  .  .  .  .  .  .  .  .  .  .  .  .  .  .  .  .  .  .  .  .  .  .  .  .  .  .  .  .  .  .  .  .  .  .  .  .  .  .  .  .  .  .  .  .  .  .  .  .  .  .  .  .  .  .  .  .  .  .  .  .  .  .  .  .  .  .  .  .  .  .  .  .  .  .  .  .  .  .  .  .  .  .  .  .  .  .  .  .  .  .  .  .  .  .  .  .  .  .  .  .  .  .  .  .  .  .  .  .  .  .  .  .  .  .  .  .  .  .  .  .  .  .  .  .  .  .  .  .  .  .  .  .  .  .  .  ",
".  .  .  .  .  .  .  .  .  .  .  .  .  .  .  .  .  .  .  .  .  .  .  .  .  .  .  .  .  .  .  .  .  .  .  .  .  .  .  .  .  .  .  .  .  .  .  .  .  .  .  .  .  .  .  .  .  .  .  .  .  .  .  .  .  .  .  .  .  .  .  .  .  .  .  .  .  .  .  .  .  .  .  .  .  .  .  .  .  .  .  .  .  .  .  .  .  .  .  .  .  .  .  .  .  .  .  .  .  .  .  .  .  .  .  .  .  .  .  .  .  .  .  .  .  .  .  .  .  .  .  .  .  .  .  .  .  .  .  .  .  .  .  .  .  .  .  .  .  .  .  .  .  .  .  .  .  .  .  .  .  .  .  .  .  .  .  .  .  .  .  .  .  .  .  .  .  .  .  .  .  .  .  .  .  .  .  .  .  .  .  .  .  .  .  .  .  .  .  .  .  .  .  .  .  .  .  .  .  .  .  .  .  .  .  .  .  .  .  .  .  .  .  .  .  .  .  .  .  .  .  .  .  .  .  .  .  .  .  .  .  .  .  .  .  .  .  .  .  .  .  .  .  .  .  .  .  .  .  .  .  .  .  .  .  .  .  .  .  .  .  .  .  .  .  .  .  .  .  .  .  .  .  .  .  .  .  .  .  .  .  .  .  .  .  .  .  .  .  .  .  .  .  .  .  .  .  .  .  .  .  .  .  .  .  .  .  .  .  .  .  .  .  .  .  .  .  .  .  .  .  .  .  .  .  .  .  .  .  .  .  .  .  .  .  .  .  .  .  .  .  .  .  .  .  .  .  .  .  .  .  .  .  .  .  .  .  .  .  .  .  .  .  .  .  .  .  .  .  .  .  .  .  .  .  .  .  .  .  .  .  .  ",
".  .  .  .  .  .  .  .  .  .  .  .  .  .  .  .  .  .  .  .  .  .  .  .  .  .  .  .  .  .  .  .  .  .  .  .  .  .  .  .  .  .  .  .  .  .  .  .  .  .  .  .  .  .  .  .  .  .  .  .  .  .  .  .  .  .  .  .  .  .  .  .  .  .  .  .  .  .  .  .  .  .  .  .  .  .  .  .  .  .  .  .  .  .  .  .  .  .  .  .  .  .  .  .  .  .  .  .  .  .  .  .  .  .  .  .  .  .  .  .  .  .  .  .  .  .  .  .  .  .  .  .  .  .  .  .  .  .  .  .  .  .  .  .  .  .  .  .  .  .  .  .  .  .  .  .  .  .  .  .  .  .  .  .  .  .  .  .  .  .  .  .  .  .  .  .  .  .  .  .  .  .  .  .  .  .  .  .  .  .  .  .  .  .  .  .  .  .  .  .  .  .  .  .  .  .  .  .  .  .  .  .  .  .  .  .  .  .  .  .  .  .  .  .  .  .  .  .  .  .  .  .  .  .  .  .  .  .  .  .  .  .  .  .  .  .  .  .  .  .  .  .  .  .  .  .  .  .  .  .  .  .  .  .  .  .  .  .  .  .  .  .  .  .  .  .  .  .  .  .  .  .  .  .  .  .  .  .  .  .  .  .  .  .  .  .  .  .  .  .  .  .  .  .  .  .  .  .  .  .  .  .  .  .  .  .  .  .  .  .  .  .  .  .  .  .  .  .  .  .  .  .  .  .  .  .  .  .  .  .  .  .  .  .  .  .  .  .  .  .  .  .  .  .  .  .  .  .  .  .  .  .  .  .  .  .  .  .  .  .  .  .  .  .  .  .  .  .  .  .  .  .  .  .  .  .  .  .  .  .  .  .  ",
".  .  .  .  .  .  .  .  .  .  .  .  .  .  .  .  .  .  .  .  .  .  .  .  .  .  .  .  .  .  .  .  .  .  .  .  .  .  .  .  .  .  .  .  .  .  .  .  .  .  .  .  .  .  .  .  .  .  .  .  .  .  .  .  .  .  .  .  .  .  .  .  .  .  .  .  .  .  .  .  .  .  .  .  .  .  .  .  .  .  .  .  .  .  .  .  .  .  .  .  .  .  .  .  .  .  .  .  .  .  .  .  .  .  .  .  .  .  .  .  .  .  .  .  .  .  .  .  .  .  .  .  .  .  .  .  .  .  .  .  .  .  .  .  .  .  .  .  .  .  .  .  .  .  .  .  .  .  .  .  .  .  .  .  .  .  .  .  .  .  .  .  .  .  .  .  .  .  .  .  .  .  .  .  .  .  .  .  .  .  .  .  .  .  .  .  .  .  .  .  .  .  .  .  .  .  .  .  .  .  .  .  .  .  .  .  .  .  .  .  .  .  .  .  .  .  .  .  .  .  .  .  .  .  .  .  .  .  .  .  .  .  .  .  .  .  .  .  .  .  .  .  .  .  .  .  .  .  .  .  .  .  .  .  .  .  .  .  .  .  .  .  .  .  .  .  .  .  .  .  .  .  .  .  .  .  .  .  .  .  .  .  .  .  .  .  .  .  .  .  .  .  .  .  .  .  .  .  .  .  .  .  .  .  .  .  .  .  .  .  .  .  .  .  .  .  .  .  .  .  .  .  .  .  .  .  .  .  .  .  .  .  .  .  .  .  .  .  .  .  .  .  .  .  .  .  .  .  .  .  .  .  .  .  .  .  .  .  .  .  .  .  .  .  .  .  .  .  .  .  .  .  .  .  .  .  .  .  .  .  .  .  ",
".  .  .  .  .  .  .  .  .  .  .  .  .  .  .  .  .  .  .  .  .  .  .  .  .  .  .  .  .  .  .  .  .  .  .  .  .  .  .  .  .  .  .  .  .  .  .  .  .  .  .  .  .  .  .  .  .  .  .  .  .  .  .  .  .  .  .  .  .  .  .  .  .  .  .  .  .  .  .  .  .  .  .  .  .  .  .  .  .  .  .  .  .  .  .  .  .  .  .  .  .  .  .  .  .  .  .  .  .  .  .  .  .  .  .  .  .  .  .  .  .  .  .  .  .  .  .  .  .  .  .  .  .  .  .  .  .  .  .  .  .  .  .  .  .  .  .  .  .  .  .  .  .  .  .  .  .  .  .  .  .  .  .  .  .  .  .  .  .  .  .  .  .  .  .  .  .  .  .  .  .  .  .  .  .  .  .  .  .  .  .  .  .  .  .  .  .  .  .  .  .  .  .  .  .  .  .  .  .  .  .  .  .  .  .  .  .  .  .  .  .  .  .  .  .  .  .  .  .  .  .  .  .  .  .  .  .  .  .  .  .  .  .  .  .  .  .  .  .  .  .  .  .  .  .  .  .  .  .  .  .  .  .  .  .  .  .  .  .  .  .  .  .  .  .  .  .  .  .  .  .  .  .  .  .  .  .  .  .  .  .  .  .  .  .  .  .  .  .  .  .  .  .  .  .  .  .  .  .  .  .  .  .  .  .  .  .  .  .  .  .  .  .  .  .  .  .  .  .  .  .  .  .  .  .  .  .  .  .  .  .  .  .  .  .  .  .  .  .  .  .  .  .  .  .  .  .  .  .  .  .  .  .  .  .  .  .  .  .  .  .  .  .  .  .  .  .  .  .  .  .  .  .  .  .  .  .  .  .  .  .  .  ",
".  .  .  .  .  .  .  .  .  .  .  .  .  .  .  .  .  .  .  .  .  .  .  .  .  .  .  .  .  .  .  .  .  .  .  .  .  .  .  .  .  .  .  .  .  .  .  .  .  .  .  .  .  .  .  .  .  .  .  .  .  .  .  .  .  .  .  .  .  .  .  .  .  .  .  .  .  .  .  .  .  .  .  .  .  .  .  .  .  .  .  .  .  .  .  .  .  .  .  .  .  .  .  .  .  .  .  .  .  .  .  .  .  .  .  .  .  .  .  .  .  .  .  .  .  .  .  .  .  .  .  .  .  .  .  .  .  .  .  .  .  .  .  .  .  .  .  .  .  .  .  .  .  .  .  .  .  .  .  .  .  .  .  .  .  .  .  .  .  .  .  .  .  .  .  .  .  .  .  .  .  .  .  .  .  .  .  .  .  .  .  .  .  .  .  .  .  .  .  .  .  .  .  .  .  .  .  .  .  .  .  .  .  .  .  .  .  .  .  .  .  .  .  .  .  .  .  .  .  .  .  .  .  .  .  .  .  .  .  .  .  .  .  .  .  .  .  .  .  .  .  .  .  .  .  .  .  .  .  .  .  .  .  .  .  .  .  .  .  .  .  .  .  .  .  .  .  .  .  .  .  .  .  .  .  .  .  .  .  .  .  .  .  .  .  .  .  .  .  .  .  .  .  .  .  .  .  .  .  .  .  .  .  .  .  .  .  .  .  .  .  .  .  .  .  .  .  .  .  .  .  .  .  .  .  .  .  .  .  .  .  .  .  .  .  .  .  .  .  .  .  .  .  .  .  .  .  .  .  .  .  .  .  .  .  .  .  .  .  .  .  .  .  .  .  .  .  .  .  .  .  .  .  .  .  .  .  .  .  .  .  .  ",
".  .  .  .  .  .  .  .  .  .  .  .  .  .  .  .  .  .  .  .  .  .  .  .  .  .  .  .  .  .  .  .  .  .  .  .  .  .  .  .  .  .  .  .  .  .  .  .  .  .  .  .  .  .  .  .  .  .  .  .  .  .  .  .  .  .  .  .  .  .  .  .  .  .  .  .  .  .  .  .  .  .  .  .  .  .  .  .  .  .  .  .  .  .  .  .  .  .  .  .  .  .  .  .  .  .  .  .  .  .  .  .  .  .  .  .  .  .  .  .  .  .  .  .  .  .  .  .  .  .  .  .  .  .  .  .  .  .  .  .  .  .  .  .  .  .  .  .  .  .  .  .  .  .  .  .  .  .  .  .  .  .  .  .  .  .  .  .  .  .  .  .  .  .  .  .  .  .  .  .  .  .  .  .  .  .  .  .  .  .  .  .  .  .  .  .  .  .  .  .  .  .  .  .  .  .  .  .  .  .  .  .  .  .  .  .  .  .  .  .  .  .  .  .  .  .  .  .  .  .  .  .  .  .  .  .  .  .  .  .  .  .  .  .  .  .  .  .  .  .  .  .  .  .  .  .  .  .  .  .  .  .  .  .  .  .  .  .  .  .  .  .  .  .  .  .  .  .  .  .  .  .  .  .  .  .  .  .  .  .  .  .  .  .  .  .  .  .  .  .  .  .  .  .  .  .  .  .  .  .  .  .  .  .  .  .  .  .  .  .  .  .  .  .  .  .  .  .  .  .  .  .  .  .  .  .  .  .  .  .  .  .  .  .  .  .  .  .  .  .  .  .  .  .  .  .  .  .  .  .  .  .  .  .  .  .  .  .  .  .  .  .  .  .  .  .  .  .  .  .  .  .  .  .  .  .  .  .  .  .  .  .  ",
".  .  .  .  .  .  .  .  .  .  .  .  .  .  .  .  .  .  .  .  .  .  .  .  .  .  .  .  .  .  .  .  .  .  .  .  .  .  .  .  .  .  .  .  .  .  .  .  .  .  .  .  .  .  .  .  .  .  .  .  .  .  .  .  .  .  .  .  .  .  .  .  .  .  .  .  .  .  .  .  .  .  .  .  .  .  .  .  .  .  .  .  .  .  .  .  .  .  .  .  .  .  .  .  .  .  .  .  .  .  .  .  .  .  .  .  .  .  .  .  .  .  .  .  .  .  .  .  .  .  .  .  .  .  .  .  .  .  .  .  .  .  .  .  .  .  .  .  .  .  .  .  .  .  .  .  .  .  .  .  .  .  .  .  .  .  .  .  .  .  .  .  .  .  .  .  .  .  .  .  .  .  .  .  .  .  .  .  .  .  .  .  .  .  .  .  .  .  .  .  .  .  .  .  .  .  .  .  .  .  .  .  .  .  .  .  .  .  .  .  .  .  .  .  .  .  .  .  .  .  .  .  .  .  .  .  .  .  .  .  .  .  .  .  .  .  .  .  .  .  .  .  .  .  .  .  .  .  .  .  .  .  .  .  .  .  .  .  .  .  .  .  .  .  .  .  .  .  .  .  .  .  .  .  .  .  .  .  .  .  .  .  .  .  .  .  .  .  .  .  .  .  .  .  .  .  .  .  .  .  .  .  .  .  .  .  .  .  .  .  .  .  .  .  .  .  .  .  .  .  .  .  .  .  .  .  .  .  .  .  .  .  .  .  .  .  .  .  .  .  .  .  .  .  .  .  .  .  .  .  .  .  .  .  .  .  .  .  .  .  .  .  .  .  .  .  .  .  .  .  .  .  .  .  .  .  .  .  .  .  .  .  ",
".  .  .  .  .  .  .  .  .  .  .  .  .  .  .  .  .  .  .  .  .  .  .  .  .  .  .  .  .  .  .  .  .  .  .  .  .  .  .  .  .  .  .  .  .  .  .  .  .  .  .  .  .  .  .  .  .  .  .  .  .  .  .  .  .  .  .  .  .  .  .  .  .  .  .  .  .  .  .  .  .  .  .  .  .  .  .  .  .  .  .  .  .  .  .  .  .  .  .  .  .  .  .  .  .  .  .  .  .  .  .  .  .  .  .  .  .  .  .  .  .  .  .  .  .  .  .  .  .  .  .  .  .  .  .  .  .  .  .  .  .  .  .  .  .  .  .  .  .  .  .  .  .  .  .  .  .  .  .  .  .  .  .  .  .  .  .  .  .  .  .  .  .  .  .  .  .  .  .  .  .  .  .  .  .  .  .  .  .  .  .  .  .  .  .  .  .  .  .  .  .  .  .  .  .  .  .  .  .  .  .  .  .  .  .  .  .  .  .  .  .  .  .  .  .  .  .  .  .  .  .  .  .  .  .  .  .  .  .  .  .  .  .  .  .  .  .  .  .  .  .  .  .  .  .  .  .  .  .  .  .  .  .  .  .  .  .  .  .  .  .  .  .  .  .  .  .  .  .  .  .  .  .  .  .  .  .  .  .  .  .  .  .  .  .  .  .  .  .  .  .  .  .  .  .  .  .  .  .  .  .  .  .  .  .  .  .  .  .  .  .  .  .  .  .  .  .  .  .  .  .  .  .  .  .  .  .  .  .  .  .  .  .  .  .  .  .  .  .  .  .  .  .  .  .  .  .  .  .  .  .  .  .  .  .  .  .  .  .  .  .  .  .  .  .  .  .  .  .  .  .  .  .  .  .  .  .  .  .  .  .  .  ",
".  .  .  .  .  .  .  .  .  .  .  .  .  .  .  .  .  .  .  .  .  .  .  .  .  .  .  .  .  .  .  .  .  .  .  .  .  .  .  .  .  .  .  .  .  .  .  .  .  .  .  .  .  .  .  .  .  .  .  .  .  .  .  .  .  .  .  .  .  .  .  .  .  .  .  .  .  .  .  .  .  .  .  .  .  .  .  .  .  .  .  .  .  .  .  .  .  .  .  .  .  .  .  .  .  .  .  .  .  .  .  .  .  .  .  .  .  .  .  .  .  .  .  .  .  .  .  .  .  .  .  .  .  .  .  .  .  .  .  .  .  .  .  .  .  .  .  .  .  .  .  .  .  .  .  .  .  .  .  .  .  .  .  .  .  .  .  .  .  .  .  .  .  .  .  .  .  .  .  .  .  .  .  .  .  .  .  .  .  .  .  .  .  .  .  .  .  .  .  .  .  .  .  .  .  .  .  .  .  .  .  .  .  .  .  .  .  .  .  .  .  .  .  .  .  .  .  .  .  .  .  .  .  .  .  .  .  .  .  .  .  .  .  .  .  .  .  .  .  .  .  .  .  .  .  .  .  .  .  .  .  .  .  .  .  .  .  .  .  .  .  .  .  .  .  .  .  .  .  .  .  .  .  .  .  .  .  .  .  .  .  .  .  .  .  .  .  .  .  .  .  .  .  .  .  .  .  .  .  .  .  .  .  .  .  .  .  .  .  .  .  .  .  .  .  .  .  .  .  .  .  .  .  .  .  .  .  .  .  .  .  .  .  .  .  .  .  .  .  .  .  .  .  .  .  .  .  .  .  .  .  .  .  .  .  .  .  .  .  .  .  .  .  .  .  .  .  .  .  .  .  .  .  .  .  .  .  .  .  .  .  .  ",
".  .  .  .  .  .  .  .  .  .  .  .  .  .  .  .  .  .  .  .  .  .  .  .  .  .  .  .  .  .  .  .  .  .  .  .  .  .  .  .  .  .  .  .  .  .  .  .  .  .  .  .  .  .  .  .  .  .  .  .  .  .  .  .  .  .  .  .  .  .  .  .  .  .  .  .  .  .  .  .  .  .  .  .  .  .  .  .  .  .  .  .  .  .  .  .  .  .  .  .  .  .  .  .  .  .  .  .  .  .  .  .  .  .  .  .  .  .  .  .  .  .  .  .  .  .  .  .  .  .  .  .  .  .  .  .  .  .  .  .  .  .  .  .  .  .  .  .  .  .  .  .  .  .  .  .  .  .  .  .  .  .  .  .  .  .  .  .  .  .  .  .  .  .  .  .  .  .  .  .  .  .  .  .  .  .  .  .  .  .  .  .  .  .  .  .  .  .  .  .  .  .  .  .  .  .  .  .  .  .  .  .  .  .  .  .  .  .  .  .  .  .  .  .  .  .  .  .  .  .  .  .  .  .  .  .  .  .  .  .  .  .  .  .  .  .  .  .  .  .  .  .  .  .  .  .  .  .  .  .  .  .  .  .  .  .  .  .  .  .  .  .  .  .  .  .  .  .  .  .  .  .  .  .  .  .  .  .  .  .  .  .  .  .  .  .  .  .  .  .  .  .  .  .  .  .  .  .  .  .  .  .  .  .  .  .  .  .  .  .  .  .  .  .  .  .  .  .  .  .  .  .  .  .  .  .  .  .  .  .  .  .  .  .  .  .  .  .  .  .  .  .  .  .  .  .  .  .  .  .  .  .  .  .  .  .  .  .  .  .  .  .  .  .  .  .  .  .  .  .  .  .  .  .  .  .  .  .  .  .  .  .  ",
".  .  .  .  .  .  .  .  .  .  .  .  .  .  .  .  .  .  .  .  .  .  .  .  .  .  .  .  .  .  .  .  .  .  .  .  .  .  .  .  .  .  .  .  .  .  .  .  .  .  .  .  .  .  .  .  .  .  .  .  .  .  .  .  .  .  .  .  .  .  .  .  .  .  .  .  .  .  .  .  .  .  .  .  .  .  .  .  .  .  .  .  .  .  .  .  .  .  .  .  .  .  .  .  .  .  .  .  .  .  .  .  .  .  .  .  .  .  .  .  .  .  .  .  .  .  .  .  .  .  .  .  .  .  .  .  .  .  .  .  .  .  .  .  .  .  .  .  .  .  .  .  .  .  .  .  .  .  .  .  .  .  .  .  .  .  .  .  .  .  .  .  .  .  .  .  .  .  .  .  .  .  .  .  .  .  .  .  .  .  .  .  .  .  .  .  .  .  .  .  .  .  .  .  .  .  .  .  .  .  .  .  .  .  .  .  .  .  .  .  .  .  .  .  .  .  .  .  .  .  .  .  .  .  .  .  .  .  .  .  .  .  .  .  .  .  .  .  .  .  .  .  .  .  .  .  .  .  .  .  .  .  .  .  .  .  .  .  .  .  .  .  .  .  .  .  .  .  .  .  .  .  .  .  .  .  .  .  .  .  .  .  .  .  .  .  .  .  .  .  .  .  .  .  .  .  .  .  .  .  .  .  .  .  .  .  .  .  .  .  .  .  .  .  .  .  .  .  .  .  .  .  .  .  .  .  .  .  .  .  .  .  .  .  .  .  .  .  .  .  .  .  .  .  .  .  .  .  .  .  .  .  .  .  .  .  .  .  .  .  .  .  .  .  .  .  .  .  .  .  .  .  .  .  .  .  .  .  .  .  .  .  ",
".  .  .  .  .  .  .  .  .  .  .  .  .  .  .  .  .  .  .  .  .  .  .  .  .  .  .  .  .  .  .  .  .  .  .  .  .  .  .  .  .  .  .  .  .  .  .  .  .  .  .  .  .  .  .  .  .  .  .  .  .  .  .  .  .  .  .  .  .  .  .  .  .  .  .  .  .  .  .  .  .  .  .  .  .  .  .  .  .  .  .  .  .  .  .  .  .  .  .  .  .  .  .  .  .  .  .  .  .  .  .  .  .  .  .  .  .  .  .  .  .  .  .  .  .  .  .  .  .  .  .  .  .  .  .  .  .  .  .  .  .  .  .  .  .  .  .  .  .  .  .  .  .  .  .  .  .  .  .  .  .  .  .  .  .  .  .  .  .  .  .  .  .  .  .  .  .  .  .  .  .  .  .  .  .  .  .  .  .  .  .  .  .  .  .  .  .  .  .  .  .  .  .  .  .  .  .  .  .  .  .  .  .  .  .  .  .  .  .  .  .  .  .  .  .  .  .  .  .  .  .  .  .  .  .  .  .  .  .  .  .  .  .  .  .  .  .  .  .  .  .  .  .  .  .  .  .  .  .  .  .  .  .  .  .  .  .  .  .  .  .  .  .  .  .  .  .  .  .  .  .  .  .  .  .  .  .  .  .  .  .  .  .  .  .  .  .  .  .  .  .  .  .  .  .  .  .  .  .  .  .  .  .  .  .  .  .  .  .  .  .  .  .  .  .  .  .  .  .  .  .  .  .  .  .  .  .  .  .  .  .  .  .  .  .  .  .  .  .  .  .  .  .  .  .  .  .  .  .  .  .  .  .  .  .  .  .  .  .  .  .  .  .  .  .  .  .  .  .  .  .  .  .  .  .  .  .  .  .  .  .  .  ",
".  .  .  .  .  .  .  .  .  .  .  .  .  .  .  .  .  .  .  .  .  .  .  .  .  .  .  .  .  .  .  .  .  .  .  .  .  .  .  .  .  .  .  .  .  .  .  .  .  .  .  .  .  .  .  .  .  .  .  .  .  .  .  .  .  .  .  .  .  .  .  .  .  .  .  .  .  .  .  .  .  .  .  .  .  .  .  .  .  .  .  .  .  .  .  .  .  .  .  .  .  .  .  .  .  .  .  .  .  .  .  .  .  .  .  .  .  .  .  .  .  .  .  .  .  .  .  .  .  .  .  .  .  .  .  .  .  .  .  .  .  .  .  .  .  .  .  .  .  .  .  .  .  .  .  .  .  .  .  .  .  .  .  .  .  .  .  .  .  .  .  .  .  .  .  .  .  .  .  .  .  .  .  .  .  .  .  .  .  .  .  .  .  .  .  .  .  .  .  .  .  .  .  .  .  .  .  .  .  .  .  .  .  .  .  .  .  .  .  .  .  .  .  .  .  .  .  .  .  .  .  .  .  .  .  .  .  .  .  .  .  .  .  .  .  .  .  .  .  .  .  .  .  .  .  .  .  .  .  .  .  .  .  .  .  .  .  .  .  .  .  .  .  .  .  .  .  .  .  .  .  .  .  .  .  .  .  .  .  .  .  .  .  .  .  .  .  .  .  .  .  .  .  .  .  .  .  .  .  .  .  .  .  .  .  .  .  .  .  .  .  .  .  .  .  .  .  .  .  .  .  .  .  .  .  .  .  .  .  .  .  .  .  .  .  .  .  .  .  .  .  .  .  .  .  .  .  .  .  .  .  .  .  .  .  .  .  .  .  .  .  .  .  .  .  .  .  .  .  .  .  .  .  .  .  .  .  .  .  .  .  .  ",
".  .  .  .  .  .  .  .  .  .  .  .  .  .  .  .  .  .  .  .  .  .  .  .  .  .  .  .  .  .  .  .  .  .  .  .  .  .  .  .  .  .  .  .  .  .  .  .  .  .  .  .  .  .  .  .  .  .  .  .  .  .  .  .  .  .  .  .  .  .  .  .  .  .  .  .  .  .  .  .  .  .  .  .  .  .  .  .  .  .  .  .  .  .  .  .  .  .  .  .  .  .  .  .  .  .  .  .  .  .  .  .  .  .  .  .  .  .  .  .  .  .  .  .  .  .  .  .  .  .  .  .  .  .  .  .  .  .  .  .  .  .  .  .  .  .  .  .  .  .  .  .  .  .  .  .  .  .  .  .  .  .  .  .  .  .  .  .  .  .  .  .  .  .  .  .  .  .  .  .  .  .  .  .  .  .  .  .  .  .  .  .  .  .  .  .  .  .  .  .  .  .  .  .  .  .  .  .  .  .  .  .  .  .  .  .  .  .  .  .  .  .  .  .  .  .  .  .  .  .  .  .  .  .  .  .  .  .  .  .  .  .  .  .  .  .  .  .  .  .  .  .  .  .  .  .  .  .  .  .  .  .  .  .  .  .  .  .  .  .  .  .  .  .  .  .  .  .  .  .  .  .  .  .  .  .  .  .  .  .  .  .  .  .  .  .  .  .  .  .  .  .  .  .  .  .  .  .  .  .  .  .  .  .  .  .  .  .  .  .  .  .  .  .  .  .  .  .  .  .  .  .  .  .  .  .  .  .  .  .  .  .  .  .  .  .  .  .  .  .  .  .  .  .  .  .  .  .  .  .  .  .  .  .  .  .  .  .  .  .  .  .  .  .  .  .  .  .  .  .  .  .  .  .  .  .  .  .  .  .  .  .  ",
".  .  .  .  .  .  .  .  .  .  .  .  .  .  .  .  .  .  .  .  .  .  .  .  .  .  .  .  .  .  .  .  .  .  .  .  .  .  .  .  .  .  .  .  .  .  .  .  .  .  .  .  .  .  .  .  .  .  .  .  .  .  .  .  .  .  .  .  .  .  .  .  .  .  .  .  .  .  .  .  .  .  .  .  .  .  .  .  .  .  .  .  .  .  .  .  .  .  .  .  .  .  .  .  .  .  .  .  .  .  .  .  .  .  .  .  .  .  .  .  .  .  .  .  .  .  .  .  .  .  .  .  .  .  .  .  .  .  .  .  .  .  .  .  .  .  .  .  .  .  .  .  .  .  .  .  .  .  .  .  .  .  .  .  .  .  .  .  .  .  .  .  .  .  .  .  .  .  .  .  .  .  .  .  .  .  .  .  .  .  .  .  .  .  .  .  .  .  .  .  .  .  .  .  .  .  .  .  .  .  .  .  .  .  .  .  .  .  .  .  .  .  .  .  .  .  .  .  .  .  .  .  .  .  .  .  .  .  .  .  .  .  .  .  .  .  .  .  .  .  .  .  .  .  .  .  .  .  .  .  .  .  .  .  .  .  .  .  .  .  .  .  .  .  .  .  .  .  .  .  .  .  .  .  .  .  .  .  .  .  .  .  .  .  .  .  .  .  .  .  .  .  .  .  .  .  .  .  .  .  .  .  .  .  .  .  .  .  .  .  .  .  .  .  .  .  .  .  .  .  .  .  .  .  .  .  .  .  .  .  .  .  .  .  .  .  .  .  .  .  .  .  .  .  .  .  .  .  .  .  .  .  .  .  .  .  .  .  .  .  .  .  .  .  .  .  .  .  .  .  .  .  .  .  .  .  .  .  .  .  .  .  ",
".  .  .  .  .  .  .  .  .  .  .  .  .  .  .  .  .  .  .  .  .  .  .  .  .  .  .  .  .  .  .  .  .  .  .  .  .  .  .  .  .  .  .  .  .  .  .  .  .  .  .  .  .  .  .  .  .  .  .  .  .  .  .  .  .  .  .  .  .  .  .  .  .  .  .  .  .  .  .  .  .  .  .  .  .  .  .  .  .  .  .  .  .  .  .  .  .  .  .  .  .  .  .  .  .  .  .  .  .  .  .  .  .  .  .  .  .  .  .  .  .  .  .  .  .  .  .  .  .  .  .  .  .  .  .  .  .  .  .  .  .  .  .  .  .  .  .  .  .  .  .  .  .  .  .  .  .  .  .  .  .  .  .  .  .  .  .  .  .  .  .  .  .  .  .  .  .  .  .  .  .  .  .  .  .  .  .  .  .  .  .  .  .  .  .  .  .  .  .  .  .  .  .  .  .  .  .  .  .  .  .  .  .  .  .  .  .  .  .  .  .  .  .  .  .  .  .  .  .  .  .  .  .  .  .  .  .  .  .  .  .  .  .  .  .  .  .  .  .  .  .  .  .  .  .  .  .  .  .  .  .  .  .  .  .  .  .  .  .  .  .  .  .  .  .  .  .  .  .  .  .  .  .  .  .  .  .  .  .  .  .  .  .  .  .  .  .  .  .  .  .  .  .  .  .  .  .  .  .  .  +  @  #  #  @  $  .  .  .  .  .  .  .  .  .  .  .  .  .  .  .  .  .  .  .  .  .  .  .  .  .  .  .  .  .  .  .  .  .  .  .  .  .  .  .  .  .  .  .  .  .  .  .  .  .  .  .  .  .  .  .  .  .  .  .  .  .  .  .  .  .  .  .  .  .  .  .  .  .  .  .  .  ",
".  .  .  .  .  .  .  .  .  .  .  .  .  .  .  .  .  .  .  .  .  .  .  .  .  .  .  .  .  .  .  .  .  .  .  .  .  .  .  .  .  .  .  .  .  .  .  .  .  .  .  .  .  .  .  .  .  .  .  .  .  .  .  .  .  .  .  .  .  .  .  .  .  .  .  .  .  .  .  .  .  .  .  .  .  .  .  .  .  .  .  .  .  .  .  .  .  .  .  .  .  .  .  .  .  .  .  .  .  .  .  .  .  .  .  .  .  .  .  .  .  .  .  .  .  .  .  .  .  .  .  .  .  .  .  .  .  .  .  .  .  .  .  .  .  .  .  .  .  .  .  .  .  .  .  .  .  .  .  .  .  .  .  .  .  .  .  .  .  .  .  .  .  .  .  .  .  .  .  .  .  .  .  .  .  .  .  .  .  .  .  .  .  .  .  .  .  .  .  .  .  .  .  .  .  .  .  .  .  .  .  .  .  .  .  .  .  .  .  .  .  .  .  .  .  .  .  .  .  .  .  .  .  .  .  .  .  .  .  .  .  .  .  .  .  .  .  .  .  .  .  .  .  .  .  .  .  .  .  .  .  .  .  .  .  .  .  .  .  .  .  .  .  .  .  .  .  .  .  .  .  .  .  .  .  .  .  .  .  .  .  .  .  .  .  .  .  .  .  .  .  .  .  .  .  .  .  .  .  %  &  *  =  -  ;  >  ,  '  .  .  .  .  .  .  .  .  .  .  .  .  .  .  .  .  .  .  .  .  .  .  .  .  .  .  .  .  .  .  .  .  .  .  .  .  .  .  .  .  .  .  .  .  .  .  .  .  .  .  .  .  .  .  .  .  .  .  .  .  .  .  .  .  .  .  .  .  .  .  .  .  .  .  ",
".  .  .  .  .  .  .  .  .  .  .  .  .  .  .  .  .  .  .  .  .  .  .  .  .  .  .  .  .  .  .  .  .  .  .  .  .  .  .  .  .  .  .  .  .  .  .  .  .  .  .  .  .  .  .  .  .  .  .  .  .  .  .  .  .  .  .  .  .  .  .  .  .  .  .  .  .  .  .  .  .  .  .  .  .  .  .  .  .  .  .  .  .  .  .  .  .  .  .  .  .  .  .  .  .  .  .  .  .  .  .  .  .  .  .  .  .  .  .  .  .  .  .  .  .  .  .  .  .  .  .  .  .  .  .  .  .  .  .  .  .  .  .  .  .  .  .  .  .  .  .  .  .  .  .  .  .  .  .  .  .  .  .  .  .  .  .  .  .  .  .  .  .  .  .  .  .  .  .  .  .  .  .  .  .  .  .  .  .  .  .  .  .  .  .  .  .  .  .  .  .  .  .  .  .  .  .  .  .  .  .  .  .  .  .  .  .  .  .  .  .  .  .  .  .  .  .  .  .  .  .  .  .  .  .  .  .  .  .  .  .  .  .  .  .  .  .  .  .  .  .  .  .  .  .  .  .  .  .  .  .  .  .  .  .  .  .  .  .  .  .  .  .  .  .  .  .  .  .  .  .  .  .  .  .  .  .  .  .  .  .  .  .  .  .  .  .  .  .  .  .  .  .  .  .  .  .  .  .  )  !  ~  {  ]  ^  /  (  _  .  .  .  .  .  .  .  .  .  .  .  .  .  .  .  .  .  .  .  .  .  .  .  .  .  .  .  .  .  .  .  .  .  .  .  .  .  .  .  .  .  .  .  .  .  .  .  .  .  .  .  .  .  .  .  .  .  .  .  .  .  .  .  .  .  .  .  .  .  .  .  .  .  .  ",
".  .  .  .  .  .  .  .  .  .  .  .  .  .  .  .  .  .  .  .  .  .  .  .  .  .  .  .  .  .  .  .  .  .  .  .  .  .  .  .  .  .  .  .  .  .  .  .  .  .  .  .  .  .  .  .  .  .  .  .  .  .  .  .  .  .  .  .  .  .  .  .  .  .  .  .  .  .  .  .  .  .  .  .  .  .  .  .  .  .  .  .  .  .  .  .  .  .  .  .  .  .  .  .  .  .  .  .  .  .  .  .  .  .  .  .  .  .  .  .  .  .  .  .  .  .  .  .  .  .  .  .  .  .  .  .  .  .  .  .  .  .  .  .  .  .  .  .  .  .  .  .  .  .  .  .  .  .  .  .  .  .  .  .  .  .  .  .  .  .  .  .  .  .  .  .  .  .  .  .  .  .  .  .  .  .  .  .  .  .  .  .  .  .  .  .  .  .  .  .  .  .  .  .  .  .  .  .  .  .  .  .  .  .  .  .  .  .  .  .  .  .  .  .  .  .  .  .  .  .  .  .  .  .  .  .  .  .  .  .  .  .  .  .  .  .  .  .  .  .  .  .  .  .  .  .  .  .  .  .  .  .  .  .  .  .  .  .  .  .  .  .  .  .  .  .  .  .  .  .  .  .  .  .  .  .  .  .  .  .  .  .  .  .  .  .  .  .  .  .  .  .  .  .  .  .  .  .  .  :  <  [  }  |  1  2  3  4  .  .  .  .  .  .  .  .  .  .  .  .  .  .  .  .  .  .  .  .  .  .  .  .  .  .  .  .  .  .  .  .  .  .  .  .  .  .  .  .  .  .  .  .  .  .  .  .  .  .  .  .  .  .  .  .  .  .  .  .  .  .  .  .  .  .  .  .  .  .  .  .  .  .  ",
".  .  .  .  .  .  .  .  .  .  .  .  .  .  .  .  .  .  .  .  .  .  .  .  .  .  .  .  .  .  .  .  .  .  .  .  .  .  .  .  .  .  .  .  .  .  .  .  .  .  .  .  .  .  .  .  .  .  .  .  .  .  .  .  .  .  .  .  .  .  .  .  .  .  .  .  .  .  .  .  .  .  .  .  .  .  .  .  .  .  .  .  .  .  .  .  .  .  .  .  .  .  .  .  .  .  .  .  .  .  .  .  .  .  .  .  .  .  .  .  .  .  .  .  .  .  .  .  .  .  .  .  .  .  .  .  .  .  .  .  .  .  .  .  .  .  .  .  .  .  .  .  .  .  .  .  .  .  .  .  .  .  .  .  .  .  .  .  .  .  .  .  .  .  .  .  .  .  .  .  .  .  .  .  .  .  .  .  .  .  .  .  .  .  .  .  .  .  .  .  .  .  .  .  .  .  .  .  .  .  .  .  .  .  .  .  .  .  .  .  .  .  .  .  .  .  .  .  .  .  .  .  .  .  .  .  .  .  .  .  .  .  .  .  .  .  .  .  .  .  .  .  .  .  .  .  .  .  .  .  .  .  .  .  .  .  .  .  .  .  .  .  .  .  .  .  .  .  .  .  .  .  .  .  .  .  .  .  .  .  .  .  .  .  .  .  .  .  .  .  .  .  .  .  .  .  .  .  .  5  6  7  8  9  0  a  b  c  .  .  .  .  .  .  .  .  .  .  .  .  .  .  .  .  .  .  .  .  .  .  .  .  .  .  .  .  .  .  .  .  .  .  .  .  .  .  .  .  .  .  .  .  .  .  .  .  .  .  .  .  .  .  .  .  .  .  .  .  .  .  .  .  .  .  .  .  .  .  .  .  .  .  ",
".  .  .  .  .  .  .  .  .  .  .  .  .  .  .  .  .  .  .  .  .  .  .  .  .  .  .  .  .  .  .  .  .  .  .  .  .  .  .  .  .  .  .  .  .  .  .  .  .  .  .  .  .  .  .  .  .  .  .  .  .  .  .  .  .  .  .  .  .  .  .  .  .  .  .  .  .  .  .  .  .  .  .  .  .  .  .  .  .  .  .  .  .  .  .  .  .  .  .  .  .  .  .  .  .  .  .  .  .  .  .  .  .  .  .  .  .  .  .  .  .  .  .  .  .  .  .  .  .  .  .  .  .  .  .  .  .  .  .  .  .  .  .  .  .  .  .  .  .  .  .  .  .  .  .  .  .  .  .  .  .  .  .  .  .  .  .  .  .  .  .  .  .  .  .  .  .  .  .  .  .  .  .  .  .  .  .  .  .  .  .  .  .  .  .  .  .  .  .  .  .  .  .  .  .  .  .  .  .  .  .  .  .  .  .  .  .  .  .  .  .  .  .  .  .  .  .  .  .  .  .  .  .  .  .  .  .  .  .  .  .  .  .  .  .  .  .  .  .  .  .  .  .  .  .  .  .  .  .  .  .  .  .  .  .  .  .  .  .  .  .  .  .  .  .  .  .  .  .  .  .  .  .  .  .  .  .  .  .  .  .  .  .  .  .  .  .  .  .  .  .  .  .  .  .  .  .  .  .  d  e  f  g  h  i  a  j  k  .  .  .  .  .  .  .  .  .  .  .  .  .  .  .  .  .  .  .  .  .  .  .  .  .  .  .  .  .  .  .  .  .  .  .  .  .  .  .  .  .  .  .  .  .  .  .  .  .  .  .  .  .  .  .  .  .  .  .  .  .  .  .  .  .  .  .  .  .  .  .  .  .  .  ",
".  .  .  .  .  .  .  .  .  .  .  .  .  .  .  .  .  .  .  .  .  .  .  .  .  .  .  .  .  .  .  .  .  .  .  .  .  .  .  .  .  .  .  .  .  .  .  .  .  .  .  .  .  .  .  .  .  .  .  .  .  .  .  .  .  .  .  .  .  .  .  .  .  .  .  .  .  .  .  .  .  .  .  .  .  .  .  .  .  .  .  .  .  .  .  .  .  .  .  .  .  .  .  .  .  .  .  .  .  .  .  .  .  .  .  .  .  .  .  .  .  .  .  .  .  .  .  .  .  .  .  .  .  .  .  .  .  .  .  .  .  .  .  .  .  .  .  .  .  .  .  .  .  .  .  .  .  .  .  .  .  .  .  .  .  .  .  .  .  .  .  .  .  .  .  .  .  .  .  .  .  .  .  .  .  .  .  .  .  .  .  .  .  .  .  .  .  .  .  .  .  .  .  .  .  .  .  .  .  .  .  .  .  .  .  .  .  .  .  .  .  .  .  .  .  .  .  .  .  .  .  .  .  .  .  .  .  .  .  .  .  .  .  .  .  .  .  .  .  .  .  .  .  .  .  .  .  .  .  .  .  .  .  .  .  .  .  .  .  .  .  .  .  .  .  .  .  .  .  .  .  .  .  .  .  .  .  .  .  .  .  .  .  .  .  .  .  l  m  n  o  o  o  p  n  q  q  q  r  s  t  u  v  w  x  y  z  _  .  .  .  .  .  .  .  .  .  .  .  .  .  .  .  .  .  .  .  .  .  .  .  .  .  .  .  .  .  .  .  .  .  .  .  .  .  .  .  .  .  .  .  .  .  .  .  .  .  .  .  .  .  .  .  .  .  .  .  .  .  .  .  .  .  .  .  .  .  .  .  .  .  .  ",
".  .  .  .  .  .  .  .  .  .  .  .  .  .  .  .  .  .  .  .  .  .  .  .  .  .  .  .  .  .  .  .  .  .  .  .  .  .  .  .  .  .  .  .  .  .  .  .  .  .  .  .  .  .  .  .  .  .  .  .  .  .  .  .  .  .  .  .  .  .  .  .  .  .  .  .  .  .  .  .  .  .  .  .  .  .  .  .  .  .  .  .  .  .  .  .  .  .  .  .  .  .  .  .  .  .  .  .  .  .  .  .  .  .  .  .  .  .  .  .  .  .  .  .  .  .  .  .  .  .  .  .  .  .  .  .  .  .  .  .  .  .  .  .  .  .  .  .  .  .  .  .  .  .  .  .  .  .  .  .  .  .  .  .  .  .  .  .  .  .  .  .  .  .  .  .  .  .  .  .  .  .  .  .  .  .  .  .  .  .  .  .  .  .  .  .  .  .  .  .  .  .  .  .  .  .  .  .  .  .  .  .  .  .  .  .  .  .  .  .  .  .  .  .  .  .  .  .  .  .  .  .  .  .  .  .  .  .  .  .  .  .  .  .  .  .  .  .  .  .  .  .  .  .  .  .  .  .  .  .  .  .  .  .  .  .  .  .  .  .  .  .  .  .  .  .  .  .  .  .  .  .  .  .  .  .  .  .  .  .  .  .  .  .  .  .  .  A  B  C  D  E  E  F  G  H  I  J  K  L  M  N  O  P  Q  R  S  '  .  .  .  .  .  .  .  .  .  .  .  .  .  .  .  .  .  .  .  .  .  .  .  .  .  .  .  .  .  .  .  .  .  .  .  .  .  .  .  .  .  .  .  .  .  .  .  .  .  .  .  .  .  .  .  .  .  .  .  .  .  .  .  .  .  .  .  .  .  .  .  .  .  .  ",
".  .  .  .  .  .  .  .  .  .  .  .  .  .  .  .  .  .  .  .  .  .  .  .  .  .  .  .  .  .  .  .  .  .  .  .  .  .  .  .  .  .  .  .  .  .  .  .  .  .  .  .  .  .  .  .  .  .  .  .  .  .  .  .  .  .  .  .  .  .  .  .  .  .  .  .  .  .  .  .  .  .  .  .  .  .  .  .  .  .  .  .  .  .  .  .  .  .  .  .  .  .  .  .  .  .  .  .  .  .  .  .  .  .  .  .  .  .  .  .  .  .  .  .  .  .  .  .  .  .  .  .  .  .  .  .  .  .  .  .  .  .  .  .  .  .  .  .  .  .  .  .  .  .  .  .  .  .  .  .  .  .  .  .  .  .  .  .  .  .  .  .  .  .  .  .  .  .  .  .  .  .  .  .  .  .  .  .  .  .  .  .  .  .  .  .  .  .  .  .  .  .  .  .  .  .  .  .  .  .  .  .  .  .  .  .  .  .  .  .  .  .  .  .  .  .  .  .  .  .  .  .  .  .  .  .  .  .  .  .  .  .  .  .  .  .  .  .  .  .  .  .  .  .  .  .  .  .  .  .  .  .  .  .  .  .  .  .  .  .  .  .  .  .  .  .  .  .  .  .  .  .  .  .  .  .  .  .  .  .  .  .  .  .  .  .  T  U  V  W  X  Y  Z  `   .  . Y  .. +. @. #. $. %. &. &. *. =. .  .  .  .  .  .  .  .  .  .  .  .  .  .  .  .  .  .  .  .  .  .  .  .  .  .  .  .  .  .  .  .  .  .  .  .  .  .  .  .  .  .  .  .  .  .  .  .  .  .  .  .  .  .  .  .  .  .  .  .  .  .  .  .  .  .  .  .  .  .  .  .  .  .  .  ",
".  .  .  .  .  .  .  .  .  .  .  .  .  .  .  .  .  .  .  .  .  .  .  .  .  .  .  .  .  .  .  .  .  .  .  .  .  .  .  .  .  .  .  .  .  .  .  .  .  .  .  .  .  .  .  .  .  .  .  .  .  .  .  .  .  .  .  .  .  .  .  .  .  .  .  .  .  .  .  .  .  .  .  .  .  .  .  .  .  .  .  .  .  .  .  .  .  .  .  .  .  .  .  .  .  .  .  .  .  .  .  .  .  .  .  .  .  .  .  .  .  .  .  .  .  .  .  .  .  .  .  .  .  .  .  .  .  .  .  .  .  .  .  .  .  .  .  .  .  .  .  .  .  .  .  .  .  .  .  .  .  .  .  .  .  .  .  .  .  .  .  .  .  .  .  .  .  .  .  .  .  .  .  .  .  .  .  .  .  .  .  .  .  .  .  .  .  .  .  .  .  .  .  .  .  .  .  .  .  .  .  .  .  .  .  .  .  .  .  .  .  .  .  .  .  .  .  .  .  .  .  .  .  .  .  .  .  .  .  .  .  .  .  .  .  .  .  .  .  .  .  .  .  .  .  .  .  .  .  .  .  .  .  .  .  .  .  .  .  .  .  .  .  .  .  .  .  .  .  .  .  .  .  .  .  .  .  .  .  .  .  .  .  .  .  .  -. ;. >. ,. '. ). !. ~. {. ]. ^. /. v  (. _. .  .  .  .  .  .  .  .  .  .  .  .  .  .  .  .  .  .  .  .  .  .  .  .  .  .  .  .  .  .  .  .  .  .  .  .  .  .  .  .  .  .  .  .  .  .  .  .  .  .  .  .  .  .  .  .  .  .  .  .  .  .  .  .  .  .  .  .  .  .  .  .  .  .  .  .  .  .  .  .  .  ",
".  .  .  .  .  .  .  .  .  .  .  .  .  .  .  .  .  .  .  .  .  .  .  .  .  .  .  .  .  .  .  .  .  .  .  .  .  .  .  .  .  .  .  .  .  .  .  .  .  .  .  .  .  .  .  .  .  .  .  .  .  .  .  .  .  .  .  .  .  .  .  .  .  .  .  .  .  .  .  .  .  .  .  .  .  .  .  .  .  .  .  .  .  .  .  .  .  .  .  .  .  .  .  .  .  .  .  .  .  .  .  .  .  .  .  .  .  .  .  .  .  .  .  .  .  .  .  .  .  .  .  .  .  .  .  .  .  .  .  .  .  .  .  .  .  .  .  .  .  .  .  .  .  .  .  .  .  .  .  .  .  .  .  .  .  .  .  .  .  .  .  .  .  .  .  .  .  .  .  .  .  .  .  .  .  .  .  .  .  .  .  .  .  .  .  .  .  .  .  .  .  .  .  .  .  .  .  .  .  .  .  .  .  .  .  .  .  .  .  .  .  .  .  .  .  .  .  .  .  .  .  .  .  .  .  .  .  .  .  .  .  .  .  .  .  .  .  .  .  .  .  .  .  .  .  .  .  .  .  .  .  .  .  .  .  .  .  .  .  .  .  .  .  .  .  .  .  .  .  .  .  .  .  .  .  .  .  .  .  .  .  .  .  .  .  .  .  :. <. [. }. |. 1. 2. 3. 4. 5. 6. 7. 8. 9. .  .  .  .  .  .  .  .  .  .  .  .  .  .  .  .  .  .  .  .  .  .  .  .  .  .  .  .  .  .  .  .  .  .  .  .  .  .  .  .  .  .  .  .  .  .  .  .  .  .  .  .  .  .  .  .  .  .  .  .  .  .  .  .  .  .  .  .  .  .  .  .  .  .  .  .  .  .  .  .  .  ",
".  .  .  .  .  .  .  .  .  .  .  .  .  .  .  .  .  .  .  .  .  .  .  .  .  .  .  .  .  .  .  .  .  .  .  .  .  .  .  .  .  .  .  .  .  .  .  .  .  .  .  .  .  .  .  .  .  .  .  .  .  .  .  .  .  .  .  .  .  .  .  .  .  .  .  .  .  .  .  .  .  .  .  .  .  .  .  .  .  .  .  .  .  .  .  .  .  .  .  .  .  .  .  .  .  .  .  .  .  .  .  .  .  .  .  .  .  .  .  .  .  .  .  .  .  .  .  .  .  .  .  .  .  .  .  .  .  .  .  .  .  .  .  .  .  .  .  .  .  .  .  .  .  .  .  .  .  .  .  .  .  .  .  .  .  .  .  .  .  .  .  .  .  .  .  .  .  .  .  .  .  .  .  .  .  .  .  .  .  .  .  .  .  .  .  .  .  .  .  .  .  .  .  .  .  .  .  .  .  .  .  .  .  .  .  .  .  .  .  .  .  .  .  .  .  .  .  .  .  .  .  .  .  .  .  .  .  .  .  .  .  .  .  .  .  .  .  .  .  .  .  .  .  .  .  .  .  .  .  .  .  .  .  .  .  .  .  .  .  .  .  .  .  .  .  .  .  .  .  .  .  .  .  .  .  .  .  .  .  .  .  .  .  .  .  .  .  0. a. b. c. d. e. f. g. h. |  i. j. k. l. .  .  .  .  .  .  .  .  .  .  .  .  .  .  .  .  .  .  .  .  .  .  .  .  .  .  .  .  .  .  .  .  .  .  .  .  .  .  .  .  .  .  .  .  .  .  .  .  .  .  .  .  .  .  .  .  .  .  .  .  .  .  .  .  .  .  .  .  .  .  .  .  .  .  .  .  .  .  .  .  .  ",
".  .  .  .  .  .  .  .  .  .  .  .  .  .  .  .  .  .  .  .  .  .  .  .  .  .  .  .  .  .  .  .  .  .  .  .  .  .  .  .  .  .  .  .  .  .  .  .  .  .  .  .  .  .  .  .  .  .  .  .  .  .  .  .  .  .  .  .  .  .  .  .  .  .  .  .  .  .  .  .  .  .  .  .  .  .  .  .  .  .  .  .  .  .  .  .  .  .  .  .  .  .  .  .  .  .  .  .  .  .  .  .  .  .  .  .  .  .  .  .  .  .  .  .  .  .  .  .  .  .  .  .  .  .  .  .  .  .  .  .  .  .  .  .  .  .  .  .  .  .  .  .  .  .  .  .  .  .  .  .  .  .  .  .  .  .  .  .  .  .  .  .  .  .  .  .  .  .  .  .  .  .  .  .  .  .  .  .  .  .  .  .  .  .  .  .  .  .  .  .  .  .  .  .  .  .  .  .  .  .  .  .  .  .  .  .  .  .  .  .  .  .  .  .  .  .  .  .  .  .  .  .  .  .  .  .  .  .  .  .  .  .  .  .  .  .  .  .  .  .  .  .  .  .  .  .  .  .  .  .  .  .  .  .  .  .  .  .  .  .  .  .  .  .  .  .  .  .  m. n. n. o. o. o. o. o. o. o. o. o. p. .  .  .  .  q. r. s. t. u. v. w. |. x. c. c. y. z. A. B. C. .  .  .  .  .  .  .  .  .  .  .  .  .  .  .  .  .  .  .  .  .  .  .  .  .  .  .  .  .  .  .  .  .  .  .  .  D. o. E. F. E. G. .  .  .  .  .  .  .  .  .  .  .  .  .  .  .  .  .  .  .  .  .  .  .  .  .  .  .  .  .  .  .  .  .  .  .  .  .  .  .  ",
".  .  .  .  .  .  .  .  .  .  .  .  .  .  .  .  .  .  .  .  .  .  .  .  .  .  .  .  .  .  .  .  .  .  .  .  .  .  .  .  .  .  .  .  .  .  .  .  .  .  .  .  .  .  .  .  .  .  .  .  .  .  .  .  .  .  .  .  .  .  .  .  .  .  .  .  .  .  .  .  .  .  .  .  .  .  .  .  .  .  .  .  .  .  .  .  .  .  .  .  .  .  .  .  .  .  .  .  .  .  .  .  .  .  .  .  .  .  .  .  .  .  .  .  .  .  .  .  .  .  .  .  .  .  .  .  .  .  .  .  .  .  .  .  .  .  .  .  .  .  .  .  .  .  .  .  .  .  .  .  .  .  .  .  .  .  .  .  .  .  .  .  .  .  .  .  .  .  .  .  .  .  .  .  .  .  .  .  .  .  .  .  .  .  .  .  .  .  .  .  .  .  .  .  .  .  .  .  .  .  .  .  .  .  .  .  .  .  .  .  .  .  .  .  .  .  .  .  .  .  .  .  .  .  .  .  .  .  .  .  .  .  .  .  .  .  .  .  .  .  .  .  .  .  .  .  .  .  .  .  .  .  .  .  .  .  .  .  .  .  .  .  .  .  .  .  .  .  H. I. J. J. K. K. K. K. L. M. N. N. O. P. P. P. Q. R. S. T. U. V. W. X. Y. Z. X. `.  + .+ ++ @+ #+ .  .  .  .  .  .  .  .  .  .  .  .  .  .  .  .  .  .  .  .  .  .  .  .  .  .  .  .  .  .  .  .  .  .  .  $+ %+ &+ *+ =+ -+ ;+ >+ ,+ .  .  .  .  .  .  .  .  .  .  .  .  .  .  .  .  .  .  .  .  .  .  .  .  .  .  .  .  .  .  .  .  .  .  .  .  .  ",
".  .  .  .  .  .  .  .  .  .  .  .  .  .  .  .  .  .  .  .  .  .  .  .  .  .  .  .  .  .  .  .  .  .  .  .  .  .  .  .  .  .  .  .  .  .  .  .  .  .  .  .  .  .  .  .  .  .  .  .  .  .  .  .  .  .  .  .  .  .  .  .  .  .  .  .  .  .  .  .  .  .  .  .  .  .  .  .  .  .  .  .  .  .  .  .  .  .  .  .  .  .  .  .  .  .  .  .  .  .  .  .  .  .  .  .  .  .  .  .  .  .  .  .  .  .  .  .  .  .  .  .  .  .  .  .  .  .  .  .  .  .  .  .  .  .  .  .  .  .  .  .  .  .  .  .  .  .  .  .  .  .  .  .  .  .  .  .  .  .  .  .  .  .  .  .  .  .  .  .  .  .  .  .  .  .  .  .  .  .  .  .  .  .  .  .  .  .  .  .  .  .  .  .  .  .  .  .  .  .  .  .  .  .  .  .  .  .  .  .  .  .  .  .  .  .  .  .  .  .  .  .  .  .  .  .  .  .  .  .  .  .  .  .  .  .  .  .  .  .  .  .  .  .  .  .  .  .  .  .  .  .  .  .  .  .  .  .  .  .  .  .  .  .  .  .  .  .  '+ )+ !+ ~+ {+ ]+ ]+ ]+ ^+ /+ (+ (+ (+ _+ :+ :+ :+ <+ [+ }+ |+ 1+ 2+ 3+ 4+ 5+ 6+ 7+ 8+ 9+ 9+ 7+ 0+ .  .  .  .  .  .  .  .  .  .  .  .  .  .  .  .  .  .  .  .  .  .  .  .  .  .  .  .  .  .  .  .  .  .  .  a+ b+ c+ d+ e+ f+ g+ h+ i+ .  .  .  .  .  .  .  .  .  .  .  .  .  .  .  .  .  .  .  .  .  .  .  .  .  .  .  .  .  .  .  .  .  .  .  .  .  ",
".  .  .  .  .  .  .  .  .  .  .  .  .  .  .  .  .  .  .  .  .  .  .  .  .  .  .  .  .  .  .  .  .  .  .  .  .  .  .  .  .  .  .  .  .  .  .  .  .  .  .  .  .  .  .  .  .  .  .  .  .  .  .  .  .  .  .  .  .  .  .  .  .  .  .  .  .  .  .  .  .  .  .  .  .  .  .  .  .  .  .  .  .  .  .  .  .  .  .  .  .  .  .  .  .  .  .  .  .  .  .  .  .  .  .  .  .  .  .  .  .  .  .  .  .  .  .  .  .  .  .  .  .  .  .  .  .  .  .  .  .  .  .  .  .  .  .  .  .  .  .  .  .  .  .  .  .  .  .  .  .  .  .  .  .  .  .  .  .  .  .  .  .  .  .  .  .  .  .  .  .  .  .  .  .  .  .  .  .  .  .  .  .  .  .  .  .  .  .  .  .  .  .  .  .  .  .  .  .  .  .  .  .  .  .  .  .  .  .  .  .  .  .  .  .  .  .  .  .  .  .  .  .  .  .  .  .  .  .  .  .  .  .  .  .  .  .  .  .  .  .  .  .  .  .  .  .  .  .  .  .  .  .  .  .  .  .  .  .  .  .  .  .  .  .  .  .  j+ k+ l+ m+ u. n+ o+ p+ q+ r+ r+ s+ t+ u+ v+ w+ x+ 5. y+ z+ A+ B+ .  .  .  .  .  .  .  .  .  .  .  .  j+ .  .  .  .  .  .  .  .  .  .  .  .  .  .  .  .  .  .  .  .  .  .  .  .  .  .  .  .  .  .  .  .  .  .  C+ D+ E+ F+ u+ G+ H+ I+ J+ .  .  .  .  .  .  .  .  .  .  .  .  .  .  .  .  .  .  .  .  .  .  .  .  .  .  .  .  .  .  .  .  .  .  .  .  .  ",
".  .  .  .  .  .  .  .  .  .  .  .  .  .  .  .  .  .  .  .  .  .  .  .  .  .  .  .  .  .  .  .  .  .  .  .  .  .  .  .  .  .  .  .  .  .  .  .  .  .  .  .  .  .  .  .  .  .  .  .  .  .  .  .  .  .  .  .  .  .  .  .  .  .  .  .  .  .  .  .  .  .  .  .  .  .  .  .  .  .  .  .  .  .  .  .  .  .  .  .  .  .  .  .  .  .  .  .  .  .  .  .  .  .  .  .  .  .  .  .  .  .  .  .  .  .  .  .  .  .  .  .  .  .  .  .  .  .  .  .  .  .  .  .  .  .  .  .  .  .  .  .  .  .  .  .  .  .  .  .  .  .  .  .  .  .  .  .  .  .  .  .  .  .  .  .  .  .  .  .  .  .  .  .  .  .  .  .  .  .  .  .  .  .  .  .  .  .  .  .  .  .  .  .  .  .  .  .  .  .  .  .  .  .  .  .  .  .  .  .  .  .  .  .  .  .  .  .  .  .  .  .  .  .  .  .  .  .  .  .  .  .  .  .  .  .  .  .  .  .  .  .  .  .  .  .  .  .  .  .  .  .  .  .  .  .  .  .  .  .  .  .  .  .  .  .  .  .  K+ L+ M+ N+ O+ O+ P+ Q+ P+ O+ O+ O+ R+ S+ P+ T+ U+ V+ W+ X+ Y+ .  .  .  .  .  .  .  .  .  .  .  .  .  .  .  .  .  .  .  .  .  .  .  .  .  .  .  .  .  .  .  .  .  .  .  .  .  .  .  .  .  .  .  .  .  .  .  Z+ `+  @ .@ +@ @@ #@ $@ %@ .  .  .  .  .  .  .  .  .  .  .  .  .  .  .  .  .  .  .  .  .  .  .  .  .  .  .  .  .  .  .  .  .  .  .  .  .  ",
".  .  .  .  .  .  .  .  .  .  .  .  .  .  .  .  .  .  .  .  .  .  .  .  .  .  .  .  .  .  .  .  .  .  .  .  .  .  .  .  .  .  .  .  .  .  .  .  .  .  .  .  .  .  .  .  .  .  .  .  .  .  .  .  .  .  .  .  .  .  .  .  .  .  .  .  .  .  .  .  .  .  .  .  .  .  .  .  .  .  .  .  .  .  .  .  .  .  .  .  .  .  .  .  .  .  .  .  .  .  .  .  .  .  .  .  .  .  .  .  .  .  .  .  .  .  .  .  .  .  .  .  .  .  .  .  .  .  .  .  .  .  .  .  .  .  .  .  .  .  .  .  .  .  .  .  .  .  .  .  .  .  .  .  .  .  .  .  .  .  .  .  .  .  .  .  .  .  .  .  .  .  .  .  .  .  .  .  .  .  .  .  .  .  .  .  .  .  .  .  .  .  .  .  .  .  .  .  .  .  .  .  .  .  .  .  .  .  .  .  .  .  .  .  .  .  .  .  .  .  .  .  .  .  .  .  .  .  .  .  .  .  .  .  .  .  .  .  .  .  .  .  .  .  .  .  .  .  .  .  .  .  .  .  .  .  .  .  .  .  .  .  .  .  .  .  .  .  &@ *@ =@ -@ ;@ >@ ,@ '@ )@ !@ ~@ {@ P+ ]@ ^@ /@ (@ _@ :@ <@ [@ .  .  .  .  .  .  .  .  .  .  .  .  .  .  .  .  .  .  .  .  .  .  .  .  .  .  .  .  .  .  .  .  .  .  .  .  .  .  .  .  .  .  .  .  .  .  .  }@ |@ G+ 1@ ]@ 2@ #@ 3@ 4@ .  .  .  .  .  .  .  .  .  .  .  .  .  .  .  .  .  .  .  .  .  .  .  .  .  .  .  .  .  .  .  .  .  .  .  .  .  ",
".  .  .  .  .  .  .  .  .  .  .  .  .  .  .  .  .  .  .  .  .  .  .  .  .  .  .  .  .  .  .  .  .  .  .  .  .  .  .  .  .  .  .  .  .  .  .  .  .  .  .  .  .  .  .  .  .  .  .  .  .  .  .  .  .  .  .  .  .  .  .  .  .  .  .  .  .  .  .  .  .  .  .  .  .  .  .  .  .  .  .  .  .  .  .  .  .  .  .  .  .  .  .  .  .  .  .  .  .  .  .  .  .  .  .  .  .  .  .  .  .  .  .  .  .  .  .  .  .  .  .  .  .  .  .  .  .  .  .  .  .  .  .  .  .  .  .  .  .  .  .  .  .  .  .  .  .  .  .  .  .  .  .  .  .  .  .  .  .  .  .  .  .  .  .  .  .  .  .  .  .  .  .  .  .  .  .  .  .  .  .  .  .  .  .  .  .  .  .  .  .  .  .  .  .  .  .  .  .  .  .  .  .  .  .  .  .  .  .  .  .  .  .  .  .  .  .  .  .  .  .  .  .  .  .  .  .  .  .  .  .  .  .  .  .  .  .  .  .  .  .  .  .  .  .  .  .  .  .  .  .  .  .  .  .  .  .  .  .  .  .  .  .  .  .  .  .  .  5@ 6@ 7@ 8@ 9@ 0@ a@ b@ x. c. /. c@ d@ /@ 3. e@ f@ g@ w  <@ h@ .  .  .  .  .  .  .  .  .  .  .  .  .  .  .  .  .  .  .  .  .  .  .  .  .  .  .  .  .  .  .  .  .  .  .  .  .  .  .  .  .  .  .  .  .  .  .  i@ j@ k@ l@ +@ )@ m@ n@ o@ .  .  .  .  .  .  .  .  .  .  .  .  .  .  .  .  .  .  .  .  .  .  .  .  .  .  .  .  .  .  .  .  .  .  .  .  .  ",
".  .  .  .  .  .  .  .  .  .  .  .  .  .  .  .  .  .  .  .  .  .  .  .  .  .  .  .  .  .  .  .  .  .  .  .  .  .  .  .  .  .  .  .  .  .  .  .  .  .  .  .  .  .  .  .  .  .  .  .  .  .  .  .  .  .  .  .  .  .  .  .  .  .  .  .  .  .  .  .  .  .  .  .  .  .  .  .  .  .  .  .  .  .  .  .  .  .  .  .  .  .  .  .  .  .  .  .  .  .  .  .  .  .  .  .  .  .  .  .  .  .  .  .  .  .  .  .  .  .  .  .  .  .  .  .  .  .  .  .  .  .  .  .  .  .  .  .  .  .  .  .  .  .  .  .  .  .  .  .  .  .  .  .  .  .  .  .  .  .  .  .  .  .  .  .  .  .  .  .  .  .  .  .  .  .  .  .  .  .  .  .  .  .  .  .  .  .  .  .  .  .  .  .  .  .  .  .  .  .  .  .  .  .  .  .  .  .  .  .  .  .  .  .  .  .  .  .  .  .  .  .  .  .  .  .  .  .  .  .  .  .  .  .  .  .  .  .  .  .  .  .  .  .  .  .  .  .  .  .  .  .  .  .  .  .  .  .  .  .  .  .  p@ q@ r@ s@ t@ u@ v@ w@ x@ S+ ,@ y@ z@ A@ B@ C@ D@ E@ F@ G@ G@ H@ I@ J@ K@ L@ M@ .  .  .  .  .  .  .  .  .  .  .  .  .  .  .  .  .  .  .  .  .  .  .  .  .  .  .  .  .  .  .  .  .  .  .  .  .  .  .  .  .  .  .  .  .  .  .  N@ O@ P@ Q@ R@ S@ T@ U@ V@ .  .  .  .  .  .  .  .  .  .  .  .  .  .  .  .  .  .  .  .  .  .  .  .  .  .  .  .  .  .  .  .  .  .  .  .  .  ",
".  .  .  .  .  .  .  .  .  .  .  .  .  .  .  .  .  .  .  .  .  .  .  .  .  .  .  .  .  .  .  .  .  .  .  .  .  .  .  .  .  .  .  .  .  .  .  .  .  .  .  .  .  .  .  .  .  .  .  .  .  .  .  .  .  .  .  .  .  .  .  .  .  .  .  .  .  .  .  .  .  .  .  .  .  .  .  .  .  .  .  .  .  .  .  .  .  .  .  .  .  .  .  .  .  .  .  .  .  .  .  .  .  .  .  .  .  .  .  .  .  .  .  .  .  .  .  .  .  .  .  .  .  .  .  .  .  .  .  .  .  .  .  .  .  .  .  .  .  .  .  .  .  .  .  .  .  .  .  .  .  .  .  .  .  .  .  .  .  .  .  .  .  .  .  .  .  .  .  .  .  .  .  .  .  .  .  .  .  .  .  .  .  .  .  .  .  .  .  .  .  .  .  .  .  .  .  .  .  .  .  .  .  .  .  .  .  .  .  .  .  .  .  .  .  .  .  .  .  .  .  .  .  .  .  .  .  .  .  .  .  .  .  .  .  .  .  .  .  .  .  .  .  .  .  .  .  .  .  .  .  .  .  .  .  .  .  .  .  .  .  .  W@ X@ Y@ Z@ `@  # .# +# @# ## $# %# &# *# =# -# ;# ># ,# '# '# )# !# ~# {# ]# ^# .  .  .  .  .  .  .  .  .  .  .  .  .  .  .  .  .  .  .  .  .  .  .  .  .  .  .  .  .  .  .  .  .  .  .  .  .  .  .  .  .  .  .  .  .  .  .  /# (# _# :# <# [# }# |# 1# .  .  .  .  .  .  .  .  .  .  .  .  .  .  .  .  .  .  .  .  .  .  .  .  .  .  .  .  .  .  .  .  .  .  .  .  .  ",
".  .  .  .  .  .  .  .  .  .  .  .  .  .  .  .  .  .  .  .  .  .  .  .  .  .  .  .  .  .  .  .  .  .  .  .  .  .  .  .  .  .  .  .  .  .  .  .  .  .  .  .  .  .  .  .  .  .  .  .  .  .  .  .  .  .  .  .  .  .  .  .  .  .  .  .  .  .  .  .  .  .  .  .  .  .  .  .  .  .  .  .  .  .  .  .  .  .  .  .  .  .  .  .  .  .  .  .  .  .  .  .  .  .  .  .  .  .  .  .  .  .  .  .  .  .  .  .  .  .  .  .  .  .  .  .  .  .  .  .  .  .  .  .  .  .  .  .  .  .  .  .  .  .  .  .  .  .  .  .  .  .  .  .  .  .  .  .  .  .  .  .  .  .  .  .  .  .  .  .  .  .  .  .  .  .  .  .  .  .  .  .  .  .  .  .  .  .  .  .  .  .  .  .  .  .  .  .  .  .  .  .  .  .  .  .  .  .  .  .  .  .  .  .  .  .  .  .  .  .  .  .  .  .  .  .  .  .  .  .  .  .  .  .  .  .  .  .  .  .  .  .  .  .  .  .  .  .  .  .  .  .  .  .  .  .  .  .  .  .  .  .  2# 3# 4# 5# 6# 7# 8# 9# 0# a# b# c# d# e# f# g# h# i# .  .  .  .  j# k# .  l# m# .  .  .  .  .  .  .  .  .  .  .  .  .  .  .  .  .  .  .  .  .  .  .  .  .  .  .  .  .  .  .  .  .  .  .  .  .  .  .  .  .  .  .  .  .  .  .  .  G. .  n# .  .  .  .  .  .  .  .  .  .  .  .  .  .  .  .  .  .  .  .  .  .  .  .  .  .  .  .  .  .  .  .  .  .  .  .  .  .  .  .  .  .  ",
".  .  .  .  .  .  .  .  .  .  .  .  .  .  .  .  .  .  .  .  .  .  .  .  .  .  .  .  .  .  .  .  .  .  .  .  .  .  .  .  .  .  .  .  .  .  .  .  .  .  .  .  .  .  .  .  .  .  .  .  .  .  .  .  .  .  .  .  .  .  .  .  .  .  .  .  .  .  .  .  .  .  .  .  .  .  .  .  .  .  .  .  .  .  .  .  .  .  .  .  .  .  .  .  .  .  .  .  .  .  .  .  .  .  .  .  .  .  .  .  .  .  .  .  .  .  .  .  .  .  .  .  .  .  .  .  .  .  .  .  .  .  .  .  .  .  .  .  .  .  .  .  .  .  .  .  .  .  .  .  .  .  .  .  .  .  .  .  .  .  .  .  .  .  .  .  .  .  .  .  .  .  .  .  .  .  .  .  .  .  .  .  .  .  .  .  .  .  .  .  .  .  .  .  .  .  .  .  .  .  .  .  .  .  .  .  .  .  .  .  .  .  .  .  .  .  .  .  .  .  .  .  .  .  .  .  .  .  .  .  .  .  .  .  .  .  .  .  .  .  .  .  .  .  .  .  .  .  .  .  .  .  .  .  .  .  .  .  .  .  .  .  o# p# q# $# 5. f. r# s# t# !. 5. u# v# w# .  .  .  .  .  .  .  .  .  .  .  .  .  .  .  .  .  .  .  .  .  .  .  .  .  .  .  .  .  .  .  .  .  .  .  .  .  .  .  .  .  .  .  .  .  .  .  .  .  .  .  .  .  .  .  .  .  .  .  .  .  .  .  .  .  .  .  .  .  .  .  .  .  .  .  .  .  .  .  .  .  .  .  .  .  .  .  .  .  .  .  .  .  .  .  .  .  .  .  .  .  .  .  .  .  .  ",
".  .  .  .  .  .  .  .  .  .  .  .  .  .  .  .  .  .  .  .  .  .  .  .  .  .  .  .  .  .  .  .  .  .  .  .  .  .  .  .  .  .  .  .  .  .  .  .  .  .  .  .  .  .  .  .  .  .  .  .  .  .  .  .  .  .  .  .  .  .  .  .  .  .  .  .  .  .  .  .  .  .  .  .  .  .  .  .  .  .  .  .  .  .  .  .  .  .  .  .  .  .  .  .  .  .  .  .  .  .  .  .  .  .  .  .  .  .  .  .  .  .  .  .  .  .  .  .  .  .  .  .  .  .  .  .  .  .  .  .  .  .  .  .  .  .  .  .  .  .  .  .  .  .  .  .  .  .  .  .  .  .  .  .  .  .  .  .  .  .  .  .  .  .  .  .  .  .  .  .  .  .  .  .  .  .  .  .  .  .  .  .  .  .  .  .  .  .  .  .  .  .  .  .  .  .  .  .  .  .  .  .  .  .  .  .  .  .  .  .  .  .  .  .  .  .  .  .  .  .  .  .  .  .  .  .  .  .  .  .  .  .  .  .  .  .  .  .  .  .  .  .  .  .  .  .  .  .  .  .  .  .  .  .  .  .  .  .  .  .  .  .  x# y# z# A# }  B# h. C# D#    E# F# G# $@ .  .  .  .  .  .  .  .  .  .  .  .  .  .  .  .  .  .  .  .  .  .  .  .  .  .  .  .  .  .  .  .  .  .  .  .  .  .  .  .  .  .  .  .  .  .  .  .  .  .  .  .  .  .  .  .  .  .  .  .  .  .  .  .  .  .  .  .  .  .  .  .  .  .  .  .  .  .  .  .  .  .  .  .  .  .  .  .  .  .  .  .  .  .  .  .  .  .  .  .  .  .  .  .  .  .  ",
".  .  .  .  .  .  .  .  .  .  .  .  .  .  .  .  .  .  .  .  .  .  .  .  .  .  .  .  .  .  .  .  .  .  .  .  .  .  .  .  .  .  .  .  .  .  .  .  .  .  .  .  .  .  .  .  .  .  .  .  .  .  .  .  .  .  .  .  .  .  .  .  .  .  .  .  .  .  .  .  .  .  .  .  .  .  .  .  .  .  .  .  .  .  .  .  .  .  .  .  .  .  .  .  .  .  .  .  .  .  .  .  .  .  .  .  .  .  .  .  .  .  .  .  .  .  .  .  .  .  .  .  .  .  .  .  .  .  .  .  .  .  .  .  .  .  .  .  .  .  .  .  .  .  .  .  .  .  .  .  .  .  .  .  .  .  .  .  .  .  .  .  .  .  .  .  .  .  .  .  .  .  .  .  .  .  .  .  .  .  .  .  .  .  .  .  .  .  .  .  .  .  .  .  .  .  .  .  .  .  .  .  .  .  .  .  .  .  .  .  .  .  .  .  .  .  .  .  .  .  .  .  .  .  .  .  .  .  .  .  .  .  .  .  .  .  .  .  .  .  .  .  .  .  .  .  .  .  .  .  .  .  .  .  .  .  .  .  .  .  .  j+ H# I# J# x. K# L# M# N# O# P# Q# F# R# S# T# .  .  .  .  .  .  .  .  .  .  .  .  .  .  .  .  .  .  .  .  .  .  .  .  .  .  .  .  .  .  .  .  .  .  .  .  .  .  .  .  .  .  .  .  .  .  .  .  .  .  .  .  .  .  .  .  j+ .  .  .  .  .  .  .  .  .  .  .  .  .  .  .  .  .  .  .  .  .  .  .  .  .  .  .  .  .  .  .  .  .  .  .  .  .  .  .  .  .  .  .  .  .  .  .  .  ",
".  .  .  .  .  .  .  .  .  .  .  .  .  .  .  .  .  .  .  .  .  .  .  .  .  .  .  .  .  .  .  .  .  .  .  .  .  .  .  .  .  .  .  .  .  .  .  .  .  .  .  .  .  .  .  .  .  .  .  .  .  .  .  .  .  .  .  .  .  .  .  .  .  .  .  .  .  .  .  .  .  .  .  .  .  .  .  .  .  .  .  .  .  .  .  .  .  .  .  .  .  .  .  .  .  .  .  .  .  .  .  .  .  .  .  .  .  .  .  .  .  .  .  .  .  .  .  .  .  .  .  .  .  .  .  .  .  .  .  .  .  .  .  .  .  .  .  .  .  .  .  .  .  .  .  .  .  .  .  .  .  .  .  .  .  .  .  .  .  .  .  .  .  .  .  .  .  .  .  .  .  .  .  .  .  .  .  .  .  .  .  .  .  .  .  .  .  .  .  .  .  .  .  .  .  .  .  .  .  .  .  .  .  .  .  .  .  .  .  .  .  .  .  .  .  .  .  .  .  .  .  .  .  .  .  .  .  .  .  .  .  .  .  .  .  .  .  .  .  .  .  .  .  .  .  .  .  .  .  .  .  .  .  .  .  .  U# V# W# X# Y# Z# `#  $ .$ +$ @$ #$ $$ %$ &$ &$ *$ =$ -$ ;$ >$ .  .  .  .  .  .  .  .  .  .  .  .  .  .  .  .  .  .  .  .  .  .  .  .  .  .  .  .  .  .  .  .  .  .  .  .  .  .  .  .  .  .  .  .  .  .  j+ ,$ Y# '$ )$ W# !$ ~$ ~$ {$ ]$ ^$ /$ ($ _$ .  .  .  .  .  .  .  .  .  .  .  .  .  .  .  .  .  .  .  .  .  .  .  .  .  .  .  .  .  .  .  .  .  .  .  .  .  .  .  .  .  .  .  .  ",
".  .  .  .  .  .  .  .  .  .  .  .  .  .  .  .  .  .  .  .  .  .  .  .  .  .  .  .  .  .  .  .  .  .  .  .  .  .  .  .  .  .  .  .  .  .  .  .  .  .  .  .  .  .  .  .  .  .  .  .  .  .  .  .  .  .  .  .  .  .  .  .  .  .  .  .  .  .  .  .  .  .  .  .  .  .  .  .  .  .  .  .  .  .  .  .  .  .  .  .  .  .  .  .  .  .  .  .  .  .  .  .  .  .  .  .  .  .  .  .  .  .  .  .  .  .  .  .  .  .  .  .  .  .  .  .  .  .  .  .  .  .  .  .  .  .  .  .  .  .  .  .  .  .  .  .  .  .  .  .  .  .  .  .  .  .  .  .  .  .  .  .  .  .  .  .  .  .  .  .  .  .  .  .  .  .  .  .  .  .  .  .  .  .  .  .  .  .  .  .  .  .  .  .  .  .  .  .  .  .  .  .  .  .  .  .  .  .  .  .  .  .  .  .  .  .  .  .  .  .  .  .  .  .  .  .  .  .  .  .  .  .  .  .  .  .  .  .  .  .  .  .  .  .  .  .  .  .  .  .  .  .  .  .  .  :$ <$ [$ }$ |$ 1$ 2$ 3$ 4$ x  5$ s# u# 6$ 7$ 8$ 9$ 0$ a$ b$ c$ d$ .  .  .  .  .  .  .  .  .  .  .  .  .  .  .  .  .  .  .  .  .  .  .  .  .  .  .  .  .  .  .  .  .  .  .  .  .  .  .  .  .  .  .  .  .  .  .  e$ f$ g$ h$ i$ j$ i$ i$ j$ j$ k$ l$ m$ n$ o$ .  .  .  .  .  .  .  .  .  .  .  .  .  .  .  .  .  .  .  .  .  .  .  .  .  .  .  .  .  .  .  .  .  .  .  .  .  .  .  .  .  .  .  ",
".  .  .  .  .  .  .  .  .  .  .  .  .  .  .  .  .  .  .  .  .  .  .  .  .  .  .  .  .  .  .  .  .  .  .  .  .  .  .  .  .  .  .  .  .  .  .  .  .  .  .  .  .  .  .  .  .  .  .  .  .  .  .  .  .  .  .  .  .  .  .  .  .  .  .  .  .  .  .  .  .  .  .  .  .  .  .  .  .  .  .  .  .  .  .  .  .  .  .  .  .  .  .  .  .  .  .  .  .  .  .  .  .  .  .  .  .  .  .  .  .  .  .  .  .  .  .  .  .  .  .  .  .  .  .  .  .  .  .  .  .  .  .  .  .  .  .  .  .  .  .  .  .  .  .  .  .  .  .  .  .  .  .  .  .  .  .  .  .  .  .  .  .  .  .  .  .  .  .  .  .  .  .  .  .  .  .  .  .  .  .  .  .  .  .  .  .  .  .  .  .  .  .  .  .  .  .  .  .  .  .  .  .  .  .  .  .  .  .  .  .  .  .  .  .  .  .  .  .  .  .  .  .  .  .  .  .  .  .  .  .  .  .  .  .  .  .  .  .  .  .  .  .  .  .  .  .  .  .  .  .  .  .  .  .  p$ q$ c+ r$ s$ s$ t$ u$ v$ w$ w$ F# x$ y$ z$ A$ B$ C$ D$ .  E$ .  .  .  .  .  .  .  .  .  .  .  .  .  .  .  .  .  .  .  .  .  .  .  .  .  .  .  .  .  .  .  .  .  .  .  .  .  .  .  .  .  .  .  .  .  .  .  .  F$ G$ H$ I$ =@ J$ K$ L$ M$ N$ &# O$ P$ Q$ R$ .  .  .  .  .  .  .  .  .  .  .  .  .  .  .  .  .  .  .  .  .  .  .  .  .  .  .  .  .  .  .  .  .  .  .  .  .  .  .  .  .  .  .  ",
".  .  .  .  .  .  .  .  .  .  .  .  .  .  .  .  .  .  .  .  .  .  .  .  .  .  .  .  .  .  .  .  .  .  .  .  .  .  .  .  .  .  .  .  .  .  .  .  .  .  .  .  .  .  .  .  .  .  .  .  .  .  .  .  .  .  .  .  .  .  .  .  .  .  .  .  .  .  .  .  .  .  .  .  .  .  .  .  .  .  .  .  .  .  .  .  .  .  .  .  .  .  .  .  .  .  .  .  .  .  .  .  .  .  .  .  .  .  .  .  .  .  .  .  .  .  .  .  .  .  .  .  .  .  .  .  .  .  .  .  .  .  .  .  .  .  .  .  .  .  .  .  .  .  .  .  .  .  .  .  .  .  .  .  .  .  .  .  .  .  .  .  .  .  .  .  .  .  .  .  .  .  .  .  .  .  .  .  .  .  .  .  .  .  .  .  .  .  .  .  .  .  .  .  .  .  .  .  .  .  .  .  .  .  .  .  .  .  .  .  .  .  .  .  .  .  .  .  .  .  .  .  .  .  .  .  .  .  .  .  .  .  .  .  .  .  .  .  .  .  .  .  .  .  .  .  .  .  .  .  .  .  .  .  .  p$ S$ T$ U$ V$ W$ (@ X$ Y$ Z$ `$  % x+ .% +% @% .  .  .  .  .  .  .  .  .  .  .  .  .  .  .  .  .  .  .  .  .  .  .  .  .  .  .  .  .  .  .  .  .  .  .  .  .  .  .  .  .  .  .  .  .  .  .  .  .  .  .  .  .  #% $% %% &% *% =% -% ;% 0@ >% ]. ,% '% )% !% .  .  .  .  .  .  .  .  .  .  .  .  .  .  .  .  .  .  .  .  .  .  .  .  .  .  .  .  .  .  .  .  .  .  .  .  .  .  .  .  .  .  .  ",
".  .  .  .  .  .  .  .  .  .  .  .  .  .  .  .  .  .  .  .  .  .  .  .  .  .  .  .  .  .  .  .  .  .  .  .  .  .  .  .  .  .  .  .  .  .  .  .  .  .  .  .  .  .  .  .  .  .  .  .  .  .  .  .  .  .  .  .  .  .  .  .  .  .  .  .  .  .  .  .  .  .  .  .  .  .  .  .  .  .  .  .  .  .  .  .  .  .  .  .  .  .  .  .  .  .  .  .  .  .  .  .  .  .  .  .  .  .  .  .  .  .  .  .  .  .  .  .  .  .  .  .  .  .  .  .  .  .  .  .  .  .  .  .  .  .  .  .  .  .  .  .  .  .  .  .  .  .  .  .  .  .  .  .  .  .  .  .  .  .  .  .  .  .  .  .  .  .  .  .  .  .  .  .  .  .  .  .  .  .  .  .  .  .  .  .  .  .  .  .  .  .  .  .  .  .  .  .  .  .  .  .  .  .  .  .  .  .  .  .  .  .  .  .  .  .  .  .  .  .  .  .  .  .  .  .  .  .  .  .  .  .  .  .  .  .  .  .  .  .  .  .  .  .  .  .  .  .  .  .  .  .  .  .  .  ~% {% ]% ^% 2@ /% (% _% :% {@ 0# <% (@ [% }% |% .  .  .  .  .  .  .  .  .  .  .  .  .  .  .  .  .  .  .  .  .  .  .  .  .  .  .  .  .  .  .  .  .  .  .  .  .  .  .  .  .  .  .  .  .  .  .  .  .  .  .  .  .  1% 2% %% 3% Q# =% 4% 0@ 5% ]. 6% 7% 8% 9% 0% .  .  .  .  .  .  .  .  .  .  .  .  .  .  .  .  .  .  .  .  .  .  .  .  .  .  .  .  .  .  .  .  .  .  .  .  .  .  .  .  .  .  .  ",
".  .  .  .  .  .  .  .  .  .  .  .  .  .  .  .  .  .  .  .  .  .  .  .  .  .  .  .  .  .  .  .  .  .  .  .  .  .  .  .  .  .  .  .  .  .  .  .  .  .  .  .  .  .  .  .  .  .  .  .  .  .  .  .  .  .  .  .  .  .  .  .  .  .  .  .  .  .  .  .  .  .  .  .  .  .  .  .  .  .  .  .  .  .  .  .  .  .  .  .  .  .  .  .  .  .  .  .  .  .  .  .  .  .  .  .  .  .  .  .  .  .  .  .  .  .  .  .  .  .  .  .  .  .  .  .  .  .  .  .  .  .  .  .  .  .  .  .  .  .  .  .  .  .  .  .  .  .  .  .  .  .  .  .  .  .  .  .  .  .  .  .  .  .  .  .  .  .  .  .  .  .  .  .  .  .  .  .  .  .  .  .  .  .  .  .  .  .  .  .  .  .  .  .  .  .  .  .  .  .  .  .  .  .  .  .  .  .  .  .  .  .  .  .  .  .  .  .  .  .  .  .  .  .  .  .  .  .  .  .  .  .  .  .  .  .  .  .  .  .  .  .  .  .  .  .  .  .  .  .  .  .  .  .  .  a% b% c% d% e% ^. b@ _% f% g% h% i% )@ j% k% l% .  .  .  .  .  .  .  .  .  .  .  .  .  .  .  .  .  .  .  .  .  .  .  .  .  .  .  .  .  .  .  .  .  .  .  .  .  .  .  .  .  .  .  .  .  .  .  .  .  .  .  .  .  m% n% o% p% g@ q% %# r% s% O+ t% r+ u% v% !% .  .  .  .  .  .  .  .  .  .  .  .  .  .  .  .  .  .  .  .  .  .  .  .  .  .  .  .  .  .  .  .  .  .  .  .  .  .  .  .  .  .  .  ",
".  .  .  .  .  .  .  .  .  .  .  .  .  .  .  .  .  .  .  .  .  .  .  .  .  .  .  .  .  .  .  .  .  .  .  .  .  .  .  .  .  .  .  .  .  .  .  .  .  .  .  .  .  .  .  .  .  .  .  .  .  .  .  .  .  .  .  .  .  .  .  .  .  .  .  .  .  .  .  .  .  .  .  .  .  .  .  .  .  .  .  .  .  .  .  .  .  .  .  .  .  .  .  .  .  .  .  .  .  .  .  .  .  .  .  .  .  .  .  .  .  .  .  .  .  .  .  .  .  .  .  .  .  .  .  .  .  .  .  .  .  .  .  .  .  .  .  .  .  .  .  .  .  .  .  .  .  .  .  .  .  .  .  .  .  .  .  .  .  .  .  .  .  .  .  .  .  .  .  .  .  .  .  .  .  .  .  .  .  .  .  .  .  .  .  .  .  .  .  .  .  .  .  .  .  .  .  .  .  .  .  .  .  .  .  .  .  .  .  .  .  .  .  .  .  .  .  .  .  .  .  .  .  .  .  .  .  .  .  .  .  .  .  .  .  .  .  .  .  .  .  .  .  .  .  .  .  .  .  .  .  .  .  .  .  w% x% y% ^% 1@ ^. b@ z% A% B% C% D% E% F% G% |% .  .  .  .  .  .  .  .  .  .  .  .  .  .  .  .  .  .  .  .  .  .  .  .  .  .  .  .  .  .  .  .  .  .  .  .  .  .  .  .  .  .  .  .  .  .  .  H% I% I% I% J% K% L% M% N% O% P% p% v. Q% R% G+ S% T% U% V% W% .  .  .  .  .  .  .  .  .  .  .  .  .  .  .  .  .  .  .  .  .  .  .  .  .  .  .  .  .  .  .  .  .  .  .  .  .  .  .  .  .  .  .  ",
".  .  .  .  .  .  .  .  .  .  .  .  .  .  .  .  .  .  .  .  .  .  .  .  .  .  .  .  .  .  .  .  .  .  .  .  .  .  .  .  .  .  .  .  .  .  .  .  .  .  .  .  .  .  .  .  .  .  .  .  .  .  .  .  .  .  .  .  .  .  .  .  .  .  .  .  .  .  .  .  .  .  .  .  .  .  .  .  .  .  .  .  .  .  .  .  .  .  .  .  .  .  .  .  .  .  .  .  .  .  .  .  .  .  .  .  .  .  .  .  .  .  .  .  .  .  .  .  .  .  .  .  .  .  .  .  .  .  .  .  .  .  .  .  .  .  .  .  .  .  .  .  .  .  .  .  .  .  .  .  .  .  .  .  .  .  .  .  .  .  .  .  .  .  .  .  .  .  .  .  .  .  .  .  .  .  .  .  .  .  .  .  .  .  .  .  .  .  .  .  .  .  .  .  .  .  .  .  .  .  .  .  .  .  .  .  .  .  .  .  .  .  .  .  .  .  .  .  .  .  .  .  .  .  .  .  .  .  .  .  .  .  .  .  .  .  .  .  .  .  .  .  .  .  .  .  .  .  .  .  .  .  .  .  .  g# X% y% Y% q% ~@ 5. Z% `%  & .& +& @& #& $& %& .  .  .  .  .  .  .  .  .  .  .  .  .  .  .  .  .  .  .  .  .  .  .  .  .  .  .  .  .  .  .  .  .  .  .  .  .  .  .  .  .  .  .  .  .  .  .  && *& =& -& ;& >& ,& '& )& !& ~& c# {& ]& ^& /& (& _& :& <& [& .  .  .  .  .  .  .  .  .  .  .  .  .  .  .  .  .  .  .  .  .  .  .  .  .  .  .  .  .  .  .  .  .  .  .  .  .  .  .  .  .  .  .  ",
".  .  .  .  .  .  .  .  .  .  .  .  .  .  .  .  .  .  .  .  .  .  .  .  .  .  .  .  .  .  .  .  .  .  .  .  .  .  .  .  .  .  .  .  .  .  .  .  .  .  .  .  .  .  .  .  .  .  .  .  .  .  .  .  .  .  .  .  .  .  .  .  .  .  .  .  .  .  .  .  .  .  .  .  .  .  .  .  .  .  .  .  .  .  .  .  .  .  .  .  .  .  .  .  .  .  .  .  .  .  .  .  .  .  .  .  .  .  .  .  .  .  .  .  .  .  .  .  .  .  .  .  .  .  .  .  .  .  .  .  .  .  .  .  .  .  .  .  .  .  .  .  .  .  .  .  .  .  .  .  .  .  .  .  .  .  .  .  .  .  .  .  .  .  .  .  .  .  .  .  .  .  .  .  .  .  .  .  .  .  .  .  .  .  .  .  .  .  .  .  .  .  .  .  .  .  .  .  .  .  .  .  .  .  .  .  .  .  .  .  .  .  .  .  .  .  .  .  .  .  .  .  .  .  .  .  .  .  .  .  .  .  .  .  .  .  .  .  .  .  .  .  .  .  .  .  .  .  .  .  .  .  .  .  .  }& |& 1& 2& U+ 3& /. 4& 5& 6& 7& 8& .  .  .  .  .  .  .  .  .  .  .  .  .  .  .  .  .  .  .  .  .  .  .  .  .  .  .  .  .  .  .  .  .  .  .  .  .  .  .  .  .  .  .  .  .  .  .  .  .  .  9& 0& a& b& c& d& e& f& g& h& i& =% j& k& l& m& .  .  n& o& .  .  .  .  .  .  .  .  .  .  .  .  .  .  .  .  .  .  .  .  .  .  .  .  .  .  .  .  .  .  .  .  .  .  .  .  .  .  .  .  .  .  .  .  .  ",
".  .  .  .  .  .  .  .  .  .  .  .  .  .  .  .  .  .  .  .  .  .  .  .  .  .  .  .  .  .  .  .  .  .  .  .  .  .  .  .  .  .  .  .  .  .  .  .  .  .  .  .  .  .  .  .  .  .  .  .  .  .  .  .  .  .  .  .  .  .  .  .  .  .  .  .  .  .  .  .  .  .  .  .  .  .  .  .  .  .  .  .  .  .  .  .  .  .  .  .  .  .  .  .  .  .  .  .  .  .  .  .  .  .  .  .  .  .  .  .  .  .  .  .  .  .  .  .  .  .  .  .  .  .  .  .  .  .  .  .  .  .  .  .  .  .  .  .  .  .  .  .  .  .  .  .  .  .  .  .  .  .  .  .  .  .  .  .  .  .  .  .  .  .  .  .  .  .  .  .  .  .  .  .  .  .  .  .  .  .  .  .  .  .  .  .  .  .  .  .  .  .  .  .  .  .  .  .  .  .  .  .  .  .  .  .  .  .  .  .  .  .  .  .  .  .  .  .  .  .  .  .  .  .  .  .  .  .  .  .  .  .  .  .  .  .  .  .  .  .  .  .  .  .  .  .  .  .  .  .  .  .  .  .  .  .  p& 1& 2& q& 3& r& s& t& .  .  .  .  .  .  .  .  .  .  .  .  .  .  .  .  .  .  .  .  .  .  .  .  .  .  .  .  .  .  .  .  .  .  .  .  .  .  .  .  .  .  .  .  .  .  .  .  .  .  .  .  .  .  u& v& X$ w& 4% x& y& z& A& *% =% B& C& D& .  .  .  .  .  .  .  .  .  .  .  .  .  .  .  .  .  .  .  .  .  .  .  .  .  .  .  .  .  .  .  .  .  .  .  .  .  .  .  .  .  .  .  .  .  .  .  .  .  .  ",
".  .  .  .  .  .  .  .  .  .  .  .  .  .  .  .  .  .  .  .  .  .  .  .  .  .  .  .  .  .  .  .  .  .  .  .  .  .  .  .  .  .  .  .  .  .  .  .  .  .  .  .  .  .  .  .  .  .  .  .  .  .  .  .  .  .  .  .  .  .  .  .  .  .  .  .  .  .  .  .  .  .  .  .  .  .  .  .  .  .  .  .  .  .  .  .  .  .  .  .  .  .  .  .  .  .  .  .  .  .  .  .  .  .  .  .  .  .  .  .  .  .  .  .  .  .  .  .  .  .  .  .  .  .  .  .  .  .  .  .  .  .  .  .  .  .  .  .  .  .  .  .  .  .  .  .  .  .  .  .  .  .  .  .  .  .  .  .  .  .  .  .  .  .  .  .  .  .  .  .  .  .  .  .  .  .  .  .  .  .  .  .  .  .  .  .  .  .  .  .  .  .  .  .  .  .  .  .  .  .  .  .  .  .  .  .  .  .  .  .  .  .  .  .  .  .  .  .  .  .  .  .  .  .  .  .  .  .  .  .  .  .  .  .  .  .  .  .  .  .  .  .  .  .  .  .  .  .  .  .  .  .  .  .  .  .  E& 1& 2& q& q% 5. F& G& .  .  .  .  .  .  .  .  .  .  .  .  .  .  .  .  .  .  .  .  .  .  .  .  .  .  .  .  .  .  .  .  .  .  .  .  .  .  .  .  .  .  .  .  .  .  .  .  .  .  .  .  .  .  H& I& J& K& F# P% 7%    L& V+ M& f% N& O& .  .  .  .  .  .  .  .  .  .  .  .  .  .  .  .  .  .  .  .  .  .  .  .  .  .  .  .  .  .  .  .  .  .  .  .  .  .  .  .  .  .  .  .  .  .  .  .  .  .  ",
".  .  .  .  .  .  .  .  .  .  .  .  .  .  .  .  .  .  .  .  .  .  .  .  .  .  .  .  .  .  .  .  .  .  .  .  .  .  .  .  .  .  .  .  .  .  .  .  .  .  .  .  .  .  .  .  .  .  .  .  .  .  .  .  .  .  .  .  .  .  .  .  .  .  .  .  .  .  .  .  .  .  .  .  .  .  .  .  .  .  .  .  .  .  .  .  .  .  .  .  .  .  .  .  .  .  .  .  .  .  .  .  .  .  .  .  .  .  .  .  .  .  .  .  .  .  .  .  .  .  .  .  .  .  .  .  .  .  .  .  .  .  .  .  .  .  .  .  .  .  .  .  .  .  .  .  .  .  .  .  .  .  .  .  .  .  .  .  .  .  .  .  .  .  .  .  .  .  .  .  .  .  .  .  .  .  .  .  .  .  .  .  .  .  .  .  .  .  .  .  .  .  .  .  .  .  .  .  .  .  .  .  .  .  .  .  .  .  .  .  .  .  .  .  .  .  .  .  .  .  .  .  .  .  .  .  .  .  .  .  .  .  .  .  .  .  .  .  .  .  .  .  .  .  .  .  .  .  .  .  .  .  .  .  .  .  P& Q& R& W$ .@ S& T& U& .  .  .  .  .  .  .  .  .  .  .  .  .  .  .  .  .  .  .  .  .  .  .  .  .  .  .  .  .  .  .  .  .  .  .  .  .  .  .  .  .  .  .  .  .  .  .  .  .  .  .  .  .  V& W& X& J& Y& Z& q% `&  * .* ~& +* @* #* $* .  .  .  .  .  .  .  .  .  .  .  .  .  .  .  .  .  .  .  .  .  .  .  .  .  .  .  .  .  .  .  .  .  .  .  .  .  .  .  .  .  .  .  .  .  .  .  .  .  .  ",
".  .  .  .  .  .  .  .  .  .  .  .  .  .  .  .  .  .  .  .  .  .  .  .  .  .  .  .  .  .  .  .  .  .  .  .  .  .  .  .  .  .  .  .  .  .  .  .  .  .  .  .  .  .  .  .  .  .  .  .  .  .  .  .  .  .  .  .  .  .  .  .  .  .  .  .  .  .  .  .  .  .  .  .  .  .  .  .  .  .  .  .  .  .  .  .  .  .  .  .  .  .  .  .  .  .  .  .  .  .  .  .  .  .  .  .  .  .  .  .  .  .  .  .  .  .  .  .  .  .  .  .  .  .  .  .  .  .  .  .  .  .  .  .  .  .  .  .  .  .  .  .  .  .  .  .  .  .  .  .  .  .  .  .  .  .  .  .  .  .  .  .  .  .  .  .  .  .  .  .  .  .  .  .  .  .  .  .  .  .  .  .  .  .  .  .  .  .  .  .  .  .  .  .  .  .  .  .  .  .  .  .  .  .  .  .  .  .  .  .  .  .  .  .  .  .  .  .  .  .  .  .  .  .  .  .  .  .  .  .  .  .  .  .  .  .  .  .  .  .  .  .  .  .  .  .  .  .  .  .  %* &* ** &* =* -* ;* >* %$ ,* '* )* !* ~* .  .  .  .  .  .  .  .  .  .  .  .  .  .  .  .  .  .  .  .  .  .  .  .  .  .  .  .  .  .  .  .  .  .  .  .  .  .  .  .  .  .  .  .  .  .  .  .  .  .  .  .  .  .  {* ]* ^* /* (* _* :* <* _* [* z% }* |* 1* .  .  .  .  .  .  .  .  .  .  .  .  .  .  .  .  .  .  .  .  .  .  .  .  .  .  .  .  .  .  .  .  .  .  .  .  .  .  .  .  .  .  .  .  .  .  .  .  .  .  ",
".  .  .  .  .  .  .  .  .  .  .  .  .  .  .  .  .  .  .  .  .  .  .  .  .  .  .  .  .  .  .  .  .  .  .  .  .  .  .  .  .  .  .  .  .  .  .  .  .  .  .  .  .  .  .  .  .  .  .  .  .  .  .  .  .  .  .  .  .  .  .  .  .  .  .  .  .  .  .  .  .  .  .  .  .  .  .  .  .  .  .  .  .  .  .  .  .  .  .  .  .  .  .  .  .  .  .  .  .  .  .  .  .  .  .  .  .  .  .  .  .  .  .  .  .  .  .  .  .  .  .  .  .  .  .  .  .  .  .  .  .  .  .  .  .  .  .  .  .  .  .  .  .  .  .  .  .  .  .  .  .  .  .  .  .  .  .  .  .  .  .  .  .  .  .  .  .  .  .  .  .  .  .  .  .  .  .  .  .  .  .  .  .  .  .  .  .  .  .  .  .  .  .  .  .  .  .  .  .  .  .  .  .  .  .  .  .  .  .  .  .  .  .  .  .  .  .  .  .  .  .  .  .  .  .  .  .  .  .  .  .  .  .  .  .  .  .  .  .  .  .  .  .  .  .  .  .  .  .  .  2* 3* 4* 5* 5* 5* 6* 7* 8* 9* 0* a* b* c* d* .  .  .  .  .  .  .  .  .  .  .  .  .  .  .  .  .  .  .  .  .  .  .  .  .  .  .  .  .  .  .  .  .  .  .  .  .  .  .  .  .  .  .  .  .  .  .  .  .  .  .  .  e* f* g* h* i* j* k* l* m* n* o* p* q* r* s* .  .  .  .  .  .  .  .  .  .  .  .  .  .  .  .  .  .  .  .  .  .  .  .  .  .  .  .  .  .  .  .  .  .  .  .  .  .  .  .  .  .  .  .  .  .  .  .  .  .  ",
".  .  .  .  .  .  .  .  .  .  .  .  .  .  .  .  .  .  .  .  .  .  .  .  .  .  .  .  .  .  .  .  .  .  .  .  .  .  .  .  .  .  .  .  .  .  .  .  .  .  .  .  .  .  .  .  .  .  .  .  .  .  .  .  .  .  .  .  .  .  .  .  .  .  .  .  .  .  .  .  .  .  .  .  .  .  .  .  .  .  .  .  .  .  .  .  .  .  .  .  .  .  .  .  .  .  .  .  .  .  .  .  .  .  .  .  .  .  .  .  .  .  .  .  .  .  .  .  .  .  .  .  .  .  .  .  .  .  .  .  .  .  .  .  .  .  .  .  .  .  .  .  .  .  .  .  .  .  .  .  .  .  .  .  .  .  .  .  .  .  .  .  .  .  .  .  .  .  .  .  .  .  .  .  .  .  .  .  .  .  .  .  .  .  .  .  .  .  .  .  .  .  .  .  .  .  .  .  .  .  .  .  .  .  .  .  .  .  .  .  .  .  .  .  .  .  .  .  .  .  .  .  .  .  .  .  .  .  .  .  .  .  .  .  .  .  .  .  .  .  .  .  .  .  .  .  .  .  .  .  t* u* v* w* x* y* z* A* B* C* D* E* F* G* .  .  .  .  .  .  .  .  .  .  .  .  .  .  .  .  .  .  .  .  .  .  .  .  .  .  .  .  .  .  .  .  .  .  .  .  .  .  .  .  .  .  .  .  .  .  .  .  .  .  .  .  .  .  H* I* J* K* L* M* N* O* P* Q* R* S* T* U* j+ .  .  .  .  .  .  .  .  .  .  .  .  .  .  .  .  .  .  .  .  .  .  .  .  .  .  .  .  .  .  .  .  .  .  .  .  .  .  .  .  .  .  .  .  .  .  .  .  .  ",
".  .  .  .  .  .  .  .  .  .  .  .  .  .  .  .  .  .  .  .  .  .  .  .  .  .  .  .  .  .  .  .  .  .  .  .  .  .  .  .  .  .  .  .  .  .  .  .  .  .  .  .  .  .  .  .  .  .  .  .  .  .  .  .  .  .  .  .  .  .  .  .  .  .  .  .  .  .  .  .  .  .  .  .  .  .  .  .  .  .  .  .  .  .  .  .  .  .  .  .  .  .  .  .  .  .  .  .  .  .  .  .  .  .  .  .  .  .  .  .  .  .  .  .  .  .  .  .  .  .  .  .  .  .  .  .  .  .  .  .  .  .  .  .  .  .  .  .  .  .  .  .  .  .  .  .  .  .  .  .  .  .  .  .  .  .  .  .  .  .  .  .  .  .  .  .  .  .  .  .  .  .  .  .  .  .  .  .  .  .  .  .  .  .  .  .  .  .  .  .  .  .  .  .  .  .  .  .  .  .  .  .  .  .  .  .  .  .  .  .  .  .  .  .  .  .  .  .  .  .  .  .  .  .  .  .  .  .  .  .  .  .  .  .  .  .  .  .  .  .  .  .  .  .  .  .  .  .  .  .  V* W* X* Y* Z* R& `*  = .  .  .  .  .  .  .  .  .  .  .  .  .  .  .  .  .  .  .  .  .  .  .  .  .  .  .  .  .  .  .  .  .  .  .  .  .  .  .  .  .  .  .  .  .  .  .  .  .  .  .  .  .  .  .  .  .  .  .  j+ .  .  .  .  .  .  .  .  j+ .  .  .  .  .  .  .  .  .  .  .  .  .  .  .  .  .  .  .  .  .  .  .  .  .  .  .  .  .  .  .  .  .  .  .  .  .  .  .  .  .  .  .  .  .  .  .  .  .  .  .  .  .  .  .  ",
".  .  .  .  .  .  .  .  .  .  .  .  .  .  .  .  .  .  .  .  .  .  .  .  .  .  .  .  .  .  .  .  .  .  .  .  .  .  .  .  .  .  .  .  .  .  .  .  .  .  .  .  .  .  .  .  .  .  .  .  .  .  .  .  .  .  .  .  .  .  .  .  .  .  .  .  .  .  .  .  .  .  .  .  .  .  .  .  .  .  .  .  .  .  .  .  .  .  .  .  .  .  .  .  .  .  .  .  .  .  .  .  .  .  .  .  .  .  .  .  .  .  .  .  .  .  .  .  .  .  .  .  .  .  .  .  .  .  .  .  .  .  .  .  .  .  .  .  .  .  .  .  .  .  .  .  .  .  .  .  .  .  .  .  .  .  .  .  .  .  .  .  .  .  .  .  .  .  .  .  .  .  .  .  .  .  .  .  .  .  .  .  .  .  .  .  .  .  .  .  .  .  .  .  .  .  .  .  .  .  .  .  .  .  .  .  .  .  .  .  .  .  .  .  .  .  .  .  .  .  .  .  .  .  .  .  .  .  .  .  .  .  .  .  .  .  .  .  .  .  .  .  .  .  .  .  .  .  .  .  .= += @= #= $= %= &= *= .  .  .  .  .  .  .  .  .  .  .  .  .  .  .  .  .  .  .  .  .  .  .  .  .  .  .  .  .  .  .  .  .  .  .  .  .  .  .  .  .  .  .  .  .  .  .  .  .  .  .  .  .  .  .  .  .  .  .  .  .  .  .  .  .  .  .  .  .  .  .  .  .  .  .  .  .  .  .  .  .  .  .  .  .  .  .  .  .  .  .  .  .  .  .  .  .  .  .  .  .  .  .  .  .  .  .  .  .  .  .  .  .  .  .  .  .  .  .  .  .  .  .  .  ",
".  .  .  .  .  .  .  .  .  .  .  .  .  .  .  .  .  .  .  .  .  .  .  .  .  .  .  .  .  .  .  .  .  .  .  .  .  .  .  .  .  .  .  .  .  .  .  .  .  .  .  .  .  .  .  .  .  .  .  .  .  .  .  .  .  .  .  .  .  .  .  .  .  .  .  .  .  .  .  .  .  .  .  .  .  .  .  .  .  .  .  .  .  .  .  .  .  .  .  .  .  .  .  .  .  .  .  .  .  .  .  .  .  .  .  .  .  .  .  .  .  .  .  .  .  .  .  .  .  .  .  .  .  .  .  .  .  .  .  .  .  .  .  .  .  .  .  .  .  .  .  .  .  .  .  .  .  .  .  .  .  .  .  .  .  .  .  .  .  .  .  .  .  .  .  .  .  .  .  .  .  .  .  .  .  .  .  .  .  .  .  .  .  .  .  .  .  .  .  .  .  .  .  .  .  .  .  .  .  .  .  .  .  .  .  .  .  .  .  .  .  .  .  .  .  .  .  .  .  .  .  .  .  .  .  .  .  .  .  .  .  .  .  .  .  .  .  .  .  .  .  .  .  .  .  .  .  .  .  .  == -= ;= 8  >= ,= '= )= .  .  .  .  .  .  .  .  .  .  .  .  .  .  .  .  .  .  .  .  .  .  .  .  .  .  .  .  .  .  .  .  .  .  .  .  .  .  .  .  .  .  .  .  .  .  .  .  .  .  .  .  .  .  .  .  .  .  .  .  .  .  .  .  .  .  .  .  .  .  .  .  .  .  .  .  .  .  .  .  .  .  .  .  .  .  .  .  .  .  .  .  .  .  .  .  .  .  .  .  .  .  .  .  .  .  .  .  .  .  .  .  .  .  .  .  .  .  .  .  .  .  .  .  ",
".  .  .  .  .  .  .  .  .  .  .  .  .  .  .  .  .  .  .  .  .  .  .  .  .  .  .  .  .  .  .  .  .  .  .  .  .  .  .  .  .  .  .  .  .  .  .  .  .  .  .  .  .  .  .  .  .  .  .  .  .  .  .  .  .  .  .  .  .  .  .  .  .  .  .  .  .  .  .  .  .  .  .  .  .  .  .  .  .  .  .  .  .  .  .  .  .  .  .  .  .  .  .  .  .  .  .  .  .  .  .  .  .  .  .  .  .  .  .  .  .  .  .  .  .  .  .  .  .  .  .  .  .  .  .  .  .  .  .  .  .  .  .  .  .  .  .  .  .  .  .  .  .  .  .  .  .  .  .  .  .  .  .  .  .  .  .  .  .  .  .  .  .  .  .  .  .  .  .  .  .  .  .  .  .  .  .  .  .  .  .  .  .  .  .  .  .  .  .  .  .  .  .  .  .  .  .  .  .  .  .  .  .  .  .  .  .  .  .  .  .  .  .  .  .  .  .  .  .  .  .  .  .  .  .  .  .  .  .  .  .  .  .  .  .  .  .  .  .  .  .  .  .  .  .  .  .  .  .  .  != ~= {= ]= ^= /= (= I. .  .  .  .  .  .  .  .  .  .  .  .  .  .  .  .  .  .  .  .  .  .  .  .  .  .  .  .  .  .  .  .  .  .  .  .  .  .  .  .  .  .  _= := <= <= [= }= }= }= <= := := := := |= .  .  .  .  .  .  .  .  .  .  .  .  .  .  .  .  .  .  .  .  .  .  .  .  .  .  .  .  .  .  .  .  .  .  .  .  .  .  .  .  .  .  .  .  .  .  .  .  .  .  .  .  .  .  .  .  .  .  .  .  .  .  .  .  .  .  .  .  ",
".  .  .  .  .  .  .  .  .  .  .  .  .  .  .  .  .  .  .  .  .  .  .  .  .  .  .  .  .  .  .  .  .  .  .  .  .  .  .  .  .  .  .  .  .  .  .  .  .  .  .  .  .  .  .  .  .  .  .  .  .  .  .  .  .  .  .  .  .  .  .  .  .  .  .  .  .  .  .  .  .  .  .  .  .  .  .  .  .  .  .  .  .  .  .  .  .  .  .  .  .  .  .  .  .  .  .  .  .  .  .  .  .  .  .  .  .  .  .  .  .  .  .  .  .  .  .  .  .  .  .  .  .  .  .  .  .  .  .  .  .  .  .  .  .  .  .  .  .  .  .  .  .  .  .  .  .  .  .  .  .  .  .  .  .  .  .  .  .  .  .  .  .  .  .  .  .  .  .  .  .  .  .  .  .  .  .  .  .  .  .  .  .  .  .  .  .  .  .  .  .  .  .  .  .  .  .  .  .  .  .  .  .  .  .  .  .  .  .  .  .  .  .  .  .  .  .  .  .  .  .  .  .  .  .  .  .  .  .  .  .  .  .  .  .  .  .  .  .  .  .  .  .  .  .  .  .  .  .  .  1= 2= 3= 4= 4= 5= 6= 7= .  .  .  .  .  .  .  .  .  .  .  .  .  .  .  .  .  .  .  .  .  .  .  .  .  .  .  .  .  .  .  .  .  .  .  .  .  .  .  .  .  8= 9= 0= a= a= a= a= a= a= b= c= 0= 9. d= e= .  .  .  .  .  .  .  .  .  .  .  .  .  .  .  .  .  .  .  .  .  .  .  .  .  .  .  .  .  .  .  .  .  .  .  .  .  .  .  .  .  .  .  .  .  .  .  .  .  .  .  .  .  .  .  .  .  .  .  .  .  .  .  .  .  .  .  .  ",
".  .  .  .  .  .  .  .  .  .  .  .  .  .  .  .  .  .  .  .  .  .  .  .  .  .  .  .  .  .  .  .  .  .  .  .  .  .  .  .  .  .  .  .  .  .  .  .  .  .  .  .  .  .  .  .  .  .  .  .  .  .  .  .  .  .  .  .  .  .  .  .  .  .  .  .  .  .  .  .  .  .  .  .  .  .  .  .  .  .  .  .  .  .  .  .  .  .  .  .  .  .  .  .  .  .  .  .  .  .  .  .  .  .  .  .  .  .  .  .  .  .  .  .  .  .  .  .  .  .  .  .  .  .  .  .  .  .  .  .  .  .  .  .  .  .  .  .  .  .  .  .  .  .  .  .  .  .  .  .  .  .  .  .  .  .  .  .  .  .  .  .  .  .  .  .  .  .  .  .  .  .  .  .  .  .  .  .  .  .  .  .  .  .  .  .  .  .  .  .  .  .  .  .  .  .  .  .  .  .  .  .  .  .  .  .  .  .  .  .  .  .  .  .  .  .  .  .  .  .  .  .  .  .  .  .  .  .  .  .  .  .  .  .  .  .  .  .  .  .  .  .  .  .  .  .  .  .  .  .  f= g= h= i= i= j= k= l= .  .  .  .  .  .  .  .  .  .  .  .  .  .  .  .  .  .  .  .  .  .  .  .  .  .  .  .  .  .  .  .  .  .  .  .  .  .  .  .  .  m= n= o= p= q= r= s= t= u= v= w= x= y= z= A= .  .  .  .  .  .  .  .  .  .  .  .  .  .  .  .  .  .  .  .  .  .  .  .  .  .  .  .  .  .  .  .  .  .  .  .  .  .  .  .  .  .  .  .  .  .  .  .  .  .  .  .  .  .  .  .  .  .  .  .  .  .  .  .  .  .  .  .  ",
".  .  .  .  .  .  .  .  .  .  .  .  .  .  .  .  .  .  .  .  .  .  .  .  .  .  .  .  .  .  .  .  .  .  .  .  .  .  .  .  .  .  .  .  .  .  .  .  .  .  .  .  .  .  .  .  .  .  .  .  .  .  .  .  .  .  .  .  .  .  .  .  .  .  .  .  .  .  .  .  .  .  .  .  .  .  .  .  .  .  .  .  .  .  .  .  .  .  .  .  .  .  .  .  .  .  .  .  .  .  .  .  .  .  .  .  .  .  .  .  .  .  .  .  .  .  .  .  .  .  .  .  .  .  .  .  .  .  .  .  .  .  .  .  .  .  .  .  .  .  .  .  .  .  .  .  .  .  .  .  .  .  .  .  .  .  .  .  .  .  .  .  .  .  .  .  .  .  .  .  .  .  .  .  .  .  .  .  .  .  .  .  .  .  .  .  .  .  .  .  .  .  .  .  .  .  .  .  .  .  .  .  .  .  .  .  .  .  .  .  .  .  .  .  .  .  .  .  .  .  .  .  .  .  .  .  .  .  .  .  .  .  .  .  .  .  .  .  .  .  .  .  .  .  .  .  .  .  .  .  .  .  .  .  .  .  .  .  .  .  .  .  .  .  .  .  .  .  .  .  .  .  .  .  .  .  .  .  .  .  .  .  .  .  .  .  .  .  .  .  .  .  .  .  .  .  .  .  .  :  B= C= D= ~& a@ E= N# F= G= H= I= J= K= L= .  .  .  .  .  .  .  .  .  .  .  .  .  .  .  .  .  .  .  .  .  .  .  .  .  .  .  .  .  .  .  .  .  .  .  .  .  .  .  .  .  .  .  .  .  .  .  .  .  .  .  .  .  .  .  .  .  .  .  .  .  .  .  .  .  .  .  .  ",
".  .  .  .  .  .  .  .  .  .  .  .  .  .  .  .  .  .  .  .  .  .  .  .  .  .  .  .  .  .  .  .  .  .  .  .  .  .  .  .  .  .  .  .  .  .  .  .  .  .  .  .  .  .  .  .  .  .  .  .  .  .  .  .  .  .  .  .  .  .  .  .  .  .  .  .  .  .  .  .  .  .  .  .  .  .  .  .  .  .  .  .  .  .  .  .  .  .  .  .  .  .  .  .  .  .  .  .  .  .  .  .  .  .  .  .  .  .  .  .  .  .  .  .  .  .  .  .  .  .  .  .  .  .  .  .  .  .  .  .  .  .  .  .  .  .  .  .  .  .  .  .  .  .  .  .  .  .  .  .  .  .  .  .  .  .  .  .  .  .  .  .  .  .  .  .  .  .  .  .  .  .  .  .  .  .  .  .  .  .  .  .  .  .  .  .  .  .  .  .  .  .  .  .  .  .  .  .  .  .  .  .  .  .  .  .  .  .  .  .  .  .  .  .  .  .  .  .  .  .  .  .  .  .  .  .  .  .  .  .  .  .  .  .  .  .  .  .  .  .  .  .  .  .  .  .  .  .  .  .  .  .  .  .  .  .  .  .  .  .  .  .  .  .  .  .  .  .  .  .  .  .  .  .  .  .  .  .  .  .  .  .  .  .  .  .  .  .  .  .  .  .  .  .  .  .  .  .  .  :  M= N= O= P% P= Q= b@ R= S= T= U= V= W= L= .  .  .  .  .  .  .  .  .  .  .  .  .  .  .  .  .  .  .  .  .  .  .  .  .  .  .  .  .  .  .  .  .  .  .  .  .  .  .  .  .  .  .  .  .  .  .  .  .  .  .  .  .  .  .  .  .  .  .  .  .  .  .  .  .  .  .  .  ",
".  .  .  .  .  .  .  .  .  .  .  .  .  .  .  .  .  .  .  .  .  .  .  .  .  .  .  .  .  .  .  .  .  .  .  .  .  .  .  .  .  .  .  .  .  .  .  .  .  .  .  .  .  .  .  .  .  .  .  .  .  .  .  .  .  .  .  .  .  .  .  .  .  .  .  .  .  .  .  .  .  .  .  .  .  .  .  .  .  .  .  .  .  .  .  .  .  .  .  .  .  .  .  .  .  .  .  .  .  .  .  .  .  .  .  .  .  .  .  .  .  .  .  .  .  .  .  .  .  .  .  .  .  .  .  .  .  .  .  .  .  .  .  .  .  .  .  .  .  .  .  .  .  .  .  .  .  .  .  .  .  .  .  .  .  .  .  .  .  .  .  .  .  .  .  .  .  .  .  .  .  .  .  .  .  .  .  .  .  .  .  .  .  .  .  .  .  .  .  .  .  .  .  .  .  .  .  .  .  .  .  .  .  .  .  .  .  .  .  .  .  .  .  .  .  .  .  .  .  .  .  .  .  .  .  .  .  .  .  .  .  .  .  .  .  .  .  .  .  .  .  .  .  .  .  .  .  .  .  .  .  .  .  .  .  .  .  .  .  .  .  .  .  .  .  .  .  .  .  .  .  .  .  .  .  .  .  .  .  .  .  .  .  .  .  .  .  .  .  .  .  .  .  .  .  .  .  .  .  X= Y= Z= `= W$ B#  - .- +- @- #- $- %- &- *- .  .  .  .  .  .  .  .  .  .  .  .  .  .  .  .  .  .  .  .  .  .  .  .  .  .  .  .  .  .  .  .  .  .  .  .  .  .  .  .  .  .  .  .  .  .  .  .  .  .  .  .  .  .  .  .  .  .  .  .  .  .  .  .  .  .  .  .  ",
".  .  .  .  .  .  .  .  .  .  .  .  .  .  .  .  .  .  .  .  .  .  .  .  .  .  .  .  .  .  .  .  .  .  .  .  .  .  .  .  .  .  .  .  .  .  .  .  .  .  .  .  .  .  .  .  .  .  .  .  .  .  .  .  .  .  .  .  .  .  .  .  .  .  .  .  .  .  .  .  .  .  .  .  .  .  .  .  .  .  .  .  .  .  .  .  .  .  .  .  .  .  .  .  .  .  .  .  .  .  .  .  .  .  .  .  .  .  .  .  .  .  .  .  .  .  .  .  .  .  .  .  .  .  .  .  .  .  .  .  .  .  .  .  .  .  .  .  .  .  .  .  .  .  .  .  .  .  .  .  .  .  .  .  .  .  .  .  .  .  .  .  .  .  .  .  .  .  .  .  .  .  .  .  .  .  .  .  .  .  .  .  .  .  .  .  .  .  .  .  .  .  .  .  .  .  .  .  .  .  .  .  .  .  .  .  .  .  .  .  .  .  .  .  .  .  .  .  .  .  .  .  .  .  .  .  .  .  .  .  .  .  .  .  .  .  .  .  .  .  .  .  .  .  .  .  .  .  .  .  .  .  .  .  .  .  .  .  .  .  .  .  .  .  .  .  .  .  .  .  .  .  .  .  .  .  .  .  .  .  .  .  .  .  .  .  .  .  .  .  .  .  .  .  .  .  .  .  .  =- -- ,* ^. ;- r& >- ,- '- )- !- ~- {- ]- ^- .  .  .  .  .  .  .  .  .  .  .  .  .  .  .  .  .  .  .  .  .  .  .  .  .  .  .  .  .  .  .  .  .  .  .  .  .  .  .  .  .  .  .  .  .  .  .  .  .  .  .  .  .  .  .  .  .  .  .  .  .  .  .  .  .  .  .  .  ",
".  .  .  .  .  .  .  .  .  .  .  .  .  .  .  .  .  .  .  .  .  .  .  .  .  .  .  .  .  .  .  .  .  .  .  .  .  .  .  .  .  .  .  .  .  .  .  .  .  .  .  .  .  .  .  .  .  .  .  .  .  .  .  .  .  .  .  .  .  .  .  .  .  .  .  .  .  .  .  .  .  .  .  .  .  .  .  .  .  .  .  .  .  .  .  .  .  .  .  .  .  .  .  .  .  .  .  .  .  .  .  .  .  .  .  .  .  .  .  .  .  .  .  .  .  .  .  .  .  .  .  .  .  .  .  .  .  .  .  .  .  .  .  .  .  .  .  .  .  .  .  .  .  .  .  .  .  .  .  .  .  .  .  .  .  .  .  .  .  .  .  .  .  .  .  .  .  .  .  .  .  .  .  .  .  .  .  .  .  .  .  .  .  .  .  .  .  .  .  .  .  .  .  .  .  .  .  .  .  .  .  .  .  .  .  .  .  .  .  .  .  .  .  .  .  .  .  .  .  .  .  .  .  .  .  .  .  .  .  .  .  .  .  .  .  .  .  .  .  .  .  .  .  .  .  .  .  .  .  .  .  .  .  .  .  .  .  .  .  .  .  .  .  .  .  .  .  .  .  .  .  .  .  .  .  .  .  .  .  .  .  .  .  .  .  .  /- (- _- :- <- [- }- |- 1- 2- 3- 3- 3- 4- 5- 6- S+ V$ 7- 8- 9- 0- a- b- c- d- e- f- .  .  .  .  .  .  .  .  .  .  .  .  .  .  .  .  .  .  .  .  .  .  .  .  .  .  .  .  .  .  .  .  .  .  .  .  .  .  .  .  .  .  .  .  .  .  .  .  .  .  .  .  .  .  .  .  .  .  .  .  .  .  .  .  .  .  .  .  ",
".  .  .  .  .  .  .  .  .  .  .  .  .  .  .  .  .  .  .  .  .  .  .  .  .  .  .  .  .  .  .  .  .  .  .  .  .  .  .  .  .  .  .  .  .  .  .  .  .  .  .  .  .  .  .  .  .  .  .  .  .  .  .  .  .  .  .  .  .  .  .  .  .  .  .  .  .  .  .  .  .  .  .  .  .  .  .  .  .  .  .  .  .  .  .  .  .  .  .  .  .  .  .  .  .  .  .  .  .  .  .  .  .  .  .  .  .  .  .  .  .  .  .  .  .  .  .  .  .  .  .  .  .  .  .  .  .  .  .  .  .  .  .  .  .  .  .  .  .  .  .  .  .  .  .  .  .  .  .  .  .  .  .  .  .  .  .  .  .  .  .  .  .  .  .  .  .  .  .  .  .  .  .  .  .  .  .  .  .  .  .  .  .  .  .  .  .  .  .  .  .  .  .  .  .  .  .  .  .  .  .  .  .  .  .  .  .  .  .  .  .  .  .  .  .  .  .  .  .  .  .  .  .  .  .  .  .  .  .  .  .  .  .  .  .  .  .  .  .  .  .  .  .  .  .  .  .  .  .  .  .  .  .  .  .  .  .  .  .  .  .  .  .  .  .  .  .  .  .  .  .  .  .  .  .  .  .  .  .  .  .  .  .  .  .  .  g- h- i- j- k- l- m- n- o- p- q- r- s- r- t- /% ]@ {@ u- v- w- x- y- z- A- B- C- D- .  .  .  .  .  .  .  .  .  .  .  .  .  .  .  .  .  .  .  .  .  .  .  .  .  .  .  .  .  .  .  .  .  .  .  .  .  .  .  .  .  .  .  .  .  .  .  .  .  .  .  .  .  .  .  .  .  .  .  .  .  .  .  .  .  .  .  .  ",
".  .  .  .  .  .  .  .  .  .  .  .  .  .  .  .  .  .  .  .  .  .  .  .  .  .  .  .  .  .  .  .  .  .  .  .  .  .  .  .  .  .  .  .  .  .  .  .  .  .  .  .  .  .  .  .  .  .  .  .  .  .  .  .  .  .  .  .  .  .  .  .  .  .  .  .  .  .  .  .  .  .  .  .  .  .  .  .  .  .  .  .  .  .  .  .  .  .  .  .  .  .  .  .  .  .  .  .  .  .  .  .  .  .  .  .  .  .  .  .  .  .  .  .  .  .  .  .  .  .  .  .  .  .  .  .  .  .  .  .  .  .  .  .  .  .  .  .  .  .  .  .  .  .  .  .  .  .  .  .  .  .  .  .  .  .  .  .  .  .  .  .  .  .  .  .  .  .  .  .  .  .  .  .  .  .  .  .  .  .  .  .  .  .  .  .  .  .  .  .  .  .  .  .  .  .  .  .  .  .  .  .  .  .  .  .  .  .  .  .  .  .  .  .  .  .  .  .  .  .  .  .  .  .  .  .  .  .  .  .  .  .  .  .  .  .  .  .  .  .  .  .  .  .  .  .  .  .  .  .  .  .  .  .  .  .  .  .  .  .  .  .  .  .  .  .  .  .  .  .  .  .  .  .  .  .  .  .  .  .  .  .  .  .  .  .  E- F- G- H- I- J- 5. C# C# K- -% L- o% M- N- O- P- Q- '. 2  R- S- .  .  T- T- U- .  .  .  .  .  .  .  .  .  .  .  .  .  .  .  .  .  .  .  .  .  .  .  .  .  .  .  .  .  .  .  .  .  .  .  .  .  .  .  .  .  .  .  .  .  .  .  .  .  .  .  .  .  .  .  .  .  .  .  .  .  .  .  .  .  .  .  .  .  ",
".  .  .  .  .  .  .  .  .  .  .  .  .  .  .  .  .  .  .  .  .  .  .  .  .  .  .  .  .  .  .  .  .  .  .  .  .  .  .  .  .  .  .  .  .  .  .  .  .  .  .  .  .  .  .  .  .  .  .  .  .  .  .  .  .  .  .  .  .  .  .  .  .  .  .  .  .  .  .  .  .  .  .  .  .  .  .  .  .  .  .  .  .  .  .  .  .  .  .  .  .  .  .  .  .  .  .  .  .  .  .  .  .  .  .  .  .  .  .  .  .  .  .  .  .  .  .  .  .  .  .  .  .  .  .  .  .  .  .  .  .  .  .  .  .  .  .  .  .  .  .  .  .  .  .  .  .  .  .  .  .  .  .  .  .  .  .  .  .  .  .  .  .  .  .  .  .  .  .  .  .  .  .  .  .  .  .  .  .  .  .  .  .  .  .  .  .  .  .  .  .  .  .  .  .  .  .  .  .  .  .  .  .  .  .  .  .  .  .  .  .  .  .  .  .  .  .  .  .  .  .  .  .  .  .  .  .  .  .  .  .  .  .  .  .  .  .  .  .  .  .  .  .  .  .  .  .  .  .  .  .  .  .  .  .  .  .  .  .  .  .  .  .  .  .  .  .  .  .  .  .  .  .  .  .  .  .  .  .  .  .  .  .  .  .  .  V- W- X- J& Y- Z- 5% !. !. `-  ; g@ r& f. .; +; Q- @; #; $; %; .  .  .  .  .  .  .  .  .  .  .  .  .  .  .  .  .  .  .  .  .  .  .  .  .  .  .  .  .  .  .  .  .  .  .  .  .  .  .  .  .  .  .  .  .  .  .  .  .  .  .  .  .  .  .  .  .  .  .  .  .  .  .  .  .  .  .  .  .  .  .  .  .  .  .  ",
".  .  .  .  .  .  .  .  .  .  .  .  .  .  .  .  .  .  .  .  .  .  .  .  .  .  .  .  .  .  .  .  .  .  .  .  .  .  .  .  .  .  .  .  .  .  .  .  .  .  .  .  .  .  .  .  .  .  .  .  .  .  .  .  .  .  .  .  .  .  .  .  .  .  .  .  .  .  .  .  .  .  .  .  .  .  .  .  .  .  .  .  .  .  .  .  .  .  .  .  .  .  .  .  .  .  .  .  .  .  .  .  .  .  .  .  .  .  .  .  .  .  .  .  .  .  .  .  .  .  .  .  .  .  .  .  .  .  .  .  .  .  .  .  .  .  .  .  .  .  .  .  .  .  .  .  .  .  .  .  .  .  .  .  .  .  .  .  .  .  .  .  .  .  .  .  .  .  .  .  .  .  .  .  .  .  .  .  .  .  .  .  .  .  .  .  .  .  .  .  .  .  .  .  .  .  .  .  .  .  .  .  .  .  .  .  .  .  .  .  .  .  .  .  .  .  .  .  .  .  .  .  .  .  .  .  .  .  .  .  .  .  .  .  .  .  .  .  .  .  .  .  .  .  .  .  .  .  .  .  .  .  .  .  .  .  .  .  .  .  .  .  .  .  .  .  .  .  .  .  .  .  .  .  .  .  .  .  .  .  .  .  .  .  .  .  .  &; *; =; K& 3. g. -; ;; ;; 0@ >; ,; ]. >% $- 7- '; @; ); b  !; .  .  .  .  .  .  .  .  .  .  .  .  .  .  .  .  .  .  .  .  .  .  .  .  .  .  .  .  .  .  .  .  .  .  .  .  .  .  .  .  .  .  .  .  .  .  .  .  .  .  .  .  .  .  .  .  .  .  .  .  .  .  .  .  .  .  .  .  .  .  .  .  .  .  ",
".  .  .  .  .  .  .  .  .  .  .  .  .  .  .  .  .  .  .  .  .  .  .  .  .  .  .  .  .  .  .  .  .  .  .  .  .  .  .  .  .  .  .  .  .  .  .  .  .  .  .  .  .  .  .  .  .  .  .  .  .  .  .  .  .  .  .  .  .  .  .  .  .  .  .  .  .  .  .  .  .  .  .  .  .  .  .  .  .  .  .  .  .  .  .  .  .  .  .  .  .  .  .  .  .  .  .  .  .  .  .  .  .  .  .  .  .  .  .  .  .  .  .  .  .  .  .  .  .  .  .  .  .  .  .  .  .  .  .  .  .  .  .  .  .  .  .  .  .  .  .  .  .  .  .  .  .  .  .  .  .  .  .  .  .  .  .  .  .  .  .  .  .  .  .  .  .  .  .  .  .  .  .  .  .  .  .  .  .  .  .  .  .  .  .  .  .  .  .  .  .  .  .  .  .  .  .  .  .  .  .  .  .  .  .  .  .  .  .  .  .  .  .  .  .  .  .  .  .  .  .  .  .  .  .  .  .  .  .  .  .  .  .  .  .  .  .  ~; ~; {; {; {; {; {; ~; .  .  .  .  .  .  .  .  .  .  .  .  .  .  .  .  .  .  .  .  .  .  .  .  .  .  .  .  .  .  .  .  .  .  .  .  ]; ^; {; ~; ~; V- /; (; _; :; 2. 0@ 0@ 0@ ;; 8@ w+ W$ ## 7. 2.    ~& @* <; [; _  .  .  .  .  .  .  .  .  .  .  .  .  .  .  .  .  .  .  .  .  .  .  .  .  .  }; ~; ~; ~; |; .  .  .  .  .  .  .  .  .  .  .  .  .  .  .  .  .  .  .  .  .  .  .  .  .  .  .  .  .  .  .  .  .  .  .  .  .  .  .  .  .  .  .  .  ",
".  .  .  .  .  .  .  .  .  .  .  .  .  .  .  .  .  .  .  .  .  .  .  .  .  .  .  .  .  .  .  .  .  .  .  .  .  .  .  .  .  .  .  .  .  .  .  .  .  .  .  .  .  .  .  .  .  .  .  .  .  .  .  .  .  .  .  .  .  .  .  .  .  .  .  .  .  .  .  .  .  .  .  .  .  .  .  .  .  .  .  .  .  .  .  .  .  .  .  .  .  .  .  .  .  .  .  .  .  .  .  .  .  .  .  .  .  .  .  .  .  .  .  .  .  .  .  .  .  .  .  .  .  .  .  .  .  .  .  .  .  .  .  .  .  .  .  .  .  .  .  .  .  .  .  .  .  .  .  .  .  .  .  .  .  .  .  .  .  .  .  .  .  .  .  .  .  .  .  .  .  .  .  .  .  .  .  .  .  .  .  .  .  .  .  .  .  .  .  .  .  .  .  .  .  .  .  .  .  .  .  .  .  .  .  .  .  .  .  .  .  .  .  .  .  .  .  .  .  .  .  .  .  .  .  .  .  .  .  .  .  .  .  .  .  .  1; N* 2; 3; 4; 5; 6; 7; 8; 9; .  .  .  .  .  .  .  .  .  .  .  .  .  .  .  .  .  .  .  .  .  .  .  .  .  .  .  .  .  .  .  .  .  .  0; a; b; 5; 3; c; d; e; f; u. 2. g; 2. 0@ 0@ ;; !. U+ P+ h; i; j; k; l; m; n; o; p; .  .  .  .  .  .  .  .  .  .  .  .  .  .  .  .  .  .  .  .  .  .  q; r; s; t; 3; u; v; w; x; .  .  .  .  .  .  .  .  .  .  .  .  .  .  .  .  .  .  .  .  .  .  .  .  .  .  .  .  .  .  .  .  .  .  .  .  .  .  .  .  .  .  .  ",
".  .  .  .  .  .  .  .  .  .  .  .  .  .  .  .  .  .  .  .  .  .  .  .  .  .  .  .  .  .  .  .  .  .  .  .  .  .  .  .  .  .  .  .  .  .  .  .  .  .  .  .  .  .  .  .  .  .  .  .  .  .  .  .  .  .  .  .  .  .  .  .  .  .  .  .  .  .  .  .  .  .  .  .  .  .  .  .  .  .  .  .  .  .  .  .  .  .  .  .  .  .  .  .  .  .  .  .  .  .  .  .  .  .  .  .  .  .  .  .  .  .  .  .  .  .  .  .  .  .  .  .  .  .  .  .  .  .  .  .  .  .  .  .  .  .  .  .  .  .  .  .  .  .  .  .  .  .  .  .  .  .  .  .  .  .  .  .  .  .  .  .  .  .  .  .  .  .  .  .  .  .  .  .  .  .  .  .  .  .  .  .  .  .  .  .  .  .  .  .  .  .  .  .  .  .  .  .  .  .  .  .  .  .  .  .  .  .  .  .  .  .  .  .  .  .  .  .  .  .  .  .  .  .  .  .  .  .  .  .  .  .  .  .  .  .  y; z; T. A; B; C; D; }+ E; F; .  .  .  .  .  .  .  .  .  .  .  .  .  .  .  .  .  .  .  .  .  .  .  .  .  .  .  .  .  .  .  .  .  .  G; H; I; J; K; L; M; N; O; 5. 0@ :% s# 0@ 0@ ;; !. O+ D= {& P; Q; R; S; T; U; V; .  .  .  .  .  .  .  .  .  .  .  .  .  .  .  .  .  .  .  .  .  .  .  W; X; Y; Z; `;  > .> +> 0% .  .  .  .  .  .  .  .  .  .  .  .  .  .  .  .  .  .  .  .  .  .  .  .  .  .  .  .  .  .  .  .  .  .  .  .  .  .  .  .  .  .  .  ",
".  .  .  .  .  .  .  .  .  .  .  .  .  .  .  .  .  .  .  .  .  .  .  .  .  .  .  .  .  .  .  .  .  .  .  .  .  .  .  .  .  .  .  .  .  .  .  .  .  .  .  .  .  .  .  .  .  .  .  .  .  .  .  .  .  .  .  .  .  .  .  .  .  .  .  .  .  .  .  .  .  .  .  .  .  .  .  .  .  .  .  .  .  .  .  .  .  .  .  .  .  .  .  .  .  .  .  .  .  .  .  .  .  .  .  .  .  .  .  .  .  .  .  .  .  .  .  .  .  .  .  .  .  .  .  .  .  .  .  .  .  .  .  .  .  .  .  .  .  .  .  .  .  .  .  .  .  .  .  .  .  .  .  .  .  .  .  .  .  .  .  .  .  .  .  .  .  .  .  .  .  .  .  .  .  .  .  .  .  .  .  .  .  .  .  .  .  .  .  .  .  .  .  .  .  .  .  .  .  .  .  .  .  .  .  .  .  .  .  .  .  .  .  .  .  .  .  .  .  .  .  .  .  .  .  .  .  .  .  .  .  .  .  .  .  .  .  @> #> H+ $> %> &> *> => -> .  .  .  .  .  .  .  .  .  .  .  .  .  .  .  .  .  .  .  .  .  .  .  .  .  .  .  .  .  .  .  .  .  .  ;> >> ,> '> )> !> ~> {> 0@ s# ]> w. 0@ 0@ 0@ 0@ !. ^> /> (> _> T# .  .  .  .  .  j+ .  .  .  .  .  .  .  .  .  .  .  .  .  .  .  .  .  .  .  .  .  .  :> <> [> +$ $$ }> |> 1> 2> .  .  .  .  .  .  .  .  .  .  .  .  .  .  .  .  .  .  .  .  .  .  .  .  .  .  .  .  .  .  .  .  .  .  .  .  .  .  .  .  .  .  .  ",
".  .  .  .  .  .  .  .  .  .  .  .  .  .  .  .  .  .  .  .  .  .  .  .  .  .  .  .  .  .  .  .  .  .  .  .  .  .  .  .  .  .  .  .  .  .  .  .  .  .  .  .  .  .  .  .  .  .  .  .  .  .  .  .  .  .  .  .  .  .  .  .  .  .  .  .  .  .  .  .  .  .  .  .  .  .  .  .  .  .  .  .  .  .  .  .  .  .  .  .  .  .  .  .  .  .  .  .  .  .  .  .  .  .  .  .  .  .  .  .  .  .  .  .  .  .  .  .  .  .  .  .  .  .  .  .  .  .  .  .  .  .  .  .  .  .  .  .  .  .  .  .  .  .  .  .  .  .  .  .  .  .  .  .  .  .  .  .  .  .  .  .  .  .  .  .  .  .  .  .  .  .  .  .  .  .  .  .  .  .  .  .  .  .  .  .  .  .  .  .  .  .  .  .  .  .  .  .  .  .  .  .  .  .  .  .  .  .  .  .  .  .  .  .  .  .  .  .  .  .  .  .  .  .  .  .  .  .  .  .  .  .  .  .  .  .  .  3> 4> 5> 7. ,; Q+ 6> 7> -> .  .  .  .  .  .  .  .  .  .  .  .  .  .  .  .  .  .  .  .  .  .  .  .  .  .  .  .  .  .  .  .  .  .  8> 9> 0> a> b> V$ V+ ]. 8@ A# -; c> 0@ 0@ 0@ -% `- d> e> f> g> .  .  .  .  .  .  .  .  .  .  .  .  .  .  .  .  .  .  .  .  .  .  .  .  .  .  .  .  h> i> j> 3. ]. k> l> m> n> 2> .  .  .  .  .  .  .  .  .  .  .  .  .  .  .  .  .  .  .  .  .  .  .  .  .  .  .  .  .  .  .  .  .  .  .  .  .  .  .  .  .  .  .  ",
".  .  .  .  .  .  .  .  .  .  .  .  .  .  .  .  .  .  .  .  .  .  .  .  .  .  .  .  .  .  .  .  .  .  .  .  .  .  .  .  .  .  .  .  .  .  .  .  .  .  .  .  .  .  .  .  .  .  .  .  .  .  .  .  .  .  .  .  .  .  .  .  .  .  .  .  .  .  .  .  .  .  .  .  .  .  .  .  .  .  .  .  .  .  .  .  .  .  .  .  .  .  .  .  .  .  .  .  .  .  .  .  .  .  .  .  .  .  .  .  .  .  .  .  .  .  .  .  .  .  .  .  .  .  .  .  .  .  .  .  .  .  .  .  .  .  .  .  .  .  .  .  .  .  .  .  .  .  .  .  .  .  .  .  .  .  .  .  .  .  .  .  .  .  .  .  .  .  .  .  .  .  .  .  .  .  .  .  .  .  .  .  .  .  .  .  .  .  .  .  .  .  .  .  .  .  .  .  .  .  .  .  .  .  .  .  .  .  .  .  .  .  .  .  .  .  .  .  .  .  .  .  .  .  .  .  .  .  .  .  .  .  .  .  .  .  .  o> p> q> _; :; {@ r> s> -> .  .  .  .  .  .  .  .  .  .  .  .  .  .  .  .  .  .  .  .  .  .  .  .  .  .  .  .  .  .  .  .  .  .  t> >> 0> u> v> w> `-    A# A# ;; ;; x> 0@ 0@ -% r& y> g. z> A> .  .  .  .  .  .  .  .  .  .  .  .  .  .  .  .  .  .  .  .  .  .  .  .  .  .  .  .  B> C> D> E> F> G> H> I> J> 2> .  .  .  .  .  .  .  .  .  .  .  .  .  .  .  .  .  .  .  .  .  .  .  .  .  .  .  .  .  .  .  .  .  .  .  .  .  .  .  .  .  .  .  ",
".  .  .  .  .  .  .  .  .  .  .  .  .  .  .  .  .  .  .  .  .  .  .  .  .  .  .  .  .  .  .  .  .  .  .  .  .  .  .  .  .  .  .  .  .  .  .  .  .  .  .  .  .  .  .  .  .  .  .  .  .  .  .  .  .  .  .  .  .  .  .  .  .  .  .  .  .  .  .  .  .  .  .  .  .  .  .  .  .  .  .  .  .  .  .  .  .  .  .  .  .  .  .  .  .  .  .  .  .  .  .  .  .  .  .  .  .  .  .  .  .  .  .  .  .  .  .  .  .  .  .  .  .  .  .  .  .  .  .  .  .  .  .  .  .  .  .  .  .  .  .  .  .  .  .  .  .  .  .  .  .  .  .  .  .  .  .  .  .  .  .  .  .  .  .  .  .  .  .  .  .  .  .  .  .  .  .  .  .  .  .  .  .  .  .  .  .  .  .  .  .  .  .  .  .  .  .  .  .  .  .  .  .  .  .  .  .  .  .  .  .  .  .  .  .  .  .  .  .  .  .  .  .  .  .  .  .  .  .  .  .  .  .  .  .  .  .  K> L> M> o% N> O> P> Q> -> .  .  .  .  .  .  .  .  .  .  .  .  .  .  .  .  .  .  .  .  .  .  .  .  .  .  .  .  .  .  .  .  .  .  R> S> T> U> !- V> W> @; @; @- ;; ;; ;; P# 0@ 2. ;; X> X$ Y> Z> .  .  .  .  .  .  .  .  .  .  .  .  .  .  .  .  .  .  .  .  .  .  .  .  .  .  .  .  }; `>  , ., F> +, @, #, $, 0% .  .  .  .  .  .  .  .  .  .  .  .  .  .  .  .  .  .  .  .  .  .  .  .  .  .  .  .  .  .  .  .  .  .  .  .  .  .  .  .  .  .  .  ",
".  .  .  .  .  .  .  .  .  .  .  .  .  .  .  .  .  .  .  .  .  .  .  .  .  .  .  .  .  .  .  .  .  .  .  .  .  .  .  .  .  .  .  .  .  .  .  .  .  .  .  .  .  .  .  .  .  .  .  .  .  .  .  .  .  .  .  .  .  .  .  .  .  .  .  .  .  .  .  .  .  .  .  .  .  .  .  .  .  .  .  .  .  .  .  .  .  .  .  .  .  .  .  .  .  .  .  .  .  .  .  .  .  .  .  .  .  .  .  .  .  .  .  .  .  .  .  .  .  .  .  .  .  .  .  .  .  .  .  .  .  .  .  .  .  .  .  .  .  .  .  .  .  .  .  .  .  .  .  .  .  .  .  .  .  .  .  .  .  .  .  .  .  .  .  .  .  .  .  .  .  .  .  .  .  .  .  .  .  .  .  .  .  .  .  .  .  .  .  .  .  .  .  .  .  .  .  .  .  .  .  .  .  .  .  .  .  .  .  .  .  .  .  .  .  .  .  .  .  .  .  .  .  .  j+ %, &, *, =, -, -, ;, =, =, =, =, >, ,, ', ), !, ~, {, ], ^, -> .  .  .  .  .  .  .  .  .  .  .  .  .  .  .  .  .  .  .  .  .  .  /, (, _, =, =, =, =, :, :, :, :, :, <, [, }, |, 1, 2, 3, )& 4, 5, @; e@ ^.    6, 7, 8, 9, 0, a, b, .  .  .  .  .  .  .  .  .  .  .  .  .  .  .  .  .  .  .  .  .  .  .  c, -# :, :, :, :, d, e, I& f, g, h, i, j, 0% .  .  .  .  .  .  .  .  .  .  .  .  .  .  .  .  .  .  .  .  .  .  .  .  .  .  .  .  .  .  .  .  .  .  .  .  .  .  .  .  .  .  .  ",
".  .  .  .  .  .  .  .  .  .  .  .  .  .  .  .  .  .  .  .  .  .  .  .  .  .  .  .  .  .  .  .  .  .  .  .  .  .  .  .  .  .  .  .  .  .  .  .  .  .  .  .  .  .  .  .  .  .  .  .  .  .  .  .  .  .  .  .  .  .  .  .  .  .  .  .  .  .  .  .  .  .  .  .  .  .  .  .  .  .  .  .  .  .  .  .  .  .  .  .  .  .  .  .  .  .  .  .  .  .  .  .  .  .  .  .  .  .  .  .  .  .  .  .  .  .  .  .  .  .  .  .  .  .  .  .  .  .  .  .  .  .  .  .  .  .  .  .  .  .  .  .  .  .  .  .  .  .  .  .  .  .  .  .  .  .  .  .  .  .  .  .  .  .  .  .  .  .  .  .  .  .  .  .  .  .  .  .  .  .  .  .  .  .  .  .  .  .  .  .  .  .  .  .  .  .  .  .  .  .  .  .  .  .  .  .  .  .  .  .  .  .  .  .  .  .  .  .  .  .  .  .  .  .  k, l, m, n, o, o, o, o, o, o, o, o, o, p, q, r, s, t, u, v, w, D$ .  .  .  .  .  .  .  .  .  .  .  .  .  .  .  .  .  .  .  .  .  .  x, y, z, o, o, o, A, A, B, C, C, D, E, F, G, H, I, J, K, L, M, ~@ p% c# N, O, P, Q, R, S, u& T, U, .  .  .  .  .  .  .  .  .  .  .  .  .  .  .  .  .  .  .  .  .  .  .  V, W, X, A, A, A, Y, Z, `,  ' .' +' Q$ @' #' .  .  .  .  .  .  .  .  .  .  .  .  .  .  .  .  .  .  .  .  .  .  .  .  .  .  .  .  .  .  .  .  .  .  .  .  .  .  .  .  .  .  .  ",
".  .  .  .  .  .  .  .  .  .  .  .  .  .  .  .  .  .  .  .  .  .  .  .  .  .  .  .  .  .  .  .  .  .  .  .  .  .  .  .  .  .  .  .  .  .  .  .  .  .  .  .  .  .  .  .  .  .  .  .  .  .  .  .  .  .  .  .  .  .  .  .  .  .  .  .  .  .  .  .  .  .  .  .  .  .  .  .  .  .  .  .  .  .  .  .  .  .  .  .  .  .  .  .  .  .  .  .  .  .  .  .  .  .  .  .  .  .  .  .  .  .  .  .  .  .  .  .  .  .  .  .  .  .  .  .  .  .  .  .  .  .  .  .  .  .  .  .  .  .  .  .  .  .  .  .  .  .  .  .  .  .  .  .  .  .  .  .  .  .  .  .  .  .  .  .  .  .  .  .  .  .  .  .  .  .  .  .  .  .  .  .  .  .  .  .  .  .  .  .  .  .  .  .  .  .  .  .  .  .  .  .  .  .  .  .  .  .  .  .  .  .  .  .  .  .  .  .  .  .  .  .  .  .  .  $' %' &' *' (* =' -' ;' >' (* ,' '' )' 4> !' ~' {' ]' ^' .  .  .  .  .  .  .  .  .  .  .  .  .  .  .  .  .  .  .  .  .  .  .  j+ /' (' _' :' <' :' :' [' }' |' 1' 2' 3' 4' 5' 6' 7' 8' 9' 0' a' b' c' Q+ d' e' f' g' .  h' i' j' .  j+ .  .  .  .  .  .  .  .  .  .  .  .  .  .  .  .  .  .  .  .  .  .  k' l' m' ;' n' o' p' q' r' s' t' .  u' v' .  .  .  .  .  .  .  .  .  .  .  .  .  .  .  .  .  .  .  .  .  .  .  .  .  .  .  .  .  .  .  .  .  .  .  .  .  .  .  .  .  .  .  .  ",
".  .  .  .  .  .  .  .  .  .  .  .  .  .  .  .  .  .  .  .  .  .  .  .  .  .  .  .  .  .  .  .  .  .  .  .  .  .  .  .  .  .  .  .  .  .  .  .  .  .  .  .  .  .  .  .  .  .  .  .  .  .  .  .  .  .  .  .  .  .  .  .  .  .  .  .  .  .  .  .  .  .  .  .  .  .  .  .  .  .  .  .  .  .  .  .  .  .  .  .  .  .  .  .  .  .  .  .  .  .  .  .  .  .  .  .  .  .  .  .  .  .  .  .  .  .  .  .  .  .  .  .  .  .  .  .  .  .  .  .  .  .  .  .  .  .  .  .  .  .  .  .  .  .  .  .  .  .  .  .  .  .  .  .  .  .  .  .  .  .  .  .  .  .  .  .  .  .  .  .  .  .  .  .  .  .  .  .  .  .  .  .  .  .  .  .  .  .  .  .  .  .  .  .  .  .  .  .  .  .  .  .  .  .  .  .  .  .  .  .  .  .  .  .  .  .  .  .  .  .  .  .  .  .  .  w' x' y' F#  -  - z' A' g. b. 7. u# B' C' D' .  .  .  .  .  .  .  .  .  .  .  .  .  .  .  .  .  .  .  .  .  .  .  .  .  .  .  .  E' F' G' ;@ ;@ H' 5% }. M& I' J' K' L' M' N' O' P' Q' R' S' T' U' P+ V' W' n- X' .  .  .  .  .  .  .  .  .  .  .  .  .  .  .  .  .  .  .  .  .  .  .  .  .  .  .  .  .  Y' Z' `' >%  ) .) +) @) .  .  .  .  .  .  .  .  .  .  .  .  .  .  .  .  .  .  .  .  .  .  .  .  .  .  .  .  .  .  .  .  .  .  .  .  .  .  .  .  .  .  .  .  .  .  .  .  .  .  ",
".  .  .  .  .  .  .  .  .  .  .  .  .  .  .  .  .  .  .  .  .  .  .  .  .  .  .  .  .  .  .  .  .  .  .  .  .  .  .  .  .  .  .  .  .  .  .  .  .  .  .  .  .  .  .  .  .  .  .  .  .  .  .  .  .  .  .  .  .  .  .  .  .  .  .  .  .  .  .  .  .  .  .  .  .  .  .  .  .  .  .  .  .  .  .  .  .  .  .  .  .  .  .  .  .  .  .  .  .  .  .  .  .  .  .  .  .  .  .  .  .  .  .  .  .  .  .  .  .  .  .  .  .  .  .  .  .  .  .  .  .  .  .  .  .  .  .  .  .  .  .  .  .  .  .  .  .  .  .  .  .  .  .  .  .  .  .  .  .  .  .  .  .  .  .  .  .  .  .  .  .  .  .  .  .  .  .  .  .  .  .  .  .  .  .  .  .  .  .  .  .  .  .  .  .  .  .  .  .  .  .  .  .  .  .  .  .  .  .  .  .  .  .  .  .  .  .  .  .  .  .  .  .  .  .  #) $) %) &) ,@ ,@ *) M& S= =) @# -) ;) >) ,) .  .  .  .  .  .  .  .  .  .  .  .  .  .  .  .  .  .  .  .  .  .  .  .  .  .  .  .  k+ L+ |. O+ ') Q+ ]. )) Q+ !) ]. F# ^@ ~) {) ]) ^) /) () _) :) >% <) 5% [) }) |) .  .  .  .  .  .  .  .  .  .  .  .  .  .  .  .  .  .  .  .  .  .  .  .  .  .  .  .  .  1) 2) 3) 4) 9@ 5) 6) 7) .  .  .  .  .  .  .  .  .  .  .  .  .  .  .  .  .  .  .  .  .  .  .  .  .  .  .  .  .  .  .  .  .  .  .  .  .  .  .  .  .  .  .  .  .  .  .  .  .  .  ",
".  .  .  .  .  .  .  .  .  .  .  .  .  .  .  .  .  .  .  .  .  .  .  .  .  .  .  .  .  .  .  .  .  .  .  .  .  .  .  .  .  .  .  .  .  .  .  .  .  .  .  .  .  .  .  .  .  .  .  .  .  .  .  .  .  .  .  .  .  .  .  .  .  .  .  .  .  .  .  .  .  .  .  .  .  .  .  .  .  .  .  .  .  .  .  .  .  .  .  .  .  .  .  .  .  .  .  .  .  .  .  .  .  .  .  .  .  .  .  .  .  .  .  .  .  .  .  .  .  .  .  .  .  .  .  .  .  .  .  .  .  .  .  .  .  .  .  .  .  .  .  .  .  .  .  .  .  .  .  .  .  .  .  .  .  .  .  .  .  .  .  .  .  .  .  .  .  .  .  .  .  .  .  .  .  .  .  .  .  .  .  .  .  .  .  .  .  .  .  .  .  .  .  .  .  .  .  .  .  .  .  .  .  .  .  .  .  .  .  .  .  .  .  .  .  .  .  .  .  .  .  .  .  .  .  8) 9) 0) ') w& z@ a) S& (@ @@ (@ @, b) c) d) .  .  .  .  .  .  .  .  .  .  j+ .  .  .  .  .  .  .  .  .  .  .  .  .  .  .  j+ .  e) f) g) ;- h) h) R+ (@    i)    R= O+ j) k) l) m) n) o) p) q) S& S+ !. 8@ r) s) .  .  .  .  .  .  .  .  .  .  .  .  .  .  .  .  .  .  .  .  .  .  .  .  .  .  .  .  t) u) v) !& O+ w) x) y) 7) .  .  .  .  .  .  .  .  .  .  .  .  .  .  .  .  .  .  .  .  .  .  .  .  .  .  .  .  .  .  .  .  .  .  .  .  .  .  .  .  .  .  .  .  .  .  .  .  .  .  ",
".  .  .  .  .  .  .  .  .  .  .  .  .  .  .  .  .  .  .  .  .  .  .  .  .  .  .  .  .  .  .  .  .  .  .  .  .  .  .  .  .  .  .  .  .  .  .  .  .  .  .  .  .  .  .  .  .  .  .  .  .  .  .  .  .  .  .  .  .  .  .  .  .  .  .  .  .  .  .  .  .  .  .  .  .  .  .  .  .  .  .  .  .  .  .  .  .  .  .  .  .  .  .  .  .  .  .  .  .  .  .  .  .  .  .  .  .  .  .  .  .  .  .  .  .  .  .  .  .  .  .  .  .  .  .  .  .  .  .  .  .  .  .  .  .  .  .  .  .  .  .  .  .  .  .  .  .  .  .  .  .  .  .  .  .  .  .  .  .  .  .  .  .  .  .  .  .  .  .  .  .  .  .  .  .  .  .  .  .  .  .  .  .  .  .  .  .  .  .  .  .  .  .  j+ z) A) B) C) D) D) E) D) D) F) G) G) G) G) G) G) H) G) I) I) I) J) K) L) I) I) M) N) O) P) Q) R) S) T) U) ,% -% w> a) )& /. g% y@ V) c) d) .  .  .  .  .  .  .  .  .  .  W) X) Y) Z) `) D)  ! B) G) B) M) O) J) I) I) I) .! +! @! #! $! %! &! &! &! c@ c@ 4% *! =! -! ;! >! ,! '! )! !! ~! q) *% U' S+ J' {! ]! ]; .  .  .  .  .  .  .  .  .  .  .  .  .  .  .  .  .  .  .  .  .  .  ^! /! I) G) (! _! :! <! p+ [! !. =% }! |! .  .  .  .  .  .  .  .  .  .  .  .  .  .  .  .  .  .  .  .  .  .  .  .  .  .  .  .  .  .  .  .  .  .  .  .  .  .  .  .  .  .  .  .  .  .  .  .  .  .  ",
".  .  .  .  .  .  .  .  .  .  .  .  .  .  .  .  .  .  .  .  .  .  .  .  .  .  .  .  .  .  .  .  .  .  .  .  .  .  .  .  .  .  .  .  .  .  .  .  .  .  .  .  .  .  .  .  .  .  .  .  .  .  .  .  .  .  .  .  .  .  .  .  .  .  .  .  .  .  .  .  .  .  .  .  .  .  .  .  .  .  .  .  .  .  .  .  .  .  .  .  .  .  .  .  .  .  .  .  .  .  .  .  .  .  .  .  .  .  .  .  .  .  .  .  .  .  .  .  .  .  .  .  .  .  .  .  .  .  .  .  .  .  .  .  .  .  .  .  .  .  .  .  .  .  .  .  .  .  .  .  .  .  .  .  .  .  .  .  .  .  .  .  .  .  .  .  .  .  .  .  .  .  .  .  .  .  .  .  .  .  .  .  .  .  .  .  .  .  .  .  .  .  .  .  1! 2! 3! 3! 4! 4! 5! 6! 7! 7! 7! 3! 3! 3! 7! 7! 8! 7! 3! 9! 9! 0! a! 0! 9! 9! b! c! d! e! f! g! h! i! O# .* S& a) -% 4% j! P= P# &' k! ,) .  .  .  .  .  .  .  .  .  .  l! m! n! o! p! 7! 7! 7! 3! 3! 9! q! 0! 9! 9! 9! b! r! s! t! u! v! v! v! v! w! x! x! x! y! v! z! A! B! C! D! E! F! G! U' d@ ^. H! {! I! j# .  .  .  .  .  .  .  .  .  .  .  .  .  .  .  .  .  .  .  .  .  e* J! #> n! 3! K! L! M! N! o% O! 0@ P! }! Q! .  .  .  .  .  .  .  .  .  .  .  .  .  .  .  .  .  .  .  .  .  .  .  .  .  .  .  .  .  .  .  .  .  .  .  .  .  .  .  .  .  .  .  .  .  .  .  .  .  .  ",
".  .  .  .  .  .  .  .  .  .  .  .  .  .  .  .  .  .  .  .  .  .  .  .  .  .  .  .  .  .  .  .  .  .  .  .  .  .  .  .  .  .  .  .  .  .  .  .  .  .  .  .  .  .  .  .  .  .  .  .  .  .  .  .  .  .  .  .  .  .  .  .  .  .  .  .  .  .  .  .  .  .  .  .  .  .  .  .  .  .  .  .  .  .  .  .  .  .  .  .  .  .  .  .  .  .  .  .  .  .  .  .  .  .  .  .  .  .  .  .  .  .  .  .  .  .  .  .  .  .  .  .  .  .  .  .  .  .  .  .  .  .  .  .  .  .  .  .  .  .  .  .  .  .  .  .  .  .  .  .  .  .  .  .  .  .  .  .  .  .  .  .  .  .  .  .  .  .  .  .  .  .  .  .  .  .  .  .  .  .  .  .  .  .  .  .  .  .  .  .  .  .  .  .  R! S! T! U! V! W! X! Y! Z! `! `! `!  ~ .~ +~ @~ #~ $~ %~ `! `! `! `! `! `! `! `! &~ 5> v- *~ =~ ,@ -~ ;~ Z* 5% ;; 5% r& i) ,. 2. $! k! ,) .  .  .  .  .  .  .  .  .  .  >~ ,~ '~ )~ !~ D% ~~ {~ {~ $~ .~ ]~ `! `! `! `! ^~ !~ /~ (~ _~ :~ :~ :~ :~ <~ [~ }~ '! |~ 1~ 2~ 3~ 4~ 5~ 6~ 7~ 8~    9~ 0~ a~ b~ c~ d~ j# .  .  .  .  .  .  .  .  .  .  .  .  .  .  .  .  .  .  .  .  .  e~ f~ ], `! ^~ g~ h~ i~ '* l@ f@ 0@ j~ k~ /; .  .  .  .  .  .  .  .  .  .  .  .  .  .  .  .  .  .  .  .  .  .  .  .  .  .  .  .  .  .  .  .  .  .  .  .  .  .  .  .  .  .  .  .  .  .  .  .  .  .  ",
".  .  .  .  .  .  .  .  .  .  .  .  .  .  .  .  .  .  .  .  .  .  .  .  .  .  .  .  .  .  .  .  .  .  .  .  .  .  .  .  .  .  .  .  .  .  .  .  .  .  .  .  .  .  .  .  .  .  .  .  .  .  .  .  .  .  .  .  .  .  .  .  .  .  .  .  .  .  .  .  .  .  .  .  .  .  .  .  .  .  .  .  .  .  .  .  .  .  .  .  .  .  .  .  .  .  .  .  .  .  .  .  .  .  .  .  .  .  .  .  .  .  .  .  .  .  .  .  .  .  .  .  .  .  .  .  .  .  .  .  .  .  .  .  .  .  .  .  .  .  .  .  .  .  .  .  .  .  .  .  .  .  .  .  .  .  .  .  .  .  .  .  .  .  .  .  .  .  .  .  .  .  .  .  .  .  .  .  .  .  .  .  .  .  .  .  .  .  .  .  .  .  .  .  l~ m~ n~ o~ p~ q~ 1@ 6. r~ s~ t~ u~ u~ r~ #$ +, v~ [! w~ x~ x~ x~ O> @; w~ x~ I= Q- ;~ y~ W+ M- @; w)  ; ^. ^. ^. ^. !. !. `- J' @~ z~ A~ .  .  .  .  .  .  .  .  .  .  B~ C~ }  D~ !@ E~ j! r~ [! Q- 0  [! D# 5% ^@ 1  F~ 4, G~ H~ I~ J~ J~ K~ L~ L~ M~ N~ O~ P~ Q~ R~ S~ T~ p% U~ +; +; g% V~ 0~ z@ W~ X~ I! j# .  .  .  .  .  .  .  .  .  .  .  .  .  .  .  .  .  .  .  .  .  Y~ Z~ `~ ;= =%  { ]@ .{ O+ (@ @; X> +{ 6) /; .  .  .  .  .  .  .  .  .  .  .  .  .  .  .  .  .  .  .  .  .  .  .  .  .  .  .  .  .  .  .  .  .  .  .  .  .  .  .  .  .  .  .  .  .  .  .  .  .  .  ",
".  .  .  .  .  .  .  .  .  .  .  .  .  .  .  .  .  .  .  .  .  .  .  .  .  .  .  .  .  .  .  .  .  .  .  .  .  .  .  .  .  .  .  .  .  .  .  .  .  .  .  .  .  .  .  .  .  .  .  .  .  .  .  .  .  .  .  .  .  .  .  .  .  .  .  .  .  .  .  .  .  .  .  .  .  .  .  .  .  .  .  .  .  .  .  .  .  .  .  .  .  .  .  .  .  .  .  .  .  .  .  .  .  .  .  .  .  .  .  .  .  .  .  .  .  .  .  .  .  .  .  .  .  .  .  .  .  .  .  .  .  .  .  .  .  .  .  .  .  .  .  .  .  .  .  .  .  .  .  .  .  .  .  .  .  .  .  .  .  .  .  .  .  .  .  .  .  .  .  .  .  .  .  .  .  .  .  .  .  .  .  .  .  .  .  .  .  .  .  .  .  .  .  .  |# @{ #{ ${ j! 0~ %{ @; W> P= Q- Q- ;@ &{ ]@ t# `= P% *{ d> d> d> ={ ={ *{ -{ g  ={ {@ W$ -% ;{ M- 0@ Z* -% -% 0@ -% -% -% 0@ 2. >{ ,{ '{ .  .  .  .  .  .  .  .  .  .  ){ !{ ~{ {{ .@ {@ ]{ ^{ Z- 8  /{ /{ +; x$ {@ %# ({ (% _{ H~ :{ K~ <{ L~ [{ [{ }{ )! |{ 1{ 2{ 3{ 4{ 2. 5{ {@ !. !& 0@ 6{ >% O# )- 7{ I! j# .  .  .  .  .  .  .  .  .  .  .  .  .  .  .  .  .  .  .  .  j+ 8{ 9{ 0{ #$ s# `- a{ ,% >% (@ b{ O- c@ c{ d{ .  .  .  .  .  .  .  .  .  .  .  .  .  .  .  .  .  .  .  .  .  .  .  .  .  .  .  .  .  .  .  .  .  .  .  .  .  .  .  .  .  .  .  .  .  .  .  .  .  .  ",
".  .  .  .  .  .  .  .  .  .  .  .  .  .  .  .  .  .  .  .  .  .  .  .  .  .  .  .  .  .  .  .  .  .  .  .  .  .  .  .  .  .  .  .  .  .  .  .  .  .  .  .  .  .  .  .  .  .  .  .  .  .  .  .  .  .  .  .  .  .  .  .  .  .  .  .  .  .  .  .  .  .  .  .  .  .  .  .  .  .  .  .  .  .  .  .  .  .  .  .  .  .  .  .  .  .  .  .  .  .  .  .  .  .  .  .  .  .  .  .  .  .  .  .  .  .  .  .  .  .  .  .  .  .  .  .  .  .  .  .  .  .  .  .  .  .  .  .  .  .  .  .  .  .  .  .  .  .  .  .  .  .  .  .  .  .  .  .  .  .  .  .  .  .  .  .  .  .  .  .  .  .  .  .  .  .  .  .  .  .  .  .  .  .  .  .  .  .  .  .  .  .  .  .  e{ f{ g{ h{ i{ P+ /% @- j{ k{ l{ l{ V+ 6{ >% >% m{ n{ S+ S+ S+ S+ S+ S+ S+ S+ S& ^. /% O+ .@ 2. >; o{ 8@             0@ 0@ 0@ 2. p{ q{ '{ .  .  .  .  .  .  .  .  .  j+ r{ s{ S~ ]. O+ O+ P+ P+ P+ P+ t% S+ t{ a{ H' ~& b> u{ v{ w{ x{ K~ ^) O' y{ z{ A{ B{ C{ ^) D{ E{ F{ e. i  O+ O+ =% )& G{ 6{ C# )- H{ I{ j# .  .  .  .  .  .  .  .  .  .  .  .  .  .  .  .  .  .  .  .  .  .  J{ K{ L{ 7- j{ M{ N{ x) s+ =% ## )) c{ $* .  .  .  .  .  .  .  .  .  .  .  .  .  .  .  .  .  .  .  .  .  .  .  .  .  .  .  .  .  .  .  .  .  .  .  .  .  .  .  .  .  .  .  .  .  .  .  .  .  .  ",
".  .  .  .  .  .  .  .  .  .  .  .  .  .  .  .  .  .  .  .  .  .  .  .  .  .  .  .  .  .  .  .  .  .  .  .  .  .  .  .  .  .  .  .  .  .  .  .  .  .  .  .  .  .  .  .  .  .  .  .  .  .  .  .  .  .  .  .  .  .  .  .  .  .  .  .  .  .  .  .  .  .  .  .  .  .  .  .  .  .  .  .  .  .  .  .  .  .  .  .  .  .  .  .  .  .  .  .  .  .  .  .  .  .  .  .  .  .  .  .  .  .  .  .  .  .  .  .  .  .  .  .  .  .  .  .  .  .  .  .  .  .  .  .  .  .  .  .  .  .  .  .  .  .  .  .  .  .  .  .  .  .  .  .  .  .  .  .  .  .  .  .  .  .  .  .  .  .  .  .  .  .  .  .  .  .  .  .  .  .  .  .  .  .  .  .  .  .  O{ P{ Q{ P{ P{ R{ S{ T{ U{ ^@ V{ W{ =% =;  { `$ `$ X{ X{ >% J' /@ i  ;- ,@ ,@ ,@ ,@ ,@ ,@ ,@ a~ Y{ A# M& /% O+ :; Z{ `{  ]             .] +] @] #] $] %] &] .  .  .  j+ *] Q{ =] =] P{ -] ;] >] ,] b@ ;@ !.  ; '] )] !] ~] !) {]    ]] ^] v{ ~{ /] (] :{ K~ _] K~ :] R' <] !! <~ [] }] |] r% e. #- ') /% 1] ^= e> =' 2] 3] 4] 5] j# .  .  .  .  .  .  .  .  .  6] 6& 7] .  8] =] =] =] 9] .  .  .  0] a] b] $$ c] r~ x$ T~ d] e]  ] i! f] ,~ g] .  .  .  .  .  .  .  .  .  .  .  .  .  .  .  .  .  .  .  .  .  .  .  .  .  .  .  .  .  .  .  .  .  .  .  .  .  .  .  .  .  .  .  .  .  .  .  .  .  .  ",
".  .  .  .  .  .  .  .  .  .  .  .  .  .  .  .  .  .  .  .  .  .  .  .  .  .  .  .  .  .  .  .  .  .  .  .  .  .  .  .  .  .  .  .  .  .  .  .  .  .  .  .  .  .  .  .  .  .  .  .  .  .  .  .  .  .  .  .  .  .  .  .  .  .  .  .  .  .  .  .  .  .  .  .  .  .  .  .  .  .  .  .  .  .  .  .  .  .  .  .  .  .  .  .  .  .  .  .  .  .  .  .  .  .  .  .  .  .  .  .  .  .  .  .  .  .  .  .  .  .  .  .  .  .  .  .  .  .  .  .  .  .  .  .  .  .  .  .  .  .  .  .  .  .  .  .  .  .  .  .  .  .  .  .  .  .  .  .  .  .  .  .  .  .  .  .  .  .  .  .  .  .  .  .  .  .  .  .  .  .  .  .  .  .  .  .  .  o$ h] i] j] k] l] l] m] n] o] ,% V{ $- v$ p] q] r] s] t] r] u] M# v] W> w] A' A' F> A' +- A' A' @; M- 8@ g% +; $# x] y] z] A] B] C] D] E] F] D] D] G] H] I] J] .  .  .  .  K] L] M] M] M] N] O] I& d' Y% ;-    P] Q] R] S] T] U] r] r] V] W] X] Y] Z] `]  ^ L~ .^ J~ +^ @^ #^ $^ %^ &^ *^ =^ -^ s~ e. ;^ x> >^ ,^ M; '^ )^ !^ ~^ {^ j# .  .  .  .  .  .  .  .  .  ]^ ^^ M] /^ a] M] (^ (^ _^ :^ <^ [^ }^ |^ 1^ x) M& 2^ 3^ 4^ 5^ 6^ 6^ 7^ F] 8^ 9^ .  .  .  .  .  .  .  .  .  .  .  .  .  .  .  .  .  .  .  .  .  .  .  .  .  .  .  .  .  .  .  .  .  .  .  .  .  .  .  .  .  .  .  .  .  .  .  .  .  .  ",
".  .  .  .  .  .  .  .  .  .  .  .  .  .  .  .  .  .  .  .  .  .  .  .  .  .  .  .  .  .  .  .  .  .  .  .  .  .  .  .  .  .  .  .  .  .  .  .  .  .  .  .  .  .  .  .  .  .  .  .  .  .  .  .  .  .  .  .  .  .  .  .  .  .  .  .  .  .  .  .  .  .  .  .  .  .  .  .  .  .  .  .  .  .  .  .  .  .  .  .  .  .  .  .  .  .  .  .  .  .  .  .  .  .  .  .  .  .  .  .  .  .  .  .  .  .  .  .  .  .  .  .  .  .  .  .  .  .  .  .  .  .  .  .  .  .  .  .  .  .  .  .  .  .  .  .  .  .  .  .  .  .  .  .  .  .  .  .  .  .  .  .  .  .  .  .  .  .  .  .  .  .  .  .  .  .  .  .  .  .  .  .  .  .  .  .  .  .  0^ a^ b^ c^ d^ e^ f^ g^ h^ J& W> #$ i^ j^ k^ l^ m^ n^ o^ p^ -! G{ q^ !. 9@ 0@ 0@ 0@ c# c# -; 8@ z@ ]. .@ g% v$ r^ s^ t^ u^ v^ w^ w^ x^ y^ .  w^ w^ .  z^ /- .  .  .  A^ B^ C^ c^ D^ D^ E^ F^ 4% G^ ;; H^ ]. I^ J^ K^ n^ L^ M^ M^ N^ N^ N^ O^ P^ Q^ R^ S^ T^ ^) ^) U^ V^ W^ X^ Y^ Z^ `^ u> Z&  / y. x& ./ +/ @/ #/ $/ %/ .  &/ E$ .  .  .  .  .  .  .  .  .  .  */ =/ -/ ;/ >/ ,/ '/ ,/ )/ !/ !/ ~/ {/ ]/ {> ^/ .@ %# // (/ _/ $/ H% :/ </ [/ }/ .  .  .  .  .  .  .  .  .  .  .  .  .  .  .  .  .  .  .  .  .  .  .  .  .  .  .  .  .  .  .  .  .  .  .  .  .  .  .  .  .  .  .  .  .  .  .  .  .  .  ",
".  .  .  .  .  .  .  .  .  .  .  .  .  .  .  .  .  .  .  .  .  .  .  .  .  .  .  .  .  .  .  .  .  .  .  .  .  .  .  .  .  .  .  .  .  .  .  .  .  .  .  .  .  .  .  .  .  .  .  .  .  .  .  .  .  .  .  .  .  .  .  .  .  .  .  .  .  .  .  .  .  .  .  .  .  .  .  .  .  .  .  .  .  .  .  .  .  .  .  .  .  .  .  .  .  .  .  .  .  .  .  .  .  .  .  .  .  .  .  .  .  .  .  .  .  .  .  .  .  .  .  .  .  .  .  .  .  .  .  .  .  .  .  .  .  .  .  .  .  .  .  .  .  .  .  .  .  .  .  .  .  .  .  .  .  .  .  .  .  .  .  .  .  .  .  .  .  .  .  .  .  .  .  .  .  .  .  .  .  .  .  .  .  .  .  .  .  |/ 1/ 2/ 3/ u~ t% 4/ 5/ ;{ h. $- +;  / -^ 6/ 7/ +^ 8/ J~ 2{ 9/ 0/ a/ b/ c/ H' !. !. !. ;- /@ ;@ g% d/ ## O+ e/ p~ f/ g/ .  .  .  .  .  .  .  .  .  .  .  .  .  .  .  .  h/ i/ j/ p% e/ }  C# _; .* k/ R= p% g@ l/ m/ 9' n/ o/ z{ [{ p/ q/ q/ [{ }{ ^) :] r/ L~ T^ <{ s/ t/ u/ .* M# G^ `- ]. ^@ w] v/ 7- w/ x/ y/ .  .  .  .  .  .  .  .  .  .  .  .  .  .  .  .  z/ A/ B/ v$ l@ 5. ^. V+ =% C/ &! )& o% D/ 7- R= r& v$ %% E/ F/ .  .  .  .  .  .  .  .  .  .  .  .  .  .  .  .  .  .  .  .  .  .  .  .  .  .  .  .  .  .  .  .  .  .  .  .  .  .  .  .  .  .  .  .  .  .  .  .  .  .  .  .  .  .  .  .  ",
".  .  .  .  .  .  .  .  .  .  .  .  .  .  .  .  .  .  .  .  .  .  .  .  .  .  .  .  .  .  .  .  .  .  .  .  .  .  .  .  .  .  .  .  .  .  .  .  .  .  .  .  .  .  .  .  .  .  .  .  .  .  .  .  .  .  .  .  .  .  .  .  .  .  .  .  .  .  .  .  .  .  .  .  .  .  .  .  .  .  .  .  .  .  .  .  .  .  .  .  .  .  .  .  .  .  .  .  .  .  .  .  .  .  .  .  .  .  .  .  .  .  .  .  .  .  .  .  .  .  .  .  .  .  .  .  .  .  .  .  .  .  .  .  .  .  .  .  .  .  .  .  .  .  .  .  .  .  .  .  .  .  .  .  .  .  .  .  .  .  .  .  .  .  .  .  .  .  .  .  .  .  .  .  .  .  .  .  .  .  .  .  .  .  .  .  .  G/ H/ 2/ I/ 4, J/ P- x~ K/ U~ O- +; @; -^ L/ M/ N/ 8/ 8/ R' O/ 5~ P+ $= ^{ g% g% g% g% g% g% g% Q- P/ !. j{ b@ Q/ f/ R/ .  .  .  .  .  .  .  .  .  .  .  .  .  .  .  .  S/ T/ U/ V/ W/ N- V> X/ Y/ v. Z/ r& =% `/ J^  ( 1{ .( +( @( #( #( #( $( .( %( &( *( =( J~ O~ s/ -( ;( N# >( N- ;; ,( V~ #$ 3& '( )( !( y/ .  .  .  .  .  .  .  .  .  .  .  .  .  .  .  .  ~( {( ]( ^( O+ /( h  h  K/ ^. /@ W> /@ +; J/ -{ L{ (( _( :( <( .  .  .  .  .  .  .  .  .  .  .  .  .  .  .  .  .  .  .  .  .  .  .  .  .  .  .  .  .  .  .  .  .  .  .  .  .  .  .  .  .  .  .  .  .  .  .  .  .  .  .  .  .  .  .  .  ",
".  .  .  .  .  .  .  .  .  .  .  .  .  .  .  .  .  .  .  .  .  .  .  .  .  .  .  .  .  .  .  .  .  .  .  .  .  .  .  .  .  .  .  .  .  .  .  .  .  .  .  .  .  .  .  .  .  .  .  .  .  .  .  .  .  .  .  .  .  .  .  .  .  .  .  .  .  .  .  .  .  .  .  .  .  .  .  .  .  .  .  .  .  .  .  .  .  .  .  .  .  .  .  .  .  .  .  .  .  .  .  .  .  .  .  .  .  .  .  .  .  .  .  .  .  .  .  .  .  .  .  .  .  .  .  .  .  .  .  .  .  .  .  .  .  .  .  .  .  .  .  .  .  .  .  .  .  .  .  .  .  .  .  .  .  .  .  .  .  .  .  .  .  .  .  .  .  .  .  .  .  .  .  .  .  .  .  .  .  .  .  .  .  .  .  .  .  G/ H/ [( y+ '. }( G> a{ |( /{ O% g% 0@ 1( 2( 3( 4( K~ 5( 6( 7( F{ 8( T= Q- @- r~ ;; ;; b@ b@ b@ c# 9( !. {{ .@ 0( a( b( .  .  .  .  .  .  .  .  .  .  .  .  .  .  .  .  .  c( d( ]. e( t{ K- f( 8@ !. 7- ;; P! g( h( i( j( k( }{ l( #( m( n( o( #( L~ I~ p( O~ 8/ |{ m^ q( r( s( >( @; t( u( b@ -) V+ W$ ,' v( w( .  .  .  .  .  .  .  .  .  .  .  .  .  .  .  .  x( A/ y( z( A( V$ `' B( x. h. h. y. h. t( 9@ ;; 9@ C( D( :( <( .  .  .  .  .  .  .  .  .  .  .  .  .  .  .  .  .  .  .  .  .  .  .  .  .  .  .  .  .  .  .  .  .  .  .  .  .  .  .  .  .  .  .  .  .  .  .  .  .  .  .  .  .  .  .  .  ",
".  .  .  .  .  .  .  .  .  .  .  .  .  .  .  .  .  .  .  .  .  .  .  .  .  .  .  .  .  .  .  .  .  .  .  .  .  .  .  .  .  .  .  .  .  .  .  .  .  .  .  .  .  .  .  .  .  .  .  .  .  .  .  .  .  .  .  .  .  .  .  .  .  .  .  .  .  .  .  .  .  .  .  .  .  .  .  .  .  .  .  .  .  .  .  .  .  .  .  .  .  .  .  .  .  .  .  .  .  .  .  .  .  .  .  .  .  .  .  .  .  .  .  .  .  .  .  .  .  .  .  .  .  .  .  .  .  .  .  .  .  .  .  .  .  .  .  .  .  .  .  .  .  .  .  .  .  .  .  .  .  .  .  .  .  .  .  .  .  .  .  .  .  .  .  .  .  .  .  .  .  .  .  .  .  .  .  .  .  .  .  .  .  .  .  .  .  E( F( Z@ G( +; 5% v. c# H( h{ I(    U' J( K( L( M( N( .( s/ O( P( f  o% Q( R( S( S( S( T( T( U( b~ V( R( x> W( X( Y( Z( .  .  .  .  .  .  .  .  .  .  .  .  .  .  .  t) `(  _ ._ #- +_ >% 0@ 8@ 3) @_ #_ &) $_ %_ &_ *_ S^ :] O' <{ K~ =_ <~ -_ )! M( ;_ >_ ,_ '_ Q^ )_ !_ 5~ l{ J' f. *) H( M- M- ~_ ~_ {_ ]_ w( .  .  .  .  .  .  .  .  .  .  .  .  .  .  .  .  ^_ /_ (_ 4) __    :_ ({ f% <_ [_ }_ }_ V( V( V( V( {> |_ 1_ 2_ .  .  .  .  .  .  .  .  .  .  .  .  .  .  .  .  .  .  .  .  .  .  .  .  .  .  .  .  .  .  .  .  .  .  .  .  .  .  .  .  .  .  .  .  .  .  .  .  .  .  .  .  .  .  .  .  ",
".  .  .  .  .  .  .  .  .  .  .  .  .  .  .  .  .  .  .  .  .  .  .  .  .  .  .  .  .  .  .  .  .  .  .  .  .  .  .  .  .  .  .  .  .  .  .  .  .  .  .  .  .  .  .  .  .  .  .  .  .  .  .  .  .  .  .  .  .  .  .  .  .  .  .  .  .  .  .  .  .  .  .  .  .  .  .  .  .  .  .  .  .  .  .  .  .  .  .  .  .  .  .  .  .  .  .  .  .  .  .  .  .  .  .  .  .  .  .  .  .  .  .  .  .  .  .  .  .  .  .  .  .  .  .  .  .  .  .  .  .  .  .  .  .  .  .  .  .  .  .  .  .  .  .  .  .  .  .  .  .  .  .  .  .  .  .  .  .  .  .  .  .  .  .  .  .  .  .  .  .  .  .  .  .  3_ 4_ 5_ 6_ 6_ 6_ 7_ 8_ 9_ 0_ a_ a_ b_ c_ d_ u+ e_ g% w& f_ g_ h_ i_ j_ k_ l_ m_ n_ o_ o_ p_ q_ r_ s_ t_ u_ v_ w_ x_ y_ y_ z_ A_ B_ C_ D_ E_ F_ G_ H_ I_ J_ K_ .  .  .  .  .  .  .  .  .  L_ c; M_ N_ M_ O_ P_ Q_ {- R_ -% 0@ c# S_ T_ U_ k_ k_ V_ W_ X_ Y_ :] K~ K~ 6( Z_ `_  : .: _) +: @: #: ~! &_ o_ $: %: &: *: @# )& =: -: ;: >: ,: ': ): !: ~: .  .  .  .  .  .  .  .  .  .  %, {: ]: 8_ 6_ 9_ ^: /: (: ;' -) ,@ _: :: H_ <: v( x_ x_ x_ [: x_ x_ }: |: 1: 2: .  .  .  .  .  .  .  .  .  .  .  .  .  .  .  .  .  .  .  .  .  .  .  .  .  .  .  .  .  .  .  .  .  .  .  .  .  .  .  .  .  .  .  .  .  .  .  .  .  .  .  .  .  .  .  .  ",
".  .  .  .  .  .  .  .  .  .  .  .  .  .  .  .  .  .  .  .  .  .  .  .  .  .  .  .  .  .  .  .  .  .  .  .  .  .  .  .  .  .  .  .  .  .  .  .  .  .  .  .  .  .  .  .  .  .  .  .  .  .  .  .  .  .  .  .  .  .  .  .  .  .  .  .  .  .  .  .  .  .  .  .  .  .  .  .  .  .  .  .  .  .  .  .  .  .  .  .  .  .  .  .  .  .  .  .  .  .  .  .  .  .  .  .  .  .  .  .  .  .  .  .  .  .  .  .  .  .  .  .  .  .  .  .  .  .  .  .  .  .  .  .  .  .  .  .  .  .  .  .  .  .  .  .  .  .  .  .  .  .  .  .  .  .  .  .  .  .  .  .  .  .  .  .  .  .  .  .  .  .  .  .  .  .  3: 4: 5: 5: 6: 7: 8: 8: 5: 9: 0: 5: a: J= Z* d> b{ ^. b: c: d: e: &_ &_ f: g: h: i: j: k: l: m: n: o: p: q: r: r: r: r: r: r: r: s: t: r: r: r: u: v: w: .  .  .  .  .  .  .  .  .  .  x: y: z: A: B: C: D: E: F: @; ,@ ,@ h) G: H: I: J: K: L: M: N: <{ M~ |{ K~ O: P: Q: R: R: S: T: U: V: W: X: Y: Z: `:  < .< }  +< @< #< $< %< &< *< =< -< ;< .  .  .  .  .  .  .  .  .  .  >< ,< '< )< !< ~< y) {< ,* +$ y' ]< ^* ^< /< (< _< r: r: r: r: :< << [< }< M* <= j+ .  .  .  .  .  .  .  .  .  .  .  .  .  .  .  .  .  .  .  .  .  .  .  .  .  .  .  .  .  .  .  .  .  .  .  .  .  .  .  .  .  .  .  .  .  .  .  .  .  .  .  .  .  .  .  ",
".  .  .  .  .  .  .  .  .  .  .  .  .  .  .  .  .  .  .  .  .  .  .  .  .  .  .  .  .  .  .  .  .  .  .  .  .  .  .  .  .  .  .  .  .  .  .  .  .  .  .  .  .  .  .  .  .  .  .  .  .  .  .  .  .  .  .  .  .  .  .  .  .  .  .  .  .  .  .  .  .  .  .  .  .  .  .  .  .  .  .  .  .  .  .  .  .  .  .  .  .  .  .  .  .  .  .  .  .  .  .  .  .  .  .  .  .  .  .  .  .  .  .  .  .  .  .  .  .  .  .  .  .  .  .  .  .  .  .  .  .  .  .  .  .  .  .  .  .  .  .  .  .  .  .  .  .  .  .  .  .  .  .  .  .  .  .  .  .  .  .  .  .  .  .  .  .  .  .  .  .  .  .  .  .  t' |< !/ y@ E~ !& S& h. 0@ z@ -% B# W+ 1< s+ ^@ +; x$ U~ 2< 3< 4< R' B{ 5< P^ 6< 7< v> f@ 4. 8< 9< 0< .  .  .  .  .  .  .  .  .  .  .  .  .  .  .  .  j+ .  .  .  .  .  .  .  .  .  .  .  a< b< a  @, c< d< +{ w/ e< :% =% =% '] f< g< h< i< U^ j< k< l< m< m< n< o< p< q< r< s+ %# s< *) *) *) E~ c@ (% 7- 8@ t< v. i  r~ u< v< w< .  x< .  .  .  .  .  .  .  .  .  .  .  .  .  .  y< z< A< B< p~ p~ d] h^ C< %% y@ D< E< F< G< .  .  .  .  .  .  .  .  .  .  .  .  .  .  .  .  .  .  .  .  .  .  .  .  .  .  .  .  .  .  .  .  .  .  .  .  .  .  .  .  .  .  .  .  .  .  .  .  .  .  .  .  .  .  .  .  .  .  .  .  .  .  .  .  .  .  .  .  ",
".  .  .  .  .  .  .  .  .  .  .  .  .  .  .  .  .  .  .  .  .  .  .  .  .  .  .  .  .  .  .  .  .  .  .  .  .  .  .  .  .  .  .  .  .  .  .  .  .  .  .  .  .  .  .  .  .  .  .  .  .  .  .  .  .  .  .  .  .  .  .  .  .  .  .  .  .  .  .  .  .  .  .  .  .  .  .  .  .  .  .  .  .  .  .  .  .  .  .  .  .  .  .  .  .  .  .  .  .  .  .  .  .  .  .  .  .  .  .  .  .  .  .  .  .  .  .  .  .  .  .  .  .  .  .  .  .  .  .  .  .  .  .  .  .  .  .  .  .  .  .  .  .  .  .  .  .  .  .  .  .  .  .  .  .  .  .  .  .  .  .  .  .  .  .  .  .  .  .  .  .  .  .  .  .  H< I< J< ^. ^. W$ .@ W/    V+ 3) P+ Z* a) )& /@ x$ y> +; K< L< M< K~ n( k< N< O< P< J- T~ K/ z% Q< R< .  .  .  .  .  .  .  .  .  .  .  .  .  .  .  .  .  .  .  .  .  .  .  .  .  .  .  j+ S< T< .~ O= b/ ~] U< V< 2. 5. ,; =% W< f< X< o< .( Y< ^) m< m< m< Z< 1{ .^ _~ `<  [ K- e< 8@ r~ @; D# g% +; y> .[ +; D# 3& L# O% +[ @[ #[ .  .  .  .  .  .  .  .  .  .  .  .  .  .  .  .  $[ 6  $> T+ P% O- g  t# S+ 5. /% %[ &[ *[ =[ .  .  .  .  .  .  .  .  .  .  .  .  .  .  .  .  .  .  .  .  .  .  .  .  .  .  .  .  .  .  .  .  .  .  .  .  .  .  .  .  .  .  .  .  .  .  .  .  .  .  .  .  .  .  .  .  .  .  .  .  .  .  .  .  .  .  .  .  ",
".  .  .  .  .  .  .  .  .  .  .  .  .  .  .  .  .  .  .  .  .  .  .  .  .  .  .  .  .  .  .  .  .  .  .  .  .  .  .  .  .  .  .  .  .  .  .  .  .  .  .  .  .  .  .  .  .  .  .  .  .  .  .  .  .  .  .  .  .  .  .  .  .  .  .  .  .  .  .  .  .  .  .  .  .  .  .  .  .  .  .  .  .  .  .  .  .  .  .  .  .  .  .  .  .  .  .  .  .  .  .  .  .  .  .  .  .  .  .  .  .  .  .  .  .  .  .  .  .  .  .  .  .  .  .  .  .  .  .  .  .  .  .  .  .  .  .  .  .  .  .  .  .  .  .  .  .  .  .  .  .  .  .  .  .  .  .  .  .  .  .  .  .  .  .  .  .  .  .  .  .  .  .  .  .  %/ -[ J< ') ]. O+ O+ V' ;[ >[ P+ ## {{ `- ^. V$ p% ,[ {@ '[ )[ ![ K~ n( ~[ {[ 6< ][ :% !. 9~ ^[ /[ ([ .  .  .  .  .  .  .  .  .  .  .  .  .  .  .  .  .  .  .  .  .  .  .  .  .  .  .  .  _[ :[ <[ 8  [[ ^/ V+ .< +< 5. :; 7. e/ }[ |[ p( ^) ^) <{ K~ 1[ l< T^ 2[ :{ 3[ `< 4[ M{ W> ;@ 0  ;@ !. !. H' W> W> 5[ 5% !. ,( 7% 6[ @[ 7[ .  .  .  .  .  .  .  .  .  .  .  .  .  .  .  .  8[ 6  9[ +; d> 5% ,( 0[ ,% .; e_ a[ b[ K= =[ .  .  .  .  .  .  .  .  .  .  .  .  .  .  .  .  .  .  .  .  .  .  .  .  .  .  .  .  .  .  .  .  .  .  .  .  .  .  .  .  .  .  .  .  .  .  .  .  .  .  .  .  .  .  .  .  .  .  .  .  .  .  .  .  .  .  .  .  ",
".  .  .  .  .  .  .  .  .  .  .  .  .  .  .  .  .  .  .  .  .  .  .  .  .  .  .  .  .  .  .  .  .  .  .  .  .  .  .  .  .  .  .  .  .  .  .  .  .  .  .  .  .  .  .  .  .  .  .  .  .  .  .  .  .  .  .  .  .  .  .  .  .  .  .  .  .  .  .  .  .  .  .  .  .  .  .  .  .  .  .  .  .  .  .  .  .  .  .  .  .  .  .  .  .  .  .  .  .  .  .  .  .  .  .  .  .  .  .  .  .  .  .  .  .  .  .  .  .  .  .  .  .  .  .  .  .  .  .  .  .  .  .  .  .  .  .  .  .  .  .  .  .  .  .  .  .  .  .  .  .  .  .  .  .  .  .  .  .  .  .  .  .  .  .  .  .  .  .  .  .  .  .  .  .  %/ c[ d[ .@ O+ .@ .@ !. w) e[ f[ g[ W> 0@ ^. .@ 4) S& k> U: h[ i[ ;_ n( ^) ![ 6< j[ p~ v$ k[ l[ m[ n[ .  .  .  .  .  .  .  .  .  .  .  .  .  .  .  .  .  .  .  .  .  .  .  .  .  .  .  .  o[ p[ X! X> q[ h  !. 5[ '( ^. =% i) x. }[ >! p( /) L~ K~ 6( D{ r[ [] <~ <~ s[ `< P! T~ F> e/ ;~ -) =% K& y~ =; =; d< p~ p~ p~ t[ $~ u[ v[ .  .  .  .  .  .  .  .  .  .  .  .  .  .  .  .  w[ Z; x[ 4, x. y+ y[ !& P# 4, g% V+ z[ A[ =[ .  .  .  .  .  .  .  .  .  .  .  .  .  .  .  .  .  .  .  .  .  .  .  .  .  .  .  .  .  .  .  .  .  .  .  .  .  .  .  .  .  .  .  .  .  .  .  .  .  .  .  .  .  .  .  .  .  .  .  .  .  .  .  .  .  .  .  .  ",
".  .  .  .  .  .  .  .  .  .  .  .  .  .  .  .  .  .  .  .  .  .  .  .  .  .  .  .  .  .  .  .  .  .  .  .  .  .  .  .  .  .  .  .  .  .  .  .  .  .  .  .  .  .  .  .  .  .  .  .  .  .  .  .  .  .  .  .  .  .  .  .  .  .  .  .  .  .  .  .  .  .  .  .  .  .  .  .  .  .  .  .  .  .  .  .  .  .  .  .  .  .  .  .  .  .  .  .  .  .  .  .  .  .  .  .  .  .  .  .  .  .  .  .  .  .  .  .  .  .  .  .  .  .  .  .  .  .  .  .  .  .  .  .  .  .  .  .  .  .  .  .  .  .  .  .  .  .  .  .  .  .  .  .  .  .  .  .  .  .  .  .  .  .  .  .  .  .  .  .  .  .  .  .  .  %/ B[ C[ T~ @- 5. 5. 0@ A# r& w] ;{ M- D[ E[ F[ A& G[ H[ I[ J[ K[ L[ }~ M[ o^ N[ O[ P[ Q[ R[ S[ T[ R* .  .  .  .  .  .  .  .  .  .  .  .  .  .  .  .  .  .  .  .  .  .  .  .  .  .  .  .  U[ :[ V[ b@ 9( F> !. W[ ## g@ X[ O+ O+ Y[ Z[ `[  } }~ N< L[ P^ L[ .} +} @} #} $}    K- @; y. %} &} *} p= =} -} ;} >} t. t. ,} >} '} )} !} .  .  .  .  .  .  .  .  .  .  .  .  .  .  .  .  ~} {} ]} =} =} ^} /} (} Q[ (} _} :} <} f$ [} .  .  .  .  .  .  .  .  .  .  .  .  .  .  .  .  .  .  .  .  .  .  .  .  .  .  .  .  .  .  .  .  .  .  .  .  .  .  .  .  .  .  .  .  .  .  .  .  .  .  .  .  .  .  .  .  .  .  .  .  .  .  .  .  .  .  .  .  ",
".  .  .  .  .  .  .  .  .  .  .  .  .  .  .  .  .  .  .  .  .  .  .  .  .  .  .  .  .  .  .  .  .  .  .  .  .  .  .  .  .  .  .  .  .  .  .  .  .  .  .  .  .  .  .  .  .  .  .  .  .  .  .  .  .  .  .  .  .  .  .  .  .  .  .  .  .  .  .  .  .  .  .  .  .  .  .  .  .  .  .  .  .  .  .  .  .  .  .  .  .  .  .  .  .  .  .  .  .  .  .  .  .  .  .  .  .  .  .  .  .  .  .  .  .  .  .  .  .  .  .  .  .  .  .  .  .  .  .  .  .  .  .  .  .  .  .  .  .  .  .  .  .  .  .  .  .  .  .  .  .  .  .  .  .  .  .  .  .  .  .  .  .  .  .  .  .  .  .  .  .  .  .  .  .  }} |} 1} e< D# ;; 0@ Y$ |( (% a{ M- 0( 2}  : 3} 4} 5} 6} 7} 8} 9} R: $} 0} a} b} c} d} e} d} d} f} g} .  .  .  .  .  .  .  .  .  .  .  .  .  .  .  .  .  .  .  .  .  .  .  .  .  .  .  .  h} i} j} G> a) 8# e< ~. w) ]. ]. ]. k} l{ l} m} m} n} o} p} q} o} r} s} s} t} I( >% H( _% 4. u} v} w} d} e} x} y} y} z} 9+ e} e} A} B} C} .  .  .  .  .  .  .  .  .  .  .  .  .  .  .  .  D} E} d} F} G} H} I} y} y} J} e} e} K} L} M} .  .  .  .  .  .  .  .  .  .  .  .  .  .  .  .  .  .  .  .  .  .  .  .  .  .  .  .  .  .  .  .  .  .  .  .  .  .  .  .  .  .  .  .  .  .  .  .  .  .  .  .  .  .  .  .  .  .  .  .  .  .  .  .  .  .  .  .  ",
".  .  .  .  .  .  .  .  .  .  .  .  .  .  .  .  .  .  .  .  .  .  .  .  .  .  .  .  .  .  .  .  .  .  .  .  .  .  .  .  .  .  .  .  .  .  .  .  .  .  .  .  .  .  .  .  .  .  .  .  .  .  .  .  .  .  .  .  .  .  .  .  .  .  .  .  .  .  .  .  .  .  .  .  .  .  .  .  .  .  .  .  .  .  .  .  .  .  .  .  .  .  .  .  .  .  .  .  .  .  .  .  .  .  .  .  .  .  .  .  .  .  .  .  .  .  .  .  .  .  .  .  .  .  .  .  .  .  .  .  .  .  .  .  .  .  .  .  .  .  .  .  .  .  .  .  .  .  .  .  .  .  .  .  .  .  .  .  .  .  .  .  .  .  .  .  .  .  .  .  .  .  .  .  .  N} O} i~ ;; r~ g% D# .; |( r& P} Q} 5. R} S} R' T} 5< M( U} V} &% W}    X{ X} Y} Z} .  .  .  .  .  .  .  .  .  .  .  .  .  .  .  .  .  .  .  .  .  .  .  .  .  .  .  .  .  .  .  .  .  j+ `}  | .| +| x. u~ s( ,% 9@ -% -% x) '* e. H( f. N{ d/ U~ U~ @| a~ z@  [ u. e. h. :; #| M- z. d& $| %| .  .  .  .  .  j+ .  .  .  .  .  .  .  .  .  .  .  .  .  .  .  .  .  .  .  .  .  .  j+ .  .  .  .  .  .  .  .  .  .  .  .  .  .  .  .  .  .  .  .  .  .  .  .  .  .  .  .  .  .  .  .  .  .  .  .  .  .  .  .  .  .  .  .  .  .  .  .  .  .  .  .  .  .  .  .  .  .  .  .  .  .  .  .  .  .  .  .  .  .  .  .  .  .  .  .  .  .  .  .  .  .  ",
".  .  .  .  .  .  .  .  .  .  .  .  .  .  .  .  .  .  .  .  .  .  .  .  .  .  .  .  .  .  .  .  .  .  .  .  .  .  .  .  .  .  .  .  .  .  .  .  .  .  .  .  .  .  .  .  .  .  .  .  .  .  .  .  .  .  .  .  .  .  .  .  .  .  .  .  .  .  .  .  .  .  .  .  .  .  .  .  .  .  .  .  .  .  .  .  .  .  .  .  .  .  .  .  .  .  .  .  .  .  .  .  .  .  .  .  .  .  .  .  .  .  .  .  .  .  .  .  .  .  .  .  .  .  .  .  .  .  .  .  .  .  .  .  .  .  .  .  .  .  .  .  .  .  .  .  .  .  .  .  .  .  .  .  .  .  .  .  .  .  .  .  .  .  .  .  .  .  .  .  .  .  .  .  .  &| c[ *| -; r~ g% g% D/ |( (% :% s# v> =| S' -| ;| ~[ >| _~ ,| 5$ Q- P} J& '| )| !| .  .  .  .  .  .  .  .  .  .  .  .  .  .  .  .  .  .  .  .  .  .  .  .  .  .  .  .  .  .  .  .  .  .  U[ ~| X! #$ 5% P# >% Z* t( ;; 8@ 8@ -; f. 8@ c# (% A' {| ]| @; A# ^| d% d% c# !. f[ W{ /| w& (| _| :| .  .  .  .  .  .  .  .  .  .  .  .  .  .  .  .  .  .  .  .  .  .  .  .  .  .  .  .  .  .  .  .  .  .  .  .  .  .  .  .  .  .  .  .  .  .  .  .  .  .  .  .  .  .  .  .  .  .  .  .  .  .  .  .  .  .  .  .  .  .  .  .  .  .  .  .  .  .  .  .  .  .  .  .  .  .  .  .  .  .  .  .  .  .  .  .  .  .  .  .  .  .  .  .  .  .  .  .  .  .  .  ",
".  .  .  .  .  .  .  .  .  .  .  .  .  .  .  .  .  .  .  .  .  .  .  .  .  .  .  .  .  .  .  .  .  .  .  .  .  .  .  .  .  .  .  .  .  .  .  .  .  .  .  .  .  .  .  .  .  .  .  .  .  .  .  .  .  .  .  .  .  .  .  .  .  .  .  .  .  .  .  .  .  .  .  .  .  .  .  .  .  .  .  .  .  .  .  .  .  .  .  .  .  .  .  .  .  .  .  .  .  .  .  .  .  .  .  .  .  .  .  .  .  .  .  .  .  .  .  .  .  .  .  .  .  .  .  .  .  .  .  .  .  .  .  .  .  .  .  .  .  .  .  .  .  .  .  .  .  .  .  .  .  .  .  .  .  .  .  .  .  .  .  .  .  .  .  .  .  .  .  .  .  .  .  .  .  <| c[ [| ;; ;; ;; D# .; |( r& :% :% )@ R: }| -_ %( || m( X< 1| I- N- b@ @* 2| 3| !| .  .  .  .  .  .  .  .  .  .  .  .  .  .  .  .  .  .  .  .  .  .  .  .  .  .  .  .  .  .  .  .  .  .  x: 4| j} P= ;- (@ 3) Q+ Y$ A' A' T~ x$ 5| 6| w> g. g. g. c# r~ W( /{ W> +; x$ 7| P% d@ P} !@ 8| 9| l% .  .  .  .  .  .  .  .  .  .  .  .  .  .  .  .  .  .  .  .  .  .  .  .  .  .  .  .  .  .  .  .  .  .  .  .  .  .  .  .  .  .  .  .  .  .  .  .  .  .  .  .  .  .  .  .  .  .  .  .  .  .  .  .  .  .  .  .  .  .  .  .  .  .  .  .  .  .  .  .  .  .  .  .  .  .  .  .  .  .  .  .  .  .  .  .  .  .  .  .  .  .  .  .  .  .  .  .  .  .  .  ",
".  .  .  .  .  .  .  .  .  .  .  .  .  .  .  .  .  .  .  .  .  .  .  .  .  .  .  .  .  .  .  .  .  .  .  .  .  .  .  .  .  .  .  .  .  .  .  .  .  .  .  .  .  .  .  .  .  .  .  .  .  .  .  .  .  .  .  .  .  .  .  .  .  .  .  .  .  .  .  .  .  .  .  .  .  .  .  .  .  .  .  .  .  .  .  .  .  .  .  .  .  .  .  .  .  .  .  .  .  .  .  .  .  .  .  .  .  .  .  .  .  .  .  .  .  .  .  .  .  .  .  .  .  .  .  .  .  .  .  .  .  .  .  .  .  .  .  .  .  .  .  .  .  .  .  .  .  .  .  .  .  .  .  .  .  .  .  .  .  .  .  .  .  .  .  .  .  .  .  .  .  .  .  .  0| a| O} b| ;; ;; 8@ 0@ x> .; r& ,% ^. !& c| d| T^ %( e| n( f| ,| I- .; g. }  g| )| !| .  .  .  .  .  .  .  .  .  .  .  .  .  .  .  .  .  .  .  .  .  .  .  .  .  .  .  .  .  .  .  .  .  .  h| i} i| j| w> k| l| d< m| g. P# i  i  M& (% (% r& /% O+ .@ .@ S+ S+ S+ S+ w> n|  [ o| @$ }_ m> >  p| .  .  .  .  .  .  .  .  .  .  .  .  .  .  .  .  .  .  .  .  .  .  .  .  .  .  .  .  .  .  .  .  .  .  .  .  .  .  .  .  .  .  .  .  .  .  .  .  .  .  .  .  .  .  .  .  .  .  .  .  .  .  .  .  .  .  .  .  .  .  .  .  .  .  .  .  .  .  .  .  .  .  .  .  .  .  .  .  .  .  .  .  .  .  .  .  .  .  .  .  .  .  .  .  .  .  .  .  .  .  .  ",
".  .  .  .  .  .  .  .  .  .  .  .  .  .  .  .  .  .  .  .  .  .  .  .  .  .  .  .  .  .  .  .  .  .  .  .  .  .  .  .  .  .  .  .  .  .  .  .  .  .  .  .  .  .  .  .  .  .  .  .  .  .  .  .  .  .  .  .  .  .  .  .  .  .  .  .  .  .  .  .  .  .  .  .  .  .  .  .  .  .  .  .  .  .  .  .  .  .  .  .  .  .  .  .  .  .  .  .  .  .  .  .  .  .  .  .  .  .  .  .  .  .  .  .  .  .  .  .  .  .  .  .  .  .  .  .  .  .  .  .  .  .  .  .  .  .  .  .  .  .  .  .  .  .  .  .  .  .  .  .  .  .  .  .  .  .  .  .  .  .  .  .  .  .  .  .  .  .  .  q| r| s| t| u| v| w| x| y| ;; 8@ 0@ 0@ 0@ t( r& ,% u( !& c| d| T^ %( e| n( z| A| I- K# r& B| C| D| E| .  .  .  .  .  .  .  .  .  .  .  .  .  .  .  .  .  .  .  .  .  .  .  .  .  .  .  .  0% F| G| H| I| J| K| L| ;' M| !& N| O| P| Q| R| m> S| m> m> m> S| T| U| V| S| S| S| S| m> W| S| Q| R| X| Q| Y| Z| S, `| .  .  .  .  .  .  .  .  .  .  .  .  .  .  .  .  .  .  .  .  .  .  .  .  .  .  .  .  .  .  .  .  .  .  .  .  .  .  .  .  .  .  .  .  .  .  .  .  .  .  .  .  .  .  .  .  .  .  .  .  .  .  .  .  .  .  .  .  .  .  .  .  .  .  .  .  .  .  .  .  .  .  .  .  .  .  .  .  .  .  .  .  .  .  .  .  .  .  .  .  .  .  .  .  .  .  .  .  .  .  .  ",
".  .  .  .  .  .  .  .  .  .  .  .  .  .  .  .  .  .  .  .  .  .  .  .  .  .  .  .  .  .  .  .  .  .  .  .  .  .  .  .  .  .  .  .  .  .  .  .  .  .  .  .  .  .  .  .  .  .  .  .  .  .  .  .  .  .  .  .  .  .  .  .  .  .  .  .  .  .  .  .  .  .  .  .  .  .  .  .  .  .  .  .  .  .  .  .  .  .  .  .  .  .  .  .  .  .  .  .  .  .  .  .  .  .  .  .  .  .  .  .  .  .  .  .  .  .  .  .  .  .  .  .  .  .  .  .  .  .  .  .  .  .  .  .  .  .  .  .  .  .  .  .  .  .  .  .  .  .  .  .  .  .  .  .  .  .  .  .  .  .  .  .  .  .  .  .  .  .  .   1 F- .1 +1 +1 +1 @1 #1 $> ;; 8@ 0@ 0@ t( t( r& w> c# y' $1 d| T^ %( e| n( %1 A| ;~ &1 ;; 7. *1 D| E| .  .  .  .  .  .  .  .  .  .  .  .  .  .  .  .  .  .  .  .  .  .  .  .  .  .  .  .  =1 -1 ;1 +1 +1 >1 ,1 '1 '* ^. )1 !1 ~1 {1 ]1 ^1 /1 (1 _1 :1 :1 :1 :1 :1 :1 :1 <1 [1 }1 :1 |1 11 21 31 41 51 41 61 g= 71 .  .  .  .  .  .  .  .  .  .  .  .  .  .  .  .  .  .  .  .  .  .  .  .  .  .  .  .  .  .  .  .  .  .  .  .  .  .  .  .  .  .  .  .  .  .  .  .  .  .  .  .  .  .  .  .  .  .  .  .  .  .  .  .  .  .  .  .  .  .  .  .  .  .  .  .  .  .  .  .  .  .  .  .  .  .  .  .  .  .  .  .  .  .  .  .  .  .  .  .  .  .  .  .  .  .  .  .  .  .  .  ",
".  .  .  .  .  .  .  .  .  .  .  .  .  .  .  .  .  .  .  .  .  .  .  .  .  .  .  .  .  .  .  .  .  .  .  .  .  .  .  .  .  .  .  .  .  .  .  .  .  .  .  .  .  .  .  .  .  .  .  .  .  .  .  .  .  .  .  .  .  .  .  .  .  .  .  .  .  .  .  .  .  .  .  .  .  .  .  .  .  .  .  .  .  .  .  .  .  .  .  .  .  .  .  .  .  .  .  .  .  .  .  .  .  .  .  .  .  .  .  .  .  .  .  .  .  .  .  .  .  .  .  .  .  .  .  .  .  .  .  .  .  .  .  .  .  .  .  .  .  .  .  .  .  .  .  .  .  .  .  .  .  .  .  .  .  .  .  .  .  .  .  .  .  .  .  .  .  .  .  81 91 01 $~ (* a1 G( U( ,@ 0@ -; ;; ;; .; Y$ e/ c# c# |. $1 d| T^ m< e| n( !! b1 I- 5, 9( _; y| D| E| .  .  .  .  .  .  .  .  .  .  .  .  .  .  .  .  .  .  .  .  .  .  .  .  .  .  .  .  c1 d1 e1 d] d] f1 g1 h1 0@ 2. i1 j1 k1 l1 m1 n1 o1 .  .  .  .  .  .  .  .  .  .  .  .  .  1# p1 .  q1 r1 q. s1 t1 .  .  .  .  .  .  .  .  .  .  .  .  .  .  .  .  .  .  .  .  .  .  .  .  .  .  .  .  .  .  .  .  .  .  .  .  .  .  .  .  .  .  .  .  .  .  .  .  .  .  .  .  .  .  .  .  .  .  .  .  .  .  .  .  .  .  .  .  .  .  .  .  .  .  .  .  .  .  .  .  .  .  .  .  .  .  .  .  .  .  .  .  .  .  .  .  .  .  .  .  .  .  .  .  .  .  .  .  .  .  .  .  .  ",
".  .  .  .  .  .  .  .  .  .  .  .  .  .  .  .  .  .  .  .  .  .  .  .  .  .  .  .  .  .  .  .  .  .  .  .  .  .  .  .  .  .  .  .  .  .  .  .  .  .  .  .  .  .  .  .  .  .  .  .  .  .  .  .  .  .  .  .  .  .  .  .  .  .  .  .  .  .  .  .  .  .  .  .  .  .  .  .  .  .  .  .  .  .  .  .  .  .  .  .  .  .  .  .  .  .  .  .  .  .  .  .  .  .  .  .  .  .  .  .  .  .  .  .  .  .  .  .  .  .  .  .  .  .  .  .  .  .  .  .  .  .  .  .  .  .  .  .  .  .  .  .  .  .  .  .  .  .  .  .  .  .  .  .  .  .  .  .  .  .  .  .  .  .  .  .  .  .  .  u1 v1 g| y@ w1 4[ a~ Y$ x1 ;; ;; ;; ;; N# t( e/ g. 8@ (@ c| d| O' 5( e| n( X< y1 h) @; z1 p~ y| D| E| .  .  .  .  .  .  .  .  .  .  .  .  .  .  .  .  .  .  .  .  .  .  .  .  .  .  .  .  A1 ,< j% +_ +_ Z* '. I= {{ Z* B1 C1 D1 E1 F1 .  .  .  .  .  .  .  .  .  .  .  .  .  .  .  .  .  .  .  .  .  .  .  .  .  .  .  .  .  .  .  .  .  .  .  .  .  .  .  .  .  .  .  .  .  .  .  .  .  .  .  .  .  .  .  .  .  .  .  .  .  .  .  .  .  .  .  .  .  .  .  .  .  .  .  .  .  .  .  .  .  .  .  .  .  .  .  .  .  .  .  .  .  .  .  .  .  .  .  .  .  .  .  .  .  .  .  .  .  .  .  .  .  .  .  .  .  .  .  .  .  .  .  .  .  .  .  .  .  .  .  .  .  .  .  .  ",
".  .  .  .  .  .  .  .  .  .  .  .  .  .  .  .  .  .  .  .  .  .  .  .  .  .  .  .  .  .  .  .  .  .  .  .  .  .  .  .  .  .  .  .  .  .  .  .  .  .  .  .  .  .  .  .  .  .  .  .  .  .  .  .  .  .  .  .  .  .  .  .  .  .  .  .  .  .  .  .  .  .  .  .  .  .  .  .  .  .  .  .  .  .  .  .  .  .  .  .  .  .  .  .  .  .  .  .  .  .  .  .  .  .  .  .  .  .  .  .  .  .  .  .  .  .  .  .  .  .  .  .  .  .  .  .  .  .  .  .  .  .  .  .  .  .  .  .  .  .  .  .  .  .  .  .  .  .  .  .  .  .  .  .  .  .  .  .  .  .  .  .  .  .  .  .  .  .  j+ $/ v1 g| 7- 7- a) ^. .; P} 8@ -; -; -; Y$ Y$ e/ w> (% ]< c| d| K~ .( e| n( z| G1 R+ .; t( y~ H1 )| I1 .  .  .  .  .  .  .  .  .  .  .  .  .  .  .  .  .  .  .  .  .  .  .  .  .  .  .  .  J1 K1 L1 M1 N1 h  e% g  W[ O+ $- a# O1 P1 F1 .  .  .  .  .  .  .  .  .  .  .  .  .  .  .  .  .  .  .  .  .  .  .  .  .  .  .  .  .  .  .  .  .  .  .  .  .  .  .  .  .  .  .  .  .  .  .  .  .  .  .  .  .  .  .  .  .  .  .  .  .  .  .  .  .  .  .  .  .  .  .  .  .  .  .  .  .  .  .  .  .  .  .  .  .  .  .  .  .  .  .  .  .  .  .  .  .  .  .  .  .  .  .  .  .  .  .  .  .  .  .  .  .  .  .  .  .  .  .  .  .  .  .  .  .  .  .  .  .  .  .  .  .  .  .  .  ",
".  .  .  .  .  .  .  .  .  .  .  .  .  .  .  .  .  .  .  .  .  .  .  .  .  .  .  .  .  .  .  .  .  .  .  .  .  .  .  .  .  .  .  .  .  .  .  .  .  .  .  .  .  .  .  .  .  .  .  .  .  .  .  .  .  .  .  .  .  .  .  .  .  .  .  .  .  .  .  .  .  .  .  .  .  .  .  .  .  .  .  .  .  .  .  .  .  .  .  .  .  .  .  .  .  .  .  .  .  .  .  .  .  .  .  .  .  .  .  .  .  .  .  .  .  .  .  .  .  .  .  .  .  .  .  .  .  .  .  .  .  .  .  .  .  .  .  .  .  .  .  .  .  .  .  .  .  .  .  .  .  .  .  j+ .  .  .  .  .  .  .  .  .  .  .  .  .  .  .  y^ v1 g| 7- 7- a) ^. .; Q1 0@ 0@ 0@ 0@ .; Y$ r& M& (% ]< c| d| K~ .( e| n( z| G1 R+ K# t( e. y| )| I1 .  .  .  .  .  .  .  .  .  .  .  .  .  .  .  .  .  .  .  .  .  .  .  .  .  .  .  .  J1 R1 S1 U+ T1 U1 !& s# x> Q1 M& j{ ]~ V1 -> .  .  .  .  .  .  .  .  .  .  .  .  .  .  .  .  .  .  .  .  .  .  .  .  .  .  .  .  .  .  .  j+ .  .  .  .  .  .  .  .  .  .  .  .  .  .  .  .  .  .  .  .  .  .  .  j+ .  .  .  .  j+ .  .  .  .  .  .  .  .  .  .  .  .  .  .  .  .  .  .  .  .  .  .  .  .  .  .  .  .  .  .  .  .  .  .  .  .  .  .  .  .  .  .  .  .  .  .  .  .  .  .  .  .  .  .  .  .  .  .  .  .  .  .  .  .  .  .  .  .  .  .  .  .  .  .  .  ",
".  .  .  .  .  .  .  .  .  .  .  .  .  .  .  .  .  .  .  .  .  .  .  .  .  .  .  .  .  .  .  .  .  .  .  .  .  .  .  .  .  .  .  .  .  .  .  .  .  .  .  .  .  .  .  .  .  .  .  .  .  .  .  .  .  .  .  .  .  .  .  .  .  .  .  .  .  .  .  .  .  .  .  .  .  .  .  .  .  .  .  .  .  .  .  .  .  .  .  .  .  .  .  .  .  .  .  .  .  .  .  .  .  .  .  .  .  .  .  .  .  .  .  .  .  .  .  .  .  .  .  .  .  .  .  .  .  .  .  .  .  .  .  .  .  .  .  .  .  .  .  .  .  .  .  .  .  .  .  .  ]; W1 X1 Y1 Z1 `1  2 .2 +2 .  .  .  .  .  .  .  .  .  .  @2 v1 g| 7- 7- a) ^. .; Q1 0@ 0@ 0@ 0@ .; Y$ r& M& (% ]< c| d| K~ .( e| n( z| G1 R+ K# t( e. y| )| I1 .  .  .  .  .  .  .  .  .  .  .  .  .  .  .  .  .  .  .  .  .  #2 $2 %2 &2 *2 =2 -2 S{ ;2 >2 (@ O+ P+ }_ >2 ,2 '2 )2 A< !2 ~2 F; .  .  .  .  .  .  .  .  .  .  .  .  .  .  .  j+ t1 {2 ]2 ^2 ]2 /2 .2 .2 .2 .2 ]2 ]2 ^2 ]2 ]2 (2 _2 &2 =2 &2 :2 :2 `1 `1 <2 [2 }2 .  .  .  .  .  .  .  .  .  .  |2 12 22 w< `1 :2 32 42 52 .  .  .  .  .  .  .  .  .  .  .  .  .  .  .  .  .  .  .  .  .  .  .  .  .  .  .  .  .  .  .  .  .  .  .  .  .  .  .  .  .  .  .  .  .  .  .  .  .  .  .  .  .  .  .  .  .  .  .  .  .  .  .  .  .  .  .  .  .  .  .  .  .  .  ",
".  .  .  .  .  .  .  .  .  .  .  .  .  .  .  .  .  .  .  .  .  .  .  .  .  .  .  .  .  .  .  .  .  .  .  .  .  .  .  .  .  .  .  .  .  .  .  .  .  .  .  .  .  .  .  .  .  .  .  .  .  .  .  .  .  .  .  .  .  .  .  .  .  .  .  .  .  .  .  .  .  .  .  .  .  .  .  .  .  .  .  .  .  .  .  .  .  .  .  .  .  .  .  .  .  .  .  .  .  .  .  .  .  .  .  .  .  .  .  .  .  .  .  .  .  .  .  .  .  .  .  .  .  .  .  .  .  .  .  .  .  .  .  .  .  .  .  .  .  .  .  .  .  .  .  .  .  .  .  .  U- 62 72 82 92 02 a2 b2 c2 .  .  .  .  .  .  .  .  .  j+ d2 v1 g| 7- 7- +< ^. .; Q1 -; -; -; -; Y$ Y$ w> (% (% (@ e2 d| K~ .( e| n( z| G1 R+ K# t( e. y| )| I1 .  .  .  .  .  .  .  .  .  .  .  .  .  .  .  .  .  .  .  .  .  .  f2 g2 h2 i2 j2 k2 l2 m2 n2 ') )) j! o2 p2 q2 r2 s2 t2 u2 v2 w2 .  .  .  .  .  .  .  .  .  .  .  .  .  .  .  .  x2 0& y2 z2 A2 B2 C2 D2 C2 E2 F2 z2 G2 H2 j2 I2 J2 k2 k2 K2 C2 82 L2 M2 N2 O2 P2 .  .  .  .  .  .  .  .  .  .  Q2 H& R2 S2 T2 U2 V2 W2 4  .  .  .  .  .  .  .  .  .  .  .  .  .  .  .  .  .  .  .  .  .  .  .  .  .  .  .  .  .  .  .  .  .  .  .  .  .  .  .  .  .  .  .  .  .  .  .  .  .  .  .  .  .  .  .  .  .  .  .  .  .  .  .  .  .  .  .  .  .  .  .  .  .  .  ",
".  .  .  .  .  .  .  .  .  .  .  .  .  .  .  .  .  .  .  .  .  .  .  .  .  .  .  .  .  .  .  .  .  .  .  .  .  .  .  .  .  .  .  .  .  .  .  .  .  .  .  .  .  .  .  .  .  .  .  .  .  .  .  .  .  .  .  .  .  .  .  .  .  .  .  .  .  .  .  .  .  .  .  .  .  .  .  .  .  .  .  .  .  .  .  .  .  .  .  .  .  .  .  .  .  .  .  .  .  .  .  .  .  .  .  .  .  .  .  .  .  .  .  .  .  .  .  .  .  .  .  .  .  .  .  .  .  .  .  .  .  .  .  .  .  .  .  .  .  .  .  .  .  .  .  .  .  .  .  .  .  X2 Y2 Z2 `2  3 .3 +3 @3 .  .  .  .  .  .  .  .  .  .  #3 v1 g| 7- 7- 0@    H^ P} ;; ;; ;; ;; t( 0@ 0@ 5. r& a~ $3 d| K~ .( e| n( z| G1 R+ K# t( p~ y| )| I1 .  .  .  .  .  .  .  .  .  .  .  .  .  .  .  .  .  .  .  .  .  .  %3 &3 *3 A< =3 -3 =3 ;3 /@ O+ ^. 2& >3 k! ,3 '3 )3 !3 ~3 {3 .  .  .  .  .  .  .  .  .  .  .  .  .  .  .  .  .  ]3 ^3 /3 (3 _3 _3 :3 <3 :3 [3 }3 |3 13 =3 A< :3 23 _3 33 43 53 .| 63 L$ 73 83 w( .  .  .  .  .  .  .  .  .  .  93 03 a3 E^ e1 b3 c3 d3 k  .  .  .  .  .  .  .  .  .  .  .  .  .  .  .  .  .  .  .  .  .  .  .  .  .  .  .  .  .  .  .  .  .  .  .  .  .  .  .  .  .  .  .  .  .  .  .  .  .  .  .  .  .  .  .  .  .  .  .  .  .  .  .  .  .  .  .  .  .  .  .  .  .  .  ",
".  .  .  .  .  .  .  .  .  .  .  .  .  .  .  .  .  .  .  .  .  .  .  .  .  .  .  .  .  .  .  .  .  .  .  .  .  .  .  .  .  .  .  .  .  .  .  .  .  .  .  .  .  .  .  .  .  .  .  .  .  .  .  .  .  .  .  .  .  .  .  .  .  .  .  .  .  .  .  .  .  .  .  .  .  .  .  .  .  .  .  .  .  .  .  .  .  .  .  .  .  .  .  .  .  .  .  .  .  .  .  .  .  .  .  .  .  .  .  .  .  .  .  .  .  .  .  .  .  .  .  .  .  .  .  .  .  .  .  .  .  .  .  .  .  .  .  .  .  .  .  .  .  .  .  .  .  .  .  .  e3 A  f3 !> ,. C/ h1 H@ g3 .  .  .  .  .  .  .  .  .  .  h3 v1 g| 7- 7- 0@    H^ P} g% D# ;; ;; t( 0@ 0@ ({ r& a~ $3 d| K~ .( e| n( z| G1 R+ K# t( :; y| )| I1 .  .  .  .  .  .  .  .  .  .  .  .  .  .  .  .  .  .  .  .  .  i3 j3 k3 I/ G{ ^/ q% #$ g% V+ P+ S= D~ x] l3 m3 .  .  .  .  .  .  .  .  .  .  .  .  .  .  .  .  .  .  .  .  .  .  n3 o3 p3 =% x) O| .- h.    t( q3  - t( t(  - 0@ 0@ z1 M-  - Q= r3 ;% W$ s3 t3 w( .  .  .  .  .  .  .  .  .  .  u3 v3 w3 |  5. i  T% x3 c  .  .  .  .  .  .  .  .  .  .  .  .  .  .  .  .  .  .  .  .  .  .  .  .  .  .  .  .  .  .  .  .  .  .  .  .  .  .  .  .  .  .  .  .  .  .  .  .  .  .  .  .  .  .  .  .  .  .  .  .  .  .  .  .  .  .  .  .  .  .  .  .  .  .  ",
".  .  .  .  .  .  .  .  .  .  .  .  .  .  .  .  .  .  .  .  .  .  .  .  .  .  .  .  .  .  .  .  .  .  .  .  .  .  .  .  .  .  .  .  .  .  .  .  .  .  .  .  .  .  .  .  .  .  .  .  .  .  .  .  .  .  .  .  .  .  .  .  .  .  .  .  .  .  .  .  .  .  .  .  .  .  .  .  .  .  .  .  .  .  .  .  .  .  .  .  .  .  .  .  .  .  .  .  .  .  .  .  .  .  .  .  .  .  .  .  .  .  .  .  .  .  .  .  .  .  .  .  .  .  .  .  .  .  .  .  .  .  .  .  .  .  .  .  .  .  .  .  .  .  .  .  .  .  .  .  .  X2 y3 n+ h% M| W$ z3 A3 .  .  .  .  .  .  .  .  .  .  B3 v1 g| 7- 7- 0@    H^ P} -; ;; ;; ;; t( 0@ 0@ r& r& a~ $3 d| K~ .( e| n( z| G1 R+ K# t( :; y| )| I1 .  .  .  .  .  .  .  .  .  .  .  .  .  .  .  .  .  .  .  .  .  .  $' C3 p~ ]. ]. .@ !. U) =% g  7| D3 E3 k! m3 .  .  .  .  .  .  .  .  .  .  .  .  .  .  .  .  .  .  .  .  .  .  F3 G3 U$ ]. L- U< q& r& r& ;; u~ ^| ^| @- ^| A# A# @; D~ @; H3 M- D# {@ ]= I3 J3 .  .  .  .  .  .  .  .  .  .  K3 6  L3 #$ r& ,( .. x3 4  .  .  .  .  .  .  .  .  .  .  .  .  .  .  .  .  .  .  .  .  .  .  .  .  .  .  .  .  .  .  .  .  .  .  .  .  .  .  .  .  .  .  .  .  .  .  .  .  .  .  .  .  .  .  .  .  .  .  .  .  .  .  .  .  .  .  .  .  .  .  .  .  .  .  ",
".  .  .  .  .  .  .  .  .  .  .  .  .  .  .  .  .  .  .  .  .  .  .  .  .  .  .  .  .  .  .  .  .  .  .  .  .  .  .  .  .  .  .  .  .  .  .  .  .  .  .  .  .  .  .  .  .  .  .  .  .  .  .  .  .  .  .  .  .  .  .  .  .  .  .  .  .  .  .  .  .  .  .  .  .  .  .  .  .  .  .  .  .  .  .  .  .  .  .  .  .  .  .  .  .  .  .  .  .  .  .  .  .  .  .  .  .  .  .  .  .  .  .  .  .  .  .  .  .  .  .  .  .  .  .  .  .  .  .  .  .  .  .  .  .  .  .  .  .  .  .  .  .  .  .  .  .  .  .  .  j+ X2 M3 N3 c. 0~ U+ O3 P3 .  .  .  .  .  .  .  .  .  .  B3 v1 g| {@ 7- 0@ -; x1 Q1 0@ 0@ 0@ 0@ Q3 ,@ H' !. c@ G{ $3 d| K~ _] ~[ n( R3 A| R+ K# t( y~ *1 )| I1 .  .  .  .  .  .  .  .  .  .  .  .  .  .  .  .  .  .  .  .  .  S3 93 T3  [ ## j{ ,% (% y. p~ W> T= /. U3 V3 W3 .  .  .  .  .  .  .  .  .  .  .  .  .  .  .  .  .  .  .  .  .  .  X3 Y3 ^[ !. !. `- -@ R= R= !. R= R= !. !. !. !. !. ;@ i. Z3 i{ H' O= M| w/ `3 M@ .  .  .  .  .  .  .  .  .  .   4 .4 y( =% Q# C( +4 @4 4  .  .  .  .  .  .  .  .  .  .  .  .  .  .  .  .  .  .  .  .  .  .  .  .  .  .  .  .  .  .  .  .  .  .  .  .  .  .  .  .  .  .  .  .  .  .  .  .  .  .  .  .  .  .  .  .  .  .  .  .  .  .  .  .  .  .  .  .  .  .  .  .  .  .  ",
".  .  .  .  .  .  .  .  .  .  .  .  .  .  .  .  .  .  .  .  .  .  .  .  .  .  .  .  .  .  .  .  .  .  .  .  .  .  .  .  .  .  .  .  .  .  .  .  .  .  .  .  .  .  .  .  .  .  .  .  .  .  .  .  .  .  .  .  .  .  .  .  .  .  .  .  .  .  .  .  .  .  .  .  .  .  .  .  .  .  .  .  .  .  .  .  .  .  .  .  .  .  .  .  .  .  .  .  .  .  .  .  .  .  .  .  .  .  .  .  .  .  .  .  .  .  .  .  .  .  .  .  .  .  .  .  .  .  .  .  .  .  .  .  .  .  .  .  .  .  .  .  .  .  .  .  .  .  .  .  #4 d; $4 %4 p3 &4 &~ *4 l! .  .  .  .  .  .  .  .  .  .  I1 v1 H$ O+ O+ :; N{ N- 6| @- u( 0@ :% I- =4 M+ -4 N, ;4 >4 J: ,4 <{ ~[ n( '4 )4 *: 7% ;; }  *1 )| !| .  .  .  .  .  .  .  .  .  .  .  .  .  .  .  .  !4 ~4 {4 ]4 ^4 /4 (4 _4 :4 {{ U) 8~ <4 8, [4 G' }4 o2 |4 14 24 .  .  .  .  .  .  .  .  .  .  +2 34 44 44 54 ^4 64 64 74 .  !4 6& 84 94 04 S( A# H' ,% x> a4 ,% a~ a~ a~ a~ -% -% -% -; w] g% h) $# b4 8  O! c4 d4 e4 f4 64 64 64 64 g4 h4 64 ^4 i4 j4 k4 l4 m4 n4 o4 d3 4  .  .  .  .  .  .  .  .  .  .  .  .  .  .  .  .  .  .  .  .  .  .  .  .  .  .  .  .  .  .  .  .  .  .  .  .  .  .  .  .  .  .  .  .  .  .  .  .  .  .  .  .  .  .  .  .  .  .  .  .  .  .  .  .  .  .  .  .  .  .  .  .  .  .  ",
".  .  .  .  .  .  .  .  .  .  .  .  .  .  .  .  .  .  .  .  .  .  .  .  .  .  .  .  .  .  .  .  .  .  .  .  .  .  .  .  .  .  .  .  .  .  .  .  .  .  .  .  .  .  .  .  .  .  .  .  .  .  .  .  .  .  .  .  .  .  .  .  .  .  .  .  .  .  .  .  .  .  .  .  .  .  .  .  .  .  .  .  .  .  .  .  .  .  .  .  .  .  .  .  .  .  .  .  .  .  .  .  .  .  .  .  .  .  .  .  .  .  .  .  .  .  .  .  .  .  .  .  .  .  .  .  .  .  .  .  .  .  .  .  .  .  .  .  .  .  .  .  .  .  .  .  .  .  .  .  p4 q4 r4 s4 t4 u4 v4 w4 x4 .  .  .  .  .  .  .  .  .  .  !| v1 T% ^. 7- -; y4 z4 A' ^| ,@ ,@ !@ i% A4 B4 C4 D4 E4 2( F4 r[ T^ ~[ n( G4 H4 G{ I4 -% ,; '| J4 K4 .  .  .  .  .  .  .  .  .  .  .  .  .  .  .  L4 M4 N4 O4 O4 P4 >  Q4 R4 1] S4 T4 d< U4 V4 W4 X4 Y4 Z4 `4  5 .5 .  .  .  .  .  .  .  .  .  .  +5 @5 #5 P4 P4 P4 $5 $5 %5 &5 *5 =5 -5 ;5 >5 c] '@ !. 0@ t( .; 0@ 0@ 0@ 0@ 0@ 0@ 0@ 0@ 9@ @; w/ }_ ,5 '5 0  )5 !5 ~5 {5 ]5 $5 $5 $5 $5 ^5 ^5 (  (  /5 (5 _5 :5 <5 [5 }5 |5 p; .  .  .  .  .  .  .  .  .  .  .  .  .  .  .  .  .  .  .  .  .  .  .  .  .  .  .  .  .  .  .  .  .  .  .  .  .  .  .  .  .  .  .  .  .  .  .  .  .  .  .  .  .  .  .  .  .  .  .  .  .  .  .  .  .  .  .  .  .  .  .  .  .  .  ",
".  .  .  .  .  .  .  .  .  .  .  .  .  .  .  .  .  .  .  .  .  .  .  .  .  .  .  .  .  .  .  .  .  .  .  .  .  .  .  .  .  .  .  .  .  .  .  .  .  .  .  .  .  .  .  .  .  .  .  .  .  .  .  .  .  .  .  .  .  .  .  .  .  .  .  .  .  .  .  .  .  .  .  .  .  .  .  .  .  .  .  .  .  .  .  .  .  .  .  .  .  .  .  .  .  .  .  .  .  .  .  .  .  .  .  .  .  .  .  .  .  .  .  .  .  .  .  .  .  .  .  .  .  .  .  .  .  .  .  .  .  .  .  .  .  .  .  .  .  .  .  .  .  .  .  .  .  .  .  .  .  .  .  15 25 .  .  .  .  .  .  .  .  .  .  .  .  .  .  !| 35 45 K& i  9@ J- .; A' N{ ,@ ^. 55 65 75 85 95 05 o^ a5 b5 U^ ^) /) ~[ L^ c5 5. x~ ^. d5 '| &5 .  .  .  .  .  .  .  .  .  .  .  .  .  .  .  .  .  e5 f5 g5 h5 i5 j5 k5 #| r+ >% g[ l5 m5 n5 o5 .  p5 q5 r5 s5 t5 .  .  .  .  .  .  .  .  .  .  u5 v5 w5 x5 y5 z5 z5 <[ <[ A5 B5 C5 j} D5 f( E5 F5 5% 8@ .;    0@ 0@ 0@ 0@ 0@ 0@ 0@ 0@ x> @; B< G5 // H5 ^. e< I5 J5 K5 K5 L5 J5 M5 K5 J5 A5 N5 O5 P5 Q5 R5 S5 T5 I1 U5 V5 .  .  .  .  .  .  .  .  .  .  .  .  .  .  .  .  .  .  .  .  .  .  .  .  .  .  .  .  .  .  .  .  .  .  .  .  .  .  .  .  .  .  .  .  .  .  .  .  .  .  .  .  .  .  .  .  .  .  .  .  .  .  .  .  .  .  .  .  .  .  .  .  .  .  .  ",
".  .  .  .  .  .  .  .  .  .  .  .  .  .  .  .  .  .  .  .  .  .  .  .  .  .  .  .  .  .  .  .  .  .  .  .  .  .  .  .  .  .  .  .  .  .  .  .  .  .  .  .  .  .  .  .  .  .  .  .  .  .  .  .  .  .  .  .  .  .  .  .  .  .  .  .  .  .  .  .  .  .  .  .  .  .  .  .  .  .  .  .  .  .  .  .  .  .  .  .  .  .  .  .  .  .  .  .  .  .  .  .  .  .  .  .  .  .  .  .  .  .  .  .  .  .  .  .  .  .  .  .  .  .  .  .  .  .  .  .  .  .  .  .  .  .  .  .  .  .  .  .  .  .  .  .  .  .  .  .  .  .  .  .  .  .  .  .  .  .  .  .  .  .  .  .  .  .  .  I1 v1 )/ :; c. c> t(    u~ ^| u( u( U> W5 a5 I~ X5 Y5 Z5 f| ;_ `5 /) ^) ^)  6 G1 !@ X> `- .6 '| +6 .  .  .  .  .  .  .  .  .  .  .  .  .  .  .  .  .  @6 #6 y+ $6 U'    %6 H^ #|  * M| W+ m5 &6 *6 .  .  .  .  .  .  .  .  .  .  .  .  .  .  .  .  =6 -6 #] -) 0@ ,@ ,@ -% -% t( t( t( Q1 D/ P} H' @@ ;@ g% a4 P} -; 0@ 0@ 0@ 0@ 0@ 0@ 0@ 8@ K- @; @; i  3) ;6 !) >6 :; e. e. e. e. e. e. e. )& Z* N% ,6 &  $2 .  .  .  .  .  .  .  .  .  .  .  .  .  .  .  .  .  .  .  .  .  .  .  .  .  .  .  .  .  .  .  .  .  .  .  .  .  .  .  .  .  .  .  .  .  .  .  .  .  .  .  .  .  .  .  .  .  .  .  .  .  .  .  .  .  .  .  .  .  .  .  .  .  .  .  .  .  .  .  .  ",
".  .  .  .  .  .  .  .  .  .  .  .  .  .  .  .  .  .  .  .  .  .  .  .  .  .  .  .  .  .  .  .  .  .  .  .  .  .  .  .  .  .  .  .  .  .  .  .  .  .  .  .  .  .  .  .  .  .  .  .  .  .  .  .  .  .  .  .  .  .  .  .  .  .  .  .  .  .  .  .  .  .  .  .  .  .  .  .  .  .  .  .  .  .  .  .  .  .  .  .  .  .  .  .  .  .  .  .  .  .  .  .  .  .  .  .  .  .  .  .  .  .  .  .  .  .  .  .  .  .  .  .  .  .  .  .  .  .  .  .  .  .  .  .  .  .  .  .  .  .  .  .  .  .  .  .  .  .  .  .  .  .  .  .  .  .  .  .  .  .  .  .  .  .  .  .  .  .  .  B3 v1 '6 (% g% M- z1    0@ 0@ u( `- 4[ )6 3[ !6 ~6 :{ ;_ {6 L~ L~ /) ^) ^) ]6 ^6 B| /6 (6 4[ C| _6 .  .  .  .  .  .  .  .  .  .  .  .  .  .  .  .  .  @6 :6 ,- h{ <6 w$ [6 O+ y@ }6 O= f( |6 16 *6 .  .  .  .  .  .  .  .  .  .  .  .  .  .  .  .  26 s{ f_ =% 0@ 0@ 0@ 0@ 0@ 0@ 0@ 0@ -; .; t( /| T~ @; g% 36 .; .; ;; ;; ;; ;; ;; ;; ;; -% &! :% s~ _; )@ l{ =% >% _@ b' b' b' b' b' b' b' $_ U> j& 46 56 .  .  .  .  .  .  .  .  .  .  .  .  .  .  .  .  .  .  .  .  .  .  .  .  .  .  .  .  .  .  .  .  .  .  .  .  .  .  .  .  .  .  .  .  .  .  .  .  .  .  .  .  .  .  .  .  .  .  .  .  .  .  .  .  .  .  .  .  .  .  .  .  .  .  .  .  .  .  .  .  .  ",
".  .  .  .  .  .  .  .  .  .  .  .  .  .  .  .  .  .  .  .  .  .  .  .  .  .  .  .  .  .  .  .  .  .  .  .  .  .  .  .  .  .  .  .  .  .  .  .  .  .  .  .  .  .  .  .  .  .  .  .  .  .  .  .  .  .  .  .  .  .  .  .  .  .  .  .  .  .  .  .  .  .  .  .  .  .  .  .  .  .  .  .  .  .  .  .  .  .  .  .  .  .  .  .  .  .  .  .  .  .  .  .  .  .  .  .  .  .  .  .  .  .  .  .  .  .  .  .  .  .  .  .  .  .  .  .  .  .  .  .  .  .  .  .  .  .  .  .  .  .  .  .  .  .  .  .  .  .  .  .  .  .  .  .  .  .  .  .  .  .  .  .  .  .  .  .  .  .  .  B3 66 j/ r& g% @; @; .; P} 8@ u( H' 3) 76 86 3( I~ 96 z{ L~ r/ ^) ^) ^) 06 z| a6 v{ 7% c. Q# g| >  b6 .  .  .  .  .  .  .  .  .  .  .  .  .  .  .  .  @6 r) S( c6 0~ a# {{ P+ 6{ c6 1  ;3 d6 16 *6 .  .  .  .  .  .  .  .  .  .  .  .  .  .  .  .  e6 f6 U' ~& 5. 0@ t( t( 9@ 0@ 0@ 0@ ;; .; C# @; @; 0@ w>    .; .; .; .; .; P} ;; ;; ;;    w$ a# J& g6 u( .@ P+ O+ ^. Z* Z* Z* Z* Z* Z* Z*  ; d@ &# h6 i6 .  .  .  .  .  .  .  .  .  .  .  .  .  .  .  .  .  .  .  .  .  .  .  .  .  .  .  .  .  .  .  .  .  .  .  .  .  .  .  .  .  .  .  .  .  .  .  .  .  .  .  .  .  .  .  .  .  .  .  .  .  .  .  .  .  .  .  .  .  .  .  .  .  .  .  .  .  .  .  .  .  ",
".  .  .  .  .  .  .  .  .  .  .  .  .  .  .  .  .  .  .  .  .  .  .  .  .  .  .  .  .  .  .  .  .  .  .  .  .  .  .  .  .  .  .  .  .  .  .  .  .  .  .  .  .  .  .  .  .  .  .  .  .  .  .  .  .  .  .  .  .  .  .  .  .  .  .  .  .  .  .  .  .  .  .  .  .  .  .  .  .  .  .  .  .  .  .  .  .  .  .  .  .  .  .  .  .  .  .  .  .  .  .  .  .  .  .  .  .  j6 k6 l6 m6 n6 o6 o6 p6 q6 .  .  .  .  .  .  .  .  .  .  .  .  .  .  .  .  r6 k6 s6 t6 u6 v6 w6 o6 x6 x6 x6 x6 x6 y6 z6 .  .  .  .  .  .  .  .  .  .  .  .  .  .  .  .  U- k6 l6 A6 A6 B6 C6 D6 E6 ]. _; ;{ @; P/ U) ;; !. 5% 3) F6 86 G6 H6 [{ z{ ;_ D{ :{ ^) <{ 06 I6 a6 J6 N- _; K6 d# L6 M6 N6 6] k6 k6 k6 s6 s6 O6 A6 P6 s6 k6 s6 k6 Q6 R6 S6 T6 x) P% O+ x1 }  I/ ^* U6 V6 l4 W6 16 *6 .  .  .  .  .  .  .  .  .  X6 k6 A6 k6 Y6 Z6 `6  7 .7 &) j{ D# !. ;; ;; H' !. !. !. H' .; Q= 6. a@ ,@ ^. h. N# .; .; .; .; P} ;; ;; ;; V' O= H^ y~ 3/ +7 I/ l[ ,* 3/ @7 #7 $7 %% %7 &7 j~ +{ N> *7 =7 -7 .  .  .  .  .  .  .  .  .  .  .  .  .  .  .  .  .  .  .  .  .  .  .  .  .  .  .  .  .  .  .  .  .  .  .  .  .  .  .  .  .  .  .  .  .  .  .  .  .  .  .  .  .  .  .  .  .  .  .  .  .  .  .  .  .  .  .  .  .  .  .  .  .  .  .  .  .  .  .  .  .  ",
".  .  .  .  .  .  .  .  .  .  .  .  .  .  .  .  .  .  .  .  .  .  .  .  .  .  .  .  .  .  .  .  .  .  .  .  .  .  .  .  .  .  .  .  .  .  .  .  .  .  .  .  .  .  .  .  .  .  .  .  .  .  .  .  .  .  .  .  .  .  .  .  .  .  .  .  .  .  .  .  .  .  .  .  .  .  .  .  .  .  .  .  .  .  .  .  .  .  .  .  .  .  .  .  .  .  .  .  .  .  .  .  .  .  .  .  .  ;7 >7 ,7 '7 )7 )7 !7 c= ~7 .  .  .  .  .  .  .  .  .  .  .  .  .  .  .  .  {7 ]7 ^7 /7 )7 (7 _7 _7 :7 :7 :7 :7 <7 [7 }7 .  .  .  .  .  .  .  .  .  .  .  .  .  .  .  .  |7 v| 17 27 37 27 47 57 67 77 K& W' 5, &1 A' r~ !. `- 4[ )6 87 n( 97 96 '_ 07 D{ <~ T^ K~ a7  ^ b7 5. 5, }  c7 /> d7 e7 f7 g7 h7 h7 h7 i7 17 j7 27 k7 i7 h7 17 ,7 h7 l7 m7 '& >% n7 O+ %% 0, o7 p7 p7 q7 r7 s7 t7 u7 .  .  .  .  .  .  .  .  .  v7 s@ <^ h7 w7 x7 y7 z7 A7 B7 v/ A' ,% Y$ .; P} ,% ,% ,% u( ]. .; +; H' .@ /% :; M- .; .; .; .; P} ;; ;; ;; -; ,- C7 D7 E7 F7 G7 H7 I7 J7 K7 L7 M7 N7 M7 M7 O7 e  P7 O7 Q7 R7 .  .  .  .  .  .  .  .  .  .  .  .  .  .  .  .  .  .  .  .  .  .  .  .  .  .  .  .  .  .  .  .  .  .  .  .  .  .  .  .  .  .  .  .  .  .  .  .  .  .  .  .  .  .  .  .  .  .  .  .  .  .  .  .  .  .  .  .  .  .  .  .  .  .  .  .  .  .  .  .  .  ",
".  .  .  .  .  .  .  .  .  .  .  .  .  .  .  .  .  .  .  .  .  .  .  .  .  .  .  .  .  .  .  .  .  .  .  .  .  .  .  .  .  .  .  .  .  .  .  .  .  .  .  .  .  .  .  .  .  .  .  .  .  .  .  .  .  .  .  .  .  .  .  .  .  .  .  .  .  .  .  .  .  .  .  .  .  .  .  .  .  .  .  .  .  .  .  .  .  .  .  .  .  .  .  .  .  .  .  .  .  .  .  .  .  .  .  .  .  S7 T7 U7 V7 W7 W7 X7 Y7 Z7 .  .  .  .  .  .  .  .  .  .  .  .  .  .  .  .  `7  8 .8 +8 W7 @8 W7 W7 @8 #8 #8 $8 %8 &8 *8 .  .  .  .  .  .  .  .  .  .  .  .  .  .  .  .  R* =8 -8 W7 ;8 >8 ,8 '8 )8 >% :; 2. J- |( P} ,% `- `- 4[ )6 .} !8 ~8 {8 4( ]8 D{ 3( ^) ^) ^8 /8 D4 (8 P/ (% Q# c. _8 :8 <8 [8 }8 }8 |8 :8 18 |8 W7 28 :8 W7 W7 W7 38 48 58 68 !. ]@ /@ 78 88 e7 98 08 08 a8 b8 c8 d8 .  .  .  .  .  .  .  .  .  .  e8 f8 g8 h8 i8 j8 k8 l8 4) Y- h) 0@ ;; .; J- F> r~ ,% -% t( d. J' u( V' ;@ :% w. P} P} Q1 -; 0@ 8@ ;; g% :% m8 n8 o8 p8 q8 r8 s8 t8 u8 v8 w8 x8 x8 y8 =2 z8 t8 A8 B8 N* C8 .  .  .  .  .  .  .  .  .  .  .  .  .  .  .  .  .  .  .  .  .  .  .  .  .  .  .  .  .  .  .  .  .  .  .  .  .  .  .  .  .  .  .  .  .  .  .  .  .  .  .  .  .  .  .  .  .  .  .  .  .  .  .  .  .  .  .  .  .  .  .  .  .  .  .  .  .  .  .  .  .  ",
".  .  .  .  .  .  .  .  .  .  .  .  .  .  .  .  .  .  .  .  .  .  .  .  .  .  .  .  .  .  .  .  .  .  .  .  .  .  .  .  .  .  .  .  .  .  .  .  .  .  .  .  .  .  .  .  .  .  .  .  .  .  .  .  .  .  .  .  .  .  .  .  .  .  .  .  .  .  .  .  .  .  .  .  .  .  .  .  .  .  .  .  .  .  .  .  .  .  .  .  .  .  .  .  .  .  .  .  .  .  .  .  .  .  .  .  .  D8 E8 F8 G8 H8 r~ I8 J8 K8 .  .  .  .  .  .  .  .  .  .  .  .  .  .  .  .  L8 M8 23 N8 O8 w> ,@ e< G= 8@ 8@ k{ g& P8 Q8 .  .  .  .  .  .  .  .  .  .  .  .  .  .  .  j+ R8 S8 T8 S& c# 5. f. s# t( 5. r& ;; .; .; P} J' u( `- 4[ )6 3[ 6' K~ U8 L~ r/ r/ ^) ^) ^) ^) X< D4 V8 y> g% ^. ;; Y$    ;; ;; ;; ;; .; .; x1 ;; ;; ;; ;; ;; ;; M& ;- ;; ;; ;; !. ^. +; 6. 46 W8 .  .  .  .  .  .  j+ .  .  .  .  .  .  .  .  .  .  X8 Y8 !. !. D# ]| Y$ ;; r& ^. !& ^. !. H^ s( ;@ t{ ^. K' K' =% =% !& F> T~ O# a) -; E~ U< U< U< Z8 *) J'  * `8  9 .9 j+ .  .  .  .  .  .  j+ .  .  B> .  .  .  .  .  .  j+ .  .  .  .  .  .  .  .  .  .  .  .  .  .  .  .  .  .  .  .  .  .  .  .  .  .  .  .  .  .  .  .  .  .  .  .  .  .  .  .  .  .  .  .  .  .  .  .  .  .  .  .  .  .  .  .  .  .  .  .  .  .  .  .  .  .  .  .  .  .  .  .  .  .  .  .  .  .  .  .  .  ",
".  .  .  .  .  .  .  .  .  .  .  .  .  .  .  .  .  .  .  .  .  .  .  .  .  .  .  .  .  .  .  .  .  .  .  .  .  .  .  .  .  .  .  .  .  .  .  .  .  .  .  .  .  .  .  .  .  .  .  .  .  .  .  .  .  .  .  .  .  .  .  .  .  .  .  .  .  .  .  .  .  .  .  .  .  .  .  .  .  .  .  .  .  .  .  .  .  .  .  .  .  .  .  .  .  .  .  .  .  .  .  .  .  .  .  .  .  D8 b( +9 D3 +; w] @9 #9 $9 .  .  .  .  .  .  .  .  .  .  .  .  .  .  .  .  %9 q{ f] b# x$ R= `- d/ x$ u{ &9 g  b[ *9 =9 .  .  .  .  .  .  .  .  .  .  .  .  .  .  .  .  ([ S8 T8 _; 0@ c# 5. :% t( 5. r& ;; .; .; P} J' u( `- 4[ )6 3[ 6' K~ U8 L~ r/ r/ ^) ^) ^) ^) X< D4 V8 y> g% ^. ;; ;; t( ;; ;; ;; ;; .; .; P} ;; ;; ;; ;; ;; ;; r& ;; ;; .; ;; !. u( +; 6. 46 -9 .  .  .  .  .  .  .  .  .  .  .  .  .  .  .  .  .  ;9 Y8 !. !. g% @; ;; ;; r& ^.  ; S+ !. !. !. ^@ (@ V+ =% U' >9 !) i) ,% A' _% V> w> u( ^. z@  * Z* `- U) t{ ^* ,9 '9 .  .  .  .  .  .  .  .  .  .  .  .  .  .  .  .  .  .  .  .  .  .  .  .  .  .  .  .  .  .  .  .  .  .  .  .  .  .  .  .  .  .  .  .  .  .  .  .  .  .  .  .  .  .  .  .  .  .  .  .  .  .  .  .  .  .  .  .  .  .  .  .  .  .  .  .  .  .  .  .  .  .  .  .  .  .  .  .  .  .  .  .  .  .  .  .  .  .  .  ",
".  .  .  .  .  .  .  .  .  .  .  .  .  .  .  .  .  .  .  .  .  .  .  .  .  .  .  .  .  .  .  .  .  .  .  .  .  .  .  .  .  .  .  .  .  .  .  .  .  .  .  .  .  .  .  .  .  .  .  .  .  .  .  .  .  .  .  .  .  .  .  .  .  .  .  .  .  .  .  .  .  .  .  .  .  .  .  .  .  .  .  .  .  .  .  .  .  .  .  .  .  .  .  .  .  .  .  .  .  .  .  .  .  .  .  .  .  ;7 )9 !9 +@ c6 ^@ p+ #9 K8 .  .  .  .  .  .  .  .  .  .  .  .  .  .  .  .  ~9 q{ {9 ]9 $- ^9 V+ !. 2^ P% O= n7 /9 (9 _9 .  .  .  .  .  .  .  .  .  .  .  .  .  .  .  .  :9 S8 <9 S& t( 0@ 5. :% t( 5. r& ;; .; .; P} J' u( `- 4[ )6 3[ 6' K~ U8 L~ r/ r/ ^) ^) ^) ^) X< D4 V8 y> g% ^. ;; ;; t( ;; ;; ;; ;; .; .; P} ;; ;; ;; ;; ;; ;; ;; ;; .; .; ;; !. u( +; 6. |> -9 .  .  .  .  .  .  .  .  .  .  .  .  .  .  .  .  .  [9 Y8 !. !. g% @; ;; ;; r& ^. (@ Z* 5% ;; {@ }9 r& r& $- !) t% i) P= !. !. q[ H3 2^ !. !. !. !. !. 5[ ,( 5% ^* |9 7[ .  .  .  .  .  .  .  .  .  .  .  .  .  .  .  .  .  .  .  .  .  .  .  .  .  .  .  .  .  .  .  .  .  .  .  .  .  .  .  .  .  .  .  .  .  .  .  .  .  .  .  .  .  .  .  .  .  .  .  .  .  .  .  .  .  .  .  .  .  .  .  .  .  .  .  .  .  .  .  .  .  .  .  .  .  .  .  .  .  .  .  .  .  .  .  .  .  .  .  ",
".  .  .  .  .  .  .  .  .  .  .  .  .  .  .  .  .  .  .  .  .  .  .  .  .  .  .  .  .  .  .  .  .  .  .  .  .  .  .  .  .  .  .  .  .  .  .  .  .  .  .  .  .  .  .  .  .  .  .  .  .  .  .  .  .  .  .  .  .  .  .  .  .  .  .  .  .  .  .  .  .  .  .  .  .  .  .  .  .  .  .  .  .  .  .  .  .  .  .  .  .  .  .  .  .  .  .  .  .  .  .  .  19 29 39 49 59 69 79 89 99 09 ;'  @ a9 b9 .  .  .  .  .  .  .  .  .  .  .  c9 .  d9 29 L4 e9 f9 g9 K& ~@ h9 Z* R_ r3 4. i9 j9 k9 l9 m9 .  .  .  .  .  .  .  .  .  .  .  .  .  .  .  .  n9 S8 z% h) t( x> g. :% t( g. (% ;; .; .; P} J' u( `- 4[ )6 {) 6' K~ U8 L~ r/ r/ ^) ^) ^) ^) o9 D4 V8 y> b{ ^. ;; ;; t( ;; ;; ;; ;; .; .; P} ;; ;; ;; ;; ;; ;; ;; /| .; .; ;; !. u( +; F~ p9 q9 .  .  .  .  .  .  .  .  .  .  .  .  .  .  .  .  T# 9{ r9 !. !. g% @; ;; ;; r& ^. ({ 2. u. )& L& f_ y' (@ (@ 9~ 7% 6. Q- (@ `- o+ {_ %% s9 s9 s9 s9 t9 68 u9 ,- v9 u[ '9 .  .  .  .  .  .  .  .  .  .  .  .  .  .  .  .  .  .  .  .  .  .  .  .  .  .  .  .  .  .  .  .  .  .  .  .  .  .  .  .  .  .  .  .  .  .  .  .  .  .  .  .  .  .  .  .  .  .  .  .  .  .  .  .  .  .  .  .  .  .  .  .  .  .  .  .  .  .  .  .  .  .  .  .  .  .  .  .  .  .  .  .  .  .  .  .  .  .  .  ",
".  .  .  .  .  .  .  .  .  .  .  .  .  .  .  .  .  .  .  .  .  .  .  .  .  .  .  .  .  .  .  .  .  .  .  .  .  .  .  .  .  .  .  .  .  .  .  .  .  .  .  .  .  .  .  .  .  .  .  .  .  .  .  .  .  .  .  .  .  .  .  .  .  .  .  .  .  .  .  .  .  .  .  .  .  .  .  .  .  .  .  .  .  .  .  .  .  .  .  .  .  .  .  .  .  .  .  .  .  .  .  w9 x9 y9 n: z9 A9 B9 C9 D9 E9 `3 F9 G9 H9 I9 .  .  .  .  .  .  .  .  .  .  J% J9 K9 L9 M9 N9 O9 P9 Q9 %= P% ]@ +7 R9 S9 F9 F9 F9 T9 U9 :/ .  .  .  .  .  .  .  .  .  .  .  .  .  .  .  .  V9 S8 z% ({ C# {| 8~ 0@ 0@ 0@ ;; ;; .; .; P} J' u( `- =% 76 W9 T} K~ U8 L~ r/ r/ ^) ^) ^) ^) X9 Y9 l{ +; K/ ^. ;; ;; t( ;; ;; ;; ;; .; .; P} ;; ;; ;; ;; ;; ;; r& ;; ;; .; ;; !. u( +; 6. f> g/ .  .  .  .  .  .  .  .  .  .  .  .  .  .  .  .  .  Z9 `9 !. !. g% @; ;; ;; r& ^. g. )&  0 .0 +0 @0 k_ #0 $0 %0 V' +; 6| f( &0 *0 =0 -0 ;0 -0 -0 -0 M3 >0 ,0 >0 '0 )0 !0 .  .  .  .  .  .  .  .  .  .  .  .  .  .  .  .  .  .  .  .  .  .  .  .  .  .  .  .  .  .  .  .  .  .  .  .  .  .  .  .  .  .  .  .  .  .  .  .  .  .  .  .  .  .  .  .  .  .  .  .  .  .  .  .  .  .  .  .  .  .  .  .  .  .  .  .  .  .  .  .  .  .  .  .  .  .  .  .  .  .  .  .  .  .  .  .  .  .  .  ",
".  .  .  .  .  .  .  .  .  .  .  .  .  .  .  .  .  .  .  .  .  .  .  .  .  .  .  .  .  .  .  .  .  .  .  .  .  .  .  .  .  .  .  .  .  .  .  .  .  .  .  .  .  .  .  .  .  .  .  .  .  .  .  .  .  .  .  .  .  .  .  .  .  .  .  .  .  .  .  .  .  .  .  .  .  .  .  .  .  .  .  .  .  .  .  .  .  .  .  .  .  .  .  .  .  .  .  .  .  .  .  l% ~0 {0 ]0 ^0 /0 (0 _0 :0 <0 [0 }0 |0 10 20 .  .  .  .  .  .  .  .  .  .  -> 30 40 50 60 70 (; 80 %{ 90 0# 4[ i~ 00 a0 b0 b0 c0 d0 e0 f0 .  .  .  .  .  .  .  .  .  .  .  .  .  .  .  .  g0 S8 z% ({ C# {| 8~ 0@ 0@ 0@ ;; ;; .; .; P} J' u( `- =% 76 W9 T} K~ U8 L~ r/ r/ ^) ^) ^) ^) X< a6 V8 +; +; ^. ;; ;; t( ;; ;; ;; ;; .; .; P} ;; ;; ;; ;; ;; ;; r& ;; ;; .; ;; !. u( +; 6. f> R/ .  .  .  .  .  .  .  .  .  .  .  .  .  .  .  .  .  h0 i0 !. !. g% @; ;; ;; r& ^. w> =% j0 k0 l0 {) m0 n0 o0 p0 7~ 7- g% x& q0 r0 s0 t0 u0 v0 w0 w0 x0 b0 y0 z0 A0 B0 C0 .  .  .  .  .  .  .  .  .  .  .  .  .  .  .  .  .  .  .  .  .  .  .  .  .  .  .  .  .  .  .  .  .  .  .  .  .  .  .  .  .  .  .  .  .  .  .  .  .  .  .  .  .  .  .  .  .  .  .  .  .  .  .  .  .  .  .  .  .  .  .  .  .  .  .  .  .  .  .  .  .  .  .  .  .  .  .  .  .  .  .  .  .  .  .  .  .  .  .  ",
".  .  .  .  .  .  .  .  .  .  .  .  .  .  .  .  .  .  .  .  .  .  .  .  .  .  .  .  .  .  .  .  .  .  .  .  .  .  .  .  .  .  .  .  .  .  .  .  .  .  .  .  .  .  .  .  .  .  .  .  .  .  .  .  .  .  .  .  .  .  .  .  .  .  .  .  .  .  .  .  .  .  .  .  .  .  .  .  .  .  .  .  .  .  .  .  .  .  .  .  .  .  .  .  .  .  .  .  .  .  .  `| D0 E0 F0 l8 =% G0 H0 I0 .  .  .  .  .  .  .  .  .  .  .  .  .  .  .  .  J0 K0 L0 ]|    %} M0 ]> ,[ }. W$ N0 Z  O0 P0 .  .  .  .  .  .  .  .  .  .  .  .  .  .  .  .  .  .  .  .  .  .  Q0 R0 z% ({ C# {| 8~ 0@ 0@ 0@ ;; ;; .; .; P} J' u( `- =% 76 W9 T} K~ U8 L~ r/ r/ ^) ^) ^) ^) *_ S0 v{ +; g% ^. ;; ;; t( ;; ;; ;; ;; .; .; P} ;; ;; ;; ;; ;; ;; r& ;; ;; .; ;; !. u( +; 6. f> R/ .  .  .  .  .  .  .  .  .  .  .  .  .  .  .  .  T0 U0 `9 !. !. g% @; ;; ;; r& ^. ,% =% T_ J^ `[ V0 W0 X0 ]6 Y0 Z0 g% _; 5/ `0 z$  a .  .  .  .  .  .  .  .  .  .a +a @a .  .  .  .  .  .  .  .  .  .  .  .  .  .  .  .  .  .  .  .  .  .  .  .  .  .  .  .  .  .  .  .  .  .  .  .  .  .  .  .  .  .  .  .  .  .  .  .  .  .  .  .  .  .  .  .  .  .  .  .  .  .  .  .  .  .  .  .  .  .  .  .  .  .  .  .  .  .  .  .  .  .  .  .  .  .  .  .  .  .  .  .  .  .  .  .  .  .  .  ",
".  .  .  .  .  .  .  .  .  .  .  .  .  .  .  .  .  .  .  .  .  .  .  .  .  .  .  .  .  .  .  .  .  .  .  .  .  .  .  .  .  .  .  .  .  .  .  .  .  .  .  .  .  .  .  .  .  .  .  .  .  .  .  .  .  .  .  .  .  .  .  .  .  .  .  .  .  .  .  .  .  .  .  .  .  .  .  .  .  .  .  .  .  .  .  .  .  .  .  .  .  .  .  .  .  .  .  .  .  .  .  p| #a $a 1  %a  { &a o3 *a .  .  .  .  .  .  .  .  .  .  .  .  .  .  .  .  -> :5 =a -a D# g.  - d% e[ G= G{ D< ;a >a ,a .  .  .  .  .  .  .  .  .  .  .  .  .  .  .  .  .  .  .  .  .  .  ([ 'a z% h) r~ @; 8~ 0@ Z* ,@ ;; ;; ;; Y$ 9@ 0@ i) !. V+ %_ W9 h< :] 4( L~ r/ r/ ^) ^) ^) ^) )a ,| v{ W> g% -) ;; ;; ;; ;; ;; ;; ;; .; .; P} ;; ;; ;; ;; ;; ;; r& ;; ;; .; ;; !. u( +; 6. f> R/ .  .  .  .  .  .  .  .  .  .  .  .  .  .  .  .  V& !a `9 !. !. g% @; ;; 8@ x. v. @; 4% ~a {a *_ h< .^ ]a /8 ^a V+ /a y~ (a _a :a <a .  .  .  .  .  .  .  .  .  .  .  .  .  .  .  .  .  .  .  .  .  .  .  .  .  .  .  .  .  .  .  .  .  .  .  .  .  .  .  .  .  .  .  .  .  .  .  .  .  .  .  .  .  .  .  .  .  .  .  .  .  .  .  .  .  .  .  .  .  .  .  .  .  .  .  .  .  .  .  .  .  .  .  .  .  .  .  .  .  .  .  .  .  .  .  .  .  .  .  .  .  .  .  .  .  .  .  .  .  .  .  ",
".  .  .  .  .  .  .  .  .  .  .  .  .  .  .  .  .  .  .  .  .  .  .  .  .  .  .  .  .  .  .  .  .  .  .  .  .  .  .  .  .  .  .  .  .  .  .  .  .  .  .  .  .  .  .  .  .  .  .  .  .  .  .  .  .  .  .  .  .  .  .  .  .  .  .  .  .  .  .  .  .  .  .  .  .  .  .  .  .  .  .  .  .  .  .  .  .  .  .  .  .  .  .  .  .  .  .  .  .  .  .  [a }a |a 1a N+ !1 .] 2a 3a .  .  .  .  .  .  .  .  .  .  .  .  .  .  .  .  J0 4a E< {@ u( O+ e< P/ 5a /% 6a 7a 8a 9a 0a .  .  .  .  .  .  .  .  .  .  .  .  .  .  .  .  .  .  .  .  .  .  aa R0 ba  ; -% K- 8~ ,% V' ^. r& ca da t( g. e/ i  j{ q^ ea () {8 z{ i< fa ga K~ K~ n( n( %( ha D4 u> W/ 9@ ia 0@ D# x1 ;; ;; ;; ;; .; .; P} ;; ;; ;; ;; ;; ;; r& ;; ;; .; @- ^. 4. W> u# a( R/ .  .  .  .  .  .  .  .  .  .  .  .  .  .  .  .  ja ka *1 O- O- O% Q= C# 0@ e. <_ 5, @; j0 la ma $( .( %( O: na oa N1 pa 7a qa ra :| .  .  .  .  .  .  .  .  .  .  .  .  .  .  .  .  .  .  .  .  .  .  .  .  .  .  .  .  .  .  .  .  .  .  .  .  .  .  .  .  .  .  .  .  .  .  .  .  .  .  .  .  .  .  .  .  .  .  .  .  .  .  .  .  .  .  .  .  .  .  .  .  .  .  .  .  .  .  .  .  .  .  .  .  .  .  .  .  .  .  .  .  .  .  .  .  .  .  .  .  .  .  .  .  .  .  .  .  .  .  .  ",
".  .  .  .  .  .  .  .  .  .  .  .  .  .  .  .  .  .  .  .  .  .  .  .  .  .  .  .  .  .  .  .  .  .  .  .  .  .  .  .  .  .  .  .  .  .  .  .  .  .  .  .  .  .  .  .  .  .  .  .  .  .  .  .  .  .  .  .  .  .  .  .  .  .  .  .  .  .  .  .  .  .  .  .  .  .  .  .  .  .  .  .  .  .  .  .  .  .  .  .  .  .  .  .  .  .  .  .  .  sa ta ua va wa r3 ~@ xa ;a ya za .  .  .  .  .  .  .  .  .  j+ .  .  .  .  .  Aa Ba Ca Da -4 ^. 90 N# @9 Ea i  C( U+ Fa Ga Ha .  .  .  .  .  .  .  .  .  .  .  .  .  .  .  .  .  .  .  .  .  .  Ia Ja Ka ]. -% K- 8~ ,% V' ^. ;; w] ;;    w& ;^ v{ W$ U> %_ La ]) O' Ma P' Na Oa '_ Pa }{ l< Qa Ra u> i{ t( ,' 0@ D# H^ ;; ;; ;; ;; .; .; P} ;; ;; ;; ;; ;; ;; r& ;; ;; .; A' ^. s+ W> u# f> R/ .  .  .  .  .  .  .  .  .  j+ .  Sa Q{ Q{ Q{ -] 9] #. Ta U) U= !. 0@ 8~ S& W{ Ua [! '5 Va Wa X0 ]a fa Xa Ya Za `a  b e. x+ .b +b @b .  .  .  .  .  .  .  .  .  .  .  .  .  .  .  .  .  .  .  .  .  .  .  .  .  .  .  .  .  .  .  .  .  .  .  .  .  .  .  .  .  .  .  .  .  .  .  .  .  .  .  .  .  .  .  .  .  .  .  .  .  .  .  .  .  .  .  .  .  .  .  .  .  .  .  .  .  .  .  .  .  .  .  .  .  .  .  .  .  .  .  .  .  .  .  .  .  .  .  .  .  .  .  .  .  .  .  .  .  .  .  ",
".  .  .  .  .  .  .  .  .  .  .  .  .  .  .  .  .  .  .  .  .  .  .  .  .  .  .  .  .  .  .  .  .  .  .  .  .  .  .  .  .  .  .  .  .  .  .  .  .  .  .  .  .  .  .  .  .  .  .  .  .  .  .  .  .  .  .  .  .  .  .  .  .  .  .  .  .  .  .  .  .  .  .  .  .  .  .  .  .  .  .  .  .  .  .  .  .  .  .  .  .  .  .  .  .  x^ #b $b %b &b *b =b -b ;b >b 7: ,b 'b )b !b .  .  .  .  .  .  .  .  .  .  ~b {b e5 e5 ]b ^b =b /b (b u>    /@ _b :b <b [b ,b [b }b |b =1 .  .  .  .  .  .  .  .  .  .  .  .  .  .  .  .  .  .  .  .  .  j+ 1b Q< ba ]. ,% b# 0@ ,% ^. ^. .; M& I' 2b 3b 0/ 0/ 4b 5b 6b 7b 8b :] 9b N~ 0b ab bb cb L: cb db eb 7~ 7- 5. :; 0@ D# .; ;; ;; ;; ;; .; .; P} ;; ;; ;; ;; ;; ;; r& ;; ;; .; @; ^. N| u# fb f> gb .  .  .  .  .  .  .  .  .  .  ~b hb ib jb kb lb mb nb ob !. .@ !.  * .* b: pb pb qb rb sb tb ub vb Wa K: wb xb yb zb S[ Ab Bb Cb Db .  .  .  .  .  .  .  .  .  .  .  .  .  .  .  .  .  .  .  .  .  .  .  .  .  .  .  .  .  .  .  .  .  .  .  .  .  .  .  .  .  .  .  .  .  .  .  .  .  .  .  .  .  .  .  .  .  .  .  .  .  .  .  .  .  .  .  .  .  .  .  .  .  .  .  .  .  .  .  .  .  .  .  .  .  .  .  .  .  .  .  .  .  .  .  .  .  .  .  .  .  .  .  .  .  .  .  .  .  .  .  ",
".  .  .  .  .  .  .  .  .  .  .  .  .  .  .  .  .  .  .  .  .  .  .  .  .  .  .  .  .  .  .  .  .  .  .  .  .  .  .  .  .  .  .  .  .  .  .  .  .  .  .  .  .  .  .  .  .  .  .  .  .  .  .  .  .  .  .  .  .  .  .  .  .  .  .  .  .  .  .  .  .  .  .  .  .  .  .  .  .  .  .  .  .  .  .  .  .  .  .  .  .  .  .  .  .  Eb Fb Gb Hb Ib Jb Kb Lb Mb Nb Ob Pb Qb Rb Sb .  .  .  .  .  .  .  .  .  .  Tb Ub Vb Wb Xb Yb Zb `b y@ k> e[  c .c (' +c 5] @c @c #c $c %c .  .  .  .  .  .  .  .  .  .  .  .  .  .  .  .  .  .  .  .  .  .  &c *c ba ]. ,% b# -; ,% ^. ^. Q1 .; =c -c ;c >c ,c 'c )c !c 4( 8/ _] ~c {6 {c A! ]c `: `: -c ^c /c d@ H' 0@ y. 0@ ;; ;; ;; ;; ;; ;; .; .; P} ;; ;; ;; ;; ;; ;; r& ;; ;; .; @; ^. N| T~ +; 46 W8 .  .  .  .  .  .  .  .  .  .  (c _c :c Xb <c [c }c |c 1c *{ !. !. V+ 2c |] 3c 4c 5c 6c 7c 8c 9c 0c ac bc cc dc ec fc gc hc ic jc kc .  .  .  .  .  .  .  .  .  .  .  .  .  .  .  .  .  .  .  .  .  .  .  .  .  .  .  .  .  .  .  .  .  .  .  .  .  .  .  .  .  .  .  .  .  .  .  .  .  .  .  .  .  .  .  .  .  .  .  .  .  .  .  .  .  .  .  .  .  .  .  .  .  .  .  .  .  .  .  .  .  .  .  .  .  .  .  .  .  .  .  .  .  .  .  .  .  .  .  .  .  .  .  .  .  .  .  .  .  .  .  ",
".  .  .  .  .  .  .  .  .  .  .  .  .  .  .  .  .  .  .  .  .  .  .  .  .  .  .  .  .  .  .  .  .  .  .  .  .  .  .  .  .  .  .  .  .  .  .  .  .  .  .  .  .  .  .  .  .  .  .  .  .  .  .  .  .  .  .  .  .  .  .  .  .  .  .  .  .  .  .  .  .  .  .  .  .  .  .  .  .  .  .  .  .  .  .  .  .  .  .  .  .  .  .  .  .  >$ lc {  %% N| mc nc [5 oc C$ C$ C$ C$ C$ i3 .  .  .  .  .  .  .  .  .  .  pc qc %- I/ rc sc C% E= ~@ O+ 2@ i  tc uc x: 1# C$ C$ vc wc U* .  .  .  .  .  .  .  .  .  .  .  .  .  .  .  .  .  .  .  .  .  .  xc yc g1 k> ;@ w] N{ ;;    t( /| ;; s< b7 )_ S^ L~ '4 zc q/ ~8 Ac 8/ l< =_ 3[ Bc U> ^. ^. !@ Cc *: t% H' 0@ 0@ 0@ .; .; ;; ;; ;; ;; ;; (% r& r& (% ;; ;; ;; ;; r& ;; ;; .; @; ^. a) @; /{ f> Dc .  .  .  .  .  .  .  .  .  .  Ec Fc Gc y+ j~ %7 Hc V6 j. +; !. !. V+ }[ Ic D{ M( ^) Jc ha Kc Lc ]< 1, $6 Mc Nc Oc Pc Qc Rc Sc Tc Uc .  .  .  .  .  .  .  .  .  .  .  .  .  .  .  .  .  .  .  .  .  .  .  .  .  .  .  .  .  .  .  .  .  .  .  .  .  .  .  .  .  .  .  .  .  .  .  .  .  .  .  .  .  .  .  .  .  .  .  .  .  .  .  .  .  .  .  .  .  .  .  .  .  .  .  .  .  .  .  .  .  .  .  .  .  .  .  .  .  .  .  .  .  .  .  .  .  .  .  .  .  .  .  .  .  .  .  .  .  .  .  ",
".  .  .  .  .  .  .  .  .  .  .  .  .  .  .  .  .  .  .  .  .  .  .  .  .  .  .  .  .  .  .  .  .  .  .  .  .  .  .  .  .  .  .  .  .  .  .  .  .  .  .  .  .  .  .  .  .  .  .  .  .  .  .  .  .  .  .  .  .  .  .  .  .  .  .  .  .  .  .  .  .  .  .  .  .  .  .  .  .  .  .  .  .  .  .  .  .  .  .  .  .  .  .  .  .  >$ Vc Wc 5. b@ P= .| Xc e) .  .  .  .  .  .  .  .  .  .  .  .  .  .  .  .  pc Yc h{ /. -) C( b# @; /% {@ +; 0  h8 Zc L_ .  .  .  .  .  .  .  .  .  .  .  .  .  .  .  .  .  .  .  .  .  .  .  .  .  .  .  .  `c yc g1 k> j{ w] .; ;;    t( @; r&  d G1 )_ S^ L~ .d zc q/ +d .^ _] @d h< 87 Bc !& g% j{ w] 8@ =%    !. ;; 0@ 0@ .; .; ;; ;; ;; ;; ;; (% r& r& (% ;; ;; ;; ;; r& ;; ;; .; u~ ^. 0@ T~ g% f> -9 .  .  .  .  .  .  .  .  .  .  #d ~| X! g% !. ;@ r~ r~ U) +; !. !. V+ $d %d '_ ^8 %( K~ +} &d %6 H8 y' ,; Mc *d .  .  .  .  .  .  .  .  .  .  .  .  .  .  .  .  .  .  .  .  .  .  .  .  .  .  .  .  .  .  .  .  .  .  .  .  .  .  .  .  .  .  .  .  .  .  .  .  .  .  .  .  .  .  .  .  .  .  .  .  .  .  .  .  .  .  .  .  .  .  .  .  .  .  .  .  .  .  .  .  .  .  .  .  .  .  .  .  .  .  .  .  .  .  .  .  .  .  .  .  .  .  .  .  .  .  .  .  .  .  .  .  .  .  .  .  .  .  ",
".  .  .  .  .  .  .  .  .  .  .  .  .  .  .  .  .  .  .  .  .  .  .  .  .  .  .  .  .  .  .  .  .  .  .  .  .  .  .  .  .  .  .  .  .  .  .  .  .  .  .  .  .  .  .  .  .  .  .  .  .  .  .  .  .  .  .  .  .  .  .  .  .  .  .  .  .  .  .  .  .  .  .  .  .  .  .  .  .  .  .  .  .  .  .  .  .  .  .  .  .  .  .  .  .  s5 =d -d G= ;{ 0  k9 Xc e) .  .  .  .  .  .  .  .  .  .  .  .  .  .  .  .  ;d >d e> f@ 5. Q# ^. A' @- /@ j{ /@ .~ ,d x: .  .  .  .  .  .  .  .  .  .  .  .  .  .  .  .  .  .  .  .  .  .  .  .  .  .  .  .  'd yc g1 k> j{ /{ .; ;;    t( @; r& L' )d )_ !d [{ .d zc !d K~ K~ Jc 8/ .^ )a 76 ^. g% ;- d% c# .; .; ;; ;; ;; 0@ t( .; ;; ;; ;; ;; ;; (% r& r& (% ;; ;; ;; ;; r& ;; ;; Y$ 0@ ^. g% T~ r& ~d -9 .  .  .  .  .  .  .  .  .  .  (c 4| 23 r~ D# !. e< A# T~ g% Z* ^. V+ $d {d O' #( n( 96 ]d &d a~ H8 ,. =% s& ^d .  .  .  .  .  .  .  .  .  .  .  .  .  .  .  .  .  .  .  .  .  .  .  .  .  .  .  .  .  .  .  .  .  .  .  .  .  .  .  .  .  .  .  .  .  .  .  .  .  .  .  .  .  .  .  .  .  .  .  .  .  .  .  .  .  .  .  .  .  .  .  .  .  .  .  .  .  .  .  .  .  .  .  .  .  .  .  .  .  .  .  .  .  .  .  .  .  .  .  .  .  .  .  .  .  .  .  .  .  .  .  .  .  .  .  .  .  .  ",
".  .  .  .  .  .  .  .  .  .  .  .  .  .  .  .  .  .  .  .  .  .  .  .  .  .  .  .  .  .  .  .  .  .  .  .  .  .  .  .  .  .  .  .  .  .  .  .  .  .  .  .  .  .  .  .  .  .  .  .  .  .  .  .  .  .  .  .  .  .  .  .  .  .  .  .  .  .  .  .  .  .  .  .  .  .  .  .  .  .  .  .  .  .  .  .  .  .  .  .  .  .  .  .  .  /d (d -d u( @; 0@ _d :d <d .  .  .  .  .  .  .  .  .  .  .  .  .  .  .  .  [d qc I/ r& /% )1 }d F> @; b@ x. __ |d 4| 1d .  .  .  .  .  .  .  .  .  .  .  .  .  .  .  .  .  .  .  .  .  .  .  .  .  .  .  x< 2d Ja 3/ L{ j{ /{ Y$ ;; t( t( @; r& 3d 1| 4d 5d O' y{ 4( :] o( |{ <{ @d J~ {) 6d ;- w] b@ 5. 7d .; ;; -; H' H' 0@ t( .; ;; ;; ;; ;; ;; (% r& r& (% ;; ;; ;; ;; r& ;; ;; Y$ h. ^. +; >( e/ 8d 9d .  .  .  .  .  .  .  .  .  .  0d Fc ad `- g% !. !. 8@ c# ,%       E~ bd cd n< #( n( dd d| ed fd gd F5 W{ F& 31 .  .  .  .  .  .  .  .  .  .  .  .  .  .  .  .  .  .  .  .  .  .  .  .  .  .  .  .  .  .  .  .  .  .  .  .  .  .  .  .  .  .  .  .  .  .  .  .  .  .  .  .  .  .  .  .  .  .  .  .  .  .  .  .  .  .  .  .  .  .  .  .  .  .  .  .  .  .  .  .  .  .  .  .  .  .  .  .  .  .  .  .  .  .  .  .  .  .  .  .  .  .  .  .  .  .  .  .  .  .  .  .  .  .  .  .  .  .  ",
".  .  .  .  .  .  .  .  .  .  .  .  .  .  .  .  .  .  .  .  .  .  .  .  .  .  .  .  .  .  .  .  .  .  .  .  .  .  .  .  .  .  .  .  .  .  .  .  .  .  .  .  .  .  .  .  .  .  .  .  .  .  .  .  .  .  .  .  .  .  .  .  .  .  .  .  .  .  .  .  .  .  .  .  .  .  .  .  .  .  .  .  .  .  .  .  .  .  .  .  .  .  .  .  .  hd id jd kd ld md nd M  od .  .  .  .  .  .  .  .  .  .  pd qd rd sd td ud vd wd xd #$ 5% ;- s( a@ a@ c# U+ -~ |d ,d wc .  .  .  .  .  .  .  .  .  .  .  .  .  .  .  .  .  .  .  .  .  .  q5 yd zd zd Ad Bd Cd Dd =3 Ed x$ U~ /| x> t( t( x> ,% Fd ,| X< 8b O' L~ L~ O' |{ K~ L~ l< Gd 5' Bc r& w] r~ c> Hd Id t( 0@ !. !. ;; t( s# V+ !& ;; -; Jd Kd Kd Ld $6 Md Nd Od da i) u( u( ,% 2. 5% +; [! I- Pd Qd Rd Sd Td Td Ud Vd Wd Xd Yd Zd `d  e .e 1, ;- F> W( v$ +e 1( @e #e $e ac %e &e .( n( dd .} ea t{ g% c@ 3) *e =e .  .  .  .  .  .  .  .  .  .  .  .  .  .  .  .  .  .  .  .  .  .  .  .  .  .  .  .  .  .  .  .  .  .  .  .  .  .  .  .  .  .  .  .  .  .  .  .  .  .  .  .  .  .  .  .  .  .  .  .  .  .  .  .  .  .  .  .  .  .  .  .  .  .  .  .  .  .  .  .  .  .  .  .  .  .  .  .  .  .  .  .  .  .  .  .  .  .  .  .  .  .  .  .  .  .  .  .  .  .  .  .  .  .  .  .  .  .  ",
".  .  .  .  .  .  .  .  .  .  .  .  .  .  .  .  .  .  .  .  .  .  .  .  .  .  .  .  .  .  .  .  .  .  .  .  .  .  .  .  .  .  .  .  .  .  .  .  .  .  .  .  .  .  .  .  .  .  .  .  .  .  .  .  .  .  .  .  .  .  .  .  .  .  .  .  .  .  .  .  .  .  .  .  .  .  .  .  .  .  .  .  .  .  .  .  .  .  .  .  .  .  .  .  .  .  -e ;e >e ,e 'e )e !e .  .  .  .  .  .  .  .  .  .  .  ~e {e ]e ^e /e (e _e :e i) !. ;; ;; <e W+ o+ 8@ `= [e R% }e |e .  .  .  .  .  .  .  .  .  .  .  .  .  .  .  .  .  .  .  .  .  .  1e 2e 3e 4e ^e 5e 6e 7e 8e f@ gd `- H^ t( .; t( t( ;; ;6 b1 X< :] y{ z{ L~ L~ K~ L~ z{ l< Gd 9e 76 0e g% ,% /@ C# ae t( 8@ !. !. ,% t( C# >- -% @; #_ be ce de ee fe ge he ie ,% ^. F=  ;    Y{ d. x. ]] je ]~ ke *# le me ne le le oe pe qe qe re se _: F# y& w. a) te ue ve we xe ye ze Ae Gd <{ e| 96 L[ &d R+ F> x. >% Be Ce .  .  .  .  .  .  .  .  .  .  .  .  .  .  .  .  .  .  .  .  .  .  .  .  .  .  .  .  .  .  .  .  .  .  .  .  .  .  .  .  .  .  .  .  .  .  .  .  .  .  .  .  .  .  .  .  .  .  .  .  .  .  .  .  .  .  .  .  .  .  .  .  .  .  .  .  .  .  .  .  .  .  .  .  .  .  .  .  .  .  .  .  .  .  .  .  .  .  .  .  .  .  .  .  .  .  .  .  .  .  .  .  .  .  .  .  .  .  ",
".  .  .  .  .  .  .  .  .  .  .  .  .  .  .  .  .  .  .  .  .  .  .  .  .  .  .  .  .  .  .  .  .  .  .  .  .  .  .  .  .  .  .  .  .  .  .  .  .  .  .  .  .  .  .  .  .  .  .  .  .  .  .  .  .  .  .  .  .  .  .  .  .  .  .  .  .  .  .  .  .  .  .  .  .  .  .  .  .  .  .  .  .  .  .  .  .  .  .  .  .  .  .  .  .  .  .  .  .  .  .  .  .  j+ .  .  .  .  .  .  .  .  .  .  De Ee A7 8a Fe Ge (_ He &9 ;@ 8@ r~ N- X/ 9( ,% Ie Je _* }e 0d .  .  .  .  .  .  .  .  .  .  .  .  .  .  .  .  .  .  .  .  .  .  Ke Le Me ^[ Ne Oe Pe V( V$ .* ^. =% /| t( .; t( t( ;; ;6 b1 X< :] y{ z{ L~ L~ K~ L~ [{ l< Gd 9e 76 0e g% ,% 0  a{ Q3 .; !. !. ^. 0@ Qe >( @; @; @; =% Re .} Se Te X9 cd Ue Ve H' ;- !. u( x> ., p+ V+ *: ^9 5[ We 8a Xe -' Ye Ze `e  f `e .f +f Q% @f V$ V/ #f ;~ $f %f &f *f ]) m^ N< =f -f .( m< %( n( .} &d ') e< H8 4% F& 31 .  .  .  .  .  .  .  .  .  .  .  .  .  .  .  .  .  .  .  .  .  .  .  .  .  .  .  .  .  .  .  .  .  .  .  .  .  .  .  .  .  .  .  .  .  .  .  .  .  .  .  .  .  .  .  .  .  .  .  .  .  .  .  .  .  .  .  .  .  .  .  .  .  .  .  .  .  .  .  .  .  .  .  .  .  .  .  .  .  .  .  .  .  .  .  .  .  .  .  .  .  .  .  .  .  .  .  .  .  .  .  .  .  .  .  .  .  .  ",
".  .  .  .  .  .  .  .  .  .  .  .  .  .  .  .  .  .  .  .  .  .  .  .  .  .  .  .  .  .  .  .  .  .  .  .  .  .  .  .  .  .  .  .  .  .  .  .  .  .  .  .  .  .  .  .  .  .  .  .  .  .  .  .  .  .  .  .  .  .  .  .  .  .  .  .  .  .  .  .  .  .  .  .  .  .  .  .  .  .  .  .  .  .  .  .  .  .  .  .  .  .  .  .  .  .  .  .  .  .  .  .  .  .  .  .  .  .  .  .  .  .  .  .  De ;f t[ /6 >f ,f 'f s( g% 8@ X$ w] N- 6| 2^ )f Ie M| `! T< o[ .  .  .  .  .  .  .  .  .  .  .  .  .  .  .  .  .  .  .  .  .  .  F3 !f c] c6 ~f 5% ;; ]. P+ =%    ;@ Y$ t( .; t( t( ;; ;6 b1 X< :] y{ z{ L~ L~ K~ L~ [{ l< Gd 9e 76 0e g% ,% 0  e< .; H^ !. !. Z* 0@ {| P/ @; @; w] ]. {f ]f <{ ^f /f =_ la (f D/ Q- w] 4) Y$ ^| s# `& P+ a# T4 5[ 9@ G^    H' H' V' H' .@ c/ _f N| v. W[ 90 7- :f <f [f 87 K~ !6 I~ :{ y{ O' )! m< .( <{ /8 }f !) ;@ H8 4% |f 1f .  .  .  .  .  .  .  .  .  .  .  .  .  .  .  .  .  .  .  .  .  .  .  .  .  .  .  .  .  .  .  .  .  .  .  .  .  .  .  .  .  .  .  .  .  .  .  .  .  .  .  .  .  .  .  .  .  .  .  .  .  .  .  .  .  .  .  .  .  .  .  .  .  .  .  .  .  .  .  .  .  .  .  .  .  .  .  .  .  .  .  .  .  .  .  .  .  .  .  .  .  .  .  .  .  .  .  .  .  .  .  .  .  .  .  .  .  .  ",
".  .  .  .  .  .  .  .  .  .  .  .  .  .  .  .  .  .  .  .  .  .  .  .  .  .  .  .  .  .  .  .  .  .  .  .  .  .  .  .  .  .  .  .  .  .  .  .  .  .  .  .  .  .  .  .  .  .  .  .  .  .  .  .  .  .  .  .  .  .  .  .  .  .  .  .  .  .  .  .  .  .  .  .  .  .  .  .  .  .  .  .  .  .  .  .  .  .  .  .  .  .  .  .  .  .  .  .  .  .  .  .  .  .  .  .  .  .  .  .  .  .  .  .  2f ^0 68 H' M1 )) .; r& `& `& ,% r& x1 H' -@ 3f c6 v~ `! T< o[ .  .  .  .  .  .  .  .  .  .  .  .  .  .  .  .  .  .  .  .  .  .  4f 5f u+ '] 6f }d +, ]. ]. ^. 8@ g% e< t( .; t( t( ;; ;6 b1 X< :] y{ z{ L~ L~ K~ L~ [{ l< !6 9e 76 0e g% ,% 0  r~ ;; H^ !. H' 0@ 2. .; O> 7f M& V' X[ 8f 9' 9f A{ n( A{ k0 r( ;- T~ w] ;@ .; V' ^. j{ g% M& /@ x> .- t( N# @; A# A# (% r& r& r& ,% .@ {. 0f #; &1 af [f L: 4( 4( L~ L~ 1[ bf 8/ |{ J~ K~ L^ }f -4 ;- H8 I- cf )9 df .  .  .  .  .  .  .  .  .  .  .  .  .  .  .  .  .  .  .  .  .  .  .  .  .  .  .  .  .  .  .  .  .  .  .  .  .  .  .  .  .  .  .  .  .  .  .  .  .  .  .  .  .  .  .  .  .  .  .  .  .  .  .  .  .  .  .  .  .  .  .  .  .  .  .  .  .  .  .  .  .  .  .  .  .  .  .  .  .  .  .  .  .  .  .  .  .  .  .  .  .  .  .  .  .  .  .  .  .  .  .  .  .  .  .  .  .  ",
".  .  .  .  .  .  .  .  .  .  .  .  .  .  .  .  .  .  .  .  .  .  .  .  .  .  .  .  .  .  .  .  .  .  .  .  .  .  .  .  .  .  .  .  .  .  .  .  .  .  .  .  .  .  .  .  .  .  .  .  .  .  .  .  .  .  .  .  .  .  .  .  .  .  .  .  .  .  .  .  .  .  .  .  .  .  .  .  .  .  .  .  .  .  .  .  .  .  .  .  .  .  .  .  .  .  .  .  .  .  .  .  .  .  .  .  .  .  .  .  .  .  .  ef ff ^0 Q/ `- 5. M1 gf    ') ]. k[  d 7. j! ^. ;; u# 7# hf if o[ .  .  .  .  .  .  .  .  .  .  .  .  .  .  .  .  .  .  .  .  .  o. jf 5f kf c@ ,@ @; Q= `- ]. ^. `- !. s( t( .; t( t( ;; ;6 b1 X< :] y{ z{ L~ L~ K~ L~ [{ bf T^ 9e 76 0e T~ r~ 0  ;;    ,% H' ;; b@ -) .; .; %= L- Z& 4~ lf mf F4 <~ /) A{ nf of `& g% w] !. ,% O+ !. g% T~ @; {| .; .; Y$ @- ;; ;; Q- w] ;@ ;@ ;@ W> !. !. O% ;- 0  pf qf P^ 4( L~ K~ K~ 8/ rf 8/ sf K~ tf uf vf ]] ;- 0  e. wf xf yf .  .  .  .  .  .  .  .  .  .  .  .  .  .  .  .  .  .  .  .  .  .  .  .  .  .  .  .  .  .  .  .  .  .  .  .  .  .  .  .  .  .  .  .  .  .  .  .  .  .  .  .  .  .  .  .  .  .  .  .  .  .  .  .  .  .  .  .  .  .  .  .  .  .  .  .  .  .  .  .  .  .  .  .  .  .  .  .  .  .  .  .  .  .  .  .  .  .  .  .  .  .  .  .  .  .  .  .  .  .  .  .  .  .  .  .  .  ",
".  .  .  .  .  .  .  .  .  .  .  .  .  .  .  .  .  .  .  .  .  .  .  .  .  .  .  .  .  .  .  .  .  .  .  .  .  .  .  .  .  .  .  .  .  .  .  .  .  .  .  .  .  .  .  .  .  .  .  .  .  .  .  .  .  .  .  .  .  .  .  .  .  .  .  .  .  .  .  .  .  .  .  .  .  .  .  .  .  .  .  .  .  .  .  .  .  .  .  zf Af Bf Bf Bf Bf Cf O{ .  .  .  .  .  .  .  .  .  .  .  .  .  .  .  .  %| ff Df l> Q# 4% ~@ 77 Ef i0 Ff Gf Hf m8 >2 m8 Z! If Jf Kf Lf 0d .  .  .  .  .  .  .  .  .  .  .  .  .  .  .  .  .  .  .  .  .  d* Mf !f <_ V+ :; f% Q}    ]. .@ !. O+ s( t( .; t( t( ;; ;6 b1 X< :] y{ z{ L~ L~ K~ L~ [{ bf T^ 9e 76 0e T~ r~ 0  x> t( t( ;; ;; ;; V+ U' X{ M+ Nf Nf g( Of Pf Qf P^ Rf Sf Tf Uf 7% g% M& ^. 0@ !. !. g% T~ K# .; s( c/ !. ;; ;; !. !. !. !. !. `- (6 @# k[ M+ 7< Vf Wf Xf i[ L~ z{ L~ K~ r/ R' o9 o9 l^ N^ Yf Zf 55 M& 0  e. `f xf yf .  .  .  .  .  .  .  .  .  .  .  .  .  .  .  .  .  .  .  .  .  .  .  .  .  .  .  .  .  .  .  .  .  .  .  .  .  .  .  .  .  .  .  .  .  .  .  .  .  .  .  .  .  .  .  .  .  .  .  .  .  .  .  .  .  .  .  .  .  .  .  .  .  .  .  .  .  .  .  .  .  .  .  .  .  .  .  .  .  .  .  .  .  .  .  .  .  .  .  .  .  .  .  .  .  .  .  .  .  .  .  .  .  .  .  .  .  ",
".  .  .  .  .  .  .  .  .  .  .  .  .  .  .  .  .  .  .  .  .  .  .  .  .  .  .  .  .  .  .  .  .  .  .  .  .  .  .  .  .  .  .  .  .  .  .  .  .  .  .  .  .  .  .  .  .  .  .  .  .  .  .  .  .  .  .  .  .  .  .  .  .  .  .  .  .  .  .  .  .  .  .  .  .  .  .  .  .  .  .  .  .  .  .  .  .  .  .   g .g +g @g #g $g %g &g .  .  .  .  .  .  .  .  .  .  .  .  .  .  .  .  .  *g >} =g P+ G^ -g &' ;g W= >g >g ,g 'g Ja )g !g ~g {g ]g ^g /g .  .  .  .  .  .  .  .  .  .  .  .  .  .  .  .  .  .  .  .  .  .  (g B; T( ^@ V+ [) J- !. O+ !. g% D# ;; t( .; t( t( ;; ;6 b1 X< :] y{ z{ L~ L~ K~ L~ [{ bf T^ 9e 76 0e T~ r~ 0  w] Y$ t( t( @- ;; '] _g he :g <g [g C! }g |g 1g 2g 3g 4g 5g a/ q% {@ w) S&    !. !. -; h. t( .; H^ 6g x1 0@ 0@ 0@ 0@ !. !. !. `- P! 6d 7g 8g C! C! 9g 0g ;_ Ac l< L~ {6 p) ag bg cg dg dg eg fg U< r~ 0  e. `f gg yf .  .  .  .  .  .  .  .  .  .  .  .  .  .  .  .  .  .  .  .  .  .  .  .  .  .  .  .  .  .  .  .  .  .  .  .  .  .  .  .  .  .  .  .  .  .  .  .  .  .  .  .  .  .  .  .  .  .  .  .  .  .  .  .  .  .  .  .  .  .  .  .  .  .  .  .  .  .  .  .  .  .  .  .  .  .  .  .  .  .  .  .  .  .  .  .  .  .  .  .  .  .  .  .  .  .  .  .  .  .  .  .  .  .  .  .  .  ",
".  .  .  .  .  .  .  .  .  .  .  .  .  .  .  .  .  .  .  .  .  .  .  .  .  .  .  .  .  .  .  .  .  .  .  .  .  .  .  .  .  .  .  .  .  .  .  .  .  .  .  .  .  .  .  .  .  .  .  .  .  .  .  .  .  .  .  .  .  .  .  .  .  .  .  .  .  .  .  .  .  .  .  .  .  .  .  .  .  .  .  .  .  .  .  .  .  .  .  hg ,< ig jg kg lg mg ng .  .  .  .  .  .  .  .  .  .  .  .  .  .  .  .  .  og >} Y/ D# +; d. +8 pg qg e~ e~ e~ rg rg sg tg ug vg vg wg .  .  .  .  .  .  .  .  .  .  .  .  .  .  .  .  .  .  .  .  .  .  xg yg B; zg e% S+ t{ /| ;; !. ;; @; Ag Y$ Q3 .; x>    ;; ;6 Bg X< :] L~ y{ {6 {6 K~ L~ [{ <{ Q' )a )6 4% Q- M& M& P} J- C# 9@ N{ .; Cg j^ Dg Eg Fg Gg Hg Ig Jg Z0 W< ;6 Kg Lg ~@ K/ W$ >% !&    !. !. ^. 0@ A' f( _% ., Mg ;; ;; D# !. !. !. !. `- >9 Ng f: Og Pg {8 Qg Rg Sg &( o( L~ Q^ Tg Ug  0 Ua Vg 7~ H5 z& Z8 c# b@ |. `f gg yf .  .  .  .  .  .  .  .  .  .  .  .  .  .  .  .  .  .  .  .  .  .  .  .  .  .  .  .  .  .  .  .  .  .  .  .  .  .  .  .  .  .  .  .  .  .  .  .  .  .  .  .  .  .  .  .  .  .  .  .  .  .  .  .  .  .  .  .  .  .  .  .  .  .  .  .  .  .  .  .  .  .  .  .  .  .  .  .  .  .  .  .  .  .  .  .  .  .  .  .  .  .  .  .  .  .  .  .  .  .  .  .  .  .  .  .  .  ",
".  .  .  .  .  .  .  .  .  .  .  .  .  .  .  .  .  .  .  .  .  .  .  .  .  .  .  .  .  .  .  .  .  .  .  .  .  .  .  .  .  .  .  .  .  .  .  .  .  .  .  .  .  .  .  .  .  .  .  .  .  .  .  .  .  .  .  .  .  .  .  .  .  .  .  .  .  .  .  .  .  .  .  .  .  .  .  .  .  .  .  .  .  .  .  .  .  .  L4 hg Wg Xg /% ;@ !. Fa Yg .  .  .  .  .  .  .  .  .  .  .  .  .  .  .  .  .  Zg `g G{ i) gd 3.  h .h .  .  .  .  .  .  j+ .  .  .  .  .  .  .  .  .  .  .  .  .  .  .  .  .  .  .  .  .  .  .  .  .  .  .  .  +h B; 78 g% ;- 0@ :% x> g% g% F> s# ]| Y$ V' W$ P} ;- >= H4 X< @h ^) T^ Q^ Q^ #h Jc z{ e| N~ $h )6 =! j{ }d y@ 0@    ^. ^. 5. F> =4 K( Rg T} 06 #( <~ O( qb V+ u( /% t{ J' ,% M& r& s( J' Y$ ,% ,% ;; ;; .; .; P} ;; 8@ 0@ 0@ ;; ;; r& r& j{ ;- Lg %h `[ :{ T^ /) @( M~ ~8 +( %( ^) &h *h k: '@ w> U) w) !) I( ') =h V+ -h ;h gg yf .  .  .  .  .  .  .  .  .  .  .  .  .  .  .  .  .  .  .  .  .  .  .  .  .  .  .  .  .  .  .  .  .  .  .  .  .  .  .  .  .  .  .  .  .  .  .  .  .  .  .  .  .  .  .  .  .  .  .  .  .  .  .  .  .  .  .  .  .  .  .  .  .  .  .  .  .  .  .  .  .  .  .  .  .  .  .  .  .  .  .  .  .  .  .  .  .  .  .  .  .  .  .  .  .  .  .  .  .  .  .  .  .  .  .  .  .  ",
".  .  .  .  .  .  .  .  .  .  .  .  .  .  .  .  .  .  .  .  .  .  .  .  .  .  .  .  .  .  .  .  .  .  .  .  .  .  .  .  .  .  .  .  .  .  .  .  .  .  .  .  .  .  .  .  .  .  .  .  .  .  .  .  .  .  .  .  .  .  .  .  .  .  .  .  .  .  .  .  .  .  .  .  .  .  .  .  .  .  .  .  .  .  .  .  .  .  .  >h ,h L5 ]. (% H' 'h Yg .  .  .  .  .  .  .  .  .  .  .  .  .  .  .  .  .  )h >} ') ^. r& ;~ !h ~h .  .  .  .  .  .  .  .  .  .  .  .  .  .  .  .  .  .  .  .  .  .  .  .  .  .  .  .  .  .  .  .  .  .  {h C+ ]h ^h q& e< 0@ :% C# g% g% ;; 0@ Y$ J' /% O+ W/ g% /h b7 )_  ( (h _h <~ '4 #h O~ !6 :h <h [h )6 =! U~ 4) ,@ J- 6| ;; M& ;; w] L' <g  ( +^ %( N/ <~ O( 5~ !& `- 4) ;; ;; ;; ;; r& ;; ;; .; ;; ;; ;; ;; .; .; P} ;; 8@ 0@ 0@ ;; ;; r& r& g% ;- Lg }h :~ :{ T^ Z< %( +d ~8 .( #( <{ 5< |h k: S& r& ;@ !. ]@ ]@ 1h N1 -~ I' <! 2h yf .  .  .  .  .  .  .  .  .  .  .  .  .  .  .  .  .  .  .  .  .  .  .  .  .  .  .  .  .  .  .  .  .  .  .  .  .  .  .  .  .  .  .  .  .  .  .  .  .  .  .  .  .  .  .  .  .  .  .  .  .  .  .  .  .  .  .  .  .  .  .  .  .  .  .  .  .  .  .  .  .  .  .  .  .  .  .  .  .  .  .  .  .  .  .  .  .  .  .  .  .  .  .  .  .  .  .  .  .  .  .  .  .  .  .  .  .  ",
".  .  .  .  .  .  .  .  .  .  .  .  .  .  .  .  .  .  .  .  .  .  .  .  .  .  .  .  .  .  .  .  .  .  .  .  .  .  .  .  .  .  .  .  .  .  .  .  .  .  .  .  .  .  .  .  .  .  .  .  .  .  .  .  .  .  .  .  .  .  .  .  .  .  .  .  .  .  .  .  .  .  .  .  .  .  .  .  .  .  .  .  .  .  .  .  .  .  .  b8 3h X( W$ M& ;@ 'h Yg .  .  .  .  .  .  .  .  .  .  .  .  .  .  .  .  4h 5h 6h y@ /{ /{ _; 7h 8h .  .  .  .  .  .  .  .  .  .  .  .  .  .  .  .  .  .  .  .  .  .  j+ .  j+ .  .  .  .  .  .  .  .  .  9h 0h ]h ah ~& e< 0@ :% C# g% g% 8@ 0@ ;; ^. h9 bh 4) ,% >= ch dh <~ j< o) s/ eh x{ fh !6 _h R' gh hh =! p% ih R= f(  / A' ;- (@ 4) jh 2( b5 +^ %( N/ <~ O( 5~ !& `- 4) ;; ;; ;; ;; r& ;; ;; .; ;; ;; ;; ;; .; .; P} ;; 8@ 0@ 0@ ;; ;; r& r& g% ;- ^/ kh :~ lh >| bf K~ &e !6 8/ !6 Gd 5< mh nh ~]  ; !& 7- ={ i. ,[ z( Je oh `f ph yf .  .  .  .  .  .  .  .  .  .  .  .  .  .  .  .  .  .  .  .  .  .  .  .  .  .  .  .  .  .  .  .  .  .  .  .  .  .  .  .  .  .  .  .  .  .  .  .  .  .  .  .  .  .  .  .  .  .  .  .  .  .  .  .  .  .  .  .  .  .  .  .  .  .  .  .  .  .  .  .  .  .  .  .  .  .  .  .  .  .  .  .  .  .  .  .  .  .  .  .  .  .  .  .  .  .  .  .  .  .  .  .  .  .  .  .  .  ",
".  .  .  .  .  .  .  .  .  .  .  .  .  .  .  .  .  .  .  .  .  .  .  .  .  .  .  .  .  .  .  .  .  .  .  .  .  .  .  .  .  .  .  .  .  .  .  .  .  .  .  .  .  .  .  .  .  .  .  .  .  .  .  .  .  .  .  .  .  .  .  .  .  .  .  .  .  .  .  .  .  .  .  .  .  .  .  .  .  .  .  .  .  qh rh sh th uh vh wh xh T8 .* w> ;@ yh Yg .  .  .  .  .  .  .  .  .  .  zh Ah Bh Ch h] Dh Eh Fh ^0 y+ ;; /{ c. Gh Hh .  .  .  .  .  .  .  .  .  .  .  .  .  .  .  .  .  .  .  .  .  .  .  ~b Ih Jh Jh Kh Kh Lh Jh Jh Mh Nh Oh Ph Qh N$ G> e< 0@ :% C# g% g% ;; 0@    L& Rh Sh Th ^( Uh Vh Wh Xh Yh Zh Yh O~ `h  i .i 86 .i +i 6d M# p% P% R= ]| r3 L& @i #i Kd $i 2( b5 +^ %( N/ <~ O( 5~ !& fd 4) ;; ;; ;; ;; r& ;; ;; .; ;; ;; ;; ;; .; .; P} ;; 8@ 0@ 0@ ;; ;; r& r& g% ;@ ^/ kh :~ k< >| <{ K~ '_ !d '_ o9 L( .i %i &i F# .* =% r& 4, Ka *i B' G+ =i -i ;i >i .  .  .  .  .  .  .  .  .  .  .  .  .  .  .  .  .  .  .  .  .  .  .  .  .  .  .  .  .  .  .  .  .  .  .  .  .  .  .  .  .  .  .  .  .  .  .  .  .  .  .  .  .  .  .  .  .  .  .  .  .  .  .  .  .  .  .  .  .  .  .  .  .  .  .  .  .  .  .  .  .  .  .  .  .  .  .  .  .  .  .  .  .  .  .  .  .  .  .  .  .  .  .  .  .  .  .  .  .  .  .  .  .  .  .  .  .  ",
".  .  .  .  .  .  .  .  .  .  .  .  .  .  .  .  .  .  .  .  .  .  .  .  .  .  .  .  .  .  .  .  .  .  .  .  .  .  .  .  .  .  .  .  .  .  .  .  .  .  .  .  .  .  .  .  .  .  .  .  .  .  .  .  .  .  .  .  .  .  .  .  .  .  .  .  .  .  .  .  .  .  .  .  .  .  .  .  .  .  .  .  6] Oh ,i 'i )i !i ~i {i ]i #{ .* 2. Z* yh Yg .  .  .  .  .  .  .  .  .  .  yf ^i /i (i )i )i _i :i <i [i 0@ 7- N{ 28 }i .  .  .  .  .  .  .  .  .  .  .  .  .  .  .  .  .  .  .  .  .  .  Q{ |i .' 1i m7 2i 3i m7 m7 )i 'i 4i m7 5i 6i b. x. e< 8@ :% x> g% g% ;; 0@ h) 7i 8i 9i 0i ai bi ci di ei fi fi ei gi hi ii 7( ji ji ki li ;; R= ]{ !. ^] mi ni oi pi A| qi ri !d '_ %( N/ <~ O( si =% j! H' ;; ;; ;; ;; r& ;; ;; .; ;; ;; ;; ;; .; .; P} ;; 8@ 0@ 0@ ;; ;; r& r& g% ;@ ^/ kh <~ n( ti T^ x{ ui vi wi xi xi yi E4 zi 5. 5. C(  - Ai Bi Ci Di Ei Fi Gi Hi Ii .  .  .  .  .  .  .  .  .  .  .  .  .  .  .  .  .  .  .  .  .  .  .  .  .  .  .  .  .  .  .  .  .  .  .  .  .  .  .  .  .  .  .  .  .  .  .  .  .  .  .  .  .  .  .  .  .  .  .  .  .  .  .  .  .  .  .  .  .  .  .  .  .  .  .  .  .  .  .  .  .  .  .  .  .  .  .  .  .  .  .  .  .  .  .  .  .  .  .  .  .  .  .  .  .  .  .  .  .  .  .  .  .  .  .  .  .  ",
".  .  .  .  .  .  .  .  .  .  .  .  .  .  .  .  .  .  .  .  .  .  .  .  .  .  .  .  .  .  .  .  .  .  .  .  .  .  .  .  .  .  .  .  .  .  .  .  .  .  .  .  .  .  .  .  .  .  .  .  .  .  .  .  .  .  .  .  .  .  .  .  .  .  .  .  .  .  .  .  .  .  .  .  .  .  .  .  .  .  .  .  Ji Ki Li Mi Ni 58 Oi *$ 2] ({ =% y@ H' L5 Yg .  .  .  .  .  .  .  .  .  .  g- Pi Qi Ri h~ Si Ti Ui Vi    <6 7- N# Gh }i .  .  .  .  .  .  .  .  .  .  .  .  .  .  .  .  .  .  .  .  .  .  .  Wi Xi ]* Yi I& (| 58  . Zi `i  j  . Q| g1 S( ({ M& ;; ;; .; ;; ;; ;; -; #f be +i g< .j <~ +j @j #j $j %j &j *j =j -j ;j >j ,j 'j *%    A# H' O+ >% m} )j {) )a f| L^ O^ <~ :{ O' m< N/ <~ O( si =% /. H' ;; ;; ;; ;; r& ;; ;; .; ;; ;; ;; ;; .; .; P} ;; 8@ 0@ 0@ ;; ;; r& r& g% ;- $_ kh 3( n( 96 I~ D{ !j ~j {j ]j F{ ^j G! K& ({ A' k> '> /0 /j (j Dh 0< _j :j <j [j .  .  .  .  .  .  .  .  .  .  .  .  .  .  .  .  .  .  .  .  .  .  .  .  .  .  .  .  .  .  .  .  .  .  .  .  .  .  .  .  .  .  .  .  .  .  .  .  .  .  .  .  .  .  .  .  .  .  .  .  .  .  .  .  .  .  .  .  .  .  .  .  .  .  .  .  .  .  .  .  .  .  .  .  .  .  .  .  .  .  .  .  .  .  .  .  .  .  .  .  .  .  .  .  .  .  .  .  .  .  .  .  .  .  .  .  .  ",
".  .  .  .  .  .  .  .  .  .  .  .  .  .  .  .  .  .  .  .  .  .  .  .  .  .  .  .  .  .  .  .  .  .  .  .  .  .  .  .  .  .  .  .  .  .  .  .  .  .  .  .  .  .  .  .  .  .  .  .  .  .  .  .  .  .  .  .  .  .  .  .  .  .  .  .  .  .  .  .  .  .  .  .  .  .  .  .  .  .  .  .  }j |j 1j  f l{ -% f% <_ /. @@ .@ P# !. #{ ,g .  .  .  .  .  .  .  .  .  .  2j l] md #- `& d% 3j `' e[ 90 <6 j{ N# 28 }i .  .  .  .  .  .  .  .  .  .  .  .  .  .  .  .  .  .  .  .  .  .  .  4j 5j G( // J& E~ E~ =% 6j =h 7j r~ r+ 7% P} 0@ M& ;; P} .; ;; ;; ;; J' Vg be N^ D{ h< L~ J~ 8j 9j 0j aj bj cj =j dj 0~ ih ej m{ )1 Q= A# t{ ]. >% fj gj R' )! J~ hj Z5 ij y{ O' %( N/ <~ O( si =% /. H' ;; ;; ;; ;; r& ;; ;; .; ;; ;; ;; ;; .; .; P} ;; 8@ 0@ 0@ ;; ;; r& r& g% ;- Lg jj :{ ~[ [{ ;_ }] kj lj P! 4% =% &% L& _; X$ D/ N1 [_ mj nj oj pj 39 qj .  .  .  .  .  .  .  .  .  .  .  .  .  .  .  .  .  .  .  .  .  .  .  .  .  .  .  .  .  .  .  .  .  .  .  .  .  .  .  .  .  .  .  .  .  .  .  .  .  .  .  .  .  .  .  .  .  .  .  .  .  .  .  .  .  .  .  .  .  .  .  .  .  .  .  .  .  .  .  .  .  .  .  .  .  .  .  .  .  .  .  .  .  .  .  .  .  .  .  .  .  .  .  .  .  .  .  .  .  .  .  .  .  .  .  .  .  .  .  .  ",
".  .  .  .  .  .  .  .  .  .  .  .  .  .  .  .  .  .  .  .  .  .  .  .  .  .  .  .  .  .  .  .  .  .  .  .  .  .  .  .  .  .  .  .  .  .  .  .  .  .  .  .  .  .  .  .  .  .  .  .  .  .  .  .  .  .  .  .  .  .  .  .  .  .  .  .  .  .  .  .  .  .  .  .  .  .  .  .  .  .  .  .  rj sj Hb tj uj ^@ E= }  V+ I( ^/ vj c@ wj xj .  .  .  .  .  .  .  .  .  .  .  yj zj /{ Aj Bj `- )) K/ D/ D# gd N# }8 }i .  .  .  .  .  .  .  .  .  .  .  .  .  .  .  .  .  .  .  .  .  .  .  b( Cj 4% =% >% W/    P}  - Dj u( T~ a@ T+ [[ J' w> ;; P} .; ;; ;; ;; >@ -! be k^ :{ K~ {6 J~ 8j Ej Fj aj 0j cj =j dj b{ &1 @- I' #$ f( @; Z* ]. ^9 fj Gj Hj Z< 8/ Ij Jj L~ ^8 <{ M~ N/ <~ O( si =% /. H' ;; ;; ;; ;; r& ;; ;; .; ;; ;; ;; ;; .; .; P} ;; 8@ 0@ 0@ ;; ;; r& r& g% ;- Lg Kj :{ ~[ [{ eh !! Lj ,j i) 0  q% t%    Q3 T~ T= Mj y. Df Nj .  .  .  .  .  .  .  .  .  .  .  .  .  .  .  .  .  .  .  .  .  .  .  .  .  .  .  .  .  .  .  .  .  .  .  .  .  .  .  .  .  .  .  .  .  .  .  .  .  .  .  .  .  .  .  .  .  .  .  .  .  .  .  .  .  .  .  .  .  .  .  .  .  .  .  .  .  .  .  .  .  .  .  .  .  .  .  .  .  .  .  .  .  .  .  .  .  .  .  .  .  .  .  .  .  .  .  .  .  .  .  .  .  .  .  .  .  .  .  .  .  .  .  .  ",
".  .  .  .  .  .  .  .  .  .  .  .  .  .  .  .  .  .  .  .  .  .  .  .  .  .  .  .  .  .  .  .  .  .  .  .  .  .  .  .  .  .  .  .  .  .  .  .  .  .  .  .  .  .  .  .  .  .  .  .  .  .  .  .  .  .  .  .  .  .  .  .  .  .  .  .  .  .  .  .  .  .  .  .  .  .  .  .  .  .  .  .  .  Oj Pj y~ O= W} D( K& K' W{ ') ,; j! Qj v} .  .  .  .  .  .  .  .  .  j+ r1 Rj :b =) i  x. P# 4) e< @; x~ /@ Sj Tj Uj .  .  .  .  .  .  .  .  .  .  .  .  .  .  .  .  .  .  .  .  .  j+ .  Vj Wj +- R+ Y& U) D/ Y$ ;; :% g. V> G8    Xj 3) 8@ -; ;; P} r& r& r& x. E# A4 Yj -_ z{ Zj `j  k .k +k @k #k $k %k dj s( 8  V> >( &k .; 8@ ^. >- x) *k =k 4< :] P' -k #( Ma i< ;k >k O~ Q^ ,k @e Q+ q% ,[ (@ (@ (@ (@ (@ (@ (@ x> 0@ 0@ $- 4) @@ Y$ 8@ P} {| w> H' s( Y$ r& r& P= @@ 'k Kj R' `5 [{ h< }] )k 3, @| s( Dj V' `- -% -; j{ $= R+ !k De .  .  .  .  .  .  .  .  .  .  .  .  .  .  .  .  .  .  .  .  .  .  .  .  .  .  .  .  .  .  .  .  .  .  .  .  .  .  .  .  .  .  .  .  .  .  .  .  .  .  .  .  .  .  .  .  .  .  .  .  .  .  .  .  .  .  .  .  .  .  .  .  .  .  .  .  .  .  .  .  .  .  .  .  .  .  .  .  .  .  .  .  .  .  .  .  .  .  .  .  .  .  .  .  .  .  .  .  .  .  .  .  .  .  .  .  .  .  .  .  .  .  .  .  ",
".  .  .  .  .  .  .  .  .  .  .  .  .  .  .  .  .  .  .  .  .  .  .  .  .  .  .  .  .  .  .  .  .  .  .  .  .  .  .  .  .  .  .  .  .  .  .  .  .  .  .  .  .  .  .  .  .  .  .  .  .  .  .  .  .  .  .  .  .  .  .  .  .  .  .  .  .  .  .  .  .  .  .  .  .  .  .  ~k .  .  .  .  {k ]k ^k |d ;6 /k (k 6- _k :k <k n4 [k }k |k .  .  .  .  ]; 1k .  .  .  .  2k 3k 4k e. ;~ g. r~ g% /{ +; +; j{ 5k >b 6k .  .  .  .  .  .  .  .  .  7k 8k 9k .  .  .  .  .  .  .  .  .  .  ~b 0k 5j G8 ^. M+ !. P/ .; !. ,% x. @- e/ +_ -! Md ]] K6 J6 (8          .*  0 ak -f &( ;k bk ck dk ek fk gk hk ik =j -j jk u- w. e@ `& b' `$ kk lk I$ mk nk *f ok 5( a7 .( 6( pk qk &e rk sk tk @e h9 V$ q% >@ >@ >@ >@ (@ >@ >@ Q3 2. a) ]. O+ S+ uk Ua J6 &) Y& Y&       ~{ Jd 1, &) Wf Kj +^ Jj [{ bf &e vk wk ,@ H' ;; ;; .; 8@ 0@ g% O+ 6j t. xk .  .  .  .  .  .  .  .  .  .  .  .  .  .  .  .  .  .  .  .  .  .  .  .  .  .  .  .  .  .  .  .  .  .  .  .  .  .  .  .  .  .  .  .  .  .  .  .  .  .  .  .  .  .  .  .  .  .  .  .  .  .  .  .  .  .  .  .  .  .  .  .  .  .  .  .  .  .  .  .  .  .  .  .  .  .  .  .  .  .  .  .  .  .  .  .  .  .  .  .  .  .  .  .  .  .  .  .  .  .  .  .  .  .  .  .  .  .  .  .  .  .  .  .  ",
".  .  .  .  .  .  .  .  .  .  .  .  .  .  .  .  .  .  .  .  .  .  .  .  .  .  .  .  .  .  .  .  .  .  .  .  .  .  .  .  .  .  .  .  .  .  .  .  .  .  .  .  .  .  .  .  .  .  .  .  .  .  .  .  .  .  .  .  .  .  .  .  .  .  .  .  .  .  .  .  .  .  .  .  .  .  .  yk zk Ak Ak 4- Bk 5* Ck Dk Ek b' )8 Fk Gk Hk Ik Jk Kk Lk Mk .  .  .  .  %& Nk Ok Pk Ak (^ 4- Qk Rk 4. 3. c# ;; D# g% +* +; j{ ,; Sk Tk Uk Vk Pk Wk Wk Vk Xk n$ Yk Zk `k  l x: .  .  .  u^ .l +l @l #l +l c[ $l %l _;  ; M+ F= &k .; !. !. J' Y$ &l *l =l -l ;l ;l >l >l na hh na ,l 'l )l !l ~l {l ]l ^l /l (l _l _l _l :l <l [l ;; {@ :% }l !] |l >l 1l 2l 3l 4l `] `h ;_ |{ N/ -_ F4 5l 6l 7l 8l 8l 9l Vf ~] O+ /% ;; ;; ;; ;; r& ;; ;; .; 0@ u( W$ O+ <6 0l al na bl na $d $d $d na na na >l cl dl O~ +d z{ Z< &e {a el N# @- x> ;; {| 8@ 0@ g% .@ p~ t. *g .  .  .  .  .  .  .  .  .  .  .  .  .  .  .  .  .  .  .  .  .  .  .  .  .  .  .  .  .  .  .  .  .  .  .  .  .  .  .  .  .  .  .  .  .  .  .  .  .  .  .  .  .  .  .  .  .  .  .  .  .  .  .  .  .  .  .  .  .  .  .  .  .  .  .  .  .  .  .  .  .  .  .  .  .  .  .  .  .  .  .  .  .  .  .  .  .  .  .  .  .  .  .  .  .  .  .  .  .  .  .  .  .  .  .  .  .  .  .  .  .  .  .  .  ",
".  .  .  .  .  .  .  .  .  .  .  .  .  .  .  .  .  .  .  .  .  .  .  .  .  .  .  .  .  .  .  .  .  .  .  .  .  .  .  .  .  .  .  .  .  .  .  .  .  .  .  .  .  .  .  .  .  .  .  .  .  .  .  .  .  .  .  .  .  .  .  .  .  .  .  .  .  .  .  .  .  .  .  .  .  .  fl Qb gl hl #, il jl kl ll O> O- P% ^% ml nl ol pl ql pl rl sl .  .  .  .  tl ul vl wl xl yl o4 x* %} 0  r& M& ;; ;; ;; 0@ Y$ /@ ].  b zl Al !, Bl Cl Dl El <; Fl Gl Hl Il Jl U[ .  .  .  2d *  Kl wl Ll Ml Nl Ol y( +@ ^. C( ]. t( x> `- `- ^. =% Pl Ql Rl L^ 9e `[ L[ /8 Sl Tl Sl Tl Ul Vl Wl Xl Xl Yl Zl `l  m ck .m .m +m @m e2 W> g  x> `' s} O( #m L[ L[ .} Tl $m Q~ M( T^ Y< 5< jj %m ;j F{ F{ c| &m >9 Y& q% /% 5% `- `- `- r& 5% ,% .; g% Q- P= P= t% *m c: =m ]d bb =m -m Ya Sf g< g< P^ m/ '4 K~ _] k< 06 n/ ;m >= Q= A' 0@ s# .; 8@ ,@ `& .@ :; >} *g .  .  .  .  .  .  .  .  .  .  .  .  .  .  .  .  .  .  .  .  .  .  .  .  .  .  .  .  .  .  .  .  .  .  .  .  .  .  .  .  .  .  .  .  .  .  .  .  .  .  .  .  .  .  .  .  .  .  .  .  .  .  .  .  .  .  .  .  .  .  .  .  .  .  .  .  .  .  .  .  .  .  .  .  .  .  .  .  .  .  .  .  .  .  .  .  .  .  .  .  .  .  .  .  .  .  .  .  .  .  .  .  .  .  .  .  .  .  .  .  .  .  .  .  ",
".  .  .  .  .  .  .  .  .  .  .  .  .  .  .  .  .  .  .  .  .  .  .  .  .  .  .  .  .  .  .  .  .  .  .  .  .  .  .  .  .  .  .  .  .  .  .  .  .  .  .  .  .  .  .  .  .  .  .  .  .  .  .  .  .  .  .  .  .  .  .  .  .  .  .  .  .  .  .  .  .  .  .  .  .  .  j# >m ,m p~ 'm J/ +, P< p~ +* d> e% @; )m !m ~m .  .  .  .  Tc .  .  .  .  {m ka ]m f@ ^m v] ;3 y+ a@ 0  g% r~ ;; ;; 0@ 0@ 0@ ~f d@ {. '* /m f@ 8@ :% E=  -    g@ I( W< (m _m :m .  .  .  z; <m [m }m h{  [ X( |m    ]. `- <6 ]. t( :% ,@ -% r& y@ 1m yi 2m T^ ^) T^ T^ >| dd [{ dd y{ 3m 4m 5m 6m #k #k 7m 8m 9m x{ Xh Ac m< 0m $1 gd g[ x> K6 W: S} :~ 3( K~ ~c am D{ D{ 6( |{ p( bm cm dm =% r& e/ 4% )& g6 |. M& D# ^. ^. ^. ^. ^. ^. ^.    6. 9  +; /{    em fm s/ :] ;_ ;_ ;_ ;_ :{ :{ :{ :{ P^ 2{ J~ N/ `5 /) gm ;m v{ ;; ;; 0@ Z* .; `- ^. ^. !.  - >} *g .  .  .  .  .  .  .  .  .  .  .  .  .  .  .  .  .  .  .  .  .  .  .  .  .  .  .  .  .  .  .  .  .  .  .  .  .  .  .  .  .  .  .  .  .  .  .  .  .  .  .  .  .  .  .  .  .  .  .  .  .  .  .  .  .  .  .  .  .  .  .  .  .  .  .  .  .  .  .  .  .  .  .  .  .  .  .  .  .  .  .  .  .  .  .  .  .  .  .  .  .  .  .  .  .  .  .  .  .  .  .  .  .  .  .  .  .  .  .  .  .  .  .  .  ",
".  .  .  .  .  .  .  .  .  .  .  .  .  .  .  .  .  .  .  .  .  .  .  .  .  .  .  .  .  .  .  .  .  .  .  .  .  .  .  .  .  .  .  .  .  .  .  .  .  .  .  .  .  .  .  .  .  .  .  .  .  .  .  .  .  .  .  .  .  .  .  .  .  .  .  .  .  .  .  .  .  .  .  .  .  .  }& hm a- J- im @; @; .; !. !. ;- y' 2& jm km ~m .  .  .  .  .  .  .  .  .  lm R- `8 }( w$ O- H' :; 0@ ;; ;; ;; P} .; .; .; t( e/ ') O+ !. r~ g% !. H' ;; x> /% mm k> W$ nm om pm .  .  .  z; r, Ui V{ qm U' V' V' ].  ; q% V' O+ Q3 x> 9@ @; g% B# 1m k0 rm ^) ^) T^ L~ L~ L~ L~ [{ y{ ;k sm tm #k aj aj #k um vm wm `h ;_ >| F4 $1 1  P+ c# K6 xm S} zc K~ 8/ 5( M~ !6 bf ^) |{ O~ ym 6< Kd ;@ T~ i. @; C# :% Y{ @; T~ (% r& r& (% (% (% M& M& i. 9  6. +;    zm H: +^ #( |{ ^) ^) Y< Z< 1{ 1{ i< Q^ K~ 8/ O~ ^) ^) Fg Am *% !. !. !. !. !. ~. {@ I= D# ;3 t. ff .  .  .  .  .  .  .  .  .  .  .  .  .  .  .  .  .  .  .  .  .  .  .  .  .  .  .  .  .  .  .  .  .  .  .  .  .  .  .  .  .  .  .  .  .  .  .  .  .  .  .  .  .  .  .  .  .  .  .  .  .  .  .  .  .  .  .  .  .  .  .  .  .  .  .  .  .  .  .  .  .  .  .  .  .  .  .  .  .  .  .  .  .  .  .  .  .  .  .  .  .  .  .  .  .  .  .  .  .  .  .  .  .  .  .  .  .  .  .  .  .  .  .  .  ",
".  .  .  .  .  .  .  .  .  .  .  .  .  .  .  .  .  .  .  .  .  .  .  .  .  .  .  .  .  .  .  .  .  .  .  .  .  .  .  .  .  .  .  .  .  .  .  .  .  .  .  .  .  .  .  .  .  .  .  .  .  .  .  .  .  .  .  .  .  .  .  .  .  .  .  .  .  .  .  .  .  .  .  .  .  .  j+ Bm Cm 4, Dm -; T~ Em W/ u( )@ K& '* |> Fm ~m .  .  .  .  .  .  .  ]; .  Gm ka Hm Q+ 77 ]@ u( :; ;; r~ ;; ;; P} .; .; .; t( 5. ;; T~ D# r& r& x. r& @@ s( !. O+ M| g  nm om pm ~; }; .  z; Im Jm M# /k Km 4/ !. ]. Q+ g% !. u( t( ,% R= Q- Q- ^. j0 k0 Lm ^) ^) >| y{ y{ y{ dd [{ Mm Nm sm Om Pm aj aj Qm um Rm Sm '4 5< :{ F4 Tm =% !) .* i% xm Um :~ K~ 8/ ;k Vm r/ Zj z{ ^) 07 Wm 6< Xm ;@ g% /{ Q- t( :% :% a@ A# @- @- @- @- @- ^| A' @; T~ A# 8@ H' t% Ym m/  ^ <h ^) ^) ^) ^) r/ r/ r/ r/ D{ K~ 8/ Zm +^ !6 X9 *^ *% ]. !. !. !. ,% c. c. g% |. B& `m  n .  .  .  .  .  .  .  .  .  .  .  .  .  .  .  .  .  .  .  .  .  .  .  .  .  .  .  .  .  .  .  .  .  .  .  .  .  .  .  .  .  .  .  .  .  .  .  .  .  .  .  .  .  .  .  .  .  .  .  .  .  .  .  .  .  .  .  .  .  .  .  .  .  .  .  .  .  .  .  .  .  .  .  .  .  .  .  .  .  .  .  .  .  .  .  .  .  .  .  .  .  .  .  .  .  .  .  .  .  .  .  .  .  .  .  .  .  .  .  .  .  .  .  .  ",
".  .  .  .  .  .  .  .  .  .  .  .  .  .  .  .  .  .  .  .  .  .  .  .  .  .  .  .  .  .  .  .  .  .  .  .  .  .  .  .  .  .  .  .  .  .  .  .  .  .  .  .  .  .  .  .  .  .  .  .  .  .  .  .  .  .  .  .  .  .  .  .  .  .  .  .  .  .  .  .  j+ .  .  .  .  .  .n A> +n y. P+ t% Dm V~ N- H' +* e/ Y% @n #n !4 $n #  0% !4 64 $2 %n &n 64 /4 *n X  =n -) ^. ^. s# ;; r~ r~ ;; P} .; Y$ Y$    (@ 5. 0@ -% >% (@ S+  ; ^/ h9 P+ _@ >j N1 T! -n ;n ~b >n ,n 'n )n K{ 7f !& *) ^| T~ `- Z* T~ !. `- :% Y& <f !n t< wk ~n {n U8 ]n ^n ^n .^ .^ .^ o( o( m< /n (n Om _n aj aj :n um <n [n b5 2[ /) F4 #0 L& U> Km }n |n F4 <~ K~ .^ O' Vm 1n ;_ 2n <~ 3n &f 4n Xm r~ !. !. !.    ^. V+ +_ S& ^. ^. 5n 5n ,@ ^. t{ Z* V+ l{ '] ^/ 6n bc 7n  ^ Z< !6 K~ K~ !6 !6 h< h< :{ D{ '_ 1[ 1n !d D{ 8n 9n +_ V' !. r~ x> u+ 43 Ai 0n #{ }* an )= .  .  .  .  .  .  .  .  .  .  .  .  .  .  .  .  .  .  .  .  .  .  .  .  .  .  .  .  .  .  .  .  .  .  .  .  .  .  .  .  .  .  .  .  .  .  .  .  .  .  .  .  .  .  .  .  .  .  .  .  .  .  .  .  .  .  .  .  .  .  .  .  .  .  .  .  .  .  .  .  .  .  .  .  .  .  .  .  .  .  .  .  .  .  .  .  .  .  .  .  .  .  .  .  .  .  .  .  .  .  .  .  .  .  .  .  .  .  .  .  .  .  .  .  ",
".  .  .  .  .  .  .  .  .  .  .  .  .  .  .  .  .  .  .  .  .  .  .  .  .  .  .  .  .  .  .  .  .  .  .  .  .  .  .  .  .  .  .  .  .  .  .  .  .  .  .  .  .  .  .  .  .  .  .  .  .  .  .  .  .  .  .  .  .  .  .  .  .  .  .  .  .  .  .  .  .  bn cn dn en fn gn hn in jn u( ,% g% H' P/ D# u{ /. G= kn ln mn nn on pn qn rn sn tn un vn wn xn yn F> @; a@ -% Q3 0@ 0@ 0@ 8@ P} .; .; .; .; P+ $- >- zn An 1m 1m Bn Bn 1m Cn T: nh Dn En Fn Gn Hn o8 In Jn Kn Ln x$ +* K- @; O! 0@ 2. 5. ;; !. Q3 Mn s} a' Zf k: Nn On Pn Qn Qn Qn Qn Qn Qn Qn Rn Sn Qn Tn Un Vn aj aj Fj um Rm l< ma Wn J~ M[ |n T: Xn Bn Yn Zn F4 <~ K~ o< O' U8 `n  o .o +o d| @o _g #o 8@ @- 5% ^. !) 6n 5~ $o %o l/ 1m 1m 1m 1m l/ Y: l/ Cn &o Bn Bn em *o =o &h T^ :{ :{ R' !d -o -o  o  o M: ;o I6 ;o >o >o ,o 'o v{ !. 0@ 0@ M- A7 )o !o ~o {o N& ]o ^o .  .  .  .  .  .  .  .  .  .  .  .  .  .  .  .  .  .  .  .  .  .  .  .  .  .  .  .  .  .  .  .  .  .  .  .  .  .  .  .  .  .  .  .  .  .  .  .  .  .  .  .  .  .  .  .  .  .  .  .  .  .  .  .  .  .  .  .  .  .  .  .  .  .  .  .  .  .  .  .  .  .  .  .  .  .  .  .  .  .  .  .  .  .  .  .  .  .  .  .  .  .  .  .  .  .  .  .  .  .  .  .  .  .  .  .  .  .  .  .  .  .  .  .  ",
".  .  .  .  .  .  .  .  .  .  .  .  .  .  .  .  .  .  .  .  .  .  .  .  .  .  .  .  .  .  .  .  .  .  .  .  .  .  .  .  .  .  .  .  .  .  .  .  .  .  .  .  .  .  .  .  .  .  .  .  .  .  .  .  .  .  .  .  .  .  .  .  .  .  .  .  .  .  .  .  .  /o (o _o :o <o [o }o o] @- U~ !. !. H' .; H' S& |o 1o 2o 5: 3o 4o 5o 6o 7o 7o 8o 9o 0o ao bo co [_ j{ Q- @- ;; ,@ 5. b@ b@ @- F> .; .; Y$    ') -) 3d do 'c &_ d| eo d| >o e: e: _) +o fo go }! ho _o io jo i; X( _k [i Y* ^| ]> 0@ 8@ ;; ,%  * &l ko lo #m >o >o mo no oo po qo ro so qo to qo uo vo wo xo Fj bj yo zo Ao um vm D{ '_ Jc Jc j( Z_ +: e: Bo I: eo ;o _h  ( {6 L~ Co Do Eo Fo Go Ho Io |o '] M& @; g% W{ Jo @: e: Ko Lo Ko #: #: l0 l0 l0 ~! &_ e: d: Mo M: No Oo Po Qo l< o( #( Ro So To }f Bn em Fo V: k: Uo 1m $o nh 5~ ^/ u( >% !. L- Vo Wo Xo Yo Zo `o  p .p .  .  .  .  .  .  .  .  .  .  .  .  .  .  .  .  .  .  .  .  .  .  .  .  .  .  .  .  .  .  .  .  .  .  .  .  .  .  .  .  .  .  .  .  .  .  .  .  .  .  .  .  .  .  .  .  .  .  .  .  .  .  .  .  .  .  .  .  .  .  .  .  .  .  .  .  .  .  .  .  .  .  .  .  .  .  .  .  .  .  .  .  .  .  .  .  .  .  .  .  .  .  .  .  .  .  .  .  .  .  .  .  .  .  .  .  .  .  .  .  .  .  .  .  ",
".  .  .  .  .  .  .  .  .  .  .  .  .  .  .  .  .  .  .  .  .  .  .  .  .  .  .  .  .  .  .  .  .  .  .  .  .  .  .  .  .  .  .  .  .  .  .  .  .  .  .  .  .  .  .  .  .  .  .  .  .  .  .  .  .  .  .  .  .  .  .  .  .  .  .  .  .  .  .  .  +p @p ~  #| 5. =a C< l5 h. .- y@ !. `- H' .; H' t% #p $p (% %p &p *p t9 s9 =p =p B< -p ;p s9 2] ,- J' a# 4) (@ `- ]. }9 /@ j{ ,[ s( K/ P} Y$    =% 6j Sh Am }] `h {6 1[ Jj U8 >p ]) '_ I~ L( ,p 'p W+ V> )p !p d. a~ ^9 X* =% 0@ *) Z* Z* u( ^. =% j: 'c ~p {p %( m( ]p ^p /p 0j (p /p 0j _p :p <p <p [p }p #k Fj Vn hk |p Ao um Rm O' K~ K~ K~ 1p j(  ^ I~ ,_ #h 2p r/ L~ ;_ D{ 4( L^ )d 3p l{ 0@ p+ :; x) E~ ;- g% V$ ;6 4p 5p '_ +^ {6 j( {6 ;_ D{ Rg p/ ~p ~p 6p ;_ '_ {6 Z< ~[ e| 7p Z< O' 1{ L[ 8p 9p 0p -4 W$ S+ *) *) Z* `- t{ *) F= ;@ !.  ; !. 09 V4 ap .  .  .  .  .  .  .  .  .  .  .  .  .  .  .  .  .  .  .  .  .  .  .  .  .  .  .  .  .  .  .  .  .  .  .  .  .  .  .  .  .  .  .  .  .  .  .  .  .  .  .  .  .  .  .  .  .  .  .  .  .  .  .  .  .  .  .  .  .  .  .  .  .  .  .  .  .  .  .  .  .  .  .  .  .  .  .  .  .  .  .  .  .  .  .  .  .  .  .  .  .  .  .  .  .  .  .  .  .  .  .  .  .  .  .  .  .  .  .  .  .  .  .  .  .  .  .  .  .  .  ",
".  .  .  .  .  .  .  .  .  .  .  .  .  .  .  .  .  .  .  .  .  .  .  .  .  .  .  .  .  .  .  .  .  .  .  .  .  .  .  .  .  .  .  .  .  .  .  .  .  .  .  .  .  .  .  .  .  .  .  .  .  .  .  .  .  .  .  .  .  .  .  .  .  .  .  .  .  .  .  .  bp cp ,6 6. g% @; @; _% ae :% ,@ ^. u( H' .; D# /% g@ a# V{ ^. 8  7- g@ M1 M1 f[ {. {. G^ da X/ F> P= %= ^. ^. !. t% 90 V$ `& M& ;; @- @; @; T~ 5. .- T: $: Gg p( |{ P' 8/ 8/ J~ K~ O~ Xh dp ep 4[ ;- W> /{ i  D# 2^ q% q% (% @; A' @- T~ g% g% 0@ fp L< #h J~ 8/ 8/ ]p um gp aj aj aj Fj Fj bj aj aj 0j hp #k aj #k hk |p ip um Rm K~ K~ K~ |{ N~ N/ P' P' 8/ ^n L~ L~ K~ '_ '_ L~ .i )d 3, $- 6. T~ y. e/ c. i  q% {@ ;6 lf ]f ;k jp .( .( N~ N~ K~ K~ &( N/ .( T} M( Jc T^ <{ L~ m< 5( 06 z{ T^ L[ 8p kp e/ M& g% Q- 5. 5. Q- T~ A' ;; @; T~ !.  ; !. 09 lp mp .  .  .  .  .  .  .  .  .  .  .  .  .  .  .  .  .  .  .  .  .  .  .  .  .  .  .  .  .  .  .  .  .  .  .  .  .  .  .  .  .  .  .  .  .  .  .  .  .  .  .  .  .  .  .  .  .  .  .  .  .  .  .  .  .  .  .  .  .  .  .  .  .  .  .  .  .  .  .  .  .  .  .  .  .  .  .  .  .  .  .  .  .  .  .  .  .  .  .  .  .  .  .  .  .  .  .  .  .  .  .  .  .  .  .  .  .  .  .  .  .  .  .  .  .  .  .  .  .  .  ",
".  .  .  .  .  .  .  .  .  .  .  .  .  .  .  .  .  .  .  .  .  .  .  .  .  .  .  .  .  .  .  .  .  .  .  .  .  .  .  .  .  .  .  .  .  .  .  .  .  .  .  .  .  .  .  .  .  .  .  .  .  .  .  .  .  .  .  .  .  .  .  .  .  .  .  .  .  .  .  .  np )7 ,6 5a ,( .; N- .; .; P} ,% !. !. Q- .; e< #$ mm W} S4 ;[ W/ ,( g% g% g% g% u# W> g% Q- >( f( @; @; g% g% T~ +; op M| O+ /% 5% ;- 7- j{ q% V{ 4/ R:  : N: Zj +( n( %( 9b [{ pp ;_ M( 1~ qp j:  *    9@ 0@ )& :; :; 7. g. 0@ 0@ 0@ -; `- ^. =% $6 rp }] r/ %( 5( ]p um xo |p sp sp |p tp tp tp gk sp hk sp aj #k yo _n ip um Rm :] ;_ ;_ ,_ Jc K~ 8/ 8/ .( n( k< m< Ac O~ up vp M^ )d 3, $# x$ +; r& (@ ^. (% g% j{ b' 8f wp U8 ~c ~c bf bf K~ K~ :] %( %( %( 4( D{ Gd L~ 1[ r/ K~ bf ^) %( J~ xp 8p  < c@ ;- ;@ 5. 5. 5. 5. 8@ 8@ 0@ ;; ;; ,% u( !. w  yp zp .  .  .  .  .  .  .  .  .  .  .  .  .  .  .  .  .  .  .  .  .  .  .  .  .  .  .  .  .  .  .  .  .  .  .  .  .  .  .  .  .  .  .  .  .  .  .  .  .  .  .  .  .  .  .  .  .  .  .  .  .  .  .  .  .  .  .  .  .  .  .  .  .  .  .  .  .  .  .  .  .  .  .  .  .  .  .  .  .  .  .  .  .  .  .  .  .  .  .  .  .  .  .  .  .  .  .  .  .  .  .  .  .  .  .  .  .  .  .  .  .  .  .  .  .  .  .  .  .  .  ",
".  .  .  .  .  .  .  .  .  .  .  .  .  .  .  .  .  .  .  .  .  .  .  .  .  .  .  .  .  .  .  .  .  .  .  .  .  .  .  .  .  .  .  .  .  .  .  .  .  .  .  .  .  .  .  .  .  .  .  .  .  .  .  .  .  .  .  .  .  .  .  .  .  .  Ap {h q6 }; `( ~% Bp Cp Dp O# r& D# ;; t( t( 9@ w> !. !. g% .; t( g% >@ ^. /% a# O+ !. Q- Q- Q- g% g% g% g% 0  8@ 9@ t( A# D# g% D# j{ O+ bh >% !@ 0@ _; i) Z& k> d@ V8 nh Ep Fp l< n( ~[ $( Z< n( [{ [{ 3( 1~ qp Lg 3) 3) /. (@ 0@  - 2. y@ 0@ S& =% V+ ^. ^. =% wk Gp Hp Ip 1p N/ Jp Kp Lp xo _n gk gk sp sp tp gk sp |p sp |p |p #k _n tp Mp um Np _] Op Op Xh Op O~ Pp 8/ .( l< 2[ Jc .^ x{ Qp up M^ b7 j: M& O% /{ `& >% ^. _; 1  u- ;6 lf Q^ :{ Rp :{ ^) ^) ^) ^) bf Zj Y< :] {8 :{ :{ T^ L~ l< T^ T^ T^ N/ Xh Sp 8p Tp ^. !. !. J' r& `- r& !. !. !. !. H' ;; !. H' w  Up zp .  .  .  .  .  .  .  .  .  .  .  .  .  .  .  .  .  .  .  .  .  .  .  .  .  .  .  .  .  .  .  .  .  .  .  .  .  .  .  .  .  .  .  .  .  .  .  .  .  .  .  .  .  .  .  .  .  .  .  .  .  .  .  .  .  .  .  .  .  .  .  .  .  .  .  .  .  .  .  .  .  .  .  .  .  .  .  .  .  .  .  .  .  .  .  .  .  .  .  .  .  .  .  .  .  .  .  .  .  .  .  .  .  .  .  .  .  .  .  .  .  .  .  .  .  .  .  .  .  .  ",
".  .  .  .  .  .  .  .  .  .  .  .  .  .  .  .  .  .  .  .  .  .  .  .  .  .  .  .  .  .  .  .  .  .  .  .  .  .  .  .  .  .  .  .  .  .  .  .  .  .  .  .  .  .  .  .  .  .  .  .  .  .  .  .  .  .  .  .  .  .  .  .  .  .  4  Vp Wp Xp Yp Zp `p  q .q +q ;{ C# H'       y@ ,@ a~ ,% g% ;; 0@ ;; ;; P} Y- ]. !] @q Fo Sh #q Nf ]j F{ of J( H[ J( J( $q 3, 3d J( J( H[ %q &q *q =q -q ;q >q >q ,q 'q )q !q +m ~q {q {q {q ~q ]q {q {q ~q .^ ^q ,q /q (q _q H[ H[ :q :q H[ H[ Eo g( I[ $i $i >q (q ,q <q Ij ~q ~q [q Kp um }q Pm |q 1q 2q 1q tp 3q 4q zo |q |p |p Pm _n |p 5q 6q  m 7q 8q ck ck 9q 0q aq .^ bq 8b cq :~ L[ ,! L[ o9 )_ )d g( @q 3, 3, Jg H[ H[ lj J( dq eq fq bm X5 {6 U^ bf ^) ^) ^) <h 1[ T} r[ :~ L[ L: ]d O^ L[ L[ L^ gq +} hq K^ iq s+ Z* u( u( !. ;@ ;@ ,% D# ;@ U) ;@ D# ;; !. a~ w  jq kq .  .  .  .  .  .  .  .  .  .  .  .  .  .  .  .  .  .  .  .  .  .  .  .  .  .  .  .  .  .  .  .  .  .  .  .  .  .  .  .  .  .  .  .  .  .  .  .  .  .  .  .  .  .  .  .  .  .  .  .  .  .  .  .  .  .  .  .  .  .  .  .  .  .  .  .  .  .  .  .  .  .  .  .  .  .  .  .  .  .  .  .  .  .  .  .  .  .  .  .  .  .  .  .  .  .  .  .  .  .  .  .  .  .  .  .  .  .  .  .  .  .  .  .  .  .  .  .  .  .  ",
".  .  .  .  .  .  .  .  .  .  .  .  .  .  .  .  .  .  .  .  .  .  .  .  .  .  .  .  .  .  .  .  .  .  .  .  .  .  .  .  .  .  .  .  .  .  .  .  .  .  .  .  .  .  .  .  .  .  .  .  .  .  .  .  .  .  .  .  .  .  .  .  .  .  lq mq nq oq pq qq rq sq tq w] <e 0@ (@       Z* ,% ;; ;; ;;    s# N{ 9@ a~ ~f uq H, vq !j wq !j xq yq zq zq Aq Bq Cq Lo Dq 4c Eq Fq Gq Hq Hq Iq +o Jq Kq Lq Mq Nq Nq Oq Pq Qq Rq _l _l _l _l _l Sq Tq _l Uq Uq Vq Oq Oq Oq Oq Oq Oq Oq Oq Wq Xq Yq Zq `q Oq Oq Oq Oq  r .r _l _l _l +r @r #r $r zo |p %r 1q |p sp |p tp 2q bj gk gk #k _n 1q &r *r _l _l _l _l =r -r [q 8/ 8b ;k 5p s[ ;r >r na na ,r 'r )r zq !r Lo .o Hq ~r Bq {r 5l 6l Gq ]r j( ^) gm 6' /) ^) 06 ^) L~ -_ R' /8 ^r na /r /r o} >r (r 65 _r :r <r *l [r }r :% ^. >% Z* r~ g% ;; -; D# g% g% ;; ;; !.    d' >d pc .  .  .  .  .  .  .  .  .  .  .  .  .  .  .  .  .  .  .  .  .  .  .  .  .  .  .  .  .  .  .  .  .  .  .  .  .  .  .  .  .  .  .  .  .  .  .  .  .  .  .  .  .  .  .  .  .  .  .  .  .  .  .  .  .  .  .  .  .  .  .  .  .  .  .  .  .  .  .  .  .  .  .  .  .  .  .  .  .  .  .  .  .  .  .  .  .  .  .  .  .  .  .  .  .  .  .  .  .  .  .  .  .  .  .  .  .  .  .  .  .  .  .  .  .  .  .  .  .  .  ",
".  .  .  .  .  .  .  .  .  .  .  .  .  .  .  .  .  .  .  .  .  .  .  .  .  .  .  .  .  .  .  .  .  .  .  .  .  .  .  .  .  .  .  .  .  .  .  .  .  .  .  .  .  .  .  .  .  .  .  .  .  .  .  .  .  .  .  .  .  .  .  .  .  .  lq |r 1r 2r )> :k +f 3r 'm U=    !. !. !.    ^. >@ -; 8@ -; .- t( @; ;; `' 2< de 4r '! G6  ^ G6 G6 G6 G6 G6 T} #( )! 07 wm j< 5r i< +^ Pa &h gm ma 6r 7r 8r [p 5q 9r 0r ar br 9r 9r cr cr dr er Pm #k 0j Fj /p fr gr hr ir jr xo }q kr 9r kr lr mr }q nr [p dr or Fj Fj 9r 9r $r pr hp :n qr 1q tp %r %r tp sp |p tp tp 0j Fj gk hk yo #k 4q rr sr tr hp ur vr <p 8m wr xr ]) l< yr zr Ar pf `- `- H> Eo h[ Br Cr Dr R' 5r pp [n lh G6 Gg <~ R' :] T} :{ Er /) /) /) /) Fg R' X9 db Fr 6f ~] 6f Gr 55 W< =h '5 >[ `$  * Hr 5/ @- 4/ P+ ^. ;@ ;@ H' 5% H' W> ;@ ;; ;; !. 0@ 1. Ir pc .  .  .  .  .  .  .  .  .  .  .  .  .  .  .  .  .  .  .  .  .  .  .  .  .  .  .  .  .  .  .  .  .  .  .  .  .  .  .  .  .  .  .  .  .  .  .  .  .  .  .  .  .  .  .  .  .  .  .  .  .  .  .  .  .  .  .  .  .  .  .  .  .  .  .  .  .  .  .  .  .  .  .  .  .  .  .  .  .  .  .  .  .  .  .  .  .  .  .  .  .  .  .  .  .  .  .  .  .  .  .  .  .  .  .  .  .  .  .  .  .  .  .  .  .  .  .  .  .  .  ",
".  .  .  .  .  .  .  .  .  .  .  .  .  .  .  .  .  .  .  .  .  .  .  .  .  .  .  .  .  .  .  .  .  .  .  .  .  .  .  .  .  .  .  .  .  .  .  .  .  .  .  .  .  .  .  .  .  .  .  .  .  .  .  .  .  .  .  .  .  .  .  .  .  .  _  Jr u  >- ;@ ;@ #_ Kr )1 ]< !@ da q& q&    !@ !@ g. -) c# P# 8@ A' 5% Kr 0/ Lr K~ y{ !d !d 4( U8 ;_ Vm 9b Mr .( Nr @d fa Or a7 a7 ^8 jp i< Er 6' Pr Qr ro cr aj $r ip Rr 9r aj @k #k #k #k qr Pm Pm Fj aj aj 9r 1q 0j aj Fj Sr Fj aj Fj Fj #k 0j Fj #k Fj Vn Vn Fj aj Tr bj Ur Pm hk hk hk |p sp Pm Pm Pm Pm Pm Pm Pm %r aj tp hk hk qr sp aj #k #k _p aj @k :p qo wr Vr j( /) Wr 75 )6 D= #$ Xr y' Yr Zr  ( p( `r :] [{ am am <{ K~ `5  ^ r/ ^) T^ Er I~ T} T} ^) ^) {6 Q^ !! cb wk ^. W$ ^. ^.    ,@ t{ M& g% i  r& {| >( A# V' w) Z* 5% ;@ U) !. (@ c@ `- r~ M- 5/ :f =p  s .s .  .  .  .  .  .  .  .  .  .  .  .  .  .  .  .  .  .  .  .  .  .  .  .  .  .  .  .  .  .  .  .  .  .  .  .  .  .  .  .  .  .  .  .  .  .  .  .  .  .  .  .  .  .  .  .  .  .  .  .  .  .  .  .  .  .  .  .  .  .  .  .  .  .  .  .  .  .  .  .  .  .  .  .  .  .  .  .  .  .  .  .  .  .  .  .  .  .  .  .  .  .  .  .  .  .  .  .  .  .  .  .  .  .  .  .  .  .  .  .  .  .  .  .  .  .  .  .  .  .  ",
".  .  .  .  .  .  .  .  .  .  .  .  .  .  .  .  .  .  .  .  .  .  .  .  .  .  .  .  .  .  .  .  .  .  .  .  .  .  .  .  .  .  .  .  .  .  .  .  .  .  .  .  .  .  .  .  .  .  .  .  .  .  .  .  .  .  .  .  .  .  .  .  .  .  +s R- `0 A# !. !. ^. ,. }. i  g. f. r~ r~ W( W( +- +- +- r~ e< F> T~ A'  * @s xq #s dd N: $s M/ l< T} 06 .( .( %s +( +( +( +( +( +( %s Vm :] 4( =_ Gd &s ro 6m aj Fj 0j br br br #k #k #k sr gk hk hk #k *s aj bj 2q hk qr hk hk hk hk hk hk hk hk qr hk hk hk hk hk hk |p |p |p |p |p |p |p |p |p |p |p |p |p |p |p |p |p =s zo -s hk hk |p ;s 0j _p 0j aj aj >s qo wr ,s }{ <{ -_ 3[ 's =% P= 4) u( )s !s 5< bf <{ `5 }{ Z< 1n ^) ~[ n( %( Jj Vm n) ^f ~s r[ +^ Z< )! k< Rp {s ]s ^s 0@ 0@ 0@ ;; .; P} ;; ;; ;; ;; ;; ;; ;; ;; ;; ;; -; -; D# W> 8  n{ *) T= S= /s )& p% (s _s :s .  .  .  .  .  .  .  .  .  .  .  .  .  .  .  .  .  .  .  .  .  .  .  .  .  .  .  .  .  .  .  .  .  .  .  .  .  .  .  .  .  .  .  .  .  .  .  .  .  .  .  .  .  .  .  .  .  .  .  .  .  .  .  .  .  .  .  .  .  .  .  .  .  .  .  .  .  .  .  .  .  .  .  .  .  .  .  .  .  .  .  .  .  .  .  .  .  .  .  .  .  .  .  .  .  .  .  .  .  .  .  .  .  .  .  .  .  .  .  .  .  .  .  .  .  .  .  .  .  .  ",
".  .  .  .  .  .  .  .  .  .  .  .  .  .  .  .  .  .  .  .  .  .  .  .  .  .  .  .  .  .  .  .  .  .  .  .  .  .  .  .  .  .  .  .  .  .  .  .  .  .  .  .  .  .  .  .  .  .  .  .  .  .  .  <s .  .  .  .  .  .  .  .  d8 .  [s R- }s 8@ g% H' ^.    |s ~{ K6 -) ;; 8@ 8@ W( b@ b@ b@ ;; ;; C# Q= Q= @- 1s E{ /8 Mm Mm }{ %( ~8 ij m< %( Z< Mm gm gm 2s lh lh {s Z5 2[ ^) T} [] 3s 4s ro #k aj Qm 6m 6m 5s 5s 5s 5s 5s _n 6s 7s 8s fk }q ip @k 0j yo hk hk hk hk hk hk hk hk hk hk hk hk hk hk hk hk |p |p |p |p |p |p |p |p |p |p |p |p |p |p |p |p gk =s zo |p hk yo tp |p ip 9s aj aj aj xo qo wr .^ 3( ~[ B{ a5 f< 7~ 90 g@ ]. 2< 7n 0s l< l< <{ Y< ^) <~ n( n( n( m< 1[ as 07 ]a bs K~ m< m< m< ^) l< L~ Ae ]] 0@ 0@ 0@ ;; .; P} ;; ;; ;; ;; ;; ;; ;; ;; ;; ;; g% ,% ,% ;; K# V' i{ x~ /6 N1 U' %[ /> cs ds .  .  .  .  .  .  .  .  .  .  .  .  .  .  .  .  .  .  .  .  .  .  .  .  .  .  .  .  .  .  .  .  .  .  .  .  .  .  .  .  .  .  .  .  .  .  .  .  .  .  .  .  .  .  .  .  .  .  .  .  .  .  .  .  .  .  .  .  .  .  .  .  .  .  .  .  .  .  .  .  .  .  .  .  .  .  .  .  .  .  .  .  .  .  .  .  .  .  .  .  .  .  .  .  .  .  .  .  .  .  .  .  .  .  .  .  .  .  .  .  .  .  .  .  .  .  .  .  .  .  ",
".  .  .  .  .  .  .  .  .  .  .  .  .  .  .  .  .  .  .  .  .  .  .  .  .  .  .  .  .  .  .  .  .  .  .  .  .  .  .  .  .  .  .  .  .  .  .  .  .  .  .  .  .  .  .  .  .  .  .  .  .  .  es th fs fs gs gs hs hs C+ is js ks ls ms X& 8@ Q- ;; V+ ns os &q H[ 'k 'k 'k ps ps qs Km Km Ve Ve Ve Pl Pl G! pb I, N< ;_ ;_ U8 K~ rs ss ts ts ts ts ts ts ts ts ts ts us us ts ts vs ws xs ys zs zs As Bs Cs Ds Es Fs Gs Hs Es Bs Es Es Es Es Hs Is Js sp hk hk hk hk hk hk hk hk hk hk hk hk hk hk hk hk |p |p |p |p |p |p |p |p |p |p |p |p |p |p |p |p gk Fj br |p hk #k hk tp Ks Ls *j &j Ms Ns Os Ps ~s <~ }{ 6' #m Qs $q 4~ r( Fo Rs Ss N/ Ts Us Vs Vs .^ Ro n( n( n( L~ Z5 Ws Xs '! Ys Zs [~ [~ [~ )a /8 5' I: ]] 0@ 0@ 0@ ;; .; P} ;; ;; ;; ;; ;; ;; ;; ;; ;; ;; g% !. ^. -% #$ '. R= `s  t .t +t .t +t ya @t .  .  .  .  .  .  .  .  .  .  .  .  .  .  .  .  .  .  .  .  .  .  .  .  .  .  .  .  .  .  .  .  .  .  .  .  .  .  .  .  .  .  .  .  .  .  .  .  .  .  .  .  .  .  .  .  .  .  .  .  .  .  .  .  .  .  .  .  .  .  .  .  .  .  .  .  .  .  .  .  .  .  .  .  .  .  .  .  .  .  .  .  .  .  .  .  .  .  .  .  .  .  .  .  .  .  .  .  .  .  .  .  .  .  .  .  .  .  .  .  .  .  .  .  .  .  .  .  .  .  ",
".  .  .  .  .  .  .  .  .  .  .  .  .  .  .  .  .  .  .  .  .  .  .  .  .  .  .  .  .  .  .  .  .  .  .  .  .  .  .  .  .  .  .  .  .  .  .  .  .  .  .  .  .  .  .  .  .  .  .  .  .  @a #t $t %t &t *t =t =t =t -t ;t *t >t ,t 't 43 ;; @; A# *) r] )t !t ~t {t {t B! {t ]t {t ^t {t {t /t {t {t /t 7( (t 6c ~s K~ K~ K~ _t :t <t [t [t [t [t [t [t [t [t [t [t }t }t [t [t [t |t 1t 2t 2t 2t 2t 2t 2t 2t 2t 2t 3t 2t 2t 4t 2t 2t 2t 2t 5t 6t 7t yo hk hk hk hk hk hk hk hk hk hk hk hk hk hk hk hk |p |p |p |p |p |p |p |p |p |p |p |p |p |p |p |p br Fj br hk -s hk |p 8t 9t fi fi /l /l 0t at 8/ Te bt 97 Y< j( ct dt et /t /t ft gt ht it it it jt kt O~ fa n( 96 q/ lt mt nt ot pt y! nt nt nt qt ni rt st S& 0@ 0@ 0@ ;; .; P} ;; ;; ;; ;; ;; ;; ;; ;; ;; ;; g% !. `- ;; 5% w) tt ut vt wt xt yt zt N] At .  .  .  .  .  .  .  .  .  .  .  .  .  .  .  .  .  .  .  .  .  .  .  .  .  .  .  .  .  .  .  .  .  .  .  .  .  .  .  .  .  .  .  .  .  .  .  .  .  .  .  .  .  .  .  .  .  .  .  .  .  .  .  .  .  .  .  .  .  .  .  .  .  .  .  .  .  .  .  .  .  .  .  .  .  .  .  .  .  .  .  .  .  .  .  .  .  .  .  .  .  .  .  .  .  .  .  .  .  .  .  .  .  .  .  .  .  .  .  .  .  .  .  .  .  .  .  .  .  .  ",
".  .  .  .  .  .  .  .  .  .  .  .  .  .  .  .  .  .  .  .  .  .  .  .  .  .  .  .  .  .  .  .  .  .  .  .  .  .  .  .  .  .  .  .  .  .  .  .  .  .  .  .  .  .  .  .  .  .  .  .  .  .  Bt Ct kn Dt Et Dt Ft Gt I5 ^h Dt +f Ht It N1 g% @; C# Jt Kt Z[ .i 1~ D{ ;_ {8 ~p {8 Lt H6 y{ {8 0b h< h< 3( cq cq K~ 8/ N/ %( ;k Mt Nt Ot Pt Qt Rt St Tt Tt Ut Vt Wt Wt Wt Pt Xt Xt Yt Wt Xt Zt Zt Zt Zt `t  u  u  u  u  u  u .u +u @u @u @u #u $u %u &u 7s hk hk hk hk hk hk hk hk hk hk hk hk hk hk hk hk |p |p |p |p |p |p |p |p |p |p |p |p |p |p |p |p tp Fj br hk |p |p |p yo *u Qn 8q =u =u `j -u up 4( dd a7 Ac o( <~ P^ X< '! cq ;u >u ,u ir 'u )u !u sm 8q ~u n( <~ P^ {u ]u ;6 @i ^u 4~ 4~ D= L& W< 4[ P! =% Z* 0@ 0@ 0@ ;; .; P} ;; ;; ;; ;; ;; ;; ;; ;; ;; ;; ,% !. !. T~ t{ ]. /u (u _u 1d :u <u [u }u q| .  .  .  .  .  .  .  .  .  .  .  .  .  .  .  .  .  .  .  .  .  .  .  .  .  .  .  .  .  .  .  .  .  .  .  .  .  .  .  .  .  .  .  .  .  .  .  .  .  .  .  .  .  .  .  .  .  .  .  .  .  .  .  .  .  .  .  .  .  .  .  .  .  .  .  .  .  .  .  .  .  .  .  .  .  .  .  .  .  .  .  .  .  .  .  .  .  .  .  .  .  .  .  .  .  .  .  .  .  .  .  .  .  .  .  .  .  .  .  .  .  .  .  .  .  .  .  .  .  .  ",
".  .  .  .  .  .  .  .  .  .  .  .  .  .  .  .  .  .  .  .  .  .  .  .  .  .  .  .  .  .  .  .  .  .  .  .  .  .  .  .  .  .  .  .  .  .  .  .  .  .  .  .  .  .  .  .  .  .  .  .  .  .  |u 1u 2u ~] 3u s% U' U' I( 4[ V+ F# ~] 4u O= ;; @; ;{ Jt 5u {) I~ 7' K~ K~ K~ K~ K~ K~ K~ K~ K~ o( 6u %( Q' :] K~ K~ 8/ n< L~ Z< 7u 8u 9u 0u au bu cu bu du eu 0u fu gu gu hu iu iu ju ku lu 0u ju mu ku nu ku ku ku ou ou ou pu ku qu ru su tu uu vu wu xu hk hk hk hk hk hk hk hk hk hk hk hk hk hk hk hk |p |p |p |p |p |p |p |p |p |p |p |p |p |p |p |p 1q Fj br hk |p Ur |p hk yu 9m @h Z< ^) o< x{ zu K~ m< 5( >k %( L~ 3( T} Au Bu Cu Du 0j aj aj gk }p (n 8q .^ n( <~ L( Eu Fu )1 ;- ~@ ') !& ^. x. c# i) r& `- 0@ 0@ 0@ 0@ ;; .; P} ;; ;; ;; ;; ;; ;; ;; ;; ;; ;; -% V+ u( 8@ Z* ]@ Gu Hu Iu .  .  .  .  .  .  .  .  .  .  .  .  .  .  .  .  .  .  .  .  .  .  .  .  .  .  .  .  .  .  .  .  .  .  .  .  .  .  .  .  .  .  .  .  .  .  .  .  .  .  .  .  .  .  .  .  .  .  .  .  .  .  .  .  .  .  .  .  .  .  .  .  .  .  .  .  .  .  .  .  .  .  .  .  .  .  .  .  .  .  .  .  .  .  .  .  .  .  .  .  .  .  .  .  .  .  .  .  .  .  .  .  .  .  .  .  .  .  .  .  .  .  .  .  .  .  .  .  .  .  .  .  .  .  .  .  ",
".  .  .  .  .  .  .  .  .  .  .  .  .  .  .  .  .  .  .  .  .  .  .  .  .  .  .  .  .  .  .  .  .  .  .  .  .  .  .  .  .  .  .  .  .  .  .  .  .  .  .  .  .  .  .  .  .  .  .  .  .  .  Ju Ku Lu Y& }. e/ ^| -% :% 8# ;3 T~ +- z. Mu M& 5/ ;{ Nu 5u Ou Z< 6( L~ L~ L~ L~ L~ L~ O' O' S^ S^ L~ m< ^8 :] D{ L~ O' +^ Q^ >| Pu 8u Qu Ru Su Tu Uu Vu Wu Wu Uu Uu Uu Uu Xu Yu Yu Tu Uu Uu Tu Wu Zu Tu `u  v .v `u `u `u `u Vu +v @v #v $v %v &v *v ek yo hk hk hk hk hk hk hk hk hk hk hk hk hk hk hk hk |p |p |p |p |p |p |p |p |p |p |p |p |p |p |p |p 1q Fj br hk |p |p 2q hk =v 9m Gd >| ma ;_ #h x{ K~ %( %( &( m< L~ 5< ^) ;k n< -v Du 0j aj aj &r tm (n Cu 8/ ;v !8 `[ Eu pa x. x> q& ]. ^. ^. 0@ 5. ;; `- H' ,@ 0@ 0@ 0@ ;; .; P} ;; ;; ;; ;; ;; ;; ;; ;; ;; ;; a~ ') F= 0@ Z8 1@ >v ,v F1 .  .  .  .  .  .  .  .  .  .  .  .  .  .  .  .  .  .  .  .  .  .  .  .  .  .  .  .  .  .  .  .  .  .  .  .  .  .  .  .  .  .  .  .  .  .  .  .  .  .  .  .  .  .  .  .  .  .  .  .  .  .  .  .  .  .  .  .  .  .  .  .  .  .  .  .  .  .  .  .  .  .  .  .  .  .  .  .  .  .  .  .  .  .  .  .  .  .  .  .  .  .  .  .  .  .  .  .  .  .  .  .  .  .  .  .  .  .  .  .  .  .  .  .  .  .  .  .  .  .  .  .  .  .  .  .  ",
".  .  .  .  .  .  .  .  .  .  .  .  .  .  .  .  .  .  .  .  .  .  .  .  .  .  .  .  .  .  .  .  .  .  .  .  .  .  .  .  .  .  .  .  .  .  .  .  .  .  .  .  .  .  .  .  .  .  .  .  .  .  Q) 'v `a V8 )v w> 5%    w> H! u~ Bj Bj 6| @; Z* ;{ ., Q# !v <~ )! m( O' '_ '_ '_ '_ '_ '_ '_ D{ Ro Mm %s ^8 :] R' s/ Mm k( :h ~v {v 8u ]v mu ^v /v Vu (v (v _v Vu Vu :v :v lu <v Ru [v }v |v Ru }v }v 1v 2v 2v 3v 4v 4v 3v 3v 5v 6v Wu 7v iu 0u 8v *v 9v Pm qr qr qr qr qr qr qr qr fk yo gk sp hk hk hk hk tp |p |p |p |p |p gk sp gk |p |p |p |p |p |p |p 0v #k %r sp |p zo |p hk av 9m n< M/ dd !d '_ 5d |{ %( o< .^ K~ D{ 5< <{ Z< <{ bv cv dv aj aj $r ev fv 0q ck bq ]n D{ 7( gv c@ x> F=  ; ^. ,@ 0@ 0@ 0@       -% 0@ 0@ 0@ 9@ .; P} ;; ;; ;; ;; ;; ;; 8@ -; ;; D# +* -@ Em C# Z8 oa ]~ hv J0 .  .  .  .  .  .  .  .  .  .  .  j+ .  .  .  .  .  .  .  .  .  .  .  .  .  .  .  .  .  .  .  .  .  .  .  .  .  .  .  .  .  .  .  .  .  .  .  .  .  .  .  .  .  .  .  .  .  .  .  .  .  .  .  .  .  .  .  .  .  .  .  .  .  .  .  .  .  .  .  .  .  .  .  .  .  .  .  .  .  .  .  .  .  .  .  .  .  .  .  .  .  .  .  .  .  .  .  .  .  .  .  .  .  .  .  .  .  .  .  .  .  .  .  .  .  .  .  .  .  .  .  .  .  .  .  .  ",
".  .  .  .  .  .  .  .  .  .  .  .  .  .  .  .  .  .  .  .  .  .  .  .  .  .  .  .  .  .  .  .  .  .  .  .  .  .  .  .  .  .  .  .  .  .  .  .  .  .  .  .  .  .  .  .  iv rg jv kv lv mv nv ov pv ^@ 1h P% J'    kp qv '] qm #o B| '@ ;^ rv S~ sv tv uv vv wv xv yv zv Av zv Bv zv Cv zv zv Dv Ev Ev Fv Av zv Ev Gv zv zv Hv Iv Jv Kv Lv Mv Nv Nv au Ov Nv Nv Pv Qv Rv Nv Nv Pv Pv Sv au au Nv Rv Tv %v Uv Sv au Vv Vv Wv Tu Uu .v Xv 7v Yv %u Zv `v  w  w  w  w  w  w  w .w +w @w #w bj 9s $w |p hk hk hk hk |p |p br #k #k qr |p |p |p |p |p |p |p sp hk sp |p |p |p |p ur %w .m &w *w O~ =w &w Xh -w *w bq O~ _] n< ;w Xh ~u O~ >w :l ,w 'w )w !w ~w {w bv S^ S^ Ul Qa p^ ^( ## /% D# ;@ ;@ 0@ 0@ 5. ;; -% x) -; A' A' A' A' {| J- @- T~ @; t( 0@ 0@ 5. ({ M& +; h% ]w 63 g& ^w /w (w _w F; .  .  .  .  .  .  .  .  .  z6 :w <w [w }w |w |w 1w 2w t1 .  .  .  .  .  .  .  .  .  .  .  .  .  .  .  .  .  .  .  .  .  .  .  .  .  .  .  .  .  .  .  .  .  .  .  .  .  .  .  .  .  .  .  .  .  .  .  .  .  .  .  .  .  .  .  .  .  .  .  .  .  .  .  .  .  .  .  .  .  .  .  .  .  .  .  .  .  .  .  .  .  .  .  .  .  .  .  .  .  .  .  .  .  .  .  .  .  .  .  .  .  .  .  .  .  .  .  .  .  .  .  .  .  .  .  .  .  ",
".  .  .  .  .  .  .  .  .  .  .  .  .  .  .  .  .  .  .  .  .  .  .  .  .  .  .  .  .  .  .  .  .  .  .  .  .  .  .  .  .  .  .  .  .  .  .  .  .  .  .  .  .  .  .  .  :2 3w 4w 5w 6w 7w 8w 9w zg ^@ O+ ^@ L& 0w dg aw aw aw bg bg dg bw cw dw ew fw gw hw iw jw jw jw jw jw kw lw mw mw nw mw ow jw jw jw jw nw pw mw qw rw sw tw uw uw vw ww xw yw zw vw vw Aw Bw vw vw vw vw vw vw vw vw vw vw vw Cw zw xw ww vw vw tw Dw Ew ku ku Fw Gw Hw Iw Jw Kw Kw Kw Kw Kw Kw Kw Kw Lw Mw Nw Ow 5m Pw |p |p |p Pm _n 2q |p |p |p |p |p |p |p |p |p |p |p |p sp hk sp |p |p sp Pm Qw Rw Sw Tw Uw jt Uw Vw Vw Ww Xw Tw Yw jt jt Zw Ww Ww `w  x .x +x @x @x #x $x %x &x *x J, =x -x eb a/ H' /@ r~ g% D# 0@ 0@ 5. ;; 8@ 9@ u( ^. u( u(       u( ^. ^.    ^. !. !. S+ ^. O+ ]{ Dk ;x >x E, ,x =8 'x )x !x .  .  .  .  .  .  .  .  .  p$ ~x ~5 {x ]x ^x 8! /x  l yf .  .  .  .  .  .  .  .  .  .  .  .  .  .  .  .  .  .  .  .  .  .  .  .  .  .  .  .  .  .  .  .  .  .  .  .  .  .  .  .  .  .  .  .  .  .  .  .  .  .  .  .  .  .  .  .  .  .  .  .  .  .  .  .  .  .  .  .  .  .  .  .  .  .  .  .  .  .  .  .  .  .  .  .  .  .  .  .  .  .  .  .  .  .  .  .  .  .  .  .  .  .  .  .  .  .  .  .  .  .  .  .  .  .  .  .  .  ",
".  .  .  .  .  .  .  .  .  .  .  .  .  .  .  .  .  .  .  .  .  .  .  .  .  .  .  .  .  .  .  .  .  .  .  .  .  .  .  .  .  .  .  .  .  .  .  .  .  .  .  .  .  .  .  .  (x _x :x '~ <x (| [x }x W> O+ O+ +, &q |x M^ 1x 6p Z5 q/ q/ 2x z{ ;_ 2{ 3x 4x 5x 6x 7x 8x 8x 8x 8x 8x 8x 8x 9x 7x 0x 0x ax bx 8x 8x 8x 8x 8x cx dx dx ex fx gx hx ix ix ix ix ix jx kx ix ix ix jx ix kx kx lx jx jx lx ix mx mx jx nx ox px qx rx sx tx ku ux ku }v vx dx wx xx yx zx Ax Bx Cx Ax Dx Ex Fx Gx Hx tm 0j aj |q |p gk |p hk hk hk hk hk hk |p |p |p |p |p |p |p sp hk sp |p |p Pm #k qr <p Ix 5m 5m hr 6m #k #k Jx Pm Kx yo Lx &j hr Mx Nx Ox Px Qx Rx &q Sx Tx Ux Vx Wx `^ Nf Nf Nf    =% ,% b@ r~ D# 8@ 0@ 0@ _; 0@ ;; .; D# g% g% g% .; .; e< M& 8@ h. :; 0@ 0@ e/ '@ !& i  W! Xx /4 Yx Zx `x  y C$ X6 .  .  .  .  .  .  .  .  .  p$ .y +y @y `2 #y $y %y N] yf .  .  .  .  .  .  .  .  .  .  .  .  .  .  .  .  .  .  .  .  .  .  .  .  .  .  .  .  .  .  .  .  .  .  .  .  .  .  .  .  .  .  .  .  .  .  .  .  .  .  .  .  .  .  .  .  .  .  .  .  .  .  .  .  .  .  .  .  .  .  .  .  .  .  .  .  .  .  .  .  .  .  .  .  .  .  .  .  .  .  .  .  .  .  .  .  .  .  .  .  .  .  .  .  .  .  .  .  .  .  .  .  .  .  .  .  .  ",
".  .  .  .  .  .  .  .  .  .  .  .  .  .  .  .  .  .  .  .  .  .  .  .  .  .  .  .  .  .  .  .  .  .  .  .  .  .  .  .  .  .  .  .  .  .  .  .  .  .  .  .  .  .  .  &y c; *y )8 (@ qb tj 5, 6g ]@ O+ #= P+ X^ dt Sl +( .( ^8 n( %( %( ^) ^) 06 =y -y ;y <v Ru 4v >y ,y ,y ,y ,y ,y ,y ,y :v >y ,y 'y ,y ,y ,y >y iu _v Tu )y !y ~y {y ]y ix ^y ^y ^y ^y /y /y /y ^y ^y ^y (y _y _y _y ^y ^y ^y /y /y /y :y <y <y <y [y }y |y au :v ku 0u lu 1y ,y 2y >y >y >y 3y :v :v :v 4y `u 5y 6y Vn tp 1q aj bj |p aj |p |p |p hk hk hk gk |p |p |p |p |p |p |p sp hk hk |p |p |p tp hk hk hp Ix Rr kr tp 7y 8y #w hk 0j #k #k Fj :p Fj :p Sr Px 9y Tm !. ^| :; ;% 0y j! 7- O+ g@ ^. =% =% }d c@ b@ D# 0@ 0@ 0@ _; 0@ D# .; !. !. !. !. H^ .; s( !. H' ;; 0@ 0@ ^. ^. ^. U+ ay by cy dy .  .  .  .  .  .  .  .  .  .  .  .  .  .  .  p$ .y ey *p f[ P% Vi fy xf yf .  .  .  .  .  .  .  .  .  .  .  .  .  .  .  .  .  .  .  .  .  .  .  .  .  .  .  .  .  .  .  .  .  .  .  .  .  .  .  .  .  .  .  .  .  .  .  .  .  .  .  .  .  .  .  .  .  .  .  .  .  .  .  .  .  .  .  .  .  .  .  .  .  .  .  .  .  .  .  .  .  .  .  .  .  .  .  .  .  .  .  .  .  .  .  .  .  .  .  .  .  .  .  .  .  .  .  .  .  .  .  .  .  .  .  .  .  ",
".  .  .  .  .  .  .  .  .  .  .  .  .  .  .  .  .  .  .  .  .  .  .  .  .  .  .  .  .  .  .  .  .  .  .  .  .  .  .  .  .  .  .  .  .  .  .  .  .  .  .  .  .  .  .  pj +5 *y Ie gy hy a[ iy P} `& O+ O+ Q# %m jy ky $( .( ~[ n( #( k< <~ 2[ $( fa ly my ny oy #v $v py py Su qy Ru $v 3v oy Ru ry Su Ru 3v Ru sy @v .v `u Yu ty uy ~y ix vy (y wy wy wy xy yy zy vy vy Ay vy vy uy uy By By zy _y ^y ^y Cy Dy Ey Cy Cy Fy Gy Hy Iy Jy Wu nu Ky Ly My Vu 4v 4v :v >y >y 4v Ny Oy 5y 6y tp hk 0j aj #k Qm Vn aj 1q bj bj 0j bj Pm |p |p |p |p |p |p |p sp hk hk |p |p |p |p |p yo hk |q aj |p |p Pm #k #k #k 0j aj aj ip @k aj aj aj Py Qy /] Ry @; M- M- Sy #$ 2@ W> g% r& J& ^. 8( G>    D# 0@ 0@ 0@ _; e/ s( &k q% .@ !. !. !. !. !. !. i{ +* q% q% .@ u( .@ g  -{ Ty Uy Vy .  .  .  .  .  .  .  .  .  .  .  .  .  .  .  Wy Xy Yy Y{ #$ n7 Zy ;h 2h yf .  .  .  .  .  .  .  .  .  .  .  .  .  .  .  .  .  .  .  .  .  .  .  .  .  .  .  .  .  .  .  .  .  .  .  .  .  .  .  .  .  .  .  .  .  .  .  .  .  .  .  .  .  .  .  .  .  .  .  .  .  .  .  .  .  .  .  .  .  .  .  .  .  .  .  .  .  .  .  .  .  .  .  .  .  .  .  .  .  .  .  .  .  .  .  .  .  .  .  .  .  .  .  .  .  .  .  .  .  .  .  .  .  .  .  .  .  ",
".  .  .  .  .  .  .  .  .  .  .  .  .  .  .  .  .  .  .  .  .  .  .  .  .  .  .  .  .  .  .  .  .  .  .  .  .  .  .  .  .  .  .  .  .  .  .  .  .  .  .  .  .  .  .  .  `y  z bh ih O= P% K/ x> M& S= gd @# .z |x Ws 1{ fa ~c (h 2n 3( rm ky dd +z ly @z #z Rv $z %z %z %z &z Vu Vu Vu Vu Vu Vu Vu Vu >y :v *z >y Vu .v =z Tu ty -z ^y ix ;z (y (y wy (y >z >z wy zy _y xy ,z xy ,z ^y ^y ^y _y 'z )z !z ~z (y (y {z Cy ]z ^z /z (z _z :z 3y Xv (v >y My My Vu _v _v _v >y hu <z [z 6y 7y cr aj aj }z Qm #k aj aj @k Rr aj @k rr |p |p |p |p |p |p |p |p hk hk |p gk gk sp |p |p |p |p aj aj bj Fj Fj Fj 8y Fj 0j 0j 0j 0j 0j 0j aj |z 1z 2z 5| 7# M- H3 y> *{ 3& 3& 7- r& g. -% r# e/ 8@ g% D# 0@ 0@ g. ;; W( g. H^ H^ ,% r& @| H^ H^ 3z    x>    ,% x1 P}    -@ &{ 4z 5z d) .  .  .  .  .  .  .  .  .  .  .  .  .  .  .  .  6z 7z )8 I( op #- 8z 9z ;7 .  .  .  .  .  .  .  .  .  .  .  .  .  .  .  .  .  .  .  .  .  .  .  .  .  .  .  .  .  .  .  .  .  .  .  .  .  .  .  .  .  .  .  .  .  .  .  .  .  .  .  .  .  .  .  .  .  .  .  .  .  .  .  .  .  .  .  .  .  .  .  .  .  .  .  .  .  .  .  .  .  .  .  .  .  .  .  .  .  .  .  .  .  .  .  .  .  .  .  .  .  .  .  .  .  .  .  .  .  .  .  .  .  .  .  .  .  ",
".  .  .  .  .  .  .  .  .  .  .  .  .  .  .  .  .  .  .  .  .  .  .  .  .  .  .  .  .  .  .  .  .  .  .  .  .  .  .  .  .  .  .  .  .  .  .  .  .  .  .  .  .  .  .  .  0z az ~{ x. V$ ]@ 4/ E# bz w) /% Z0 cz }g dz ez fz Q' M( gz hz iz jz jz kz lz mz Vu Wu My 2y 2y Vu nz Fw Fw Fw Fw Fw Fw Fw oz pz qz *z Vu rz Sv Tv sz tz uz ^y ix ix (y (y (y (y vz wz (y xz mx yz zz yz mx mx mx mx Az wy Bz Cz Dz vy (y /y Ez Fz Gz Hz Iz sz Jz Kz >y 2y Wu Vu Vu My :v 3y 3y My (v #v 5y Lz Mz Mz Nz Oz [p Pz Pz 0r Qz Rz Rz Qm aj bj |p |p |p |p |p |p |p |p hk hk sp gk sp |p |p |p hk hk sp aj aj nr nr mr pr xo Sz Tz Tz Uz Uz Uz Uz Py Vz Wz v] Xz y. Bj w)  d 7~ 7~ s< |o    ,@ _; ({ W( g% g% M& 0@ Q1 K# c# Yz V6 .] -d -d -' .] .] .] Zz .] y( `z `z jg }>  A .A +A @A ,) .  .  .  .  .  #A .  .  .  =. $A .  .  .  %A &A *A =A -A ;A >A ,A 'A )A !A .  .  .  .  .  .  .  .  .  .  .  .  .  .  .  .  .  .  .  .  .  .  .  .  .  .  .  .  .  .  .  .  .  .  .  .  .  .  .  .  .  .  .  .  .  .  .  .  .  .  .  .  .  .  .  .  .  .  .  .  .  .  .  .  .  .  .  .  .  .  .  .  .  .  .  .  .  .  .  .  .  .  .  .  .  .  .  .  .  .  .  .  .  .  .  .  .  .  .  .  .  .  .  .  .  .  .  .  .  .  .  .  .  .  .  .  .  ",
".  .  .  .  .  .  .  .  .  .  .  .  .  .  .  .  .  .  .  .  .  .  .  .  .  .  .  .  .  .  .  .  .  .  .  .  .  .  .  .  .  .  .  .  .  .  .  .  .  .  .  .  .  .  .  j+ ~A {A ]A r3 {| !. b' ^A /A (A _A :A <A xq {) #h [A }A |A 1A 2A 3A 3A 4A 5A 6A 7A 8A 9A 0A 0A aA bA 0A 0A 0A 0A 0A 0A 0A 0A 0A 0A cA aA 0A dA eA fA gA hA Ez Cy iA jA <y /y /y kA mx kA vz lA mA hA hA nA oA nA oA nA nA pA qA rA sA tA ;z <y <y uA vA wA xA yA dA zA AA pz Xu Wu Wu Wu :v Vu Wu Wu BA pz CA DA EA FA FA GA HA IA JA KA LA LA MA NA OA Ur |p |p |p |p |p |p |p |p hk hk hk sp |p |p |p |p -s hk hk ;s 0r PA QA RA SA SA SA TA UA VA WA XA YA ZA 1| (8 x~ L{ pf v{ `A Y9 /A /A /A st 6d  B  { J' i  /{ +; g% 0@ a{ 2@ g. .B +B @B K; K; K; #B  9  9 $B %B &B &B &B &B *B &B =B -B ;B >B .  .  .  .  ,B 'B )B Qd ph !B ~B {B ]B 1> ^B /B `, (B _B :B <B [B n= }B D8 .  .  .  .  .  .  .  .  .  .  .  .  .  .  .  .  .  .  .  .  .  .  .  .  .  .  .  .  .  .  .  .  .  .  .  .  .  .  .  .  .  .  .  .  .  .  .  .  .  .  .  .  .  .  .  .  .  .  .  .  .  .  .  .  .  .  .  .  .  .  .  .  .  .  .  .  .  .  .  .  .  .  .  .  .  .  .  .  .  .  .  .  .  .  .  .  .  .  .  .  .  .  .  .  .  .  .  .  .  .  .  .  .  .  .  .  .  ",
".  .  .  .  .  .  .  .  .  .  .  .  .  .  .  .  .  .  .  .  .  .  .  .  .  .  .  .  .  .  .  .  .  .  .  .  .  .  .  .  .  .  .  .  .  .  .  .  .  .  .  .  .  .  .  .  |B 1B 3. Y% @; !. Z0 jy &f wp cq s/ Mm 2B 3n p( J~ ~v 3B 4B 5B 6B 7B 8B 9B 0B aB bB cB cB dB dB eB fB gB bB eB }y hB iB jB jB iB kB kB bB eB lB hB mB nB {z oB oB (y /y ^y _y oB pB :y ix qB rB sB sB tB tB Tv Tv sz uB vB wB xB yB }y zB mx ix AB BB BB CB DB gB EB !y FB >y >y 2y 2y :v 2y >y GB HB ku IB JB KB LB MB KB NB OB PB PB QB RB SB TB UB 3q |p |p |p |p hk |p |p |p tp hk sp |p |p |p |p 1q |p |p sp br VB WB XB YB #e ZB $e `B `B ZB ZB  C .C +C ;j S+ x$ x$ 4/ Vf @C &f #C dh dh o^ $C @i `' !& I' /{ e_ d> 8@ Em L# b. 7o %C &C *C =C -C ;C ;C ;C ;C >C >C ,C ,C ,C ,C 'C ;C >C 'C k# .  .  .  .  ;+ )C u  !C ~C ~C {C T! ]C ^C /C (C _C :C <C Td Td [C }C |C 1C .  .  .  .  .  .  .  .  .  .  .  .  .  .  .  .  .  .  .  .  .  .  .  .  .  .  .  .  .  .  .  .  .  .  .  .  .  .  .  .  .  .  .  .  .  .  .  .  .  .  .  .  .  .  .  .  .  .  .  .  .  .  .  .  .  .  .  .  .  .  .  .  .  .  .  .  .  .  .  .  .  .  .  .  .  .  .  .  .  .  .  .  .  .  .  .  .  .  .  .  .  .  .  .  .  .  .  .  .  .  .  .  .  .  .  .  .  ",
".  .  .  .  .  .  .  .  .  .  .  .  .  .  .  .  .  .  .  .  .  .  .  .  .  .  .  .  .  .  .  .  .  .  .  .  .  .  .  .  .  .  .  .  .  .  .  .  .  .  .  .  .  .  .  .  2C 3C =h R+ g% !. 2, 4C wm 8/ 8/ .( K~ K~ :] :] n< #( 5C iw dx su Vu >y ku 6C dB 7C {y ^y ^y ^y ^y ^y ^y <y <y <y <y <y <y ^y 8C {z ^y vz ix 9C ix kA ^y 0C oB !z 0C ^y ^y (y Dy Dy :y Az aC bC My Wu My >y >y >y 3y >y Uu 3v cC dC eC Dz mx mx Az Ay wy ^y :y ox fC gC hC >y :v Zu ,y ,y :v 4v Ru 5v 3y >y 2y Vu 4v Uu 3y Vu iC jC kC lC mC nC oC pC hk qr qC 1q %r hk gk |p |p hk %r 1q |p |p |p 3q |p |p gk hk rC sC =j tC 7. Q- c' .@ t% !. O+ }d (@ V+ V+    u( W> q[ H' Jg Lr 5< ^) <~ <~ .j 7( D= '@ >- uC 6. g  -{ 4, 5% g  G' vC wC h> .  .  .  .  .  .  .  .  .  .  .  .  .  .  .  .  .  .  .  .  .  !; a] 45 a) Mu ., M- xC ;{ x) @* O+ t[ yC zC .  .  .  .  .  .  .  .  .  .  .  .  .  .  .  .  .  .  .  .  .  .  .  .  .  .  .  .  .  .  .  .  .  .  .  .  .  .  .  .  .  .  .  .  .  .  .  .  .  .  .  .  .  .  .  .  .  .  .  .  .  .  .  .  .  .  .  .  .  .  .  .  .  .  .  .  .  .  .  .  .  .  .  .  .  .  .  .  .  .  .  .  .  .  .  .  .  .  .  .  .  .  .  .  .  .  .  .  .  .  .  .  .  .  .  .  .  .  .  .  .  .  .  .  ",
".  .  .  .  .  .  .  .  .  .  .  .  .  .  .  .  .  .  .  .  .  .  .  .  .  .  .  .  .  .  .  .  .  .  .  .  .  .  .  .  .  .  .  .  .  .  .  .  .  .  .  .  .  .  .  .  AC BC S~ J& r~ ^. F{ 4C D{ 8/ 8/ 8/ m< l< CC [{ L~ )! vv iw dx su su >y DC 0A jB ~z Cy ^y ^y ^y ^y ^y ^y ^y ^y ^y ^y ^y ^y ^y <y wz ^y ~z ix ix ix <y ^y ^y ^y EC ^y (y Ay >z >z ~y (y }y aC FC 2y Vu GC >y 3y 3y GB >y su Vu cC dC BB ,z ,z ~z ix HC (y (y <y ix IC gC tB qu Ky JC Zu Zu >y 4v Ru 5v 2y 2y >y >y >y >y 3y Vu KC mC LC MC jC nC oC NC Pz [p _n #k _n yo hk |p |p hk hk #k 2q |p hk hk hk |p Fj #k 0j =s =j dj 90 P% ^9 ,@ 0@ H' /% g% A# r& ,@    t{ Q- Q- J' OC PC !! U^ <~ QC '! 7( l| |. -; @; H3 g  !. ;{ 2. RC k5 SC TC .  .  .  .  .  .  .  .  .  .  .  .  .  .  .  .  .  .  .  .  .  .  .  s, Y8 .@ 1@ ;@ A' r~ 4) ') V+ O+ y~ Df  n .  .  .  .  .  .  .  .  .  .  .  .  .  .  .  .  .  .  .  .  .  .  .  .  .  .  .  .  .  .  .  .  .  .  .  .  .  .  .  .  .  .  .  .  .  .  .  .  .  .  .  .  .  .  .  .  .  .  .  .  .  .  .  .  .  .  .  .  .  .  .  .  .  .  .  .  .  .  .  .  .  .  .  .  .  .  .  .  .  .  .  .  .  .  .  .  .  .  .  .  .  .  .  .  .  .  .  .  .  .  .  .  .  .  .  .  .  .  .  .  .  .  .  .  ",
".  .  .  .  .  .  .  .  .  .  .  .  .  .  .  .  .  .  .  .  .  .  .  .  .  .  .  .  .  .  .  .  .  .  .  .  .  .  .  .  .  .  .  .  .  .  .  .  .  .  .  .  .  .  .  .  UC BC I- 7- R= ]. VC 4C }] Gd P' 8/ ^) m< CC z{ [{ +( WC iw dx su 4v >y 0u fA jB ix ix (y /y (y (y (y [y (y (y (y (y [y (y [y yy wz (y kA (y ^y ^y <y ^y ^y ^y oB ^y vy wy XC uy (y (y }y aC YC >y >y >y >y :v >y >y 2y ZC Vu cC dC IC ,z yy Cy ix [y ;z (y _y <y }y !y `C ku ou ou :v JC :v 4v Ru 5v 2y 2y Zu >y GC >y 3y Vu iC mC  D MC lC nC oC .D aj aj aj aj aj 1q |p hk #k hk hk %r aj |p -s tp |p aj Fj #k 0j 6m =j dj 90 O+ ,; h. t( ,% !. g% T~ w] r& V+ Z* r~ Q- ;; L' +D !! ~[ :{ ^) 4( @D 55 ^. !. gd d/ P% .@ h. E~ M1 #D $D %D &D .  .  .  .  .  .  .  .  .  .  .  .  .  .  .  .  .  .  .  .  .  .  N] Y8 (@ J/ ]@ P+ P+ O+ 'm O= q% *D mj =D .  .  .  .  .  .  .  .  .  .  .  .  .  .  .  .  .  .  .  .  .  .  .  .  .  .  .  .  .  .  .  .  .  .  .  .  .  .  .  .  .  .  .  .  .  .  .  .  .  .  .  .  .  .  .  .  .  .  .  .  .  .  .  .  .  .  .  .  .  .  .  .  .  .  .  .  .  .  .  .  .  .  .  .  .  .  .  .  .  .  .  .  .  .  .  .  .  .  .  .  .  .  .  .  .  .  .  .  .  .  .  .  .  .  .  .  .  .  .  .  .  .  .  .  ",
".  .  .  .  .  .  .  .  .  .  .  .  .  .  .  .  .  .  .  .  .  .  .  .  .  .  .  .  .  .  .  .  .  .  .  .  .  .  .  .  .  .  .  .  .  .  .  .  .  .  1# C$ C$ -D vc ;D 0z >D !p 7- W[ U' eq 4C 9' Er 1{ .( Jc x{ x{ ,D D{ `r 'D jw dx oy Ru >y au fA iB mx ix (y (y (y (y (y (y (y (y (y (y (y (y (y ,z 0C (y ,z ^y ^y ^y oB /y uz uz uz ix )D tA Ay Ay !D yy }y ~D {D ]D ^D /D iu +v >y (D (D 4v _D :D <D fC IC ix ix ix 9C [y (y oB ^y }y gC [D ku }D 0u |D nu 3y >y 4v Vu 2y 3y 3y >y >y >y 3y Vu iC mC 1D 2D 3D nC oC .w 4D 5D 6D 5m 7D aj |p qr #k #k hk #k bj |p |p aj aj 5q #k ik 8D 9D 0D dj 90 w> 4. h. g. ^. <6 C( R+ aD k[ U' ]. ^. ^. l{ dq bD cD Er L~ %( K~ dD eD V( B< U$ T( )& {> =~ rc fD gD $4 hD #4 .  .  .  .  .  .  .  .  .  .  .  .  .  .  .  .  .  .  .  .  Ap iD jD kD ;{ 9  O% P+ 3) U$ e/ v> X( lD mD nD .  .  .  .  .  .  .  .  .  .  .  .  .  .  .  .  .  .  .  .  .  .  .  .  .  .  .  .  .  .  .  .  .  .  .  .  .  .  .  .  .  .  .  .  .  .  .  .  .  .  .  .  .  .  .  .  .  .  .  .  .  .  .  .  .  .  .  .  .  .  .  .  .  .  .  .  .  .  .  .  .  .  .  .  .  .  .  .  .  .  .  .  .  .  .  .  .  .  .  .  .  .  .  .  .  .  .  .  .  .  .  .  .  .  .  .  .  .  .  .  .  .  .  .  ",
".  .  .  .  .  .  .  .  .  .  .  .  .  .  .  .  .  .  .  .  .  .  .  .  .  .  .  .  .  .  .  .  .  .  .  .  .  .  .  .  .  .  .  .  .  .  .  .  .  .  x8 oD pD qD rD sD tD uD vD '[ 0c ~n wD xD 9'  ^ k( m< V0 yD zD zD zD AD BD CD DD ED FD FD GD yA HD Dy ID JD JD JD JD JD KD JD LD MD JD ND KD JD JD OD JD MD HD HD PD QD RD SD TD TD TD UD VD WD XD WD YD ZD yB `D  E .E  E  E  E +E @E  E xA @E #E $E %E %E &E ZD *E =E HC wz Cy xz -E ;E >E ,E >E >E >E 'E >y Fw :v 4v 2y :v >y 4v >y >y 3y Vu iC )E !E ~E {E ]E ^E /E (E (E (E _E :E <E _n yo Fj #k sp tp Pm #k [E aj }E |E 1E 2E 3E 4E 5E 6E v. c. 0@ 7.  0 r] I^ 9c I^ ,r 7E bc `: `: `: bc 8E m_ 9E 'c }| Sl 0E aE m- bE cE dE eE fE fE gE gE eE Xb hE iE #4 .  .  .  .  .  .  .  .  .  .  .  .  .  .  .  .  jE kE lE mE nE oE pE Y8 W' @; /{ qE rE BC sE tE uE vE wE xE .  .  .  .  .  .  .  .  .  .  .  .  .  .  .  .  .  .  .  .  .  .  .  .  .  .  .  .  .  .  .  .  .  .  .  .  .  .  .  .  .  .  .  .  .  .  .  .  .  .  .  .  .  .  .  .  .  .  .  .  .  .  .  .  .  .  .  .  .  .  .  .  .  .  .  .  .  .  .  .  .  .  .  .  .  .  .  .  .  .  .  .  .  .  .  .  .  .  .  .  .  .  .  .  .  .  .  .  .  .  .  .  .  .  .  .  .  .  .  .  .  .  .  .  ",
".  .  .  .  .  .  .  .  .  .  .  .  .  .  .  .  .  .  .  .  .  .  .  .  .  .  .  .  .  .  .  .  .  .  .  .  .  .  .  .  .  .  .  .  .  .  .  .  .  .  yE (o zE [b AE BE CE DE bb EE cb Sl FE Br cq ,_ n< 96 GE HE IE JE KE LE ME NE OE PE QE &E RE SE TE UE VE WE XE XE XE YE ZE ZE ZE ZE ZE ZE `E ZE  F .F .F ZE +F XE ZE @F #F $F %F &F %F *F =F =F uB =F -F $F vA ;F >F >F >F ,F 'F )F !F ~F >F >F {F ]F bC ^F =F /F $F (F _F 7C )z pB Ay px :F UD <F [F YD }F Ny My 2y 4v 2y :v >y &z >y >y >y ru |F )E !E 1F 2F jC 3F 4F 5F 4F 4F 6F 7F 8F #k 3q aj #k sp |p Ow Pm tp 9F 0F aF (q bF cF dF eF A& .; g% 0@ je fg k0 K: cb cb W9 a5 cb fF cb |[ 86 gF 6< hF iF @i Cn jF kF lF mF nF oF pF qF rF sF tF uF vF wF ,n xF .  .  .  .  .  .  .  .  .  .  .  .  .  .  .  yF T[ zF AF BF CF DF EF FF !& c@ ^. &# GF HF IF JF KF LF MF ~b .  .  .  .  .  .  .  .  .  .  .  .  .  .  .  .  .  .  .  .  .  .  .  .  .  .  .  .  .  .  .  .  .  .  .  .  .  .  .  .  .  .  .  .  .  .  .  .  .  .  .  .  .  .  .  .  .  .  .  .  .  .  .  .  .  .  .  .  .  .  .  .  .  .  .  .  .  .  .  .  .  .  .  .  .  .  .  .  .  .  .  .  .  .  .  .  .  .  .  .  .  .  .  .  .  .  .  .  .  .  .  .  .  .  .  .  .  .  .  .  .  .  .  .  ",
".  .  .  .  .  .  .  .  .  .  .  .  .  .  .  .  .  .  .  .  .  .  .  .  .  .  .  .  .  .  .  .  .  .  .  .  .  .  .  .  .  .  .  .  .  .  .  .  .  .  1* 6) @* F~ w& u- NF 'c 4( OF Gd 3s 7' I~ PF x{ Bu n) yv QF 0x RF SF TF UF VF WF mx DB yz {y XF YF ZF `F  G .G +G +G @G YF YF ZF ZF YF ZF #G YF YF #G $G #G %G %G &G *G =G -G hu ;G 5v UF Ru 3v 2v Fw >G [D ,G 'G )G !G !G ~G {G ]G ^G /G (G _G :G gC Wv <G <G <G wB (F Fy [G {y lA Dz !D }G kA |G Ez 1G 2G 3G 2y :v Vu 2y :v 2y 4v >y >y 2y Vu iC )E 4G !E 5G lC 6G 7G )E 8G jC 9G 0G aG #k aj aj br gk |p hk #k |q 8D bG cG +- }d ^u kk ]] #- c# %= M& @# 9} S} cq &e &e I~ &e ,D ,_ '_ &e 3s n^ dG eG 9~ P% =! fG gG hG +a .  C8 .  .  .  .  .  .  .  .  .  .  .  .  .  .  .  .  .  .  .  .  .  .  .  .  .  iG }e jG kG lG kG mG 0@ $p O+ ]. ]@ nG oG pG .  .  .  .  .  .  j+ .  .  .  .  .  .  .  .  .  .  .  .  .  .  .  .  .  .  .  .  .  .  .  .  .  .  .  .  .  .  .  .  .  .  .  .  .  .  .  .  .  .  .  .  .  .  .  .  .  .  .  .  .  .  .  .  .  .  .  .  .  .  .  .  .  .  .  .  .  .  .  .  .  .  .  .  .  .  .  .  .  .  .  .  .  .  .  .  .  .  .  .  .  .  .  .  .  .  .  .  .  .  .  .  .  .  .  .  .  .  .  .  .  .  .  .  .  .  .  .  .  .  .  ",
".  .  .  .  .  .  .  .  .  .  .  .  .  .  .  .  .  .  .  .  .  .  .  .  .  .  .  .  .  .  .  .  .  .  .  .  .  .  .  .  .  .  .  .  .  .  .  .  .  .  qG k~ %= P% S4 rG sG Jq aq ga Ac .( Jj Jj x{ tG uG %( Fv vG wG xG yG Nv zG AG BG :y !z Cy )z HD +G YF CG DG EG DG DG DG DG FG  G  G  G  G DG DG GG DG  G HG IG /G JG KG LG Pv nu MG Zu 3y 5v su `u su Vu NG tw OG PG PG PG @G &G (G QG RG RG SG TG ]F UG 4v ZC VG nu (F WG XG Cy pB vy (y Ez {y {y )z YG ZG `G 2y 2y Vu >y :v >y 4v (v 2y _v Vu iC )E  H .H kC lC lC lC 1D +H @H #H 0G $H #k #k aj |q 1q |p hk hk *s tm %H &H Mu ;; =% V+ y' }  +< P} T~ f@ *H |h ;_ `r K~ %( m< |{ <{ %( .( P'  ( 6< (f 9~ [e ;^ {_ *c =H .  .  .  .  .  .  .  .  .  .  .  .  .  .  .  .  .  .  .  .  .  .  .  .  .  .  .  .  w2 -H .e H( z' &9 '. 0  b@ +_ =% O- }l ;H >H .  .  .  .  .  .  .  .  .  .  .  .  .  .  .  .  .  .  .  .  .  .  .  .  .  .  .  .  .  .  .  .  .  .  .  .  .  .  .  .  .  .  .  .  .  .  .  .  .  .  .  .  .  .  .  .  .  .  .  .  .  .  .  .  .  .  .  .  .  .  .  .  .  .  .  .  .  .  .  .  .  .  .  .  .  .  .  .  .  .  .  .  .  .  .  .  .  .  .  .  .  .  .  .  .  .  .  .  .  .  .  .  .  .  .  .  .  .  .  .  .  .  .  .  .  .  .  .  .  .  ",
".  .  .  .  .  .  .  .  .  .  .  .  .  .  .  .  .  .  .  .  .  .  .  .  .  .  .  .  .  .  .  .  .  .  .  .  .  .  .  .  .  .  .  .  .  .  .  .  .  j' *g 5: 7. #$ +; u- 'j ,H !6 bq Zj ;v Zj as x{ 'H )H T^ !H ~H {H ]H >G Kz ^H ^z /H Cy {y {y {y (H +G +G _H &G PG &G YF PG PG PG PG PG DG RG RG RG DG :H <H [H DG }H |H 1H LG 2H HB :v Zu *z /v ZC  v 3H (z %z 4H 5H 6H 6H 6H 6H 6H 6H 6H RG :H /G 7H 8H 9H /v ,y ,y Ny }F 0H 8C {y aH bH /y mx ^y cH iA RD qB dH ku ku Fw +v *z Zu eH VG ,y 3y fH iC )E mC )E 3D lC gH {E lC jC lC hH iH jH aj qC 0j 1q 2q 1q gk hk %r kH lH mH Q+ I( =% 0@ |( Z* m{ v/ 5, M- Jt nH Y< ^) T^ oH 8/ P' o( <{ Z< N~ pH 6< qH P+ %= |. @7 rH sH .  .  .  .  .  .  .  .  .  .  .  .  .  .  .  .  .  .  .  .  .  .  .  .  .  .  .  .  tH }e (m 1  `& r~ 9  #; #$ `$ P+ ={ e/ uH vH .  .  .  .  .  .  .  .  .  .  .  .  .  .  .  .  .  .  .  .  .  .  .  .  .  .  .  .  .  .  .  .  .  .  .  .  .  .  .  .  .  .  .  .  .  .  .  .  .  .  .  .  .  .  .  .  .  .  .  .  .  .  .  .  .  .  .  .  .  .  .  .  .  .  .  .  .  .  .  .  .  .  .  .  .  .  .  .  .  .  .  .  .  .  .  .  .  .  .  .  .  .  .  .  .  .  .  .  .  .  .  .  .  .  .  .  .  .  .  .  .  .  .  .  .  .  .  .  .  .  ",
".  .  .  .  .  .  .  .  .  .  .  .  .  .  .  .  .  .  .  .  .  .  .  .  .  .  .  .  .  .  .  .  .  .  .  .  .  .  .  .  .  .  .  .  .  .  .  .  .  wH  = xH :; r& y> 7- 'j yH +^ K~ ^) k< U^ zH AH BH ^n oH CH DH {H EH FH 9H GH HH uz oB Dy Dy {y IH ZF JH KH +G PG PG PG PG PG PG PG PG DG RG RG RG CG EG DG  G LH MH NH OH PH QH 9H 3y 3y 9H RH 3v 4v Wu SH TH uw UH 6H 6H 6H 6H 6H 6H 6H RG DG VH WH XH 0u mu 3y 3y 0u }F YH ZH jA jA ix ix `H (y wz _y )D yB xG zG mu mu Qv  I Zu Qt Qt ,y 3y fH iC lC .I lC lC {E gH {E lC  D 1D 9G iH jH aj qC br |p |p sr tp hk tp qr +I {j gf P+ S& 0@ x1 4[ Jd |( K- t~ @I .o h< >| :~ I~ ^n ]n h< R' Gd T} #I 6< $I W$ %= 0@ @7 *c &c .  .  .  .  .  .  .  .  .  .  .  .  .  .  .  .  .  .  .  .  .  .  .  .  .  .  .  .  %I &I *I p+ 9@ N# N# g.    Dj =I -I =3 6^ ;I .  .  .  .  .  .  .  .  .  .  .  .  .  .  .  .  .  .  .  .  .  .  .  .  .  .  .  .  .  .  .  .  .  .  .  .  .  .  .  .  .  .  .  .  .  .  .  .  .  .  .  .  .  .  .  .  .  .  .  .  .  .  .  .  .  .  .  .  .  .  .  .  .  .  .  .  .  .  .  .  .  .  .  .  .  .  .  .  .  .  .  .  .  .  .  .  .  .  .  .  .  .  .  .  .  .  .  .  .  .  .  .  .  .  .  .  .  .  .  .  .  .  .  .  .  .  .  .  .  .  ",
".  .  .  .  .  .  .  .  .  .  .  .  .  .  .  .  .  .  .  .  .  .  .  .  .  .  .  .  .  .  .  .  .  .  .  .  .  .  .  .  .  .  .  .  .  .  .  .  .  >I D& xH :; r& x$ 7- 'j yH +^ |{ Z< 4( ,I 'I )I !I )I ~I {I ]I ^I /I dH xG xG (I _I iA Dy {y Cy :I ZF #G <I PG PG PG PG PG PG PG PG DG DG RG RG PG YE <I [I @F }I |I 1I 2I 3I 4I %F 5I 6I 7I 7I rB 8I rB /F 9I zw ZE 6H 6H 6H 6H 6H 6H 6H RG DG 0I aI bI cI =F =F dI rB eI fI gI hI iI aC jI 9C vz ,z !z yy kI lI mI nI oI sB pI qI Zu Qt ,y :v fH iC lC .I lC lC 8G rI {E lC {E 1D 9G iH jH aj qC #k |p zo #k |p hk tp #k +I H[ -@ 3u V+ 4% +_ a' 9} pb sI tI >4 uI vI {) wI wI ]6 xI 86 wI {) yI zI :g AI W$ %= 0@ @7 *c &c .  .  .  .  .  .  .  .  .  .  .  .  .  .  .  .  .  .  .  .  .  .  .  .  .  .  .  .  wc BI CI DI EI FI GI HI HI II JI JI KI LI MI .  .  .  .  .  .  .  .  .  .  .  .  .  .  .  .  .  .  .  .  .  .  .  .  .  .  .  .  .  .  .  .  .  .  .  .  .  .  .  .  .  .  .  .  .  .  .  .  .  .  .  .  .  .  .  .  .  .  .  .  .  .  .  .  .  .  .  .  .  .  .  .  .  .  .  .  .  .  .  .  .  .  .  .  .  .  .  .  .  .  .  .  .  .  .  .  .  .  .  .  .  .  .  .  .  .  .  .  .  .  .  .  .  .  .  .  .  .  .  .  .  .  .  .  .  .  .  .  .  .  ",
".  .  .  .  .  .  .  .  .  .  .  .  .  .  .  .  .  .  .  .  .  .  .  .  .  .  .  .  .  .  .  .  .  .  .  .  .  .  .  .  .  .  .  .  .  .  .  .  .  .  NI xH K& /. W> i  'j yH j( !6 ^) r/ OI PI QI RI RI RI SI TI UI VI WI XI YI ZI `I ZE  J .J .J +J @J #J +G PG PG PG PG PG YF PG &G RG DG DG RG @G $J %J &J wA wA *J wA =J -J ;J >J ,J 'J 'J 'J )J !J ~J 'J {J ]J ^J 6H 6H 6H 6H 6H 6H 6H RG [H  G _G /J (J YD _J PE :J <J [J }J |J 1J lI Gy 2J _y Cy oB ,z gB VI 3J 3J 3J VI }F 4J >y Uu :v >y 3y iC lC .I lC lC {E gH {E lC {E 1D 9G iH jH aj qC #k Pm aj #k |p hk 1q _n +I Yn W[ 5J U' :_ 6d k0 75 .: yi Ue 6J S0 7J 8J #0 #0 #0 9J 0J #0 #0 aJ #0 bJ .- V' %= 0@ @7 *c &c .  .  .  .  .  .  .  .  .  .  .  .  .  .  .  .  .  .  .  .  .  .  .  .  .  .  .  .  Tc cJ dJ eJ eJ fJ gJ hJ r@ iJ jJ kJ lJ mJ N* .  .  .  .  .  .  .  .  .  .  .  .  .  .  .  .  .  .  .  .  .  .  .  .  .  .  .  .  .  .  .  .  .  .  .  .  .  .  .  .  .  .  .  .  .  .  .  .  .  .  .  .  .  .  .  .  .  .  .  .  .  .  .  .  .  .  .  .  .  .  .  .  .  .  .  .  .  .  .  .  .  .  .  .  .  .  .  .  .  .  .  .  .  .  .  .  .  .  .  .  .  .  .  .  .  .  .  .  .  .  .  .  .  .  .  .  .  .  .  .  .  .  .  .  .  .  .  .  .  .  ",
".  .  .  .  .  .  .  .  .  .  .  .  .  .  .  .  .  .  .  .  .  .  .  .  .  .  .  .  .  .  .  .  .  .  .  .  .  .  .  .  .  .  .  .  .  .  .  .  .  .  NI nJ K& 5. X> @@ nh oJ :{ /) n( O' pJ qJ rJ Qu 7x sJ tJ uJ Az -E 9C qx ~z vJ wJ <I <I <I <I <I QG #G xJ PG PG PG &G PG PG PG PG PG DG DG PG RG yJ zJ AJ $F 0u BJ Mv CJ DJ EJ FJ GJ HJ KG IJ JJ VH KJ LJ MJ MH NJ PG PG PG JJ 6H 6H 6H JJ DG OJ PJ XF Az mB fC fC fB QJ yG bu ku RJ SJ TJ UJ Cy Cy Cy Ez ix ix UJ VJ ox jI WJ XJ Ru Vu >y 3y 6v iC mC 1D lC {E jC rI lC mC jC 1D YJ iH jH aj qC #k |p aj 1q |p hk 0j Pm lH {j ZJ 5J U' &% `< W9 `J bf 4( cq gh `< b' %[  K bh .@ ,% ^| ;- (@ 3) S+ w] P/ ,( q% s# @7 *c &c .  .  .  .  .  .  .  .  .  .  .  .  .  .  .  .  .  .  .  .  .  .  .  .  .  .  .  .  ~m 39 .K .  .  +K .  .  @K 0% #K 29 n1 +K 2j .  .  .  .  .  .  .  .  .  .  .  .  .  .  .  .  .  .  .  .  .  .  .  .  .  .  .  .  .  .  .  .  .  .  .  .  .  .  .  .  .  .  .  .  .  .  .  .  .  .  .  .  .  .  .  .  .  .  .  .  .  .  .  .  .  .  .  .  .  .  .  .  .  .  .  .  .  .  .  .  .  .  .  .  .  .  .  .  .  .  .  .  .  .  .  .  .  .  .  .  .  .  .  .  .  .  .  .  .  .  .  .  .  .  .  .  .  .  .  .  .  .  .  .  .  .  .  .  .  .  ",
".  .  .  .  .  .  .  .  .  .  .  .  .  .  .  .  .  .  .  .  .  .  .  .  .  .  .  .  .  .  .  .  .  .  .  .  .  .  .  .  .  .  .  .  .  .  .  .  .  r1 $K %K K& 5. y> +, nh =o :{ ~[ &K T^ *K qJ Qu Yu Yu Yu =K -K (y ^y kA ~z ;K >K LH ,K ,K ,K ,K YF YF YF YF PG PG PG PG YF PG YF PG xJ DG #G YF 'K |H )K !K 9H :v _v Ny ~K DJ EJ ZE {K 6H {G ]K RG }H ]K %G ^K {G PG PG PG PG /K 6H 6H 6H 6H $G wJ wJ (K Ez 9C Az UJ EB ^z _K mu ku ku :K TJ cB {y {y {y xy <y ix ix jx <K ix [K $F Ru My >y >y Vu iC mC {E lC 7G {E rI lC jC mC 1D }K iH jH 0j qC #k |p aj sr |p hk |p #k lH mH S+ U= ') ]] Bc |K Gd 1K K~ Gd 3[ 6d g@ 2K Z/ U) b{ 3K /{ Q- 7- $- !. g% I4 ^{ q%  - @7 Q< &c .  .  .  .  .  .  .  .  .  .  .  .  .  .  .  .  .  .  .  .  .  .  .  .  .  .  .  .  .  .  .  .  .  .  .  .  .  .  .  .  .  .  .  .  .  .  .  .  .  .  .  .  .  .  .  .  .  .  .  .  .  .  .  .  .  .  .  .  .  .  .  .  .  .  .  .  .  .  .  .  .  .  .  .  .  .  .  .  .  .  .  .  .  .  .  .  .  .  .  .  .  .  .  .  .  .  .  .  .  .  .  .  .  .  .  .  .  .  .  .  .  .  .  .  .  .  .  .  .  .  .  .  .  .  .  .  .  .  .  .  .  .  .  .  .  .  .  .  .  .  .  .  .  .  .  .  .  .  .  .  .  .  .  .  .  .  .  .  .  .  .  .  .  ",
".  .  .  .  .  .  .  .  .  .  .  .  .  .  .  .  .  .  .  .  .  .  .  .  .  .  .  .  .  .  .  .  .  .  .  .  .  .  .  .  .  .  .  .  .  .  .  .  .  4K $K 5K j~ x. y> U) 'j =o [] /) 96 o< *K 6K Vt >y  v Vu BJ 7K (y ^y oB _y )z >K LH ^K ^K ^K ^K PG PG PG PG PG PG PG IG PG PG PG PG #G xJ #G DG DG |H )K 8K 9K :v VG 2y CJ DJ 0K KH 6H RG {G }H RG RG RG 6H ^K {G PG PG PG PG /K 6H 6H 6H 6H LH wJ wJ (K {y ix ix ix EB ^z _K ju ,y aK |D vA }y {y {y Cy 8C ^y ^y :y {y iA Az WJ $F Ru My Vu 2y Vu iC mC {E lC 7G {E rI lC jC mC 1D bK iH cK Fj 0v #k |p aj 0j aj hk tp 0j lH .C w> ;@ A'  * al 86 D{ 3s Z< I~ 3[ dK H( U) !. w> 8@ 5% S+ (@ (@ ^. (@ i) H' )f q% :% eK R0 fK j+ .  .  .  .  .  .  .  .  .  .  .  .  .  .  .  .  .  .  .  .  .  .  .  .  .  .  .  .  .  .  .  .  .  .  .  .  .  .  .  .  .  .  .  .  .  .  .  .  .  .  .  .  .  .  .  .  .  .  .  .  .  .  .  .  .  .  .  .  .  .  .  .  .  .  .  .  .  .  .  .  .  .  .  .  .  .  .  .  .  .  .  .  .  .  .  .  .  .  .  .  .  .  .  .  .  .  .  .  .  .  .  .  .  .  .  .  .  .  .  .  .  .  .  .  .  .  .  .  .  .  .  .  .  .  .  .  .  .  .  .  .  .  .  .  .  .  .  .  .  .  .  .  .  .  .  .  .  .  .  .  .  .  .  .  .  .  .  .  .  .  .  .  ",
".  .  .  .  .  .  .  .  .  .  .  .  .  .  .  .  .  .  .  .  .  .  .  .  .  .  .  .  .  .  .  .  .  .  .  .  .  .  .  .  .  .  .  .  .  .  .  <= .  gK hK iK j& e/ +; i{ 'j =o j( l< %( O~ *K jK kK lK 2v +v mK nK _y {y Cy {y )z >K oK ^K ^K ^K pK PG PG YF PG PG YF PG PG YF PG YF PG #G NH $G DG DG [H qK 8K ku Zu My Vu CJ DJ qK rK ]K }H {G RG RG RG RG 6H 6H {G PG PG PG PG /K 6H 6H 6H 6H LH wJ ZF (K {y /y ix ix sK ^z Vv 6v ,y JC BJ ;E mB :y {y {y pB 0C ^y ^y Cy oB zz UD tK 5v My 4v 3y Vu iC mC {E lC 7G {E rI lC jC mC jC uK iH vK wK xK _n yK zK 0j zo hk %r #k lH AK y@ ;@ A' 0@ al bb D{ BK 5< QC CK )6 _( 5% w) z@ :;     ; >% (@ (@ J' `- H' /% 7- 0@ Vi yc DK +K .  .  .  .  .  .  .  .  .  .  .  .  .  .  .  .  .  .  .  .  .  .  .  j+ .  .  .  .  .  .  .  .  .  .  .  .  .  .  .  .  .  .  .  .  .  .  .  .  .  .  .  .  .  .  .  .  .  .  .  .  .  .  .  .  .  .  .  .  .  .  .  .  .  .  .  .  .  .  .  .  .  .  .  .  .  .  .  .  .  .  .  .  .  .  .  .  .  .  .  .  .  .  .  .  .  .  .  .  .  .  .  .  .  .  .  .  .  .  .  .  .  .  .  .  .  .  .  .  .  .  .  .  .  .  .  .  .  .  .  .  .  .  .  .  .  .  .  .  .  .  .  .  .  .  .  .  .  .  .  .  .  .  .  .  .  .  .  .  .  .  .  .  ",
".  .  .  .  .  .  .  .  .  .  .  .  .  .  .  .  .  .  .  .  .  .  .  .  .  .  .  .  .  .  .  .  .  .  .  .  .  .  .  .  .  .  .  .  EK FK GK HK IK JK KK LK *q ${ U' 6n MK NK OK PK QK RK SK TK UK Ru VK WK xG XK oB YK YK ZK aH >K `K ^K ^K ^K PG @G PG PG PG PG IG IG (G IG IG IG IG xJ `F <I 'K :H 'K GJ YI -G :D bC  L sB .L +L @L #L #L #L LJ %G $L PG 6H JJ JJ %L &L &L &L @G PG PG PG #G NH *L =L -L ]z ;L >L ,L 'L 4H )L !L ^D ~L {L XH ]L YK YK YK YK ND pB 0C oB (y zz UD tK hu 2y 2y :v Vu ^L +H 7G mC 8G 8G lC MC mC mC jC /L (L _L :L <L [L }L |L _p bj qr 0j #k 1L 2L 3L 4L $1 5L `< h( 6L Xs 86 86 7L 6d 4[ !. .@ V+ a) %6 i) ;@ ;- r& x> x> {| M1 Y- -) &[ l+ 8L GK 9L 0L b8 aL bL .  .  .  .  x^ aL cL dL eL fL 0L gL hL iL jL a8 0L m1 d8 .  .  .  .  .  .  .  .  .  .  .  .  .  .  .  .  .  .  .  .  .  .  .  .  .  .  .  .  .  .  .  .  .  .  .  .  .  .  .  .  .  .  .  .  .  .  .  .  .  .  .  .  .  .  .  .  .  .  .  .  .  .  .  .  .  .  .  .  .  .  .  .  .  .  .  .  .  .  .  .  .  .  .  .  .  .  .  .  .  .  .  .  .  .  .  .  .  .  .  .  .  .  .  .  .  .  .  .  .  .  .  .  .  .  .  .  .  .  .  .  .  .  .  .  .  .  .  .  .  .  .  .  .  .  .  .  .  .  .  .  .  .  .  .  .  .  .  .  ",
".  .  .  .  .  .  .  .  .  .  .  .  .  .  .  .  .  .  .  .  .  .  .  .  .  .  .  .  .  .  .  .  .  .  .  .  .  .  .  .  .  .  .  #' $* kL lL mL nL oq oL pL qL ge xq rL sL tL uL vL vL uL wL xL yL zL AL BL CL DL EL EL FL EL FL GL #G ^K ^K ^K ^K ^K ^K ^K ^K PG RG CG CG RG :H RG :H CG PG PG PG YF HL @J IL JL KL LL ML ML NL OL PL QL RL vA SL TL UL VL UL WL UL UL XL YL XL ZL UL WL `L  M UL .M +M 4H @M nI #M $M %M &M LL *M =M -M ;M FL >M ,M EL FL FL 'M YK ^y _y vz zz )M XJ nu JC JC nu Zu !M ~M {M ]M ^M ^M /M 7G jC 3D lC 5G (M _M _M _M _M :M <M [M 1q yo aj }M |M 1M 2M 3M 4M xq 5M 6M 7M $0 8M G: V] |o Q# `- !. 4/ %6 Y$ K# g% !. t{ ,@ Y{ 9( ({ 1  (6 _: 9M 0M aM bM cM dM eM fM .  .  .  .  gM R1 hM aM M7 aM iM jM kM lM mM nM !  oM u7 .  .  .  .  .  .  .  .  .  .  .  .  .  .  .  .  .  .  .  .  .  .  .  .  .  .  .  .  .  .  .  .  .  .  .  .  .  .  .  .  .  .  .  .  .  .  .  .  .  .  .  .  .  .  .  .  .  .  .  .  .  .  .  .  .  .  .  .  .  .  .  .  .  .  .  .  .  .  .  .  .  .  .  .  .  .  .  .  .  .  .  .  .  .  .  .  .  .  .  .  .  .  .  .  .  .  .  .  .  .  .  .  .  .  .  .  .  .  .  .  .  .  .  .  .  .  .  .  .  .  .  .  .  .  .  .  .  .  .  .  .  .  .  .  .  .  .  .  ",
".  .  .  .  .  .  .  .  .  .  .  .  .  .  .  .  .  .  .  .  .  .  .  .  .  .  .  .  .  .  .  .  .  .  .  .  .  .  .  .  .  .  .  V- xt pM qM 8# rM sM tM +} D{ 2{ .d p/ uM vM wM xM yM zM AM [K cB Ay _F BM ^y CM <I <I ZF .G wJ ZF `E ^K ^K ^K @G ^K ^K @G ^K PG RG CG 'K RG 'K RG CG CG PG PG PG PG PG YE +G +G `K DM WH EM FM GM HM HM IM Wv |y lB ox {y {y vz (y ,z ,z ,z ,z ,z (y (y (y [y (y Az jB wA JM Ru Ru 4v ~K KM LM MM NM NM *G {G {G }H DG +G wJ OM Cy ^y ^y (y Az WJ $F iu :v JC :v :v Xv nz Zu :v Wu 2y PM kC QM kC lC lC +H LC RM RM SM TM UM VM 0j tp aj Qm WM XM L( L( YM ZM S} 9J :_ Q+ `M 7~ U' U' u( V' !. `- s( Y$ .; T~ g% !. ^. a) ,% ;{ 5. ^. ^.  [ y~ b. y~ y+ U|  N .N .  .  .  .  @6 +N @N y~ N> ,' @# ]9 <4 #N E= rM $N 16 %N .  .  .  .  .  .  .  .  .  .  .  .  .  .  .  .  .  .  .  .  .  .  .  .  .  .  .  .  .  .  .  .  .  .  .  .  .  .  .  .  .  .  .  .  .  .  .  .  .  .  .  .  .  .  .  .  .  .  .  .  .  .  .  .  .  .  .  .  .  .  .  .  .  .  .  .  .  .  .  .  .  .  .  .  .  .  .  .  .  .  .  .  .  .  .  .  .  .  .  .  .  .  .  .  .  .  .  .  .  .  .  .  .  .  .  .  .  .  .  .  .  .  .  .  .  .  .  .  .  .  .  .  .  .  .  .  .  .  .  .  .  .  .  .  .  .  .  .  ",
".  .  .  .  .  .  .  .  .  .  .  .  .  .  .  .  .  .  .  .  .  .  .  .  .  .  .  .  .  .  .  .  .  .  .  .  .  .  .  .  .  .  .  19 ~0  t 0  X> ;[ i& p} &N K~ L~ [{ *N =N -N Tu BA 3v 4v ;N >N ix ,N 'N Ay ^y CM )N !N YE LH !N JH +G ^K ^K ^K ^K ^K ^K ^K ^K PG PG PG PG PG PG PG PG PG PG PG PG YF YF @J +G +G JG [H ~N {N PH tB GB _v 4v sy ]N ^N /N /y ^y tA uz tA tA uz uz nB -z )D )D (N Ay Ay ^N yA tB Ny Vu GC 3G KM {N wJ GG GG 0I DG DG RG DG +G LH OM 'z oB 'z lx _N WJ $F GB 3y :v 3y >y 3y BA 2y 3y >y *z :N jC lC kC lC 6G gH !E !E !E )E  D UM VM #k <N bj aj av Cu D{ `h `h tf Ko Y: __ x$ +* ;@ .; q% -{ O% !. i) Dj .; ;; 0@ g% /{     ; ]. /s 9@ r& !. ,( i  P/ 2^ )) [N }N |N .  .  .  .  @6 1N }d ]{ K- J- 7% )& y@ V' 9~  ; Ui 16 *6 .  .  .  .  .  .  .  .  .  .  .  .  .  .  .  .  .  .  .  .  .  .  .  .  .  .  .  .  .  .  .  .  .  .  .  .  .  .  .  .  .  .  .  .  .  .  .  .  .  .  .  .  .  .  .  .  .  .  .  .  .  .  .  .  .  .  .  .  .  .  .  .  .  .  .  .  .  .  .  .  .  .  .  .  .  .  .  .  .  .  .  .  .  .  .  .  .  .  .  .  .  .  .  .  .  .  .  .  .  .  .  .  .  .  .  .  .  .  .  .  .  .  .  .  .  .  .  .  .  .  .  .  .  .  .  .  .  .  .  .  .  .  .  .  .  .  .  .  ",
".  .  .  .  .  .  .  .  .  .  .  .  .  .  .  .  .  .  .  .  .  .  .  .  .  .  .  .  .  .  .  .  .  .  .  .  .  .  .  .  .  .  .  yf 2N  t J- 7f `- ]] o} Tl U^ k< &K hj 3N -N .v >y 4N 5N `G 6N ix 7N /H qx Cy CM MH .G YE KH [I 8N ZF ^K ^K @G ^K ^K ^K ^K ^K PG PG PG PG PG YF PG PG PG PG PG PG IG HL 9N +G SG RG DG DG 0N PH 9H :v VG ,y 2y ]N EB aN kx ix ix uz /y /y ix ix jA ^y bN tA jA cN dN ^N wA 9H 2y ,y ,y eN fN #L YF :H CG RG DG DG ]K HG wJ {G OM 'z Cy pB uy _N XI $F GB >y Vu >y GB 2y :z My >y _v 2y :N jC kC MC gN 6G gH !E !E !E !E hN UM VM #k Pm 7y aj iN jN :{ :{ K~ M( .o $3 2^ X> :% _; x> |. g% i{ u( `- W/ W/ `- V+ r& x$ @;       0@ ,% ,( ,( N# :% z1 K# h) kN 6^ |N .  .  .  .  @6 lN s9 T~ M- M- ;; 7. x. %= d@ P< m5 H& *6 .  .  .  .  .  .  .  .  .  .  .  .  .  .  .  .  .  .  .  .  .  .  .  .  .  .  .  .  .  .  .  .  .  .  .  .  .  .  .  .  .  .  .  .  .  .  .  .  .  .  .  .  .  .  .  .  .  .  .  .  .  .  .  .  .  .  .  .  .  .  .  .  .  .  .  .  .  .  .  .  .  .  .  .  .  .  .  .  .  .  .  .  .  .  .  .  .  .  .  .  .  .  .  .  .  .  .  .  .  .  .  .  .  .  .  .  .  .  .  .  .  .  .  .  .  .  .  .  .  .  .  .  .  .  .  .  .  .  .  .  .  .  .  .  .  .  .  .  ",
".  .  .  .  .  .  .  .  .  .  .  .  .  .  .  .  .  .  .  .  .  .  .  .  .  .  .  .  .  .  .  .  .  .  .  .  .  .  .  .  .  .  .  .  mN 58 S+ iy fd ]] 65 N^ wm :{ 96 n< nN -N `u 4v ,y >y oN pN lx :y yy mx {y CM !N .G {G +G #G ZF +G ^K ^K ^K ^K ^K ^K ^K ^K YF PG PG PG PG PG PG PG PG PG YF PG PG PG PG PG PG RG CG CG qN LG Sv 2y 4y 3v 9H <J rN sN 0C ^y uz tN &J uy uy >z uN uN zy uy vy IC sK EB .E fu Ny }v }v vN wN xN ZF :H RG RG GG ^G RG DG +G <I OM 'z ^y _y mx yN <D cC 9H 4v My iu [v zN qz Ly >y >y Ly AN 7G QM BN {E BN CN 1D !E !E !E DN UM VM Fj #k aj aj iN EN FN D{ ;_ D{ d| 9J v~ Em Q# ;- v] }  b# b# a) >6 !@ w> Z& >=    y> 5| T~ t( A' 0@ V' '(    ^. GN Mj HN IN JN KN LN .  .  u7 MN :6 &0 #$ <e x& c/ }l /| O> e< _; NN 16 *6 .  .  .  .  .  .  .  .  .  .  .  .  .  .  .  .  .  .  .  .  .  .  .  .  .  .  .  .  .  .  .  .  .  .  .  .  .  .  .  .  .  .  .  .  .  .  .  .  .  .  .  .  .  .  .  .  .  .  .  .  .  .  .  .  .  .  .  .  .  .  .  .  .  .  .  .  .  .  .  .  .  .  .  .  .  .  .  .  .  .  .  .  .  .  .  .  .  .  .  .  .  .  .  .  .  .  .  .  .  .  .  .  .  .  .  .  .  .  .  .  .  .  .  .  .  .  .  .  .  .  .  .  .  .  .  .  .  .  .  .  .  .  .  .  .  .  .  .  ",
".  .  .  .  .  .  .  .  .  .  .  .  .  .  .  .  .  .  .  .  .  .  .  .  .  .  .  .  .  .  .  .  .  .  .  .  .  .  .  .  .  .  .  ON  5 58 `- ,[ U) PN /r QN RN Gd ^) SN nN TN su su 3H My dH yB lx Cy vz ,z {y CM !N +G {G +G #G 0I  G ^K @G ^K @G ^K ^K ^K ^K PG PG PG PG PG YF PG PG YF IG PG PG PG PG PG YF PG RG RG RG UN VN WN wB XN CJ xG |y YN ZN vy `N 0H YN 0H Fy Fy Fy 0H _F Fy  O iB fC .O EB +O @O #O #O #O $O %O &O YF RG ]K ]K ]K 0I }H DG +G <I OM 'z ^y _y Ey !D SL *O au au au SJ YC =O 2y Vu >y 2y -O ;O 6G 5G >O 7G 1D 3D @H 1D ,O !E DN UM 'O Fj #k aj $r iN Rm 4( '_ U8 4( @} #0 bh ;[ k> ,( @; )O !O ~O {O ]O ^O /O M# J6 ^. y> @; 5/ t( C# :; ,% 5[ 2. .* GN oa (O Ai 7^ _O :O <O [O }O |O 1O fD I= p% D# $$ l4 2O ~O 3O 4O 5O 6O u7 .  .  .  .  .  .  .  .  .  .  .  .  .  .  .  .  .  .  .  .  .  .  .  .  .  .  .  .  .  .  .  .  .  .  .  .  .  .  .  .  .  .  .  .  .  .  .  .  .  .  .  .  .  .  .  .  .  .  .  .  .  .  .  .  .  .  .  .  .  .  .  .  .  .  .  .  .  .  .  .  .  .  .  .  .  .  .  .  .  .  .  .  .  .  .  .  .  .  .  .  .  .  .  .  .  .  .  .  .  .  .  .  .  .  .  .  .  .  .  .  .  .  .  .  .  .  .  .  .  .  .  .  .  .  .  .  .  .  .  .  .  .  .  .  .  .  .  .  ",
".  .  .  .  .  .  .  .  .  .  .  .  .  .  .  .  .  .  .  .  .  .  .  .  .  .  .  .  .  .  .  .  .  .  .  .  .  .  .  .  .  .  .  .  %; 58 ;% T~ Q= k| 7O L: _] K~ Er @h CH 8O ,y su `u oy dH 9O ox 7C vz ,z {y CM !N +G {G +G xJ 0I GG ^K ^K ^K ^K ^K @G ^K ^K @G ^K ^K ^K ^K ^K ^K ^K ^K PG PG YF PG YF PG PG IG /K 6H RG SG 0O aO bO aO cO dO YN eO #E 4H fO gO gO 4H hO 4H 4H gO QJ QJ QJ QJ iO jO HH kO lO lO lO lO lO mO GJ nO PG 6H 6H 6H {G RG DG +G <I OM 'z ^y ,z oB {y _y oO ]F pO qO rO sO tO &z 4v >y Ly *z uO vO wO wO xO yO zO mC {E .I 4G TM UM AO aj #k aj ip iN Rm K~ K~ K~ 4( @} #0 g@ '( N1 f. BO CO DO EO FO S, GO HO Y/ ^. __ IO M- Q} N# 2. 2. g% w] C# :; %6 1h '5 ,- JO KO LO MO NO OO PO QO RO g  IO Hr SO TO UO VO WO XO YO ZO y; .  .  .  .  .  .  .  .  .  .  .  .  .  .  .  .  .  .  .  .  .  .  .  .  .  .  .  .  .  .  .  .  .  .  .  .  .  .  .  .  .  .  .  .  .  .  .  .  .  .  .  .  .  .  .  .  .  .  .  .  .  .  .  .  .  .  .  .  .  .  .  .  .  .  .  .  .  .  .  .  .  .  .  .  .  .  .  .  .  .  .  .  .  .  .  .  .  .  .  .  .  .  .  .  .  .  .  .  .  .  .  .  .  .  .  .  .  .  .  .  .  .  .  .  .  .  .  .  .  .  .  .  .  .  .  .  .  .  .  .  .  .  .  .  .  .  .  .  ",
".  .  .  .  .  .  .  .  .  .  .  .  .  .  .  .  .  .  .  .  .  .  .  .  .  .  .  .  .  .  .  .  .  .  .  .  .  .  .  .  .  .  .  .  v, `O [_ N{ @- )] na #C 8/ K~ :{ 5d 3N 8O Wu GB >y /D  P pN ^y {y Cy (y {y CM .P +G {G  G DG 0I  G ^K ^K @G ^K ^K ^K ^K ^K ^K ^K @G ^K ^K ^K ^K ^K ^K PG PG PG PG PG PG PG ^K PG 6H RG 6H @J _H *G +P MM @P #P $P %P 2H 0u hu NG iu &P &P &P Ny Ny Sv sz *P =P JM eN -P EM ;P xN >P ,P NH 'P $J %G 6H 6H 6H {G /G DG +G LH OM 'z ^y ,z {y )z xz (N =E aB 'L hI /H )P BA 4v _v Vu &z !P *z HB /v ~P Jy {P {E mC !E !E DN UM AO aj #k 7m nr iN ]P o( K~ |{ K~ ^P Y: j9 K/ }9 /P (P _P &n :P .  Z6 <P [P C% r& T+ ,[ :; :% x> 0@ >@ !. ;@ t( 0@ Z* `= b/ P! }P &~ C= >2 (: |P y( d' `$ L# e_ O! 1P 2P 3P .  4P 5P .  6P .  .  .  .  .  .  .  .  .  .  .  .  .  .  .  .  .  .  .  .  .  .  .  .  .  .  .  .  .  .  .  .  .  .  .  .  .  .  .  .  .  .  .  .  .  .  .  .  .  .  .  .  .  .  .  .  .  .  .  .  .  .  .  .  .  .  .  .  .  .  .  .  .  .  .  .  .  .  .  .  .  .  .  .  .  .  .  .  .  .  .  .  .  .  .  .  .  .  .  .  .  .  .  .  .  .  .  .  .  .  .  .  .  .  .  .  .  .  .  .  .  .  .  .  .  .  .  .  .  .  .  .  .  .  .  .  .  .  .  .  .  .  .  .  .  .  .  .  .  ",
".  .  .  .  .  .  .  .  .  .  .  .  .  .  .  .  .  .  .  .  .  .  .  .  .  .  .  .  .  .  .  .  .  .  .  .  .  .  .  .  .  .  .  .  7P I> U{ x> N# ]] na 8P |{ ^) ~[ <{ 3N 8O Uu Tu 4v Ru HM 9P /N Cy ^y (y YK CM PG PG PG +G &G 6H PG ^K ^K ^K PG  G  G +G ^K ^K $L pK PG PG ^K ^K ^K 6H 6H %G }H ]K YF +G DG DG 6H 6H /K 6H 6H JJ .P 6H <I 0P aP hC 0u >y 2y Uu bP su su su Uu ZC (z (z _z _z _z 3v oI cP dP PJ 0I RG YF wJ JJ JJ /K 6H 6H 6H .P {G #G <I <I OM bH Cy ,z Cy Dy xz Ey ,z /y Dz )D eP fP iu 2y >y :v 4v 2y 4v >y Zu ru Zu {P {E {E !E .I gP UM VM Fj #k 0j 1q hP iP O' up 07 K~ jP $3 r& 3K /| 9@ kP lP ]; .  .  .  mP t4 +q V/ h9 W[ >% ,% !. ^. >% >% >% >% `' k> k> n{ 0@ t( t( t( 9@ 0@ c# t( x) O+ nP O+ 3z f> Z( .  .  .  .  .  .  .  .  .  .  .  .  .  .  .  .  .  .  .  .  .  .  .  .  .  .  .  .  .  .  .  .  .  .  .  .  .  .  .  .  .  .  .  .  .  .  .  .  .  .  .  .  .  .  .  .  .  .  .  .  .  .  .  .  .  .  .  .  .  .  .  .  .  .  .  .  .  .  .  .  .  .  .  .  .  .  .  .  .  .  .  .  .  .  .  .  .  .  .  .  .  .  .  .  .  .  .  .  .  .  .  .  .  .  .  .  .  .  .  .  .  .  .  .  .  .  .  .  .  .  .  .  .  .  .  .  .  .  .  .  .  .  .  .  .  .  .  .  .  .  .  .  .  .  .  ",
".  .  .  .  .  .  .  .  .  .  .  .  .  .  .  .  .  .  .  .  .  .  .  .  .  .  .  .  .  .  .  .  .  .  .  .  .  .  .  .  .  .  .  .  %;  t [_ t( @; s+ $d oP ^) k< 2x !d uM TN ku >y Uu >y HM pP lB ix ^y (y YK CM PG 6H YF +G &G 6H PG PG .G .G  G DG DG +G <I ^K ^K pK PG PG /K $L $L }H 6H 6H /K qP YF .G DG {G 6H 6H 6H 6H 6H 6H 6H 6H *L 0P aP hC }v ,y ,y VG Qt VG ,y ,y ,y eH (z 4y Qt ,y 3H 3v oI cP dP GG RG ]K 6H 6H 6H 6H 6H 6H 6H 6H 6H #G #G <I <I OM YK Cy ,z Cy Dy xz ^y Cy ^y (y wy eP rP Ru 2y ,y :v 4v :v 4v My Zu Wu sP {P {E .I .I .I 8G UM VM #k #k aj hk um tP !d x{ 07 K~ uP 6~ K- K/ A' `- kP lP .  .  .  .  vP wP +q ,( h9 ## 4) !. !. ^. ^. ^. ^. ^. ^. ^. ^. ^.  ;  ;  ;  ; ^.  ; 6{ ^. =% O+ ]. U' u( f> 79 .  .  .  .  .  .  .  .  .  .  .  .  .  .  .  .  .  .  .  .  .  .  .  .  .  .  .  .  .  .  .  .  .  .  .  .  .  .  .  .  .  .  .  .  .  .  .  .  .  .  .  .  .  .  .  .  .  .  .  .  .  .  .  .  .  .  .  .  .  .  .  .  .  .  .  .  .  .  .  .  .  .  .  .  .  .  .  .  .  .  .  .  .  .  .  .  .  .  .  .  .  .  .  .  .  .  .  .  .  .  .  .  .  .  .  .  .  .  .  .  .  .  .  .  .  .  .  .  .  .  .  .  .  .  .  .  .  .  .  .  .  .  .  .  .  .  .  .  .  .  .  .  .  .  .  ",
".  .  .  .  .  .  .  .  .  .  .  .  .  .  .  .  .  .  .  .  .  .  .  .  .  .  .  .  .  .  .  .  .  .  .  .  .  .  .  .  .  .  .  V- )9 xP p~ 2. g% 7. yP n^ J~ K~ Mm D{ zP TN JC ,y ,y AP tB 9P /N <y oB ^y YK CM PG 6H YF +G PG 6H PG CG +G <I .G `F DG DG <I +G +G +G +G +G +G +G +G ^K 6H ^K %G /K YF #G DG {G 6H 6H 6H 6H 6H 6H 6H 6H MH 0P aP BP ku }v 2y ,y ,y Wu Vu Vu Vu Vu ,y ,y ,y ,y ,y 5v oI cP ;P {G RG qP 6H 6H 6H 6H 6H 6H 6H 6H 6H &G .G <I <I OM bH {y ,z Cy cH Dy {y Cy ^y (y HC eP rP Ru 2y ,y :v 4v :v 4v My Zu Wu sP {P {E {E 1D !E  D UM VM @k aj aj }M um CP h< K~ K~ m< DP $1 g% x1 A' `- kP EP .  .  .  .  FP GP HP ') b' =% .* x. x. !@ !& E~ !& ^. Z* Z* Z* ^. Q+  ;  ;  ; .@ Q+ t% Q+ el q% +, P! 9# a( IP .  .  .  .  .  .  .  .  .  .  .  .  .  .  .  .  .  .  .  .  .  .  .  .  .  .  .  .  .  .  .  .  .  .  .  .  .  .  .  .  .  .  .  .  .  .  .  .  .  .  .  .  .  .  .  .  .  .  .  .  .  .  .  .  .  .  .  .  .  .  .  .  .  .  .  .  .  .  .  .  .  .  .  .  .  .  .  .  .  .  .  .  .  .  .  .  .  .  .  .  .  .  .  .  .  .  .  .  .  .  .  .  .  .  .  .  .  .  .  .  .  .  .  .  .  .  .  .  .  .  .  .  .  .  .  .  .  .  .  .  .  .  .  .  .  .  .  .  .  .  .  .  .  .  .  ",
".  .  .  .  .  .  .  .  .  .  .  .  .  .  .  .  .  .  .  .  .  .  .  .  .  .  .  .  .  .  .  .  .  .  .  .  .  Uc JP KP !3 LP MP NP OP PP QP kk k{ Vg RP SP TP 'D Dv UP VP WP AM Tu 0u QH -G XP Az pB {y Cy {y CM PG 6H YF +G &G 6H RG CG +G <I YP *G *G *G *G NM NM &O *G ZP `P *G *G  Q ^K ^K PG PG YF #G GG 0I 6H 6H 6H 6H 6H 6H 6H 6H VH 0P .Q +Q wB wB au Sv Sv Sv Sv Sv Sv 3G 3G 3G 3G Sv @Q 3G XJ #Q OJ {G RG RG qP 6H 6H 6H 6H 6H 6H 6H PG #G #G <I <I OM bH {y {y {y {y Cy Cy Cy <y (y Ay eP rP Ru 2y ,y :v 4v :v 4v My Zu Wu sP {P {E {E )E )E 5G UM $Q %Q &Q *Q =Q -Q Qn &w ck ~q ;Q >Q ,Q ,[    P} `- 'Q )Q .  .  .  .  !Q ~Q {Q |3 6[ ]Q .| :3 :3 :3 :3 ^Q :3 :3 =3 =3 =3 :3 =3 =3 =3 =3 =3 =3 =3 =3 /Q =3 -3 33 (Q _Q :Q .  .  .  .  .  .  .  .  .  .  .  .  .  .  .  .  .  .  .  .  .  .  .  .  .  .  .  .  .  .  .  .  .  .  .  .  .  .  .  .  .  .  .  .  .  .  .  .  .  .  .  .  .  .  .  .  .  .  .  .  .  .  .  .  .  .  .  .  .  .  .  .  .  .  .  .  .  .  .  .  .  .  .  .  .  .  .  .  .  .  .  .  .  .  .  .  .  .  .  .  .  .  .  .  .  .  .  .  .  .  .  .  .  .  .  .  .  .  .  .  .  .  .  .  .  .  .  .  .  .  .  .  .  .  .  .  .  .  .  .  .  .  .  .  .  .  .  .  .  .  .  .  .  .  .  ",
".  .  .  .  .  .  .  .  .  .  .  .  .  .  .  .  .  .  .  .  .  .  .  .  .  .  .  .  .  .  .  .  .  .  .  .  .  <Q [Q }Q |Q 1Q 2Q 3Q 4Q 5Q 6Q 7Q 8Q 9Q 0Q aQ bQ bQ cQ dQ eQ fQ gQ hQ ,G ,G iQ jQ kQ lQ mQ nQ oQ pQ ]K PG +G YF PG PG CG CG DG <I qQ rQ sQ tQ uQ vQ wQ xQ yQ xQ zQ vQ vQ AQ BQ QG ZF YF YF YF }H CG 6H 6H 6H 6H 6H 6H 6H 6H QG *L CQ DQ EQ FQ GQ FQ FQ fB FQ GQ FQ GQ FQ FQ FQ GQ FQ DB HQ IQ LH {G qP qP 6H 6H 6H 6H 6H 6H 6H 6H PG YF @G ,K @G JQ oQ KQ LQ MQ lQ NQ 'z oB <y [y vy eP rP Kz :v oz :v 4v :v 4v My Zu Wu sP {P {E {E !E 1D OQ PQ QQ RQ RQ RQ RQ SQ TQ UQ VQ Zw WQ XQ 9J >[ H5 ;; j{ YQ )Q .  .  .  .  h/ ZQ `Q  R Dd .R +R @R #R #R #R $R q{ #R #R #R #R %R @R @R @R @R %R #R #R #R &R *R @R .R Dd =R -R .  .  .  .  .  .  .  .  .  .  .  .  .  .  .  .  .  .  .  .  .  .  .  .  .  .  .  .  .  .  .  .  .  .  .  .  .  .  .  .  .  .  .  .  .  .  .  .  .  .  .  .  .  .  .  .  .  .  .  .  .  .  .  .  .  .  .  .  .  .  .  .  .  .  .  .  .  .  .  .  .  .  .  .  .  .  .  .  .  .  .  .  .  .  .  .  .  .  .  .  .  .  .  .  .  .  .  .  .  .  .  .  .  .  .  .  .  .  .  .  .  .  .  .  .  .  .  .  .  .  .  .  .  .  .  .  .  .  .  .  .  .  .  .  .  .  .  .  .  .  .  .  .  .  .  ",
".  .  .  .  .  .  .  .  .  .  .  .  .  .  .  .  .  .  .  .  .  .  .  .  .  .  .  .  .  .  .  .  .  .  .  .  .  ;R >R ,R 'R )R !R ~R {R ]R ^R [n /R (R _R :R <R [R }R |R 1R 2R tA px jB Az iA OM ]G ZF <I IG SG 6H PG YF &G PG PG PG :H :H DG <I OH 3R 4R 5R WN 6R #O #O BP 7R 8R CJ CJ 9R 0R <I #G +G &G PG RG RG 6H 6H 6H 6H 6H 6H 6H 6H PG .G aR <I bR cR dR &O eR bR bR fR fR zJ zJ zJ zJ gR hR eR +P JH wJ {G .P .P 6H 6H 6H 6H 6H 6H 6H PG PG ^K ^K ^K ^K iR SG 6H 6H $J wJ jR {z kR <y (y Ay eP rP Kz :v lR :v 4v :v 4v My Zu Wu sP {P {E {E !E mC +H DN mR nR oR pR 9G qR rR sR sR tR uR vR wR 7j Md 8@ j{ xR yR .  .  .  .  .  S/ S/ S/ zR AR BR CR .  .  .  .  .  .  .  .  .  DR ER ER ER ER FR .  .  .  .  GR S/ GR +p S/ t) .  .  .  .  .  .  .  .  .  .  .  .  .  .  .  .  .  .  .  .  .  .  .  .  .  .  .  .  .  .  .  .  .  .  .  .  .  .  .  .  .  .  .  .  .  .  .  .  .  .  .  .  .  .  .  .  .  .  .  .  .  .  .  .  .  .  .  .  .  .  .  .  .  .  .  .  .  .  .  .  .  .  .  .  .  .  .  .  .  .  .  .  .  .  .  .  .  .  .  .  .  .  .  .  .  .  .  .  .  .  .  .  .  .  .  .  .  .  .  .  .  .  .  .  .  .  .  .  .  .  .  .  .  .  .  .  .  .  .  .  .  .  .  .  .  .  .  .  .  .  .  .  .  .  .  ",
".  .  .  .  .  .  .  .  .  .  .  .  .  .  .  .  .  .  .  .  .  .  .  .  .  .  .  .  .  .  .  .  .  .  .  .  .  HR IR JR F: /. 9# vj KR LR MR n) `5 NR OR PR ou QR ZC Uu RR SR TR UR yz Cy aH VR ZF LH @G (G PG &G YE PG iR PG PG PG RG DG DG $G ;P WR yG XR RJ 0u UF UF DC HB YR ZR `R  S .S wJ .G +G &G PG RG RG 6H 6H 6H 6H 6H 6H 6H 6H 6H SG +S /G PG QG QG wJ .P +S NJ NJ NJ PG +S $J $J QG IG 0I .P JJ .P {G {G {G JJ 6H 6H 6H 6H 6H PG PG PG ^K ^K ^K ^K @G &G +G HL JH <I @S Ey kR <y (y Ay eP rP Kz :v lR :v 4v :v 4v My Zu 4v sP {P {E {E !E {E 5G #S BN .I !E 2F 5G $S %S &S *S @k Pz %k [l %# =S W( j{ -S ;S .  .  .  .  .  .  .  .  .  .  .  .  .  .  .  .  .  .  .  .  .  .  .  .  .  .  .  .  .  .  .  .  .  .  .  .  .  .  .  .  .  .  .  .  .  .  .  .  .  .  .  .  .  .  .  .  .  .  .  .  .  .  .  .  .  .  .  .  .  .  .  .  .  .  .  .  .  .  .  .  .  .  .  .  .  .  .  .  .  .  .  .  .  .  .  .  .  .  .  .  .  .  .  .  .  .  .  .  .  .  .  .  .  .  .  .  .  .  .  .  .  .  .  .  .  .  .  .  .  .  .  .  .  .  .  .  .  .  .  .  .  .  .  .  .  .  .  .  .  .  .  .  .  .  .  .  .  .  .  .  .  .  .  .  .  .  .  .  .  .  .  .  .  .  .  .  .  .  .  .  .  .  .  .  .  .  .  .  .  .  .  .  ",
".  .  .  .  .  .  .  .  .  .  .  .  .  .  .  .  .  .  .  .  .  .  .  .  .  .  .  .  .  .  .  .  .  .  .  .  .  >S IR ,S @* 'S t# )S !S ~S {S n( o) NR ]S ^S #v @v #v /S (S _S kA BB Ay wz oB VR #G .G +G DG YF @G PG &G YF PG PG PG PG CG DG DG ;P :S <S 0u lu >y 5v BJ >G qz 5v 5v $z 8I [S *G }S  G &G PG RG RG 6H 6H 6H 6H 6H 6H 6H 6H %G ^J SG {K 6H %G |S %G %G 6H 6H 6H 6H 6H 6H 6H 6H $L 1S ]K 6H /K %G {G {G {G JJ 6H 6H 6H 6H 6H PG PG &G ^K pK ^K PG RG (G (G 2S JG )G +J aH (y /y Dz wy eP rP Kz :v lR :v 4v :v 4v My Zu 4v sP {P {E {E !E 3S 4S 2F 5S 6S 7S BN 6G 8S %S 9S aj aj Qm =j 0S -) *! ;; j{ aS bS .  .  .  .  .  .  .  .  .  .  .  .  .  .  .  .  .  .  .  .  .  .  .  .  .  .  .  .  .  .  .  .  .  .  .  .  .  .  .  .  .  .  .  .  .  .  .  .  .  .  .  .  .  .  .  .  .  .  .  .  .  .  .  .  .  .  .  .  .  .  .  .  .  .  .  .  .  .  .  .  .  .  .  .  .  .  .  .  .  .  .  .  .  .  .  .  .  .  .  .  .  .  .  .  .  .  .  .  .  .  .  .  .  .  .  .  .  .  .  .  .  .  .  .  .  .  .  .  .  .  .  .  .  .  .  .  .  .  .  .  .  .  .  .  .  .  .  .  .  .  .  .  .  .  .  .  .  .  .  .  .  .  .  .  .  .  .  .  .  .  .  .  .  .  .  .  .  .  .  .  .  .  .  .  .  .  .  .  .  .  .  .  ",
".  .  .  .  .  .  .  .  .  .  .  .  .  .  .  .  .  .  .  .  .  .  .  .  .  .  .  .  .  .  .  .  .  .  .  .  .  cS dS Ty `& 3^ ,( d@ eS 3x o) n( n( fS ]S gS Yu #v 7v bP hS iS 2J BB vy (y Cy VR {G %G PG RG YF +G &G ]K /K YF (G .G +G DG DG [H jS kS )L `C lS lK /D 3v SH Ru Ru iu TH mS nS OJ <I }S QG /K }H 6H IG qP 6H 6H 6H 6H 6H 6H 6H 6H iR YF JJ %G %G SG iR 6H 6H 6H %G %G %G %G %G %G 6H SG 6H NJ ^K .P .P .P JJ 6H 6H 6H 6H PG PG PG PG %G %G %G ]K PG JJ %G 6H +S oS pS oB ^y (y Ay Ay eP *O au lu /v qS &z Zu su Uu Zu 4v Zu {P {E {E !E 1D 3D lC 8G LC .I >O kC $S %S 9S aj aj }p =j rS B| sS w] T~ tS uS .  .  .  .  .  .  .  .  .  .  .  .  .  .  .  .  .  .  .  .  .  .  .  .  .  .  .  .  .  .  .  .  .  .  .  .  .  .  .  .  .  .  .  .  .  .  .  .  .  .  .  .  .  .  .  .  .  .  .  .  .  .  .  .  .  .  .  .  .  .  .  .  .  .  .  .  .  .  .  .  .  .  .  .  .  .  .  .  .  .  .  .  .  .  .  .  .  .  .  .  .  .  .  .  .  .  .  .  .  .  .  .  .  .  .  .  .  .  .  .  .  .  .  .  .  .  .  .  .  .  .  .  .  .  .  .  .  .  .  .  .  .  .  .  .  .  .  .  .  .  .  .  .  .  .  .  .  .  .  .  .  .  .  .  .  .  .  .  .  .  .  .  .  .  .  .  .  .  .  .  .  .  .  .  .  .  .  .  .  .  .  .  ",
".  .  .  .  .  .  .  .  .  .  .  .  .  .  .  .  .  .  .  .  .  .  .  .  .  .  .  .  .  .  .  .  .  .  .  .  .  vS wS h8 He GN    )) !S bm J~ a7 xS 5d ]S yS Yu =z :v UF zS iS kx ^y zy ,z 'z VR LH PG CG RG <I PG RG RG /K }H ZF }S `P GG GG dP AS BS CS DS 9H 9H Rv ES FS UG GS Ru HS IS [S JS KS HJ LS PG }H RG RG RG qP 6H 6H 6H 6H 6H MS 6H 6H 6H 6H PG 6H 6H 6H %G 6H 6H 6H 6H 6H 6H 6H 6H 6H 6H 6H 6H 6H 6H 6H 6H 6H 6H 6H 6H JJ PG PG &G PG PG PG PG PG PG PG PG PG :H DG pS Ey wy Ay Ay Ay eP rP [D pI mu mu NS Vu su ZC Zu 4v Zu {P {E {E !E 1D 4S ~E lC !E gH QM 6G $S %S Pz }p xo !u %k -j OS @; D# >( PS uS .  .  .  .  .  .  .  .  .  .  .  .  .  .  .  .  .  .  .  .  .  .  .  .  .  .  .  .  .  .  .  .  .  .  .  .  .  .  .  +K r1 r1 +K .  .  .  .  .  .  .  .  .  .  .  .  .  .  .  .  .  .  .  .  .  .  .  .  .  .  .  .  .  .  .  .  .  .  .  .  .  .  .  .  .  .  .  .  .  .  .  .  .  .  .  .  .  .  .  .  .  .  .  .  .  .  .  .  .  .  .  .  .  .  .  .  .  .  .  .  .  .  .  .  .  .  .  .  .  .  .  .  .  .  .  .  .  .  .  .  .  .  .  .  .  .  .  .  .  .  .  .  .  .  .  .  .  .  .  .  .  .  .  .  .  .  .  .  .  .  .  .  .  .  .  .  .  .  .  .  .  .  .  .  .  .  .  .  .  .  .  .  .  ",
".  .  .  .  .  .  .  .  .  .  .  .  .  .  .  .  .  .  .  .  .  .  .  .  .  .  .  .  .  .  .  .  .  .  .  .  .  QS RS SS He ZJ    )) !S bm J~ a7 xS ]) ]S yS Yu 3H :v UF lI iS kx ^y zy ,z 'z VR LH PG :H 'K <I PG RG RG /K CG `F @S TS TS US US VS WS XS YS sO sO zw ww ZS eA dA eA eA yA `S  T VS  T VS .T ZE RG RG qP 6H 6H 6H 6H 6H 6H ^K 6H 6H 6H 6H PG 6H 6H 6H 6H 6H 6H 6H 6H 6H 6H 6H 6H 6H 6H 6H 6H 6H 6H 6H 6H 6H 6H 6H PG PG PG PG PG PG YF (G PG &G PG PG PG PG :H DG pS Ey wy Ay Ay Ay +T fA +E `D jO @T eA #T Ru 2y Zu 4v Zu {P {E {E !E 1D jC 2D mC !E !E {E 6G $S $T %T &T *T =j =T -T ,; @; -@ /{ ;T >T .  .  .  .  .  .  .  .  .  .  .  .  .  .  .  .  .  .  .  .  .  .  .  .  .  .  .  .  .  .  .  .  .  .  .  C$ ,T 'T )T !T ~T {T E) ]T .  .  .  .  .  .  .  .  .  .  .  .  .  .  .  .  .  .  .  .  .  .  .  .  .  .  .  .  .  .  .  .  .  .  .  .  .  .  .  .  .  .  .  .  .  .  .  .  .  .  .  .  .  .  .  .  .  .  .  .  .  .  .  .  .  .  .  .  .  .  .  .  .  .  .  .  .  .  .  .  .  .  .  .  .  .  .  .  .  .  .  .  .  .  .  .  .  .  .  .  .  .  .  .  .  .  .  .  .  .  .  .  .  .  .  .  .  .  .  .  .  .  .  .  .  .  .  .  .  .  .  .  .  .  .  .  .  .  .  .  .  .  .  .  .  .  .  .  ",
".  .  .  .  .  .  .  .  .  .  .  .  .  .  .  .  .  .  .  .  .  .  .  .  .  .  .  .  .  .  .  .  .  .  .  .  .  ^T RS SS He ZJ    )) !S bm J~ a7 xS ]) ]S yS Yu 3H :v UF lI iS kx ^y zy ,z 'z VR LH PG /T 'K <I #G RG RG }H :H (T _T IS :T :T :T :T <T [T }T |T +L }T 1T 2T 3T ,L ,L rN _J 4T :T $F 5T cI $F 6T #G PG 6H 6H 6H 6H 6H 6H 6H 6H 6H 6H 6H 6H PG 6H 6H 6H 6H 6H 6H 6H 6H 6H 6H 6H 6H 6H 6H 6H 6H 6H 6H 6H 6H 6H 6H JJ PG PG PG PG &G PG PG PG PG PG PG PG PG &G :H DG pS Dy ~y vy vy [y tN gB 7T 8T 7T sK 9T 0T JM Ly sP 4v Zu {P {E {E !E 1D jC rI mC {E !E )E aT bT cT dT eT Ps ]p fT 7J aD g% `- 0@ PS uS .  .  .  .  .  .  .  .  .  .  .  .  .  .  .  .  .  .  .  .  .  .  .  .  .  .  .  .  .  .  .  .  .  .  .  p6 gT Ll hT iT jT kT lT u7 .  .  .  .  .  .  .  .  .  .  .  .  .  .  .  .  .  .  .  .  .  .  .  .  .  .  .  .  .  .  .  .  .  .  .  .  .  .  .  .  .  .  .  .  .  .  .  .  .  .  .  .  .  .  .  .  .  .  .  .  .  .  .  .  .  .  .  .  .  .  .  .  .  .  .  .  .  .  .  .  .  .  .  .  .  .  .  .  .  .  .  .  .  .  .  .  .  .  .  .  .  .  .  .  .  .  .  .  .  .  .  .  .  .  .  .  .  .  .  .  .  .  .  .  .  .  .  .  .  .  .  .  .  .  .  .  .  .  .  .  .  .  .  .  .  .  .  .  ",
".  .  .  .  .  .  .  .  .  .  .  .  .  .  .  .  .  .  .  .  .  .  .  .  .  .  .  .  .  .  .  .  .  .  .  .  .  mT nT SS He ZJ    )) !S bm J~ a7 xS ]) ]S yS Yu 3H :v UF lI iS kx ^y zy ,z 'z VR LH PG CG 'K <I <I CG ]K RG :H (T oT pT qu AP eu qT rT sT tT JS uT dP vT LD jA UJ 2J eP wT xT /D qI 5v Kz CS yT `P {G 6H 6H 6H 6H 6H 6H 6H 6H 6H 6H 6H 6H PG 6H 6H 6H 6H 6H 6H 6H 6H 6H 6H 6H 6H 6H 6H 6H 6H 6H 6H 6H 6H 6H JJ PG YF PG PG PG PG PG PG PG PG pK PG /G PG PG GG  G pS 0C ^y vy vy )D (y yy yy zT ~y ix BB yA AT 5v Zu 4v Zu {P {E {E !E !E 1D rI BT {E !E !E CT DT ET FT O~ Q' GT Eq HT IT __ t% ]A PS uS .  .  .  .  .  .  .  .  .  .  .  .  .  .  .  .  .  .  .  .  .  .  .  .  .  .  .  .  .  .  .  .  .  .  .  JT KT LT c# %# >- MT NT *6 .  .  .  .  .  .  .  .  .  .  .  .  .  .  .  .  .  .  .  .  .  .  .  .  .  .  .  .  .  .  .  .  .  .  .  .  .  .  .  .  .  .  .  .  .  .  .  .  .  .  .  .  .  .  .  .  .  .  .  .  .  .  .  .  .  .  .  .  .  .  .  .  .  .  .  .  .  .  .  .  .  .  .  .  .  .  .  .  .  .  .  .  .  .  .  .  .  .  .  .  .  .  .  .  .  .  .  .  .  .  .  .  .  .  .  .  .  .  .  .  .  .  .  .  .  .  .  .  .  .  .  .  .  .  .  .  .  .  .  .  .  .  .  .  .  .  .  .  ",
".  .  .  .  .  .  .  .  .  .  .  .  .  .  .  .  .  .  .  .  .  .  .  .  .  .  .  .  .  .  .  .  .  .  .  .  .  q; nT SS $- GN $- )) !S bm J~ a7 xS ]) ]S yS Yu 3H :v UF lI iS kx ^y zy ,z 'z VR LH PG CG OT YP PT PT /K /G :H `F QT -G eH ,y ku oN RT ST ^K @G LJ <I ZE TT Dy _y (y !D UT VT My ru su 5v dH WT dP LH ^K ^K %G 6H qP RG RG RG 6H 6H 6H 6H PG 6H 6H 6H 6H 6H 6H 6H 6H 6H 6H 6H 6H 6H 6H 6H 6H 6H 6H 6H 6H JJ PG PG PG PG PG PG YF PG PG YF PG PG PG PG PG PG KH `F jR {z ^y (y (y [y [y zy (y ^y {y mx zB +E Rv Vu Zu 4v Zu {P {E {E !E !E 1D rI .I {E !E !E XT DT ET O' U^ n( <~ YT ZT 77 O= O+ -% `T  U .  .  .  .  .  .  .  .  .  .  .  .  .  .  .  .  .  .  .  .  .  .  .  .  .  .  .  .  .  .  .  .  .  .  .  .U +U F5 [6 L# h  @U 16 *6 .  .  .  .  .  .  .  .  .  .  .  .  .  .  .  .  .  .  .  .  .  .  .  .  .  .  .  .  .  .  .  .  .  .  .  .  .  .  .  .  .  .  .  .  .  .  .  .  .  .  .  .  .  .  .  .  .  .  .  .  .  .  .  .  .  .  .  .  .  .  .  .  .  .  .  .  .  .  .  .  .  .  .  .  .  .  .  .  .  .  .  .  .  .  .  .  .  .  .  .  .  .  .  .  .  .  .  .  .  .  .  .  .  .  .  .  .  .  .  .  .  .  .  .  .  .  .  .  .  .  .  .  .  .  .  .  .  .  .  .  .  .  .  .  .  .  .  .  ",
".  .  .  .  .  .  .  .  .  .  .  .  .  .  .  .  .  .  .  .  .  .  .  .  .  .  .  .  .  .  .  .  .  .  .  .  .  #U $U SS $- GN $- )) !S bm J~ a7 xS ]) ]S yS Yu 3H :v UF lI iS kx ^y zy ,z 'z VR LH PG RG 'K #J .G +G &G PT KH %J QT %U &U GC ku Mv *U `P @G YF @G +G  F =U _y wy wy wy hI -U NS 2y 2y ;U {L WT dP OJ %G ^J 6H 6H qP }H /G RG 6H 6H 6H 6H PG 6H 6H 6H 6H 6H 6H 6H 6H 6H 6H 6H 6H 6H 6H 6H 6H 6H 6H 6H JJ PG PG YF PG PG IG YF PG PG PG PG PG YF PG PG PG IG  G `F jR {z ^y (y (y ^y ^y wy (y (y !z jx DB yA hu Vu Zu Wu 2y {P {E {E !E !E 1D rI !E {E !E 1D .H DT ET T^ lh n( 96 F4 >U X[ ,U ,% 'U )U  U .  .  .  .  .  .  .  .  .  .  .  .  .  .  .  .  .  .  .  .  .  .  .  .  .  .  .  .  .  .  .  .  .  .  .  !U ~U %% ,5 L- $- {U Q$ *6 .  .  .  .  .  .  .  .  .  .  .  .  .  .  .  .  .  .  .  .  .  .  .  .  .  .  .  .  .  .  .  .  .  .  .  .  .  .  .  .  .  .  .  .  .  .  .  .  .  .  .  .  .  .  .  .  .  .  .  .  .  .  .  .  .  .  .  .  .  .  .  .  .  .  .  .  .  .  .  .  .  .  .  .  .  .  .  .  .  .  .  .  .  .  .  .  .  .  .  .  .  .  .  .  .  .  .  .  .  .  .  .  .  .  .  .  .  .  .  .  .  .  .  .  .  .  .  .  .  .  .  .  .  .  .  .  .  .  .  .  .  .  .  .  .  .  .  .  ",
".  .  .  .  .  .  .  .  .  .  .  .  .  .  .  .  .  .  .  .  .  .  .  .  .  .  .  .  .  .  .  .  .  .  .  .  .  ]U ^U SS $- GN $- )) !S bm J~ a7 xS ]) ]S yS Yu 3H :v UF lI iS kx ^y zy ,z 'z VR LH PG CG :H ZF QG +S {G /U #J 0K QT (U Kz _U 9H qT :U zJ JH +G $J LH ZE ND wz (y &J [y rN <U Mv RH zG JM tK WT EM NM /U SG )N iR qP /G RG RG 6H 6H 6H 6H PG 6H 6H 6H 6H 6H 6H 6H 6H 6H 6H 6H 6H 6H 6H 6H 6H 6H 6H JJ PG PG PG PG PG YF PG PG PG PG PG YF PG PG PG &G PG PG [U  G jR {z ^y (y /y /y oB 0C ^y (y ,z }U BB +E ^D GC Zu Wu Zu {P {E {E !E 1D 1D rI !E 1D !E {E !E |U ET Er 6' 6' k< Bq 1U I( G^ g. /m 2U 3U .  .  .  .  .  .  .  .  .  .  .  .  .  .  .  .  .  .  .  .  .  .  .  .  .  .  .  .  .  .  .  .  .  .  .  4U 5U T% 53 {_ 6U 7U 8U 9U .  .  .  .  .  .  .  .  .  .  .  .  .  .  .  .  .  .  .  .  .  .  .  .  .  .  .  .  .  .  .  .  .  .  .  .  .  .  .  .  .  .  .  .  .  .  .  .  .  .  .  .  .  .  .  .  .  .  .  .  .  .  .  .  .  .  .  .  .  .  .  .  .  .  .  .  .  .  .  .  .  .  .  .  .  .  .  .  .  .  .  .  .  .  .  .  .  .  .  .  .  .  .  .  .  .  .  .  .  .  .  .  .  .  .  .  .  .  .  .  .  .  .  .  .  .  .  .  .  .  .  .  .  .  .  .  .  .  .  .  .  .  .  .  .  .  .  .  ",
".  .  .  .  .  .  .  .  .  .  .  .  .  .  .  .  .  .  .  .  .  .  .  .  .  .  .  .  .  .  .  .  .  .  .  .  .  0U aU SS $- GN $- k{ (r bm J~ m< xS ]) ]S yS Yu 3H :v UF lI iS lx ^y Ey ,z 'z VR LH PG CG CG bU cU dU eU fU GL gU hU iU jU 8A kU lU mU ~N VH %G JH <I nU HD =U oU pU qU rU wA [J sU tU uU $F hU vU wU xU yU zU AU ]K RG RG RG 6H 6H 6H 6H PG 6H 6H 6H 6H 6H 6H 6H 6H 6H 6H 6H 6H 6H 6H 6H 6H 6H 6H PG PG PG PG YF PG YF PG PG PG &G PG PG PG &G PG PG PG PG  G  G jR {z ^y ^y /y Cy oB ix /y (y !D yN BU +E Ru GC Zu Wu 2y {P {E {E !E 1D jC rI !E 1D mC {E !E |U ET :{ /) ~[ T^ .o CU |. 5. F# F~ DU EU  n Zg )h FU )h GU HU )h IU JU IU KU B3 .  .  .  .  .  .  .  .  .  k# LU MU NU )h OU =D PU qh .  .  .  .  QU RU !o SU TU UU VU WU XU .  .  .  .  .  .  .  .  .  .  .  .  .  .  .  .  .  .  .  .  .  .  .  .  .  .  .  .  .  .  .  .  .  .  .  .  .  .  .  .  .  .  .  .  .  .  .  .  .  .  .  .  .  .  .  .  .  .  .  .  .  .  .  .  .  .  .  .  .  .  .  .  .  .  .  .  .  .  .  .  .  .  .  .  .  .  .  .  .  .  .  .  .  .  .  .  .  .  .  .  .  .  .  .  .  .  .  .  .  .  .  .  .  .  .  .  .  .  .  .  .  .  .  .  .  .  .  .  .  .  .  .  .  .  .  .  .  .  .  .  .  .  .  .  .  .  .  .  ",
".  .  .  .  .  .  .  .  .  .  .  .  .  .  .  .  .  .  .  .  .  .  .  .  .  .  .  .  .  .  .  .  .  .  .  .  .  YU ^U SS u( !) u( `- ZU bm |{ h< 96 `U ]S yS  v 3H 4y UF lI iS lx (y vy ,z 'z VR #G }H PG YF dP  V 4I .V lI cC 4I +V @V #V $V $V %J YE ZF +G +G +G PG PG JG %V BQ JG JH YE &V 3T qx *V aN =V ,G -V *O lI lI 4I ;V >V 0I 'K 6H 6H 6H 6H 6H PG 6H 6H iR 6H 6H 6H 6H %G NJ {G {G {G 6H 6H 6H 6H JJ PG PG PG }H IG #G #G LH GG +G PG RG PG PG PG PG PG PG PG PG GG  G jR {z ^y (y (y ^y _y ^y (y (y ,z ,V BU +E TH Uu (v su (z {P {E {E !E !E .I rI mC {E !E {E !E |U ET :{ ~[ )! >| @} Y: |. @; _; r+ I/ 'V aS p= )V !V ~V {V ]V ]V ^V /V (V _V B3 .  .  .  .  .  .  .  .  .  :V <V [V }V ]V C& ]V |V 1V [j .  .  .  .  2V 3V 4V 5V 6V 7V 8V .  .  .  .  .  .  .  .  .  .  .  .  .  .  .  .  .  .  .  .  .  .  .  .  .  .  .  .  .  .  .  .  .  .  .  .  .  .  .  .  .  .  .  .  .  .  .  .  .  .  .  .  .  .  .  .  .  .  .  .  .  .  .  .  .  .  .  .  .  .  .  .  .  .  .  .  .  .  .  .  .  .  .  .  .  .  .  .  .  .  .  .  .  .  .  .  .  .  .  .  .  .  .  .  .  .  .  .  .  .  .  .  .  .  .  .  .  .  .  .  .  .  .  .  .  .  .  .  .  .  .  .  .  .  .  .  .  .  .  .  .  .  .  .  .  .  .  .  .  ",
".  .  .  .  .  .  .  .  .  .  .  .  .  .  .  .  .  .  .  .  .  .  .  .  .  .  .  .  .  .  .  .  .  .  .  .  .  9V ^U SS ^. !) u( `- ZU bm %( ,_ Xa 0V ]S yS Yu 3H 4y ;U lI iS lx zy vy ,z 'z VR #G CG PG PG AS aV JM iu bV Uv ~K cV dV +G +G +G +G %G PG PG +G RG PG ^K PG 'K :H :H }H !G eV )D jI }y fV dN gV >y 4v Ru sy hV iV `P 'K &G 6H 6H 6H 6H 6H PG 6H 6H iR 6H 6H 6H 6H %G %G JJ {G {G 6H 6H 6H 6H PG PG PG PG }H /K #G #G GG <I <I PG RG PG PG PG PG &G PG PG PG :H  G jR {z ^y (y Ay /y (y Ey (y (y ,z ,V BU +E TH Uu ru &U ,y {P {E {E !E !E !E rI 7G {E !E 1D !E |U ET :{ ~c )! >| @} #0 |. V> 3. ;% h. d. p~ p~  - y. p~ F0 X( s3 t[ H- jV kV B3 .  .  .  .  .  .  .  .  .  lV mV nV Ua [_ E= oV pV qV .  .  .  .  .  .  .  .  .  .  .  .  .  .  .  .  .  .  .  .  .  .  .  .  .  .  .  .  .  .  .  .  .  .  .  .  .  .  .  .  .  .  .  .  .  .  .  .  .  .  .  .  .  .  .  .  .  .  .  .  .  .  .  .  .  .  .  .  .  .  .  .  .  .  .  .  .  .  .  .  .  .  .  .  .  .  .  .  .  .  .  .  .  .  .  .  .  .  .  .  .  .  .  .  .  .  .  .  .  .  .  .  .  .  .  .  .  .  .  .  .  .  .  .  .  .  .  .  .  .  .  .  .  .  .  .  .  .  .  .  .  .  .  .  .  .  .  .  .  .  .  .  .  .  .  .  .  .  .  .  .  ",
".  .  .  .  .  .  .  .  .  .  .  .  .  .  .  .  .  .  .  .  .  .  .  .  .  .  .  .  .  .  .  .  .  .  .  .  .  V@ ^U SS ^. !) u( `- ZU bm %( ,_ Xa 0V ]S yS Yu 3H 4y ;U lI iS lx zy vy ,z 'z VR #G CG PG PG AS rV JM iu Ru BJ wB &E dV }H 'K RG RG CG 'K 'K CG RG PG ^K PG 'K :H :H 'K !G eV (y ,V }y fV iB gV >y 4v Ru ^D #O DJ sV YF RG 6H 6H 6H 6H 6H PG 6H 6H iR 6H 6H 6H 6H 6H 6H 6H JJ }H 6H 6H /K PG &G PG PG PG ^K PG #G #G GG GG +G PG ]K PG PG PG PG PG PG PG PG :H  G jR {z ^y (y Ay (y [y 0C (y (y ,z ,V BU +E TH Uu &U 1v (z {P {E {E !E !E !E rI 7G {E !E 1D !E |U ET :{ ~c )! >| @} #0 |. R_ 3. ;% h. Y$ ;; M& fb 9  D# 5% b@ e/ ~f *% C| v1 I1 .  .  .  .  .  .  .  .  .  tV uV vV wV k[ D# xV yV X2 B> .  .  .  .  .  .  .  .  .  .  .  .  .  .  .  .  .  .  .  .  .  .  .  .  .  .  .  .  .  .  .  .  .  .  .  .  .  .  .  .  .  .  .  .  .  .  .  .  .  .  .  .  .  .  .  .  .  .  .  .  .  .  .  .  .  .  .  .  .  .  .  .  .  .  .  .  .  .  .  .  .  .  .  .  .  .  .  .  .  .  .  .  .  .  .  .  .  .  .  .  .  .  .  .  .  .  .  .  .  .  .  .  .  .  .  .  .  .  .  .  .  .  .  .  .  .  .  .  .  .  .  .  .  .  .  .  .  .  .  .  .  .  .  .  .  .  .  .  .  .  .  .  .  .  .  .  .  .  .  .  ",
".  .  .  .  .  .  .  .  .  .  .  .  .  .  .  .  .  .  .  .  .  .  .  .  .  .  .  .  .  .  .  .  .  .  .  .  .  V@ ^U SS ^. !) u( `- ZU bm %( ,_ Xa 0V ]S yS Yu 3H 4y ;U lI iS lx zy vy ,z 'z VR #G CG PG PG AS rV Rv >y qI 3y Nv )M dP CG CG CG 1S DG CG :H RG CG PG ^K PG 'K :H :H 'K !G eV (y jx ix kA yN gV >y 4v 3y NS #O vQ MM xJ 6H ^K 6H 6H 6H 6H PG 6H 6H iR .P .P .P .P :H (T .P .P qP .P #G YF &G &G &G &G &G ^K ^K &G  G #G .G #G /G PG PG YF PG IG PG PG PG PG :H  G jR {z ^y (y wy /y (y xz (y (y ,z ,V BU +E TH Uu &U su (z {P {E {E !E !E !E rI 7G {E !E 1D !E |U ET :{ ~c )! >| @} #0 |. @; 'f U< :; P} H' ;- ;- P= a{ s( 8@ c. >% x) ~, zV B3 .  .  .  .  .  .  .  .  .  .  AV >8 tj M+ __ BV CV d; #4 .  .  .  .  .  .  .  .  .  .  .  .  .  .  .  .  .  .  .  .  .  .  .  .  .  .  .  .  .  .  .  .  .  .  .  .  .  .  .  .  .  .  .  .  .  .  .  .  .  .  .  .  .  .  .  .  .  .  .  .  .  .  .  .  .  .  .  .  .  .  .  .  .  .  .  .  .  .  .  .  .  .  .  .  .  .  .  .  .  .  .  .  .  .  .  .  .  .  .  .  .  .  .  .  .  .  .  .  .  .  .  .  .  .  .  .  .  .  .  .  .  .  .  .  .  .  .  .  .  .  .  .  .  .  .  .  .  .  .  .  .  .  .  .  .  .  .  .  .  .  .  .  .  .  .  .  .  .  .  .  ",
".  .  .  .  .  .  .  .  .  .  .  .  .  .  .  .  .  .  .  .  .  .  .  .  .  .  .  .  .  .  .  .  .  .  .  .  .  V@ ^U SS ^. !) u( `- ZU bm %( ,_ Xa 0V ]S yS Yu 3H 4y ;U lI iS lx zy vy ,z 'z VR #G CG PG PG AS rV Rv 3y Vu vB Nv )M DV (G (G (G (G YF PG PG /K RG PG ^K PG 'K :H :H CG PT eV _y kx mx ,z EV gV iu 4v >y >y SJ vQ sV ZF }H %G 6H 6H 6H 6H PG 6H 6H 6H HG <I <I GG GG ^G VH *G wJ ]G .G wJ .G PT FV  G +G HJ LJ GV  G YF YF  G 'K YF PG PG PG YF PG PG PG PG :H xJ jR {z ^y (y !D (y [y 0C (y (y ,z ,V BU +E TH Uu ru HV VG {P {E {E !E !E .I gH 8G {E !E 1D !E |U ET :{ ~c )! >| @} #0 |. @; j! S& Z8       ^. !& u( A' z' t( 9@ e< Y{ IV JV KV j+ .  .  .  .  .  j+ .  .  LV MV NV OV jh __ PV QV d; #4 .  .  .  .  .  .  .  .  .  .  .  .  .  .  .  .  .  .  .  .  .  .  .  .  .  .  .  .  .  .  .  .  .  .  .  .  .  .  .  .  .  .  .  .  .  .  .  .  .  .  .  .  .  .  .  .  .  .  .  .  .  .  .  .  .  .  .  .  .  .  .  .  .  .  .  .  .  .  .  .  .  .  .  .  .  .  .  .  .  .  .  .  .  .  .  .  .  .  .  .  .  .  .  .  .  .  .  .  .  .  .  .  .  .  .  .  .  .  .  .  .  .  .  .  .  .  .  .  .  .  .  .  .  .  .  .  .  .  .  .  .  .  .  .  .  .  .  .  .  .  .  .  .  .  .  .  .  .  .  .  ",
".  .  .  .  .  .  .  .  .  .  .  .  .  .  .  .  .  .  .  .  .  .  .  .  .  .  .  .  .  .  .  .  .  .  .  .  .  <Q RV SS ^. !) u( `- ZU bm %( ,_ Xa 0V ]S yS Yu 3H 4y ;U lI iS lx zy vy ,z 'z VR #G CG PG PG AS SV 9H >y My }v Nv cV DV ^K ^K ^K ^K ^K ^K ^K ^K PG PG ^K PG 'K :H CG }H nU eV ^y mx jx Cy TV UV 3G Uu (v Vu `C vQ &O 0I RG 6H 6H 6H 6H 6H PG 6H 6H 6H }H #G LH DG [H LH TE VV WV XV YV ZV )J `V `V `V  W .W +W @W :H %G /K RG DG <I PG PG PG PG PG PG PG PG DG `F jR {z ^y (y &J (y (y xz (y (y ,z ,V BU +E TH Uu &U 1v ru {P {E {E !E !E 1D 2D mC {E !E 1D !E |U ET :{ ~c )! >| @} #0 |. @; c@ E~ ^.       `-  * u( F> J- s# i) /{ O> #W $W %W s: &W *W =W p: p: -W ;W ;W >W S, ,W k& 'W )W !W ~W =2 #4 .  .  .  .  .  .  .  .  .  .  .  .  .  .  .  .  .  .  .  .  .  .  .  .  .  .  .  .  .  .  .  .  .  .  .  .  .  .  .  .  .  .  .  .  .  .  .  .  .  .  .  .  .  .  .  .  .  .  .  .  .  .  .  .  .  .  .  .  .  .  .  .  .  .  .  .  .  .  .  .  .  .  .  .  .  .  .  .  .  .  .  .  .  .  .  .  .  .  .  .  .  .  .  .  .  .  .  .  .  .  .  .  .  .  .  .  .  .  .  .  .  .  .  .  .  .  .  .  .  .  .  .  .  .  .  .  .  .  .  .  .  .  .  .  .  .  .  .  .  .  .  .  .  .  .  .  .  .  .  .  ",
".  .  .  .  .  .  .  .  .  .  .  .  .  .  .  .  .  .  .  .  .  .  .  .  .  .  .  .  .  .  .  .  .  .  .  .  .  {W ]W SS ^. !) u( `- ZU bm %( ,_ Xa 0V ]S yS Yu 3H 4y ;U lI iS lx zy vy ,z 'z VR #G RG PG PG AS SV 9H >y My }v Nv cV WH ^K ^K ^K @G ^K pK ^K ^K CG PG ^K PG 'K :H :H CG nU eV oB kx jx {y TV UV 3G su ,y Vu 9H ^W &O .P 6H 6H 6H 6H 6H 6H PG 6H 6H 6H }H ]K QG GG `F /W (W _W dA #E `D #E #E #E #E #E #E aA :W (G RG %G 6H RG DG <I PG PG PG PG PG PG PG PG DG `F jR {z ^y (y Ay (y [y Ey (y (y ,z ,V BU +E TH Uu &U ZC <W {P {E {E !E !E 1D 2D mC {E !E 1D !E |U ET :{ ~c )! >| @} #0 |. @; ({ M& ;;    ;; r~ -; M& e< s( .@ ]. !. D/ [W }W |W 1W 2W 3W 4W 5W 4W 6W 4W 5W 7W 8W 9W 0W aW bW cW dW eW .  .  .  .  .  .  .  .  .  .  .  .  .  .  .  .  .  .  .  .  .  .  .  .  .  .  .  .  .  .  .  .  .  .  .  .  .  .  .  .  .  .  .  .  .  .  .  .  .  .  .  .  .  .  .  .  .  .  .  .  .  .  .  .  .  .  .  .  .  .  .  .  .  .  .  .  .  .  .  .  .  .  .  .  .  .  .  .  .  .  .  .  .  .  .  .  .  .  .  .  .  .  .  .  .  .  .  .  .  .  .  .  .  .  .  .  .  .  .  .  .  .  .  .  .  .  .  .  .  .  .  .  .  .  .  .  .  .  .  .  .  .  .  .  .  .  .  .  .  .  .  .  .  .  .  .  .  .  .  .  .  ",
".  .  .  .  .  .  .  .  .  .  .  .  .  .  .  .  .  .  .  .  .  .  .  .  .  .  .  .  .  .  .  .  .  .  .  .  .  {W fW SS ^. !) u( `- ZU bm %( ,_ Xa 0V ]S yS Yu 3H 4y ;U lI iS lx zy vy ,z 'z VR #G RG PG PG AS SV 9H >y My }v Nv cV WH PG IG IG IG IG IG IG IG :H PG ^K PG 'K DG CG }H JH eV Cy ox jx {y TV UV 3G su ,y JC tx gW hW wJ 6H 6H 6H 6H 6H 6H PG 6H 6H 6H }H qP ^K xJ `F gU DS lS NG lK sy GB GB Sv Sv Sv Sv hV iW .P  G 6H PG RG DG <I YF PG PG PG &G PG PG PG DG `F jR {z ^y (y vy [y (y Ey wz (y yy ,V BU +E TH Uu ru EH ru {P {E {E !E !E 1D 2D mC {E !E 1D !E |U ET :{ ~c )! >| @} #0 |. @; 5. g% e< 9@ x> M& 0@ 2. 9@ ,% 4) P+ H' K/ R+ '* jW kW xd V6 kW B< d] `z Y* G' 33 lW (g .  .  .  .  .  .  .  .  .  .  .  .  .  .  .  .  .  .  .  .  .  .  .  .  .  .  .  .  .  .  .  .  .  .  .  .  .  .  .  .  .  .  .  .  .  .  .  .  .  .  .  .  .  .  .  .  .  .  .  .  .  .  .  .  .  .  .  .  .  .  .  .  .  .  .  .  .  .  .  .  .  .  .  .  .  .  .  .  .  .  .  .  .  .  .  .  .  .  .  .  .  .  .  .  .  .  .  .  .  .  .  .  .  .  .  .  .  .  .  .  .  .  .  .  .  .  .  .  .  .  .  .  .  .  .  .  .  .  .  .  .  .  .  .  .  .  .  .  .  .  .  .  .  .  .  .  .  .  .  .  .  .  .  .  .  .  .  ",
".  .  .  .  .  .  .  .  .  .  .  .  .  .  .  .  .  .  .  .  .  .  .  .  .  .  .  .  .  .  .  .  .  .  .  .  .  V@ ^U SS ^. !) u( `- ZU bm %( ,_ Xa 0V ]S yS Yu 3H 4y ;U lI iS lx zy vy ,z 'z VR #G IG PG PG KS SV 9H HB My YR 7R cV oK CG CG CG CG RG :H CG CG DG PG ^K PG (G 'K 'K }H nU eV ^y ~z {y {y UJ #E 3G 4v Zu GC mW vQ xN PG PG PG JJ 6H ]K RG PG 6H JJ {G }H RG &G  G nW ~J lI Ny 2y Zu GC :v 2y :v :v :v JC au oW wJ RG }H qP RG GG PT YF PG PG @G PG PG PG PG  G DG jR {z ^y (y tA [y (y oB _y _y ,z ,V >L +E TH Uu (v su ru {P {E {E !E !E .I 2D mC {E !E 1D !E |U ET pW :{ ^) >| d| #0 y' @; b@ Q- A' t( t( 0@ 0@ :; )&    K# !. !. r& E~ @@ X> 5{ P= P= &{ ]{ qW qW 3& h% t+ rW g= .  .  .  .  .  .  .  .  .  .  .  .  .  .  .  .  .  .  .  .  .  .  .  .  .  .  .  .  .  .  .  .  .  .  .  .  .  .  .  .  .  .  .  .  .  .  .  .  .  .  .  .  .  .  .  .  .  .  .  .  .  .  .  .  .  .  .  .  .  .  .  .  .  .  .  .  .  .  .  .  .  .  .  .  .  .  .  .  .  .  .  .  .  .  .  .  .  .  .  .  .  .  .  .  .  .  .  .  .  .  .  .  .  .  .  .  .  .  .  .  .  .  .  .  .  .  .  .  .  .  .  .  .  .  .  .  .  .  .  .  .  .  .  .  .  .  .  .  .  .  .  .  .  .  .  .  .  .  .  .  .  .  .  .  .  .  .  ",
".  .  .  .  .  .  .  .  .  .  .  .  .  .  .  .  .  .  .  .  .  .  .  .  .  .  .  .  .  .  .  .  .  .  .  .  .  V@ ^U SS ^. !) u( `- ZU bm %( ,_ Xa 0V ]S yS Yu 3H 4y ;U lI iS lx (y vy ,z 'z VR <I PG PG OT qK sW Ov ku ku HB tW cV dV CG CG CG :H RG 'K DG `E +G +G +G +G +G +G +G +G HL eV Ey oB cH uW 2J #E 9H >y :v 4v =P vQ *G PG RG +G +G ^K }H RG }H ^K .G vW <I +G DG  G #J wW xW 3y Zu 2y GC Vu Vu >y ,y ,y >y yW zW AW CG RG RG OT +G GG ,K ^K ^K ^K ^K ^K ^K ^K 'K /T cU {z ^y (y Ay 9C 9C ^y {y ^y ,z }y >L +E #z 4v >y BA sP {P {E {E !E !E !E rI BN {E !E 1D !E |U ET T^ +^ ^) >| F4 #0 `' Y$ r& ;; ;; .; ;; ;; ;; ;; 4/ t{ @; x1 .@ ;; 9@ 8@ ;; 5. b@ g% (% 9@ :; 3. /@ Q1 u} 6^ BW .  .  .  .  .  .  .  .  .  .  .  .  .  .  .  .  .  .  .  .  .  .  .  .  .  .  .  .  .  .  .  .  .  .  .  .  .  .  .  .  .  .  .  .  .  .  .  .  .  .  .  .  .  .  .  .  .  .  .  .  .  .  .  .  .  .  .  .  .  .  .  .  .  .  .  .  .  .  .  .  .  .  .  .  .  .  .  .  .  .  .  .  .  .  .  .  .  .  .  .  .  .  .  .  .  .  .  .  .  .  .  .  .  .  .  .  .  .  .  .  .  .  .  .  .  .  .  .  .  .  .  .  .  .  .  .  .  .  .  .  .  .  .  .  .  .  .  .  .  .  .  .  .  .  .  .  .  .  .  .  .  .  .  .  .  .  .  ",
".  .  .  .  .  .  .  .  .  .  .  .  .  .  .  .  .  .  .  .  .  .  .  .  .  .  .  .  .  .  .  .  .  .  .  .  .  V@ ^U SS ^. !) u( `- ZU bm %( ,_ Xa 0V ]S yS Yu 3H 4y ;U lI iS lx (y zy ,z 'z VR <I PG PG OT DM CW [D GH ED 9H ^D +V dP +G +G +G +G <H |H /K YF +G +G +G .G &G YF YF <I HL DW (y _y bH uW 2J #E 9H >y :v 4v EW vQ *G PG RG +G +G ^K }H RG }H @J PT MM MM .G PT .G MM wW nI ]D >y :v :v :v :v :v :v :v nu 0u FW GW &G &G &G +G +G [H ,K ^K @G ^K ^K ^K ^K ^K 'K /T cU {z ^y (y wy yz 9C ix _y ,z gx BG >L yA #z My >y Fw sP {P {E {E !E !E !E rI BN {E !E 1D !E |U ET T^ +^ ^) -_ .o #0 `' /| r& ;; ;; .; ;; ;; ;; ;; ## .{ M- _;    t( t( t( Y$ !& Z* Z* Z* .* +e N| 1  Ed U6 7^ HW .  .  .  .  .  .  .  .  .  .  .  .  .  .  .  .  .  .  .  .  .  .  .  .  .  .  .  .  .  .  .  .  .  .  .  .  .  .  .  .  .  .  .  .  .  .  .  .  .  .  .  .  .  .  .  .  .  .  .  .  .  .  .  .  .  .  .  .  .  .  .  .  .  .  .  .  .  .  .  .  .  .  .  .  .  .  .  .  .  .  .  .  .  .  .  .  .  .  .  .  .  .  .  .  .  .  .  .  .  .  .  .  .  .  .  .  .  .  .  .  .  .  .  .  .  .  .  .  .  .  .  .  .  .  .  .  .  .  .  .  .  .  .  .  .  .  .  .  .  .  .  .  .  .  .  .  .  .  .  .  .  .  .  .  .  .  .  ",
".  .  .  .  .  .  .  .  .  .  .  .  .  .  .  .  .  .  .  .  .  .  .  .  .  .  .  .  .  .  .  .  .  .  .  .  .  V@ ^U SS ^. !) u( `- ZU bm %( ,_ Xa 0V ]S yS Yu 3H 4y ;U lI iS lx (y vy ,z 'z VR <I PG PG CG wJ IW WN JW cI KW LW MW NW *G *G *G OW _H wJ +P @J {G >P >P >P 8N _H +P +P PW QW aH zy ^y :y 2J #E 9H >y :v &z sz vQ *G PG RG +G +G PG }H RG /K YF DG qQ RW 0P RW NW SW ~J 6I -G -G TW hC vN eN @O UW VW UW hV fN WW AS XW XW qQ OJ MH ,K ^K ^K ^K ^K ^K ^K ^K 'K /T cU {z ^y (y wy }y uz uz mB ,N .O fC fI yA %z 4v >y <G sP {P {E {E !E !E !E rI BN {E !E 1D !E |U ET T^ +^ ^) -_ .o #0 `' /| r& ;; ;; .; ;; ;; ;; ;; V' YW ZW `W  X .X +X @X W* ;/ #X $X %X %X %X %X &X *X =X -X ;X .  .  .  .  .  .  .  .  .  .  .  .  .  .  .  .  .  .  .  .  .  .  .  .  .  .  .  .  .  .  .  .  .  .  .  .  .  .  .  .  .  .  .  .  .  .  .  .  .  .  .  .  .  .  .  .  .  .  .  .  .  .  .  .  .  .  .  .  .  .  .  .  .  .  .  .  .  .  .  .  .  .  .  .  .  .  .  .  .  .  .  .  .  .  .  .  .  .  .  .  .  .  .  .  .  .  .  .  .  .  .  .  .  .  .  .  .  .  .  .  .  .  .  .  .  .  .  .  .  .  .  .  .  .  .  .  .  .  .  .  .  .  .  .  .  .  .  .  .  .  .  .  .  .  .  .  .  .  .  .  .  .  .  .  .  .  .  ",
".  .  .  .  .  .  .  .  .  .  .  .  .  .  .  .  .  .  .  .  .  .  .  .  .  .  .  .  .  .  .  .  .  .  .  .  .  V@ ^U SS ^. !) u( `- ZU bm %( ,_ Xa 0V ]S yS Yu 3H 4y ;U lI iS lx (y uy ,z 'z VR <I PG PG CG GG >X BS ,X BS wN 'X )X !X ~X {X ]X ^X =V /X (X _X :X :X :X :X :X :X :X :X :X pB wz lA Cy TR 2J #E 9H >y :v <G sz vQ *G PG RG +G +G PG RG }H /G /T ZE FL <X ^X ^X ^X ^X 2R [X }X fN }X }X }X }X }X }X }X }X US |X 1X 2X ~X 3X 4X 5X 6X ^K ^K ^K ^K ^K ^K ^K ^K GG /T cU {z ^y (y wy zB _N kU `D fA fA 7X 8X 9X iu Vu >y &z sP {P {E {E !E !E !E rI BN {E !E 1D !E |U ET T^ +^ ^) -_ .o #0 `' /| r& ;; ;; .; ;; ;; ;; ;; 0X aX bX cX dX eX dX fX gX [v hX iX iX jX $K kX lX mX cX nj bL .  .  .  .  .  .  .  .  .  .  .  .  .  .  .  .  .  .  .  .  .  .  .  .  .  .  .  .  .  .  .  .  .  .  .  .  .  .  .  .  .  .  .  .  .  .  .  .  .  .  .  .  .  .  .  .  .  .  .  .  .  .  .  .  .  .  .  .  .  .  .  .  .  .  .  .  .  .  .  .  .  .  .  .  .  .  .  .  .  .  .  .  .  .  .  .  .  .  .  .  .  .  .  .  .  .  .  .  .  .  .  .  .  .  .  .  .  .  .  .  .  .  .  .  .  .  .  .  .  .  .  .  .  .  .  .  .  .  .  .  .  .  .  .  .  .  .  .  .  .  .  .  .  .  .  .  .  .  .  .  .  .  .  .  .  .  .  ",
".  .  .  .  .  .  .  .  .  .  .  .  .  .  .  .  .  .  .  .  .  .  .  .  .  .  .  .  .  .  .  .  .  .  .  .  .  V@ ^U SS ^. !) u( `- ZU bm %( ,_ Xa 0V ]S yS Yu 3H 4y ;U lI iS lx (y >z ,z 'z VR <I PG PG :H GG `F JS MH )G DV nX QT (U oX ED pX QH `D YH vy vy ,z {y Cy Cy ^y ^y ^y ^y ^y vz (y pB Cy 7C 2J #E 9H My ,y Vu qX gW *G PG RG .G #G PG RG /K $L DG DG rX lI ]D SJ IS cI sX tX LM uX vX 0N 0N 0N YP PJ PJ 0N sT +V (U Mv |v 9K wX xX `P ^K @G ^K ^K ^K @G ^K ^K CG CG yX {z ^y (y vy tA ]z zX wX tB au =K Ru /D NS My >y &z sP {P {E {E !E !E !E rI 7G {E !E 1D !E |U ET T^ +^ ^) >| @} #0 `' /| r& ;; ;; .; ;; r& r& r& AX BX K_ .  .  CX .  .  .  .  .  .  .  .  .  .  .  .  pj 9k .  .  .  .  .  .  .  .  .  .  .  .  .  .  .  .  .  .  .  .  .  .  .  .  .  .  .  .  .  .  .  .  .  .  .  .  .  .  .  .  .  .  .  .  .  .  .  .  .  .  .  .  .  .  .  .  .  .  .  .  .  .  .  .  .  .  .  .  .  .  .  .  .  .  .  .  .  .  .  .  .  .  .  .  .  .  .  .  .  .  .  .  .  .  .  .  .  .  .  .  .  .  .  .  .  .  .  .  .  .  .  .  .  .  .  .  .  .  .  .  .  .  .  .  .  .  .  .  .  .  .  .  .  .  .  .  .  .  .  .  .  .  .  .  .  .  .  .  .  .  .  .  .  .  .  .  .  .  .  .  .  .  .  .  .  .  .  .  ",
".  .  .  .  .  .  .  .  .  .  .  .  .  .  .  .  .  .  .  .  .  .  .  .  .  .  .  .  .  .  .  .  .  .  .  .  .  DX EX SS ^. !) u( `- ZU bm %( ,_ Xa 0V ]S yS Yu 3H 4y ;U lI iS lx (y vy ,z 'z VR <I PG PG :H `F PJ DG DG DG #J 0K QT (U ^D hu gu FX `D ^N Ay ,z vz _y (y zy wz (y wz wz (y ^y (y _y Cy 7C 2J #E 9H My ,y Vu qX gW *G PG CG #G +G PG RG ]K PG DG DG rX GX 2y 4y DC XN HX tT PJ  G DG IX DG !G DG DG DG DG OH +V wB Vu 'y +v 9H &M DV ^K ^K ^K ^K ^K ^K ^K ^K }H :H JX {z ^y (y Ay }y cB KX Sv &P iu 3v Ru /D qz My >y &z sP {P {E {E !E !E !E rI 7G {E !E 1D !E |U ET T^ +^ ^) >| @} #0 `' /| r& ;; ;; .; ;; r& r& r& LX I< MX .  .  .  .  .  .  .  .  .  .  .  .  .  .  .  .  .  .  .  .  .  .  .  .  .  .  .  .  .  .  .  .  .  .  .  .  .  .  .  .  .  .  .  .  .  .  .  .  .  .  .  .  .  .  .  .  .  .  .  .  .  .  .  .  .  .  .  .  .  .  .  .  .  .  .  .  .  .  .  .  .  .  .  .  .  .  .  .  .  .  .  .  .  .  .  .  .  .  .  .  .  .  .  .  .  .  .  .  .  .  .  .  .  .  .  .  .  .  .  .  .  .  .  .  .  .  .  .  .  .  .  .  .  .  .  .  .  .  .  .  .  .  .  .  .  .  .  .  .  .  .  .  .  .  .  .  .  .  .  .  .  .  .  .  .  .  .  .  .  .  .  .  .  .  .  .  .  .  .  .  .  .  .  .  .  ",
".  .  .  .  .  .  .  .  .  .  .  .  .  .  .  .  .  .  .  .  .  .  .  .  .  .  .  .  .  .  .  .  .  .  .  .  .  NX ^U SS ^. !) u( `- ZU bm %( ,_ Xa 0V ]S yS Yu 3H 4y ;U lI iS lx (y zy ,z 'z VR <I PG PG OT NH <I 'K :H DG  G >P QT (U Ru Ru OX Mv PX QX uz Cy (y wy Ay Ay Ay uy wy XC (y ^y (y _y {y 7C 2J #E 9H My ,y Vu qX gW *G PG RG <I #G PG RG %G PG DG EG RX SX eH VG 2y lK xW TX .G RG PG YF QG HG QG wJ wJ PG UX +V @Q _z VX Uu Rv &M _G ^K ^K ^K ^K ^K ^K ^K ^K OT /T JX {z ^y (y vy }y eP KX UG Wu su su _v _v +v >y >y Wu sP {P {E {E !E !E !E rI 7G {E !E 1D !E |U ET T^ +^ ^) >| @} #0 `' /| r& ;; ;; .; ;; r& r& r& WX XX YX .  .  .  .  .  .  .  .  .  .  .  .  .  .  .  .  .  .  .  .  .  .  .  .  .  .  .  .  .  .  .  .  .  .  .  .  .  .  .  .  .  .  .  .  .  .  .  .  .  .  .  .  .  .  .  .  .  .  .  .  .  .  .  .  .  .  .  .  .  .  .  .  .  .  .  .  .  .  .  .  .  .  .  .  .  .  .  .  .  .  .  .  .  .  .  .  .  .  .  .  .  .  .  .  .  .  .  .  .  .  .  .  .  .  .  .  .  .  .  .  .  .  .  .  .  .  .  .  .  .  .  .  .  .  .  .  .  .  .  .  .  .  .  .  .  .  .  .  .  .  .  .  .  .  .  .  .  .  .  .  .  .  .  .  .  .  .  .  .  .  .  .  .  .  .  .  .  .  .  .  .  .  .  .  .  ",
".  .  .  .  .  .  .  .  .  .  .  .  .  .  .  .  .  .  .  .  .  .  .  .  .  .  .  .  .  .  .  .  .  .  .  .  .  V@ ^U SS ^. !) u( `- ZU bm ^f ,_ ZX 0V ]S yS Yu 3H 4y <v zS iS 8C (y vy ,z 'z VR <I PG PG 'K <I *G RG RG RG DG >P QT -G Ru 4v 3y ku 0A ^N mB YG HC Ay BM `X Ay Ay Ay wy !D <y wy _y Cy :y 2J #E 9H NS JC >y qX gW *G PG 'K +G .G RG RG %G PG DG DG  Y SX su VX &U <z .Y +Y @Y RG 6H PG }H ]K /K ]K JJ PG #Y +V $Y #v Yu `u JM JD <I ^K ^K ^K ^K ^K ^K ^K ^K OT /T %Y {z ^y !D HC Az wT >E Ly _z VX =z su >y ou Vu 2y Wu Zu {P {E {E !E !E !E rI 7G 7G !E 1D !E |U ET T^ {8 ^) -_ @} #0 `' /| r& ;; ;; N# a@ b@ j! J' ]/ |} MX .  .  .  .  .  .  .  .  .  .  .  .  .  .  .  .  .  .  .  .  .  .  .  .  .  .  .  .  .  .  .  .  .  .  .  .  .  .  .  .  .  .  .  .  .  .  .  .  .  .  .  .  .  .  .  .  .  .  .  .  .  .  .  .  .  .  .  .  .  .  .  .  .  .  .  .  .  .  .  .  .  .  .  .  .  .  .  .  .  .  .  .  .  .  .  .  .  .  .  .  .  .  .  .  .  .  .  .  .  .  .  .  .  .  .  .  .  .  .  .  .  .  .  .  .  .  .  .  .  .  .  .  .  .  .  .  .  .  .  .  .  .  .  .  .  .  .  .  .  .  .  .  .  .  .  .  .  .  .  .  .  .  .  .  .  .  .  .  .  .  .  .  .  .  .  .  .  .  .  .  .  .  .  .  .  ",
".  .  .  .  .  .  .  .  .  .  .  .  .  .  .  .  .  .  .  .  .  .  .  .  .  .  .  .  .  .  .  .  .  .  .  .  .  &Y ^U 63 *Y 3u x> 0  te Ae J~ ]) G6 up ]S =Y Yu 3H :v ou zS -Y Cy ^y [y ,z 'z VR LH ^K /K PG ^K ^K PG RG RG IG nO ;Y (U `G `G tB >Y +E ,Y /H 3T }y }y 0H rx 'Y }y }y }y cB fC fC TV Az yN eC #E -G zG :K -G hV gW *G xJ :H RG PG PG RG ,K +G DG DG  Y SX Vu >y ,y 3y HX )Y NJ RG CG RG }H ^J %G ^K JJ _H !Y QX ~Y ru Yu 4v tB {Y +S PG @G YF .G LJ _H +G NM /K }H ]Y ^Y fC hI hI hI VD /Y My >y su Vu >y >y 1y 1y :v :v Zu {P {E {E !E 1D 7G 2D jC QM !E !E !E |U ET ^) ^) ^) 3( (Y c| y' @; h% ## ,[ _Y :Y ^O <Y [Y }Y |Y YX .  .  .  .  .  .  .  .  .  .  .  .  .  .  .  .  .  .  .  .  .  .  .  .  .  .  .  .  .  .  .  .  .  .  .  .  .  .  .  .  .  .  .  .  .  .  .  .  .  .  .  .  .  .  .  .  .  .  .  .  .  .  .  .  .  .  .  .  .  .  .  .  .  .  .  .  .  .  .  .  .  .  .  .  .  .  .  .  .  .  .  .  .  .  .  .  .  .  .  .  .  .  .  .  .  .  .  .  .  .  .  .  .  .  .  .  .  .  .  .  .  .  .  .  .  .  .  .  .  .  .  .  .  .  .  .  .  .  .  .  .  .  .  .  .  .  .  .  .  .  .  .  .  .  .  .  .  .  .  .  .  .  .  .  .  .  .  .  .  .  .  .  .  .  .  .  .  .  .  .  .  .  .  .  .  ",
".  .  .  .  .  .  .  .  .  .  .  .  .  .  .  .  .  .  .  .  .  .  .  .  .  .  .  .  .  .  .  .  .  .  .  .  .  1Y ^U Ge 4) D# e< bh 2Y N( 8/ s/ `5 ]8 ]S yS #v 3H ,y /v hS 3Y {y /y vy ,z 'z VR QG ^K ^K qP PG PG PG ^K @G @G 9N >X 4Y 5Y &M -J &M 6Y ]F <J iQ 7Y XS ww ww ,G VF iQ XS tw 8Y 8Y iQ VF 8Y 9Y FQ PH 0Y &M aY `L bY *G <I PG PG PG PG :H <I +G DG GG  Y GX Ru 5v GC GC .Y WH YF GG YF IG KH 'M cY dY dY dY _T !X eY _v fY iu 9H XL +S }H PG YF <I gY mQ dY hY hY iY tQ ,G <J Gz Gz 4H 8Y 1y 4v My 4v 5N 3y jY kY lY mY nY oY pY {E {E !E 1D 5G rI mC {E !E !E qY |U ET ^) ~[ T^ '! rY aJ k| @; da I( sY tY uY uY vY wY xY yY {3 .  .  .  .  .  .  .  .  .  .  .  .  .  .  .  .  .  .  .  .  .  .  .  .  .  .  .  .  .  .  .  .  .  .  .  .  .  .  .  .  .  .  .  .  .  .  .  .  .  .  .  .  .  .  .  .  .  .  .  .  .  .  .  .  .  .  .  .  .  .  .  .  .  .  .  .  .  .  .  .  .  .  .  .  .  .  .  .  .  .  .  .  .  .  .  .  .  .  .  .  .  .  .  .  .  .  .  .  .  .  .  .  .  .  .  .  .  .  .  .  .  .  .  .  .  .  .  .  .  .  .  .  .  .  .  .  .  .  .  .  .  .  .  .  .  .  .  .  .  .  .  .  .  .  .  .  .  .  .  .  .  .  .  .  .  .  .  .  .  .  .  .  .  .  .  .  .  .  .  .  .  .  .  .  .  ",
".  .  .  .  .  .  .  .  .  .  .  .  .  .  .  .  .  .  .  .  .  .  .  .  .  .  .  .  .  .  .  .  .  .  .  .  .  zY AY JR t{ G{    uj ,l pW P' z{ ~c `U ]S yS Vu ,y 3H _z (S 3Y {y ^y vy zz 'z VR ,K ^K ^K ]K PG PG PG ^K %G nO nO MS BY eR qK EM CY 'X WN sy _U NS AP 3y ju ju +v NS |v NS 3y NS qI DY :D cI EY EM sV SW uT uT FY ^K ^K ^K ^K PG PG DG <I JH DG GG  Y 8I Ru 5v &U GC .Y WH (G DG #G ZF *L (K GY HY _y vy 9C VF IY nz py GB 9H JY LJ }H PG YF LH KY 'z pB Cy ~z LY MY cI 3G ]H =P Ru TH *z *P My >y Fw :z NY  D LC !E .I 3S OY {E {E !E 1D 5G rI .I {E aT !E PY DT QY U^ k< T^ tf RY >4 h) @; 5%    SY TY 39 39 UY UY UY VY q6 .  .  .  .  .  .  .  .  .  .  .  .  .  .  .  .  .  .  .  .  .  .  .  .  .  .  .  .  .  .  .  .  .  .  .  .  .  .  .  .  .  .  .  .  .  .  .  .  .  .  .  .  .  .  .  .  .  .  .  .  .  .  .  .  .  .  .  .  .  .  .  .  .  .  .  .  .  .  .  .  .  .  .  .  .  .  .  .  .  .  .  .  .  .  .  .  .  .  .  .  .  .  .  .  .  .  .  .  .  .  .  .  .  .  .  .  .  .  .  .  .  .  .  .  .  .  .  .  .  .  .  .  .  .  .  .  .  .  .  .  .  .  .  .  .  .  .  .  .  .  .  .  .  .  .  .  .  .  .  .  .  .  .  .  .  .  .  .  .  .  .  .  .  .  .  .  .  .  .  .  .  .  .  .  .  ",
".  .  .  .  .  .  .  .  .  .  .  .  .  .  .  .  .  .  .  .  .  .  .  .  .  .  .  .  .  .  .  .  .  .  .  .  .  WY XY YY u( ') >% bh ZY `Y .( n/ ~c @h ]S yS `u IB 3H 7v (S  Z Cy ^y zB ,z 'z VR <I @G PG /G PG PG PG ^K @G JG .Z @J &G OT +Z }S @Z #Z $Z ;U `u Uu >y Vu >y My &z 4v Xu 4v iu Uu %Z IB >y -G EY *G >P &Z LH YE @G %G %G 6H %G PG PG :H <I JH DG GG  Y 8I ^D |v (D GC .Y AS GG DG #G MH nO *Z =Z Cy yy Dz AB `D (D &U `u NS 9H -Z LJ OT PG YF LH ]Y 'z _y _y ,z 'Y %E $F Ru Uu qI Ru Ru 6v :z My Vu My 2y :N  D 5G aT !E 7G gH {E {E !E .I SM rI ;Z QM !E 1D .H |U >Z 96 n( ^) 3( d| 1U ]. 9  g@ ,Z 'Z )Z .  .  .  .  .  .  .  .  .  .  .  .  .  .  .  .  .  .  .  .  .  .  .  .  .  .  .  .  .  .  .  .  .  .  .  .  .  .  .  .  .  .  .  .  .  .  .  .  .  .  .  .  .  .  .  .  .  .  .  .  .  .  .  .  .  .  .  .  .  .  .  .  .  .  .  .  .  .  .  .  .  .  .  .  .  .  .  .  .  .  .  .  .  .  .  .  .  .  .  .  .  .  .  .  .  .  .  .  .  .  .  .  .  .  .  .  .  .  .  .  .  .  .  .  .  .  .  .  .  .  .  .  .  .  .  .  .  .  .  .  .  .  .  .  .  .  .  .  .  .  .  .  .  .  .  .  .  .  .  .  .  .  .  .  .  .  .  .  .  .  .  .  .  .  .  .  .  .  .  .  .  .  .  .  .  .  .  .  .  .  .  .  ",
".  .  .  .  .  .  .  .  .  .  .  .  .  .  .  .  .  .  .  .  .  .  .  .  .  .  .  .  .  .  .  .  .  .  .  .  .  #U XY ll =c *) !@ ^m !Z '! J~ U8 ^) ~Z ]S yS Yu Yu {Z qI (S SL ]Z 8C 9C kx 'z VR #G  G :H DG +G &G pK %G YF JH NJ {K RG RG }H NJ #Y ^Z /Z Ru qy 4v 4v Vu Vu Wu 4v Xu 4v 4v Ru ru 3H 3H (Z _Z :Z ^K PG  G <Z }H [Z RG RG qP JJ PG PG :H <I JG DG GG  Y &F hu |v Jy eH .Y WV DG EG <H 1S +G (K )z {y Cy Cy yN gV qu (z ZC +v |D iI 'P CG PG PG LH }Z 'z oB (y 8C |Z XI `G Ru Wu su su 2v My <G My 5v 4v 3y :N 7G 1D .I qY .I gH !E !E !E !E  D rI 1Z +H BN mC 2Z DT 3Z 4Z n) /f -_ 5Z >4 Lc gd bh $f 6Z lP .  .  .  .  .  .  .  .  .  .  .  .  .  .  .  .  .  .  .  .  .  .  .  .  .  .  .  .  .  .  .  .  .  .  .  .  .  .  .  .  .  .  .  .  .  .  .  .  .  .  .  .  .  .  .  .  .  .  .  .  .  .  .  .  .  .  .  .  .  .  .  .  .  .  .  .  .  .  .  .  .  .  .  .  .  .  .  .  .  .  .  .  .  .  .  .  .  .  .  .  .  .  .  .  .  .  .  .  .  .  .  .  .  .  .  .  .  .  .  .  .  .  .  .  .  .  .  .  .  .  .  .  .  .  .  .  .  .  .  .  .  .  .  .  .  .  .  .  .  .  .  .  .  .  .  .  .  .  .  .  .  .  .  .  .  .  .  .  .  .  .  .  .  .  .  .  .  .  .  .  .  .  .  .  .  .  .  .  .  .  .  .  ",
".  .  .  .  .  .  .  .  .  .  .  .  .  .  .  .  .  .  .  .  .  .  .  .  .  .  .  .  .  .  .  .  .  .  .  .  .  7Z 8Z SS P! 9Z E~ 77 ,l 0Z Ac :] l< Sg ]S yS Tu Vu 2y Tv -F  Z /y XG }y mx zT aZ VH `F :H CG +G ^K ^K +G PG +G (G qP RG RG RG PG hW ^Z _K /v TF 2y 2y 2y 2y 2y 2y 2y >y qz qz Zu Qt Qt qS %U bZ PG RG CG CG CG RG RG RG RG RG PG PG :H <I HL DG GG  Y GX ku ku Zu cZ .Y DV {G DG GV  G PT dZ Ey Dy ^y 0C ;z ^z eZ fZ gZ hZ 9H iZ 8N IG PG PG LH OM 'z ^y _y _y 9C XI $F Ru >y ZC ru _v My 5v 5v 4v Fw *z :N kC .I BT jZ aT ,O !E !E !E )E {E kZ lZ jC hN BN 2Z |U mZ :h || Q' ;_ 5Z >4 V+ e< [[ G{ nZ lP .  .  .  .  .  .  .  .  .  .  .  .  .  .  .  .  .  .  .  .  .  .  .  .  .  .  .  .  .  .  .  .  .  .  .  .  .  .  .  .  .  .  .  .  .  .  .  .  .  .  .  .  .  .  .  .  .  .  .  .  .  .  .  .  .  .  .  .  .  .  .  .  .  .  .  .  .  .  .  .  .  .  .  .  .  .  .  .  .  .  .  .  .  .  .  .  .  .  .  .  .  .  .  .  .  .  .  .  .  .  .  .  .  .  .  .  .  .  .  .  .  .  .  .  .  .  .  .  .  .  .  .  .  .  .  .  .  .  .  .  .  .  .  .  .  .  .  .  .  .  .  .  .  .  .  .  .  .  .  .  .  .  .  .  .  .  .  .  .  .  .  .  .  .  .  .  .  .  .  .  .  .  .  .  .  .  .  .  .  .  .  .  ",
".  .  .  .  .  .  .  .  .  .  .  .  .  .  .  .  .  .  .  .  .  .  .  .  .  .  .  .  .  .  .  .  .  .  .  .  .  ;C oZ pZ qZ rZ G0 sZ tZ L[ U8 Gg [n I~ uZ vZ wZ xZ xZ Vt FC yZ ,z DB dB BB zZ AZ JS YF GG GG NJ ^K NJ JH JJ +G 1S qP RG RG $L ,K hW BZ (U Nv Pv Rv Pv Pv Sv Pv ES ES CZ Pv Qv 9K 'y ;G ^H xG DZ .G CG CG CG CG 1S 'K CG CG CG PG PG :H <I HL DG DG  Y EZ ku ku JC nz FZ tX %J GZ =L _G MM SE jA /N iB jB HZ ^z IZ XN SJ JZ WN JD VH OT PG PG LH OM 'z ^y _y _y kA ZD $F GB >y (z ru _v My My qI Vu 'y *z :N kC .I !E !E qY ,O ,O ,O !E lC ~E OB KZ LZ MZ NZ OZ PZ QZ ]6 )a )a *_ S} #0 L& a@ 1, g@ kP lP .  .  .  .  .  .  .  .  .  .  .  .  .  .  .  .  .  .  .  .  .  .  .  .  .  .  .  .  .  .  .  .  .  .  .  .  .  .  .  .  .  .  .  .  .  .  .  .  .  .  .  .  .  .  .  .  .  .  .  .  .  .  .  .  .  .  .  .  .  .  .  .  .  .  .  .  .  .  .  .  .  .  .  .  .  .  .  .  .  .  .  .  .  .  .  .  .  .  .  .  .  .  .  .  .  .  .  .  .  .  .  .  .  .  .  .  .  .  .  .  .  .  .  .  .  .  .  .  .  .  .  .  .  .  .  .  .  .  .  .  .  .  .  .  .  .  .  .  .  .  .  .  .  .  .  .  .  .  .  .  .  .  .  .  .  .  .  .  .  .  .  .  .  .  .  .  .  .  .  .  .  .  .  .  .  .  .  .  .  .  .  .  ",
".  .  .  .  .  .  .  .  .  .  .  .  .  .  .  .  .  .  .  .  .  .  .  .  .  .  .  .  .  .  .  .  .  .  .  .  .  RZ SZ TZ UZ VZ WZ XZ YZ ZZ 3< w{ w{ m_ `Z  ` .` .` .` +` @` #` $` %` &` &` *` =` -` ;` ;` ;` >` `I YF JH PG  G :H qP CG <I NH NH JS pQ ,` ,` ,` ,` XD AJ AJ SD SD '` )` ,` 2R 2R ,` ,` SD !` -` `K FG CG CG :H  G xJ GG GG GG PG PG :H <I YE DG DG  Y GX ku ku 2y Uu ~` {` ]` ^` ^` ]` /` XD (` _` _` _` :` <` XD SD XD :F [` mQ *L }H PG PG LH OM 'z ^y _y Ey wy XD $F Ny 2y :v 2y >y My >y qI Vu Ly *z :N kC .I !E !E OY OY !E aT )E }` hN |` 1` 2` 1` 1` 3` 4` 5` 6` 7` K, K, 8` 9` 0` }. ]< 0@ 'Q uS .  .  .  .  .  .  .  .  .  .  .  .  .  .  .  .  .  .  .  .  .  .  .  .  .  .  .  .  .  .  .  .  .  .  .  .  .  .  .  .  .  .  .  .  .  .  .  .  .  .  .  .  .  .  .  .  .  .  .  .  .  .  .  .  .  .  .  .  .  .  .  .  .  .  .  .  .  .  .  .  .  .  .  .  .  .  .  .  .  .  .  .  .  .  .  .  .  .  .  .  .  .  .  .  .  .  .  .  .  .  .  .  .  .  .  .  .  .  .  .  .  .  .  .  .  .  .  .  .  .  .  .  .  .  .  .  .  .  .  .  .  .  .  .  .  .  .  .  .  .  .  .  .  .  .  .  .  .  .  .  .  .  .  .  .  .  .  .  .  .  .  .  .  .  .  .  .  .  .  .  .  .  .  .  .  .  .  .  .  .  .  .  ",
".  .  .  .  .  .  .  .  .  .  .  .  .  .  .  .  .  .  .  .  .  .  .  .  .  .  .  .  .  .  .  .  .  .  .  .  .  a` A6 b` c` d` e` f` g` >/ h` i` P] V: j` k` l` m` n` o` p` q` Tu GS tB hC xG 6N r` 'z aH 'z =Z s` _H YF PG  G 'K qP CG <I .G 'P PJ AW zJ _H dV dV t` !Y )K #L WH WH WH WH t` dV qK dV *G MS NH wJ +G 'K DG  G DG <I GG GG +G PG PG (G <I +G DG DG u` GX ku ku /v My lK <S GD -G -G )L `G HM `G 3G 3G 3G (U v` w` `K !Y *G x` /K HL PG PG PG wJ OM 'z ^y ^y Ey vy %E $F 0u :v :v 2y >y 5v My My iu y` *z :N kC .I !E !E lC 2D lC +H lC !E z` A` B` PK m` l` C` D` E` F` `^ `^ 3d U' M+ G` b# @; Hr H` uS .  .  .  .  .  .  .  .  .  .  .  .  .  .  .  .  .  .  .  .  .  .  .  .  .  .  .  .  .  .  .  .  .  .  .  .  .  .  .  .  .  .  .  .  .  .  .  .  .  .  .  .  .  .  .  .  .  .  .  .  .  .  .  .  .  .  .  .  .  .  .  .  .  .  .  .  .  .  .  .  .  .  .  .  .  .  .  .  .  .  .  .  .  .  .  .  .  .  .  .  .  .  .  .  .  .  .  .  .  .  .  .  .  .  .  .  .  .  .  .  .  .  .  .  .  .  .  .  .  .  .  .  .  .  .  .  .  .  .  .  .  .  .  .  .  .  .  .  .  .  .  .  .  .  .  .  .  .  .  .  .  .  .  .  .  .  .  .  .  .  .  .  .  .  .  .  .  .  .  .  .  .  .  .  .  .  .  .  .  .  .  .  ",
".  .  .  .  .  .  .  .  .  .  .  .  .  .  .  .  .  .  .  .  .  .  .  .  .  .  .  .  .  .  .  .  .  .  .  .  .  .  .  .  .  .  .  .  %; (| @$ l@ ## '] yP ]d T^ N~ ^8 ~u nN TN BA 4v Uu 9H :D XP wy (y oB Dy {y CM {G +G +G PG /K IG 6H ^K ^K ^K ^K ^K ^K ^K ^K }H :H RG CG 'K RG :H :H DG #G PG .G QG YF YF PG PG PG PG PG PG PG PG YF YF PG &G PG PG ^K PG DG 'K `I GX mu mu ku qu ku ku ku mu Ru Ru Ru Ru Ru Ru Ru Ru 3G I` uX DG XE ^K RG RG ^K %G ^K ^K ^K OM bH {y bH oB vy J` $F 0u 2y 3y 3y Ru iu My My My Ly *z :N kC {E !E )E 5G lC lC lC lC BT jZ K` L` 07 M` vp '4 N` U: op P% j{ j{ x1 e( X[ R= @; >( O` P` .  .  .  .  .  .  .  .  .  .  .  .  .  .  .  .  .  .  .  .  .  .  .  .  .  .  .  .  .  .  .  .  .  .  .  .  .  .  .  .  .  .  .  .  .  .  .  .  .  .  .  .  .  .  .  .  .  .  .  .  .  .  .  .  .  .  .  .  .  .  .  .  .  .  .  .  .  .  .  .  .  .  .  .  .  .  .  .  .  .  .  .  .  .  .  .  .  .  .  .  .  .  .  .  .  .  .  .  .  .  .  .  .  .  .  .  .  .  .  .  .  .  .  .  .  .  .  .  .  .  .  .  .  .  .  .  .  .  .  .  .  .  .  .  .  .  .  .  .  .  .  .  .  .  .  .  .  .  .  .  .  .  .  .  .  .  .  .  .  .  .  .  .  .  .  .  .  .  .  .  .  .  .  .  .  .  .  .  .  .  .  .  ",
".  .  .  .  .  .  .  .  .  .  .  .  .  .  .  .  .  .  .  .  .  .  .  .  .  .  .  .  .  .  .  .  .  .  .  .  .  .  .  .  .  .  .  Q` R` S` @$ l@ ## W{ yP ]d ^) N/ )! !6 nN TN 4v su su Ru ED XP wy (y ^y bH {y CM {G +G +G PG /K /K PG ^K ^K ^K ^K ^K ^K ^K ^K ^K ^K ^K ^K ^K ^K ^K ^K ^K PG PG PG PG PG PG PG PG PG PG &G PG PG PG PG PG PG PG PG PG ^K PG DG 'K `I GX Vu >y /v /v /v >y >y My Wu SF Uu Xu Uu Uu _v su HM I` T` `F @G %G RG RG ^K 6H PG PG NJ OM bH {y bH Ey zz UD $F 0u 3y 3y 3y BJ My >y My 3v 'y *z :N kC {E .I lC 3D lC lC !E lC !E U` K` L` 07 m< n< 5< N` U: v. /@ (% b@ ;; e( )1 &9 e_ ). `g  U .  .  .  .  .  .  .  .  .  .  .  .  .  .  .  .  .  .  .  .  .  .  .  .  .  .  .  .  .  .  .  .  .  .  .  .  .  .  .  .  .  .  .  .  .  .  .  .  .  .  .  .  .  .  .  .  .  .  .  .  .  .  .  .  .  .  .  .  .  .  .  .  .  .  .  .  .  .  .  .  .  .  .  .  .  .  .  .  .  .  .  .  .  .  .  .  .  .  .  .  .  .  .  .  .  .  .  .  .  .  .  .  .  .  .  .  .  .  .  .  .  .  .  .  .  .  .  .  .  .  .  .  .  .  .  .  .  .  .  .  .  .  .  .  .  .  .  .  .  .  .  .  .  .  .  .  .  .  .  .  .  .  .  .  .  .  .  .  .  .  .  .  .  .  .  .  .  .  .  .  .  .  .  .  .  .  .  .  .  .  .  .  ",
".  .  .  .  .  .  .  .  .  .  .  .  .  .  .  .  .  .  .  .  .  .  .  .  .  .  .  .  .  .  .  .  .  .  .  .  .  .  .  .  .  .  .  V` W` S` [_ l@ ## ^/ yP L: ^) 5( CC bf nN TN 4v 2v su Ru IS XP LY ,z ^y {y {y CM {G #G <I QG /K +S /K ^K @G ^K ^K ^K ^K ^K ^K ^K ^K ^K ^K ^K ^K ^K ^K ^K PG YF PG PG PG YF PG PG PG PG PG PG PG PG PG PG PG &G PG YF ^K ^K DG 'K `I pI &z 4v Vu >y >y >y Xu su su su su su Uu =z VG su _K I` T` `F @G %G RG RG PG RG CG YF <I OM 'z vz pB &J iB MY $F |v 3y 3y :v >y My My Vu >y Ly *z :N kC 5G {E 3D lC lC BT !E lC qY  D K` L` 07 %( 8/ !! X` Y` b@ r& E~ Z8    0@ y& j! ,% (@ aS Z` .  .  .  .  .  .  .  .  .  .  .  .  .  .  .  .  .  .  .  .  .  .  .  .  .  .  .  .  .  .  .  .  .  .  .  .  .  .  .  .  .  .  .  .  .  .  .  .  .  .  .  .  .  .  .  .  .  .  .  .  .  .  .  .  .  .  .  .  .  .  .  .  .  .  .  .  .  .  .  .  .  .  .  .  .  .  .  .  .  .  .  .  .  .  .  .  .  .  .  .  .  .  .  .  .  .  .  .  .  .  .  .  .  .  .  .  .  .  .  .  .  .  .  .  .  .  .  .  .  .  .  .  .  .  .  .  .  .  .  .  .  .  .  .  .  .  .  .  .  .  .  .  .  .  .  .  .  .  .  .  .  .  .  .  .  .  .  .  .  .  .  .  .  .  .  .  .  .  .  .  .  .  .  .  .  .  .  .  .  .  .  .  ",
".  .  .  .  .  .  .  .  .  .  .  .  .  .  .  .  .  .  .  .  .  .  .  .  .  .  .  .  .  .  .  .  .  .  .  .  .  .  .  .  .  .  .  .  %; S` [_ l@ ## !) yP L: ^) %( CC bf nN TN 4v su su Ru XJ `` LY ,z oB {y {y CM NM LH LH LH NJ %G %G ^K ^K ^K ^K ^K ^K ^K ^K PG PG PG PG PG PG IG IG PG YF PG YF PG PG PG PG PG PG PG PG PG PG YF PG YF PG PG ^K PG PG ^K DG GG   .rB HM Kz WK Lv Lv . .Kz Kz DY _U DY DY + .3v 5v <G GM I` nW 'K @G %G RG RG IG RG RG  G <I OM 7C Az _N wT ^N <D @ .>y >y 2y :v +v 5v qI NS Vu 4v *z :N kC {E mC lC lC lC # .$ .% .& .* .K` = .`n y{ '_ - .)j ; .g% j{ t% Q+ x> > .w3 , .' .=3 '< lP .  .  .  .  .  .  .  .  .  .  .  .  .  .  .  .  .  .  .  .  .  .  .  .  .  .  .  .  .  .  .  .  .  .  .  .  .  .  .  .  .  .  .  .  .  .  .  .  .  .  .  .  .  .  .  .  .  .  .  .  .  .  .  .  .  .  .  .  .  .  .  .  .  .  .  .  .  .  .  .  .  .  .  .  .  .  .  .  .  .  .  .  .  .  .  .  .  .  .  .  .  .  .  .  .  .  .  .  .  .  .  .  .  .  .  .  .  .  .  .  .  .  .  .  .  .  .  .  .  .  .  .  .  .  .  .  .  .  .  .  .  .  .  .  .  .  .  .  .  .  .  .  .  .  .  .  .  .  .  .  .  .  .  .  .  .  .  .  .  .  .  .  .  .  .  .  .  .  .  .  .  .  .  .  .  .  .  .  .  .  .  .  ",
".  .  .  .  .  .  .  .  .  .  .  .  .  .  .  .  .  .  .  .  .  .  .  .  .  .  .  .  .  .  .  .  .  .  .  .  .  .  .  .  .  .  .  .  %; S` [_ i  ) .!) yP L: ^) %( CC bf nN TN 4v su su Ru ED pN Ay (y ^y oB 'z ! .~ .{ .] .{ .^ .pS <I ^K ^K @G ^K +G +G @G @G RG RG RG CG /T :H :H :H 'K PG PG PG PG YF PG PG PG YF (G PG YF PG PG IG PG PG PG ^K }H 1S NJ /K 'K / .( ._ ._ ._ ._ ._ ._ .: .< ._ ._ ._ ._ ._ ._ ._ ._ .[ .} .wJ rK SG ^K $L 'K 'K RG :H xJ *L | .1 .2 .dC $E 9O ;E *z Vu bP bP 3y 2y My NS My 3v oz *z :N kC lC 5G mC 7S 3 .4 .5 .6 .5 .7 .8 .9 .0 .`] a .9n $C b ./{ 5{ P% @@ 0X c .d .`+ e .f .g .h .p. .  .  .  .  .  .  .  .  .  .  .  .  .  .  .  .  .  .  .  .  .  .  .  .  .  .  .  .  .  .  .  .  .  .  .  .  .  .  .  .  .  .  .  .  .  .  .  .  .  .  .  .  .  .  .  .  .  .  .  .  .  .  .  .  .  .  .  .  .  .  .  .  .  .  .  .  .  .  .  .  .  .  .  .  .  .  .  .  .  .  .  .  .  .  .  .  .  .  .  .  .  .  .  .  .  .  .  .  .  .  .  .  .  .  .  .  .  .  .  .  .  .  .  .  .  .  .  .  .  .  .  .  .  .  .  .  .  .  .  .  .  .  .  .  .  .  .  .  .  .  .  .  .  .  .  .  .  .  .  .  .  .  .  .  .  .  .  .  .  .  .  .  .  .  .  .  .  .  .  .  .  .  .  .  .  .  .  .  .  .  .  ",
".  .  .  .  .  .  .  .  .  .  .  .  .  .  .  .  .  .  .  .  .  .  .  .  .  .  .  .  .  .  .  .  .  .  .  .  .  .  .  .  .  .  .  .  %; S` [_ i  ) .!) yP L: ^) %( n( !6 nN TN 4v ZC su Ru ED pN Ay (y ^y bH bH Ey Dy 0C xz YK 'z >K LJ ^K ^K ^K ^K +G @G @G @G &G PG PG PG IG IG IG }H YF PG PG PG YF IG PG YF PG PG PG PG IG YF PG YF PG PG YF ^K }H /T YF YF @G vW zJ FY FY FY i .MS MS _G *G i .HJ FY qK xN j .xN xN JS FY YF HL 6H %G JJ PG DG RG CG }S DM k .ED Hz *O hC CZ &P 4v *z 4y :v 3y 2y Vu Vu 5v My Fw *z :N kC @H mC 8G l .m .n .o .p .q .r .s .t .u .em ^j v .s< }l b@ /{ ={ R_ w .x .44 y .z .A .B .C ..  .  .  .  .  .  .  .  .  .  .  .  .  .  .  .  .  .  .  .  .  .  .  .  .  .  .  .  .  .  .  .  .  .  .  .  .  .  .  .  .  .  .  .  .  .  .  .  .  .  .  .  .  .  .  .  .  .  .  .  .  .  .  .  .  .  .  .  .  .  .  .  .  .  .  .  .  .  .  .  .  .  .  .  .  .  .  .  .  .  .  .  .  .  .  .  .  .  .  .  .  .  .  .  .  .  .  .  .  .  .  .  .  .  .  .  .  .  .  .  .  .  .  .  .  .  .  .  .  .  .  .  .  .  .  .  .  .  .  .  .  .  .  .  .  .  .  .  .  .  .  .  .  .  .  .  .  .  .  .  .  .  .  .  .  .  .  .  .  .  .  .  .  .  .  .  .  .  .  .  .  .  .  .  .  .  .  .  .  .  .  .  ",
".  .  .  .  .  .  .  .  .  .  .  .  .  .  .  .  .  .  .  .  .  .  .  .  .  .  .  .  .  .  .  .  .  .  .  .  .  .  .  .  .  .  .  .  %; S` [_ i  ) .!) yP L: ^) %( n( O' nN TN Vu su Uu Ru ED pN Ay (y ^y bH Cy ^y vz _y kR aH YK D .LJ ^K ^K ^K ^K +G @G @G @G ^K ^K ^K ^K ^K ^K ^K ^K ^K PG PG &G IG PG PG PG PG PG PG PG PG PG PG PG PG }H PG ^K }H :H @W /K JH ^K .Z %G %G %G ^K ^K ^K ^K ^K ^K pK pK ^K 6H 6H 6H 6H HL JH QG %L 6H 6H JJ &G DG RG (G <I E .F .xG G .pu pu nu :v Xu su su Uu >y 2y iu Vu My iu 4v *z :N kC {E jC ,O H .I .J .K .p( L .M .N .F` t# )) k[    0f ^. s+ x. P% b@ O .P ..  ~% .  .  .  .  .  .  .  .  .  .  .  .  .  .  .  .  .  .  .  .  .  .  .  .  .  .  .  .  .  .  .  .  .  .  .  .  .  .  .  .  .  .  .  .  .  .  .  .  .  .  .  .  .  .  .  .  .  .  .  .  .  .  .  .  .  .  .  .  .  .  .  .  .  .  .  .  .  .  .  .  .  .  .  .  .  .  .  .  .  .  .  .  .  .  .  .  .  .  .  .  .  .  .  .  .  .  .  .  .  .  .  .  .  .  .  .  .  .  .  .  .  .  .  .  .  .  .  .  .  .  .  .  .  .  .  .  .  .  .  .  .  .  .  .  .  .  .  .  .  .  .  .  .  .  .  .  .  .  .  .  .  .  .  .  .  .  .  .  .  .  .  .  .  .  .  .  .  .  .  .  .  .  .  .  .  .  .  .  .  .  .  .  .  .  .  .  ",
".  .  .  .  .  .  .  .  .  .  .  .  .  .  .  .  .  .  .  .  .  .  .  .  .  .  .  .  .  .  .  .  .  .  .  .  .  .  .  .  .  .  .  .  %; S` [_ }. ) .!) yP L: ^) CC n( <{ nN TN Wu su su Ru ED pN Ay (y ^y oB `H ^y ~z [G pB ]y )z vJ *G ^K ^K ^K ^K +G @G @G ^K ^K PG PG YF YF PG YF PG PG PG &G PG YF PG YF PG PG PG PG PG (G PG YF }H PG &G PG ^K }H CG IG ZE +G ^K iR 6H 6H 6H JJ JJ JJ JJ JJ IG ^K /K }H CG OT RG +G YF <I +G PG %G }H PG +G DG CG ^K PJ EM aP Q .R .+v :v pz Xv S .su Uu Uu 2y 2y >y 5v My My lR *z :N kC {E 1D ,O T .U .V .m< .( ,s Mr 5M ^] D# i  2. g. /% P+ 3) O+ O= ]A W .X ..  .  .  .  .  .  .  .  .  .  .  .  .  .  .  .  .  .  .  .  .  .  .  .  .  .  .  .  .  .  .  .  .  .  .  .  .  .  .  .  .  .  .  .  .  .  .  .  .  .  .  .  .  .  .  .  .  .  .  .  .  .  .  .  .  .  .  .  .  .  .  .  .  .  .  .  .  .  .  .  .  .  .  .  .  .  .  .  .  .  .  .  .  .  .  .  .  .  .  .  .  .  .  .  .  .  .  .  .  .  .  .  .  .  .  .  .  .  .  .  .  .  .  .  .  .  .  .  .  .  .  .  .  .  .  .  .  .  .  .  .  .  .  .  .  .  .  .  .  .  .  .  .  .  .  .  .  .  .  .  .  .  .  .  .  .  .  .  .  .  .  .  .  .  .  .  .  .  .  .  .  .  .  .  .  .  .  .  .  .  .  .  .  .  .  .  .  .  ",
".  .  .  .  .  .  .  .  .  .  .  .  .  .  .  .  .  .  .  .  .  .  .  .  .  .  .  .  .  .  .  .  .  .  .  .  .  .  .  .  .  .  .  Y .Z .S` [_ Q- P} K' yP L: ^) ^) ~[ ^n nN TN su ` .su Ru )L XP yN :y {y {y  ..;z mx jx vz pB ;K ...wJ ^K ^K ^K ^K ^K @G ^K @G  Q <I wJ +G #G YF IG 'K 'K PG PG PG PG PG PG PG PG PG PG &G PG PG PG PG PG PG PG PG PG CG IG YF @G ^K @G +G +G +G +G YE wJ +G YF CG RG RG RG RG RG RG RG RG DG RG RG RG RG RG RG  G @G +G )G LM +..xG AP &z Vu Ly :v 3y 4v >y Vu >y >y yW pz Ly >y _v *z :N >O >O 8G {E H .U .@..5( ]n P' ~6 #..1( 0@ 7. :; 2.    ;@ #$ S+ O+ @$ W .$...  .  .  .  .  .  .  .  .  .  .  .  .  .  .  .  .  .  .  .  .  .  .  .  .  .  .  .  .  .  .  .  .  .  .  .  .  .  .  .  .  .  .  .  .  .  .  .  .  .  .  .  .  .  .  .  .  .  .  .  .  .  .  .  .  .  .  .  .  .  .  .  .  .  .  .  .  .  .  .  .  .  .  .  .  .  .  .  .  .  .  .  .  .  .  .  .  .  .  .  .  .  .  .  .  .  .  .  .  .  .  .  .  .  .  .  .  .  .  .  .  .  .  .  .  .  .  .  .  .  .  .  .  .  .  .  .  .  .  .  .  .  .  .  .  .  .  .  .  .  .  .  .  .  .  .  .  .  .  .  .  .  .  .  .  .  .  .  .  .  .  .  .  .  .  .  .  .  .  .  .  .  .  .  .  .  .  .  .  .  .  .  .  .  .  .  .  .  ",
".  .  .  .  .  .  .  .  .  .  .  .  .  .  .  .  .  .  .  .  .  .  .  .  .  .  .  .  .  .  .  .  .  .  .  .  .  .  .  .  .  .  .  %..&..S` 6j i. i. ,@ yP L: ^) Z< ~[ ^n nN TN su ru su Ru JM &` BG WF jx lx gB uz jx jx kA ,z !z NQ ZF YP YP <I PW ^K ^K PW ,K NH `K <I wJ .G YF IG :H 'K PG PG PG PG PG IG PG PG PG PG PG PG PG PG PG PG PG PG PG PG PG +G PG PG PG &G +G +G (G +G <I +G #J +G ]K qP qP /K RG PG RG RG PG }H qP ]K ]K &G &G &G pK <I <I dP DV +..xG Ru 4v Fw Vu :v 3y >y >y >y >y >y NS =O Vu 3y 4v *z :N QM jC 4S mC *..I .=..5( 07 8b up #..c7 `- (6 g. 8@ /| 3K /{ #$ q% [_ B_ Nk .  .  .  .  .  .  .  .  .  .  .  .  .  .  .  .  .  .  .  .  .  .  .  .  .  .  .  .  .  .  .  .  .  .  .  .  .  .  .  .  .  .  .  .  .  .  .  .  .  .  .  .  .  .  .  .  .  .  .  .  .  .  .  .  .  .  .  .  .  .  .  .  .  .  .  .  .  .  .  .  .  .  .  .  .  .  .  .  .  .  .  .  .  .  .  .  .  .  .  .  .  .  .  .  .  .  .  .  .  .  .  .  .  .  .  .  .  .  .  .  .  .  .  .  .  .  .  .  .  .  .  .  .  .  .  .  .  .  .  .  .  .  .  .  .  .  .  .  .  .  .  .  .  .  .  .  .  .  .  .  .  .  .  .  .  .  .  .  .  .  .  .  .  .  .  .  .  .  .  .  .  .  .  .  .  .  .  .  .  .  .  .  .  .  .  .  .  .  ",
".  .  .  .  .  .  .  .  .  .  .  .  .  .  .  .  .  .  .  .  .  .  .  .  .  .  .  .  .  .  .  .  .  .  .  .  .  .  .  .  .  .  .  -..;..S` H> 2^ +; 4/ >..L: ^) ^) ~[ ^n nN TN ZC ,y >y vB ,..;E '..VD VD &E 2R ZN ;z mx Ey fV `H :X )..!..!..YE rK ~..{..YE rK ]..^..>M aR +G &G IG RG RG PG PG YF IG YF PG PG PG PG PG IG PG PG IG PG IG PG &G PG PG PG +G PG PG JJ +G +G +G +G YE 8N /..!../..HL HL HL HL HL nU ~N ~N HL HL HL HL HL XE XE XE ~N ]..!..(.._..:..xG Ru >y Fw Vu :v :v >y >y >y GC 2y >y <..[..:z [..}..|..kC jC 5G mC *..I .=..m< 1..Gd Gd +D 2..!. 7- /@ g% 3..Z/ W> j{ g% s~ B_ Nk .  .  .  .  .  .  .  .  .  .  .  .  .  .  .  .  .  .  .  .  .  .  .  .  .  .  .  .  .  .  .  .  .  .  .  .  .  .  .  .  .  .  .  .  .  .  .  .  .  .  .  .  .  .  .  .  .  .  .  .  .  .  .  .  .  .  .  .  .  .  .  .  .  .  .  .  .  .  .  .  .  .  .  .  .  .  .  .  .  .  .  .  .  .  .  .  .  .  .  .  .  .  .  .  .  .  .  .  .  .  .  .  .  .  .  .  .  .  .  .  .  .  .  .  .  .  .  .  .  .  .  .  .  .  .  .  .  .  .  .  .  .  .  .  .  .  .  .  .  .  .  .  .  .  .  .  .  .  .  .  .  .  .  .  .  .  .  .  .  .  .  .  .  .  .  .  .  .  .  .  .  .  .  .  .  .  .  .  .  .  .  .  .  .  .  .  .  .  ",
".  .  .  .  .  .  .  .  .  .  .  .  .  .  .  .  .  .  .  .  .  .  .  .  .  .  .  .  .  .  .  .  .  .  .  .  .  .  .  .  .  .  .  .  mN 4..u. T~ F> H( 5..L: ^) ^) ~[ bf nN TN ZC JC UF ku Sv 6..cC rP rP rP /F >N jx 7..[y (y fV YK 8..Dy Dy 9..EC 0..a..8..EC EC EC MD AW +G &G IG CG RG YF PG PG PG PG PG PG YF PG PG PG PG PG PG PG PG PG PG PG IG PG (G PG PG JJ IG +G 1S +G xJ }S b..EC 9..c..0..0..a..EC EC EC EC a..8..8..8..EC EC EC EC EC 8..8..a..d..EB `G My >y Fw Vu :v 4y >y Vu >y >y Fw e..f..g..h..g..i..j..jC lC 5G mC k..I .=..m< eh Gd O' +D M+ !. 7- ;- g% .; v/ M& i  i  [_ [( l...  .  .  .  .  .  .  .  .  .  .  .  .  .  .  .  .  .  .  .  .  .  .  .  .  .  .  .  .  .  .  .  .  .  .  .  .  .  .  .  .  .  .  .  .  .  .  .  .  .  .  .  .  .  .  .  .  .  .  .  .  .  .  .  .  .  .  .  .  .  .  .  .  .  .  .  .  .  .  .  .  .  .  .  .  .  .  .  .  .  .  .  .  .  .  .  .  .  .  .  .  .  .  .  .  .  .  .  .  .  .  .  .  .  .  .  .  .  .  .  .  .  .  .  .  .  .  .  .  .  .  .  .  .  .  .  .  .  .  .  .  .  .  .  .  .  .  .  .  .  .  .  .  .  .  .  .  .  .  .  .  .  .  .  .  .  .  .  .  .  .  .  .  .  .  .  .  .  .  .  .  .  .  .  .  .  .  .  .  .  .  .  .  .  .  .  .  .  ",
".  .  .  .  .  .  .  .  .  .  .  .  .  .  .  .  .  .  .  .  .  .  .  .  .  .  .  .  .  .  .  .  .  .  .  .  .  .  .  .  .  .  .  .  mN jl y+ :% c] m../r L: ^) ^) ~[ <{ n..TN ZC JC QR ku au UG [v IM 3v DY )L -K jx kx UR vz _y <y ^y _y pB ,z _y oB pB pB pB oB YK 0..PW +G &G IG CG CG PG YF PG YF PG IG PG PG PG PG PG PG PG PG YF PG YF PG PG PG PG +G PG PG /K IG :H 1S +G PT YE Dy oB )z vz ,z pB ,z {z _y !z {z vz vz ,z xy !z (y (y >z wz ,z {y :y /N %` `G iu >y Vu >y :v 3y My My Vu >y Fw o..mC {E jC jZ ~E gN mC 8G SM {E p..q..r..m< ;_ h< h< s..i% `- #$ ;- g% P} ;; ({ -) ,@ '* [( l...  .  .  .  .  .  .  .  .  .  .  .  .  .  .  .  .  .  .  .  .  .  .  .  .  .  .  .  .  .  .  .  .  .  .  .  .  .  .  .  .  .  .  .  .  .  .  .  .  .  .  .  .  .  .  .  .  .  .  .  .  .  .  .  .  .  .  .  .  .  .  .  .  .  .  .  .  .  .  .  .  .  .  .  .  .  .  .  .  .  .  .  .  .  .  .  .  .  .  .  .  .  .  .  .  .  .  .  .  .  .  .  .  .  .  .  .  .  .  .  .  .  .  .  .  .  .  .  .  .  .  .  .  .  .  .  .  .  .  .  .  .  .  .  .  .  .  .  .  .  .  .  .  .  .  .  .  .  .  .  .  .  .  .  .  .  .  .  .  .  .  .  .  .  .  .  .  .  .  .  .  .  .  .  .  .  .  .  .  .  .  .  .  .  .  .  .  .  ",
".  .  .  .  .  .  .  .  .  .  .  .  .  .  .  .  .  .  .  .  .  .  .  .  .  .  .  .  .  .  .  .  .  .  .  .  .  .  .  .  .  .  .  .  mN '& {> D/ ;; )& ZU L: ^) ^) n( <{ t..TN Uu 2y nu AP ^D _D TH Ru 4v 2v -G nK ,V ix mx ,z Dz (y ^y ,z _y pB pB xy ,z pB _y {y {y 0..u..+G &G IG RG CG &G }H YF PG PG PG PG PG YF PG PG PG IG YF PG IG PG PG PG PG YF (G PG PG JJ RG CG  G +G .G yJ LD 0..{y Dz ,z ,z ,z wz zy wz (y wz (y ,z ,z ,z ,z ,z (y (y pB {y iA /N 9O `G >y >y &z >y :v >y Ly Ly GC >y _v v..@H jC lC 5G lC lC 7G SM 1D lC p..w..r..m< {6 {8 4( +D wk i) i  g% g% ;@ W( e/ e/ x. =p [( x...  .  .  .  .  .  .  .  .  .  .  .  .  .  .  .  .  .  .  .  .  .  .  .  .  .  .  .  .  .  .  .  .  .  .  .  .  .  .  .  .  .  .  .  .  .  .  .  .  .  .  .  .  .  .  .  .  .  .  .  .  .  .  .  .  .  .  .  .  .  .  .  .  .  .  .  .  .  .  .  .  .  .  .  .  .  .  .  .  .  .  .  .  .  .  .  .  .  .  .  .  .  .  .  .  .  .  .  .  .  .  .  .  .  .  .  .  .  .  .  .  .  .  .  .  .  .  .  .  .  .  .  .  .  .  .  .  .  .  .  .  .  .  .  .  .  .  .  .  .  .  .  .  .  .  .  .  .  .  .  .  .  .  .  .  .  .  .  .  .  .  .  .  .  .  .  .  .  .  .  .  .  .  .  .  .  .  .  .  .  .  .  .  .  .  .  .  .  ",
".  .  .  .  .  .  .  .  .  .  .  .  .  .  .  .  .  .  .  .  .  .  .  .  .  .  .  .  .  .  .  .  .  .  .  .  .  .  .  .  .  .  .  .  mN ]C  * +; 3& aD y..L: ^) ^) n( <{ 3N TN ZC ,y >y 3y iu Ru Ru 3v 4v Wu hC nK ,V ix mx ,z Dz vy (y ,z ,z (y ,z ,z ,z ,z ,z ^y {y 0..u..+G &G IG :H RG PG PG PG PG YF PG PG PG PG PG PG PG PG PG PG PG &G PG &G PG PG +G PG PG /K RG RG IG +G #G yJ ND kR Cy ,z ,z ,z ,z (y (y ,z (y ,z (y ,z ,z ,z ,z ,z (y (y _y {y <y /N 9O `G >y >y Wu >y :v >y 4v >y >y GC Vu z..8G 8G mC 7G )E )E hN ;Z aT )E A..w..r..~[ ;_ {8 Te +D *: `- j{ g% g% ;@ Q- ^| f. M& E= B.. l .  .  .  .  .  .  .  .  .  .  .  .  .  .  .  .  .  .  .  .  .  .  .  .  .  .  .  .  .  .  .  .  .  .  .  .  .  .  .  .  .  .  .  .  .  .  .  .  .  .  .  .  .  .  .  .  .  .  .  .  .  .  .  .  .  .  .  .  .  .  .  .  .  .  .  .  .  .  .  .  .  .  .  .  .  .  .  .  .  .  .  .  .  .  .  .  .  .  .  .  .  .  .  .  .  .  .  .  .  .  .  .  .  .  .  .  .  .  .  .  .  .  .  .  .  .  .  .  .  .  .  .  .  .  .  .  .  .  .  .  .  .  .  .  .  .  .  .  .  .  .  .  .  .  .  .  .  .  .  .  .  .  .  .  .  .  .  .  .  .  .  .  .  .  .  .  .  .  .  .  .  .  .  .  .  .  .  .  .  .  .  .  .  .  .  .  .  .  ",
".  .  .  .  .  .  .  .  .  .  .  .  .  .  .  .  .  .  .  .  .  .  .  .  .  .  .  .  .  .  .  .  .  .  .  .  .  .  .  .  .  .  .  .  Z .b| @, 7f Y- S~ C..L: T^ ^) n( /) 3N TN HV ,y VG (v >y >y 3v My Vu |v hC -K UJ ix lx ,z tA Ay zy ,z ,z ,z ,z ,z ,z (y ,z oB {y 0..D..+G &G IG RG 'K PG PG PG YF PG PG PG &G PG &G PG (G PG PG &G PG PG PG PG PG PG +G PG PG 6H RG RG $L YF <I E..F..zy ,z ,z ,z ,z ,z (y (y (y (y (y [y vz fV ,z ~z ~z (y (y vz {y <y /N 9O `G 3y ,y Wu >y :v >y 4v >y >y :v 3y G..1D 1D .I QM !E aT aT ;Z 1D !E H..w..r..96 ;_ Fg U8 #..1( E~ r& 0  g% Z* :% C# 2. -% '* y% c* .  .  .  .  .  .  .  .  .  .  .  .  .  .  .  .  .  .  .  .  .  .  .  .  .  .  .  .  .  .  .  .  .  .  .  .  .  .  .  .  .  .  .  .  .  .  .  .  .  .  .  .  .  .  .  .  .  .  .  .  .  .  .  .  .  .  .  .  .  .  .  .  .  .  .  .  .  .  .  .  .  .  .  .  .  .  .  .  .  .  .  .  .  .  .  .  .  .  .  .  .  .  .  .  .  .  .  .  .  .  .  .  .  .  .  .  .  .  .  .  .  .  .  .  .  .  .  .  .  .  .  .  .  .  .  .  .  .  .  .  .  .  .  .  .  .  .  .  .  .  .  .  .  .  .  .  .  .  .  .  .  .  .  .  .  .  .  .  .  .  .  .  .  .  .  .  .  .  .  .  .  .  .  .  .  .  .  .  .  .  .  .  .  .  .  .  .  .  ",
".  .  .  .  .  .  .  .  .  .  .  .  .  .  .  .  .  .  .  .  .  .  .  .  .  .  .  .  .  .  .  .  .  .  .  .  .  .  .  .  .  .  .  .  I..J..K..}V L..[o M..N..ha ha =m ha O..P..Q..R..S..T..U..V..>y Vu >y >y 3G uJ qx UJ W..X..BU Y..vy ,z ,z ,z ,z ,z ,z ,z ,z oB {y 0..UE JG JG &G oS +G JG JG JH JH JH PT PT PT PT PT PT JH JH JH JG JG #J PT #J JH JH JG #J #J #G 1S xJ (G #J &L ^..ND zy ~z vz lx kA Z..px ,V px EV px 1G 1G hx X..2J `..jI px  +.Z..px >L &` `G >y >y BA >y :v fY <G 'y Ly pz Ly .+..I 1D .I 8G OB ++.@+.#+.$+.$+.%+.&+.*+.[~ ha ha !! bD wk =% =% c. 0@ =+.-+.-+.-+.-+.;+.>+.,+..  .  .  .  .  .  .  .  .  .  .  .  .  .  .  .  .  .  .  .  .  .  .  .  .  .  .  .  .  .  .  .  .  .  .  .  .  .  .  .  .  .  .  .  .  .  .  .  .  .  .  .  .  .  .  .  .  .  .  .  .  .  .  .  .  .  .  .  .  .  .  .  .  .  .  .  .  .  .  .  .  .  .  .  .  .  .  .  .  .  .  .  .  .  .  .  .  .  .  .  .  .  .  .  .  .  .  .  .  .  .  .  .  .  .  .  .  .  .  .  .  .  .  .  .  .  .  .  .  .  .  .  .  .  .  .  .  .  .  .  .  .  .  .  .  .  .  .  .  .  .  .  .  .  .  .  .  .  .  .  .  .  .  .  .  .  .  .  .  .  .  .  .  .  .  .  .  .  .  .  .  .  .  .  .  .  .  .  .  .  .  .  .  .  .  .  .  .  ",
".  .  .  .  .  .  .  .  .  .  .  .  .  .  .  .  .  .  .  .  .  .  .  .  .  .  .  .  .  .  .  .  .  .  .  .  .  .  .  .  .  .  .  '+.)+.De !+.~+.{+.]+.^+./+.(+._+.:+.:+.<+.[+.}+.|+.1+.2+.3+.4+.kK }v Vu 5+.Yu 6+.7+.7I 8+.9+.0+.a+.aH ^y ^y ^y ^y ^y ~y (y (y bH {y YK b+.c+.d+.d+.d+.d+.e+.e+.e+.e+.f+.e+.DW DW e+.g+.g+.g+.h+.DW i+.e+.d+.DW j+.eV k+.d+.e+.DW DW DW c+.l+.DW JD k+.wz ~z [y ^y ~z m+.]F 7I 7I 7I n+.7I 7I 7I 7I 7I 7I 7I 7I jU o+.o+.o+.p+.q+.Ru =P Ru r+.Fw s+.t+.u+.v+.u+.w+.x+.kZ BT !E BT kC y+.z+.A+.B+.C+.D+.E+.F+.;l +0 p} $d G+.t} (6 `- 4. 5. y. H+.I+.J+.K+.J+.l! 8+ L+..  .  .  .  .  .  .  .  .  .  .  .  .  .  .  .  .  .  .  .  .  .  .  .  .  .  .  .  .  .  .  .  .  .  .  .  .  .  .  .  .  .  .  .  .  .  .  .  .  .  .  .  .  .  .  .  .  .  .  .  .  .  .  .  .  .  .  .  .  .  .  .  .  .  .  .  .  .  .  .  .  .  .  .  .  .  .  .  .  .  .  .  .  .  .  .  .  .  .  .  .  .  .  .  .  .  .  .  .  .  .  .  .  .  .  .  .  .  .  .  .  .  .  .  .  .  .  .  .  .  .  .  .  .  .  .  .  .  .  .  .  .  .  .  .  .  .  .  .  .  .  .  .  .  .  .  .  .  .  .  .  .  .  .  .  .  .  .  .  .  .  .  .  .  .  .  .  .  .  .  .  .  .  .  .  .  .  .  .  .  .  .  .  .  .  .  .  .  ",
".  .  .  .  .  .  .  .  .  .  .  .  .  .  .  .  .  .  .  .  .  .  .  .  .  .  .  .  .  .  .  .  .  .  .  .  .  .  .  .  .  .  .  .  .  M+.<= N+..  .  O+.P+. % Q+.-4 X{ R+.S+.T+.U+.Cv V+.W+.X+.Y+.su Xu VK Z+.ou Rv `+.3y GC tx  @.vy vy vy vy vy vy vy vy vy pB Cy oB oB fV ~z fV yy yy :y 8C ;K |G ;K 8C vz <y vz <y <y Ez ^y <y vz |G lx ^y oB iA <y |G fV vz _y oB oB oB oB fV kA xz ix ~z _y )D hB @T 3G 9H 9K QR 9H 9H Rv `+.3G `+.Rv Mv ^D Ru Ru Ru Ru .@.$z NS 3y Vu >y +@.+H QM 7G mC mC lC f..SM 7S !E 3D @+.@@.#@.$@.%@.&@.*@.=@.-@.`$ Fu Fu k{ J' N- .; f. N- o] ;@.>@..  0% .  .  .  .  j+ .  .  .  .  .  .  .  .  .  .  .  .  .  .  .  .  .  .  .  .  .  .  .  .  .  .  .  .  .  .  .  .  .  .  .  .  .  .  .  .  .  .  .  .  .  .  .  .  .  .  .  .  .  .  .  .  .  .  .  .  .  .  .  .  .  .  .  .  .  .  .  .  .  .  .  .  .  .  .  .  .  .  .  .  .  .  .  .  .  .  .  .  .  .  .  .  .  .  .  .  .  .  .  .  .  .  .  .  .  .  .  .  .  .  .  .  .  .  .  .  .  .  .  .  .  .  .  .  .  .  .  .  .  .  .  .  .  .  .  .  .  .  .  .  .  .  .  .  .  .  .  .  .  .  .  .  .  .  .  .  .  .  .  .  .  .  .  .  .  .  .  .  .  .  .  .  .  .  .  .  .  .  .  .  .  .  .  .  .  .  .  .  .  .  .  .  .  ",
".  .  .  .  .  .  .  .  .  .  .  .  .  .  .  .  .  .  .  .  .  .  .  .  .  .  .  .  .  .  .  .  .  .  .  .  .  .  .  .  .  .  .  .  .  .  .  .  .  .  ,@.'@.y+ r3 !. ]. )@.!@.ez ~@.Qp ,I *K {@.]@.=z >y nu 0u ku mu ^@.Tu /@.(@.4H EV zz }y EV }y _N }y uz }y UJ XG XG ix mx ox }U EV mx ^y ^y <y <y /y ^y ^y ^y _@.kx 7C lx 8C 0C ^y ^y :y kx 8C 8C 8C /y <y <y ^y ,z ,z ,z ,z ,z ~y yy jx jx ,z :@.lB .E au >y |v ku ku lS |v tx <@.9H 9H DC UF iu &z 5v My Xv >y >y 4v :z Vu lR f..{E {E lC lC lC MC 6G kC 5G BN [@.nw TP }@.up RN |@.lf -@.'@ _; /. u- @| ca P= @- @- ^= 1@.vP .  .  .  .  .  .  .  .  .  .  .  .  .  .  .  .  .  .  .  .  .  .  .  .  .  .  .  .  .  .  .  .  .  .  .  .  .  .  .  .  .  .  .  .  .  .  .  .  .  .  .  .  .  .  .  .  .  .  .  .  .  .  .  .  .  .  .  .  .  .  .  .  .  .  .  .  .  .  .  .  .  .  .  .  .  .  .  .  .  .  .  .  .  .  .  .  .  .  .  .  .  .  .  .  .  .  .  .  .  .  .  .  .  .  .  .  .  .  .  .  .  .  .  .  .  .  .  .  .  .  .  .  .  .  .  .  .  .  .  .  .  .  .  .  .  .  .  .  .  .  .  .  .  .  .  .  .  .  .  .  .  .  .  .  .  .  .  .  .  .  .  .  .  .  .  .  .  .  .  .  .  .  .  .  .  .  .  .  .  .  .  .  .  .  .  .  .  .  .  .  .  .  .  .  ",
".  .  .  .  .  .  .  .  .  .  .  .  .  .  .  .  .  .  .  .  .  .  .  .  .  .  .  .  .  .  .  .  .  .  .  .  .  .  .  .  .  .  .  .  .  .  .  .  .  .  ,@.YQ R# G8 P= W} k: 2@.3@.[A 8/ 4@.5@.{@.]@.Wu 6@.ku QR 7@.ou `u `u /@.mu 8@.}y [y (y (y wy wy 9@.wy wy <y vz kA <y vz pB xy xy yy kA 0@./y 8C Cy kA /y ^y <y !z vz iA ^y 7..^y kA Ez pB pB kA pB 8C Ez ^y ^y ,z ,z ,z yy vz kA 7..ix jx &J )D fC a@./D 3y HB nu b@.7@.nu ou ju ku ku lu pu 2y BJ +v +v 2y 4v :v 3y >y :v c@. D >O {E {E !E lC 2F jC .I lC lC %+.d@.e@.~v f@.g@.'4 h@.i@.(@ T~ O> j@.   Em 3& ,% r& v  1@.k@..  .  .  .  .  .  .  .  .  .  .  .  .  .  .  .  .  .  .  .  .  .  .  .  .  .  .  .  .  .  .  .  .  .  .  .  .  .  .  .  .  .  .  .  .  .  .  .  .  .  .  .  .  .  .  .  .  .  .  .  .  .  .  .  .  .  .  .  .  .  .  .  .  .  .  .  .  .  .  .  .  .  .  .  .  .  .  .  .  .  .  .  .  .  .  .  .  .  .  .  .  .  .  .  .  .  .  .  .  .  .  .  .  .  .  .  .  .  .  .  .  .  .  .  .  .  .  .  .  .  .  .  .  .  .  .  .  .  .  .  .  .  .  .  .  .  .  .  .  .  .  .  .  .  .  .  .  .  .  .  .  .  .  .  .  .  .  .  .  .  .  .  .  .  .  .  .  .  .  .  .  .  .  .  .  .  .  .  .  .  .  .  .  .  .  .  .  .  .  .  .  .  .  .  ",
".  .  .  .  .  .  .  .  .  .  .  .  .  .  .  .  .  .  .  .  .  .  .  .  .  .  .  .  .  .  .  .  .  .  .  .  .  .  .  .  .  .  .  .  .  .  .  .  .  .  l@.BE s9 x. 9  mm nh =o +^ |{ .( ]n !H m@.n@.o@.|v tO aK aK Vu Su p@.HV mu Gz uz vz vz oB _y 0C ^y {z ,z ^y ^y ^y ^y oB ;K )z )z bH (y ~z ~z wz ,z wz wz (y (y [y [y (y jA jA [y kA ,z ,z [y [y (y (y (y (y (y <y pB iA 8C mx q@.r@.ix aN TV uA s@.t@.Ru >y 3y 3y HB u@.|v |v >y _D UF 3y Ky Ru v@.^v [v >y Xv 2y 3y &z >y Fw 8G 2F {E !E !E ,O 2F lC .I mC lC w@.nw fS 1{ e| [n x@.y@.u> 7- z@..[ F= ^. H' O+ !. #$ <4 A@.B@..  .  .  .  .  .  .  .  .  .  .  .  .  .  .  .  .  .  .  .  .  .  .  .  .  .  .  .  .  .  .  .  .  .  .  .  .  .  .  .  .  .  .  .  .  .  .  .  .  .  .  .  .  .  .  .  .  .  .  .  .  .  .  .  .  .  .  .  .  .  .  .  .  .  .  .  .  .  .  .  .  .  .  .  .  .  .  .  .  .  .  .  .  .  .  .  .  .  .  .  .  .  .  .  .  .  .  .  .  .  .  .  .  .  .  .  .  .  .  .  .  .  .  .  .  .  .  .  .  .  .  .  .  .  .  .  .  .  .  .  .  .  .  .  .  .  .  .  .  .  .  .  .  .  .  .  .  .  .  .  .  .  .  .  .  .  .  .  .  .  .  .  .  .  .  .  .  .  .  .  .  .  .  .  .  .  .  .  .  .  .  .  .  .  .  .  .  .  .  .  .  .  .  .  ",
".  .  .  .  .  .  .  .  .  .  .  .  .  .  .  .  .  .  .  .  .  .  .  .  .  .  .  .  .  .  .  .  .  .  .  .  .  .  .  .  .  .  .  .  .  .  .  .  .  .  ,@.xH K& g% y> C@.'j =o '4 <h K~ 07 D@.E@.F@.G@.H@.I@.J@.H@.su Ru _U Vu +v QJ K@.r@.r@.By By L@.0H ZN 'N HC Ay HC vy wy TV TV TV [y zy ~z XG ~z ,z wz uy (y (y [y /y [y wy (y [y kA ~z [y [y [y [y (y (y (y (y lx xy lx mx M@.TV cB }y BG  O QX fB N@.Ru 4v >y >y >y u@.6v 5v |v >y 5N 3y fH ^D Ru _D GB 3y 3y 5N 5N 5N 3y O@.f..1D !E !E !E qY P@.Q@.R@.oR S@.T@.U@.V@.g< W@.X@.Rl bg ;6 W$ %{ P% b{ ;; A# `- ;; e< y+ 1@.Y@..  .  .  .  .  .  .  .  .  .  .  .  .  .  .  .  .  .  .  .  .  .  .  .  .  .  .  .  .  .  .  .  .  .  .  .  .  .  .  .  .  .  .  .  .  .  .  .  .  .  .  .  .  .  .  .  .  .  .  .  .  .  .  .  .  .  .  .  .  .  .  .  .  .  .  .  .  .  .  .  .  .  .  .  .  .  .  .  .  .  .  .  .  .  .  .  .  .  .  .  .  .  .  .  .  .  .  .  .  .  .  .  .  .  .  .  .  .  .  .  .  .  .  .  .  .  .  .  .  .  .  .  .  .  .  .  .  .  .  .  .  .  .  .  .  .  .  .  .  .  .  .  .  .  .  .  .  .  .  .  .  .  .  .  .  .  .  .  .  .  .  .  .  .  .  .  .  .  .  .  .  .  .  .  .  .  .  .  .  .  .  .  .  .  .  .  .  .  .  .  .  .  .  .  ",
".  .  .  .  .  .  .  .  .  .  .  .  .  .  .  .  .  .  .  .  .  .  .  .  .  .  .  .  .  .  .  .  .  .  .  .  .  .  .  .  .  .  .  .  .  .  .  .  .  ~m ,@.Z@.// 0  x$ %= 'j =o 2n )! 07 K~ `@. #..#.+#.+#.+#.@#.##.tJ lS 9H My /D @T @E lU |y lU #E lU lU PX PX $#.@E %#.PX PX PX PX PX UV &#.jx (y (y ,z wz vy (y (y (y /y [y wy ~y (y /y ,z (y vz jA (y /y kA (y (y /y Ez kA ,V 3T [` 7Y $#.lU  E PX @E *#.3v Wu 4v >y 5v +v 5v >y iu >y ou 3y *z 3y :v 5v :v =#.-#.zO ;#.;#.zO pY 2F {E !E !E OY >#.,#.'#.)#.!#.~#.{#.]#.{f {f ^6 ^#.^6 g_  ; ^. ^. V' 9  @; ^| ^. 0@ 5. =~ /#.(#..  .  .  .  .  .  .  .  .  .  .  .  .  .  .  .  .  .  .  .  .  .  .  .  .  .  .  .  .  .  .  .  .  .  .  .  .  .  .  .  .  .  .  .  .  .  .  .  .  .  .  .  .  .  .  .  .  .  .  .  .  .  .  .  .  .  .  .  .  .  .  .  .  .  .  .  .  .  .  .  .  .  .  .  .  .  .  .  .  .  .  .  .  .  .  .  .  .  .  .  .  .  .  .  .  .  .  .  .  .  .  .  .  .  .  .  .  .  .  .  .  .  .  .  .  .  .  .  .  .  .  .  .  .  .  .  .  .  .  .  .  .  .  .  .  .  .  .  .  .  .  .  .  .  .  .  .  .  .  .  .  .  .  .  .  .  .  .  .  .  .  .  .  .  .  .  .  .  .  .  .  .  .  .  .  .  .  .  .  .  .  .  .  .  .  .  .  .  .  .  .  .  .  .  ",
".  .  .  .  .  .  .  .  .  .  .  .  .  .  .  .  .  .  .  .  .  .  .  .  .  .  .  .  .  .  .  .  .  .  .  .  .  .  .  .  .  .  .  .  .  .  .  .  .  r6 ,@._#.o~ _; W> B7 Q: =o j( 4( '4 96 :#.<#.[#.Bv |A *N }#.|#.V..au ku /D /D >E GD [v Ru [v Ru lK [v ^D ]D ]D |v ]D /D ^D /D `+.JM 1#.&#.jx wz wz ,z >z vy (y (y (y vz zz }G ~y (y (y ,z (y (y ;z [y !D Dz ;z /y kA 2#.`..jI lB s@.mI KW KW KW Mv _D :z My su _v 4v :v 3y 2y >y >y >y 2y 2y :v :v HB 3#.Zu 4#.5G !E {E 5G >O mC 1F LC !E !E 5#.6#.7#.8#.9#.0#.a#.b#.c#.Yr d#.!& `$ U' ^. g% ;; ^. `- g% r~ D#  ; .* .* )* e#.f#..  .  .  .  .  .  .  .  .  .  .  .  .  .  .  .  .  .  .  .  .  .  .  .  .  .  .  .  .  .  .  .  .  .  .  .  .  .  .  .  .  .  .  .  .  .  .  .  .  .  .  .  .  .  .  .  .  .  .  .  .  .  .  .  .  .  .  .  .  .  .  .  .  .  .  .  .  .  .  .  .  .  .  .  .  .  .  .  .  .  .  .  .  .  .  .  .  .  .  .  .  .  .  .  .  .  .  .  .  .  .  .  .  .  .  .  .  .  .  .  .  .  .  .  .  .  .  .  .  .  .  .  .  .  .  .  .  .  .  .  .  .  .  .  .  .  .  .  .  .  .  .  .  .  .  .  .  .  .  .  .  .  .  .  .  .  .  .  .  .  .  .  .  .  .  .  .  .  .  .  .  .  .  .  .  .  .  .  .  .  .  .  .  .  .  .  .  .  .  .  .  .  .  .  ",
".  .  .  .  .  .  .  .  .  .  .  .  .  .  .  .  .  .  .  .  .  .  .  .  .  .  .  .  .  .  .  .  .  .  .  .  .  .  .  .  .  .  .  .  .  .  .  .  .  @a g#.h#.$$ /. P= s< Q: Cq Ro {s zc 2[ l< ;_ ,4 {6 l< z{ i#.~H Xt >y j#.TF tu SF 6v >y >y 4v iu Vu My My 4v >y Fw 4v My Ly >y >y 5v {D k#.,z [y [y ,z Dz vy (y vy vy vy wy wy Ay vy (y (y (y wy wy vy (y vy Ay Ay (y Dz ,z jx UJ _J nI GD 0u zG 5v >y 4v Wu 4v 4v 4v NS 5v 5v iu >y Vu Vu >y >y 4v 4v Vu >y l#.3S gH aT !E jC lC gH .I 1D !E m#.n#.o#.D@./) r/ `h ha p#.)] 0@ -; @@ `- ;; ;; -; 0@ Z* !. ~. im #; 8~ ie /> q#.e{ .  .  .  .  .  .  .  .  .  .  .  .  .  .  .  .  .  .  .  .  .  .  .  .  .  .  .  .  .  .  .  .  .  .  .  .  .  .  .  .  .  .  .  .  .  .  .  .  .  .  .  .  .  .  .  .  .  .  .  .  .  .  .  .  .  .  .  .  .  .  .  .  .  .  .  .  .  .  .  .  .  .  .  .  .  .  .  .  .  .  .  .  .  .  .  .  .  .  .  .  .  .  .  .  .  .  .  .  .  .  .  .  .  .  .  .  .  .  .  .  .  .  .  .  .  .  .  .  .  .  .  .  .  .  .  .  .  .  .  .  .  .  .  .  .  .  .  .  .  .  .  .  .  .  .  .  .  .  .  .  .  .  .  .  .  .  .  .  .  .  .  .  .  .  .  .  .  .  .  .  .  .  .  .  .  .  .  .  .  .  .  .  .  .  .  .  .  .  .  .  .  .  .  .  ",
".  .  .  .  .  .  .  .  .  .  .  .  .  .  .  .  .  .  .  .  .  .  .  .  .  .  .  .  .  .  .  .  .  .  .  .  .  .  .  .  .  .  .  .  .  .  .  .  .  .  ,@.r#.s#.Z* G{ E# k: ,H  ( 3( .d 4( ij ij ]) h< h< L~ t#.u#.Xt ry `u Vu (v Uu S .My My My My My qI My My :v 4v Ru 5v Vu 2y >y 4v v#.&#.wy vy (y vy ~y wy wy (y _y _y _y (y wz ~y ,z ,z ,z vz _y (y pB ,z ~y Dz Dz ,z Cy 8C 2J w#.mI :K 3y 4v My 5v Vu iu My iu My Ru Ru Ru iu My My My 5v >y bV 4v My 2y l#.5G !E 1D OY 8G mC 1F {E mC lC 4G n#.x#.yv y{ Vm &e Ae y#.l| r~ g% g% e< .; ;; 8@ M& ;; h. ^9 P} 5| M{ .@ z#.A#.B#..  .  .  .  .  .  .  .  .  .  .  .  .  .  .  .  .  .  .  .  .  .  .  .  .  .  .  .  .  .  .  .  .  .  .  .  .  .  .  .  .  .  .  .  .  .  .  .  .  .  .  .  .  .  .  .  .  .  .  .  .  .  .  .  .  .  .  .  .  .  .  .  .  .  .  .  .  .  .  .  .  .  .  .  .  .  .  .  .  .  .  .  .  .  .  .  .  .  .  .  .  .  .  .  .  .  .  .  .  .  .  .  .  .  .  .  .  .  .  .  .  .  .  .  .  .  .  .  .  .  .  .  .  .  .  .  .  .  .  .  .  .  .  .  .  .  .  .  .  .  .  .  .  .  .  .  .  .  .  .  .  .  .  .  .  .  .  .  .  .  .  .  .  .  .  .  .  .  .  .  .  .  .  .  .  .  .  .  .  .  .  .  .  .  .  .  .  .  .  .  .  .  .  .  ",
".  .  .  .  .  .  .  .  .  .  .  .  .  .  .  .  .  .  .  .  .  .  .  .  .  .  .  .  .  .  .  .  .  .  .  .  .  .  .  .  .  .  .  .  .  .  .  .  .  .  C#.D#.K& (8 K6 0p k: Eq }{ :] !6 !6 K~ RN E#.F#.D{ ~p t#.u#.Xt *P &z Xv Ly G#.5N 4v <G <G <G >y 5v My >y >y :z DY =O Ly 2y 2y >y dI H#.qx UJ ~z [y cH cH cH Cy Cy Cy :y bH bH Cy Cy {y {y Ez Cy _@.)z {y Cy oB ,z pB /y ix qx <F KW 9H Vu My My 5v My 3v >y My My 5v 5v 3v bV <G 4v My 2y 2y qI &z >y I#.l#.5G !E aT )E >O MC 2D jC BN mC OY n#.J#.D@.T} N( >_ F4 ,l Kr g% D# g% -; x> -; -; 8@ J' *) B| c. T~ fb g  kW K#.L#..  .  .  .  .  .  .  .  .  .  .  .  .  .  .  .  .  .  .  .  .  .  .  .  .  .  .  .  .  .  .  .  .  .  .  .  .  .  .  .  .  .  .  .  .  .  .  .  .  .  .  .  .  .  .  .  .  .  .  .  .  .  .  .  .  .  .  .  .  .  .  .  .  .  .  .  .  .  .  .  .  .  .  .  .  .  .  .  .  .  .  .  .  .  .  .  .  .  .  .  .  .  .  .  .  .  .  .  .  .  .  .  .  .  .  .  .  .  .  .  .  .  .  .  .  .  .  .  .  .  .  .  .  .  .  .  .  .  .  .  .  .  .  .  .  .  .  .  .  .  .  .  .  .  .  .  .  .  .  .  .  .  .  .  .  .  .  .  .  .  .  .  .  .  .  .  .  .  .  .  .  .  .  .  .  .  .  .  .  .  .  .  .  .  .  .  .  .  .  .  .  .  .  .  ",
".  .  .  .  .  .  .  .  .  .  .  .  .  .  .  .  .  .  .  .  .  .  .  .  .  .  .  .  .  .  .  .  .  .  .  .  .  .  .  .  .  .  .  .  .  .  .  .  .  .  M#.N#.@U JR x5 _d O#.P#.Z5 Q#.!d !d R#.S#.K~ y{ bt Z5 t#.u#.;y T#.U#.V#.W#.ru du Ly pz Ly Ly _v _v _v _v :v Vu *z *z BJ GC GC >y dI gI >L jI m+.EV _N _N [y _N mB Az Az tA X#.uz _N jI tA X#.IW |Z EV EV Az mB Az  O Az m+.fC YD KW /D <G 5v 3v Vu 5v Vu 5v My >y 6v 1y =O Vu 4v Ly Ly _v _v Ly _v _v *z l#.5G !E .I f..jC jC Y#.Z#.Z#.Z#.n#.`#. $.i[ *_ ]6 La m/ na W} @@ c# e< P} .; r~ 8@ 0@ >- Z8 .$.+$.2| @$.#$.;8 $$.Z1 .  .  .  .  .  .  .  .  .  .  .  .  .  .  .  .  .  .  .  .  .  .  .  .  .  .  .  .  .  .  .  .  .  .  .  .  .  .  .  .  .  .  .  .  .  .  .  .  .  .  .  .  .  .  .  .  .  .  .  .  .  .  .  .  .  .  .  .  .  .  .  .  .  .  .  .  .  .  .  .  .  .  .  .  .  .  .  .  .  .  .  .  .  .  .  .  .  .  .  .  .  .  .  .  .  .  .  .  .  .  .  .  .  .  .  .  .  .  .  .  .  .  .  .  .  .  .  .  .  .  .  .  .  .  .  .  .  .  .  .  .  .  .  .  .  .  .  .  .  .  .  .  .  .  .  .  .  .  .  .  .  .  .  .  .  .  .  .  .  .  .  .  .  .  .  .  .  .  .  .  .  .  .  .  .  .  .  .  .  .  .  .  .  .  .  .  .  .  .  .  .  .  .  .  ",
".  .  .  .  .  .  .  .  .  .  .  .  .  .  .  .  .  .  .  .  .  .  .  .  .  .  .  .  .  .  .  .  .  .  .  .  .  .  .  .  .  .  .  .  .  .  .  .  .  zf %$.&$.*$.=$.-$.;$.>$.,$.'$.6/ )$.)$.!$.~$.~p o/ [{ R3 ~Z {$.]$.^$./$.($._$.:$.<$.[$.}$.[$.|$.1$.|$.|$.[$.|$.}$.2$.:z pz GC 2y >y [v <J ]F 3$.3$.3$.]F YS ]F ]F ]F (W ]F 3$.3$.(W ]F ]F ]F ]F ]F ]F 4$.XH XH XH XH XH 3$.eO PL 5$.[v Ru >y Vu My My Vu 3v >y >y 5v Fw uO 1$.|$.|$.1$.1$.1$.1$.|$.|$.|$.1$.6$.7G .I !E 1D SM 7$.8$.9$.9$.K` 0$.a$.b$.c$.E! dG d$.uq e$.S+ j{ g% g% e< .; D# ;; 8@ 0@ f$.g$.Jl h$.i$.D| j$.k$.~b .  .  .  .  .  .  .  .  .  .  .  .  .  .  .  .  .  .  .  .  .  .  .  .  .  .  .  .  .  .  .  .  .  .  .  .  .  .  .  .  .  .  .  .  .  .  .  .  .  .  .  .  .  .  .  .  .  .  .  .  .  .  .  .  .  .  .  .  .  .  .  .  .  .  .  .  .  .  .  .  .  .  .  .  .  .  .  .  .  .  .  .  .  .  .  .  .  .  .  .  .  .  .  .  .  .  .  .  .  .  .  .  .  .  .  .  .  .  .  .  .  .  .  .  .  .  .  .  .  .  .  .  .  .  .  .  .  .  .  .  .  .  .  .  .  .  .  .  .  .  .  .  .  .  .  .  .  .  .  .  .  .  .  .  .  .  .  .  .  .  .  .  .  .  .  .  .  .  .  .  .  .  .  .  .  .  .  .  .  .  .  .  .  .  .  .  .  .  .  .  .  .  .  .  ",
".  .  .  .  .  .  .  .  .  .  .  .  .  .  .  .  .  .  .  .  .  .  .  .  .  .  .  .  .  .  .  .  .  .  .  .  .  .  .  .  .  .  .  .  .  .  .  .  .  .  VY H% H% H% eW .  l$.:( o~  < *:  d ^j m$.!d l< [{ L~ +( n$.8#.OI o$.rs p$.q$.r$.{E lC lC {E lC jC jC {E jC {E gH Ly Zu GC ,y >y 3v Ru lK 6v Ny 0u 0u s$.2H 9H 0u 0u 0u 9H 9H 9H 9H 9H NG lS lS 0u 0u 0u 0u 0u 0u OX fu dH /D Ru GB UF 2y >y My Vu My ]H My My >y 2y t$.BN mC jC {E jC #S lC 3S 7G BN lC lC lC {E .I LC SM u$.v$.8#.w$.OI OI x$.y$.qH H5 u> i& -^ j! Q- g% g% r~ :% s# 0@ 8@ 8@ g. z$.A$.B$.D8 H% h# .  .  .  .  .  .  .  .  .  .  .  .  .  .  .  .  .  .  .  .  .  .  .  .  .  .  .  .  .  .  .  .  .  .  .  .  .  .  .  .  .  .  .  .  .  .  .  .  .  .  .  .  .  .  .  .  .  .  .  .  .  .  .  .  .  .  .  .  .  .  .  .  .  .  .  .  .  .  .  .  .  .  .  .  .  .  .  .  .  .  .  .  .  .  .  .  .  .  .  .  .  .  .  .  .  .  .  .  .  .  .  .  .  .  .  .  .  .  .  .  .  .  .  .  .  .  .  .  .  .  .  .  .  .  .  .  .  .  .  .  .  .  .  .  .  .  .  .  .  .  .  .  .  .  .  .  .  .  .  .  .  .  .  .  .  .  .  .  .  .  .  .  .  .  .  .  .  .  .  .  .  .  .  .  .  .  .  .  .  .  .  .  .  .  .  .  .  .  .  .  .  .  .  .  .  .  .  ",
".  .  .  .  .  .  .  .  .  .  .  .  .  .  .  .  .  .  .  .  .  .  .  .  .  .  .  .  .  .  .  .  .  .  .  .  .  .  .  .  .  .  .  .  .  .  .  .  .  .  .  .  .  .  .  q5 C$.D$.w/ +, 9@ g% *% 3< ~p o( 96 4( [{ Z5 D{ o( e| E$.F$.G$.H$.lC lC lC lC lC lC lC jC 1D {E gH I$.Zu ,y ,y GC Vu :v >y 2y >y 2y *z b@.nu Ny Ny }v vB HB +v >y >y >y +v +v +v DC }v >y nu nu +v AP Ny >y 2y 3y 3y >y >y >y Vu 3v My Ly My >y >y >y t$.mC jC jC lC +H rI gN 1F BT lC lC gN lC {E lC 5G & .J$.K$.*N [{ L~ {8 L$.M$.*: ,% O+ 5% @; @; u# ;@ w> ;; ;; s# -; 0@ 0@ h. N$.O$.P$..  .  .  .  .  .  .  .  .  .  .  .  .  .  .  .  .  .  .  .  .  .  .  .  .  .  .  .  .  .  .  .  .  .  .  .  .  .  .  .  .  .  .  .  .  .  .  .  .  .  .  .  .  .  .  .  .  .  .  .  .  .  .  .  .  .  .  .  .  .  .  .  .  .  .  .  .  .  .  .  .  .  .  .  .  .  .  .  .  .  .  .  .  .  .  .  .  .  .  .  .  .  .  .  .  .  .  .  .  .  .  .  .  .  .  .  .  .  .  .  .  .  .  .  .  .  .  .  .  .  .  .  .  .  .  .  .  .  .  .  .  .  .  .  .  .  .  .  .  .  .  .  .  .  .  .  .  .  .  .  .  .  .  .  .  .  .  .  .  .  .  .  .  .  .  .  .  .  .  .  .  .  .  .  .  .  .  .  .  .  .  .  .  .  .  .  .  .  .  .  .  .  .  .  .  .  .  .  .  .  ",
".  .  .  .  .  .  .  .  .  .  .  .  .  .  .  .  .  .  .  .  .  .  .  .  .  .  .  .  .  .  .  .  .  .  .  .  .  .  .  .  .  .  .  .  .  .  .  .  .  .  .  .  .  .  .  .  Q$.R$.d' =% ,% !. 2, 4C &e %( ~8 D{ [{ {s 4( o( e| ~c F$.G$.H$.lC lC lC lC lC lC lC lC !E {E gH I$.Zu ,y ,y GC >y 4y bP su Uu 4v >y 3y Ru 4v Vu 4v Vu Vu 4v 4v 4v 4v >y iu 2y >y Vu iu 4v >y Ny >y 5v My >y 3y 3y >y >y iu My 5v My <G >y 4v >y My t$.BN jC jC {E !E gH )E !E BT BT !E gN lC {E lC jC )E J$.S$.^n n( $( }{ Ya o} z& X$ i  ;; O! P/ d> 3& M& g% /{ K# g% g% ;; 0@ k1 T$..  .  .  .  .  .  .  .  .  .  .  .  .  .  .  .  .  .  .  .  .  .  .  .  .  .  .  .  .  .  .  .  .  .  .  .  .  .  .  .  .  .  .  .  .  .  .  .  .  .  .  .  .  .  .  .  .  .  .  .  .  .  .  .  .  .  .  .  .  .  .  .  .  .  .  .  .  .  .  .  .  .  .  .  .  .  .  .  .  .  .  .  .  .  .  .  .  .  .  .  .  .  .  .  .  .  .  .  .  .  .  .  .  .  .  .  .  .  .  .  .  .  .  .  .  .  .  .  .  .  .  .  .  .  .  .  .  .  .  .  .  .  .  .  .  .  .  .  .  .  .  .  .  .  .  .  .  .  .  .  .  .  .  .  .  .  .  .  .  .  .  .  .  .  .  .  .  .  .  .  .  .  .  .  .  .  .  .  .  .  .  .  .  .  .  .  .  .  .  .  .  .  .  .  .  .  .  .  .  .  .  ",
".  .  .  .  .  .  .  .  .  .  .  .  .  .  .  .  .  .  .  .  .  .  .  .  .  .  .  .  .  .  .  .  .  .  .  .  .  .  .  .  .  .  .  .  .  .  .  .  .  .  .  .  .  .  .  .  U$.1B )p V$.r& !. 2, W$.&e |{ |{ 07 #( ^) :] m< ^8 l< gz G$.H$.!E !E lC )E 1F lC BT !E !E {E gH Ly >y (v ,y ,y >y su `u Tu su X$.Ru Ru Ru ]H 4v 4v 4v 4v 4v 4v 4v 4v 4v 4v Xu Xu 4v Uu 4v 3v oy sz rz <G >y 3y :v 2y iu My iu Vu >y 4v Vu 4v >y >y t$.5G {E 1D .I !E gH !E 1D !E 1D !E gH !E {E .I jC .I J$.S$.Y$..( .( ^) o^ -c '@ b@ e/ 0@ @; @; ={ 3& ,% w> t{    a) Z*    A' Z$.`$.%, .  .  .  .  .  .  .  .  .  .  .  .  .  .  .  .  .  .  .  .  .  .  .  .  .  .  .  .  .  .  .  .  .  .  .  .  .  .  .  .  .  .  .  .  .  .  .  .  .  .  .  .  .  .  .  .  .  .  .  .  .  .  .  .  .  .  .  .  .  .  .  .  .  .  .  .  .  .  .  .  .  .  .  .  .  .  .  .  .  .  .  .  .  .  .  .  .  .  .  .  .  .  .  .  .  .  .  .  .  .  .  .  .  .  .  .  .  .  .  .  .  .  .  .  .  .  .  .  .  .  .  .  .  .  .  .  .  .  .  .  .  .  .  .  .  .  .  .  .  .  .  .  .  .  .  .  .  .  .  .  .  .  .  .  .  .  .  .  .  .  .  .  .  .  .  .  .  .  .  .  .  .  .  .  .  .  .  .  .  .  .  .  .  .  .  .  .  .  .  .  .  .  .  .  .  .  .  .  .  .  ",
".  .  .  .  .  .  .  .  .  .  .  .  .  .  .  .  .  .  .  .  .  .  .  .  .  .  .  .  .  .  .  .  .  .  .  .  .  .  .  .  .  .  .  .  .  .  .  .  .  .  .  .  .  .  .  .   %.1B /. 3% (6 ,( 3d .%..i Lm +%.8/ @%.{6 :{ #( #( xS #%.$%.%%.>#.>#..H .H .H .H .H .H &%.>#.gH mK Mv 2v #v Uu }v 3v 4v 2v 3v Ru Ru ^D AP 4v Vu 2y My 5N My NS 3v Ru >y 3y 3y >y _v >y 3y >y NS Vu My >y >y >y *z :v :v 4v 4v 4v su Wu Uu 4v GC 1y *%.QM ,O .I !E aT rI {E !E )E lC ~E rI LC $ .aT .I =%.-%.;%.07 ~[ s/ l^ Z[ >%.H' @@ c@ ^. !. !. !. u( a~ G> ,; 1. (b &# K$ C% ,%.'%.)%..  .  .  .  .  .  .  .  .  .  .  .  .  .  .  .  .  .  .  .  .  .  .  .  .  .  .  .  .  .  .  .  .  .  .  .  .  .  .  .  .  .  .  .  .  .  .  .  .  .  .  .  .  .  .  .  .  .  .  .  .  .  .  .  .  .  .  .  .  .  .  .  .  .  .  .  .  .  .  .  .  .  .  .  .  .  .  .  .  .  .  .  .  .  .  .  .  .  .  .  .  .  .  .  .  .  .  .  .  .  .  .  .  .  .  .  .  .  .  .  .  .  .  .  .  .  .  .  .  .  .  .  .  .  .  .  .  .  .  .  .  .  .  .  .  .  .  .  .  .  .  .  .  .  .  .  .  .  .  .  .  .  .  .  .  .  .  .  .  .  .  .  .  .  .  .  .  .  .  .  .  .  .  .  .  .  .  .  .  .  .  .  .  .  .  .  .  .  .  .  .  .  .  .  .  .  .  .  .  .  ",
".  .  .  .  .  .  .  .  .  .  .  .  .  .  .  .  .  .  .  .  .  .  .  .  .  .  .  .  .  .  .  .  .  .  .  .  .  .  .  .  .  .  .  .  .  .  .  .  .  .  .  .  .  .  .  .  !%.~%.x. f[ ~& {%.&% bg ]%.^%.#../%.(%.&_ _%.up }{ :%.<%.[%.}%.|%.1%.2%.3%.4%.5%.6%.7%.6%.7%.8%.9%.0%.a%.b%.c%.d%.e%.f%.d%.g%.h%.h%.i%.{M j%.j%.{M {M k%.My Vu iu Vu 6v >y 5v 2y >y >y _v 2y >y NS >y Vu >y Ly l%.{M {M {M {M {M {M ~M {M j%.l%.m%.AN OQ jC {E  D +H rI .I & .!E !E n%.o%.p%.q%.p%.r%.7%.s%.t%.u%.v%.w%.x%.kh y%.F= V$ ~& ^. (@ `- U) z%.1@ U+ A%.B%.-t C%.C%.D%.E%.F%..  .  .  .  .  .  .  .  .  .  .  .  .  .  .  .  .  .  .  .  .  .  .  .  .  .  .  .  .  .  .  .  .  .  .  .  .  .  .  .  .  .  .  .  .  .  .  .  .  .  .  .  .  .  .  .  .  .  .  .  .  .  .  .  .  .  .  .  .  .  .  .  .  .  .  .  .  .  .  .  .  .  .  .  .  .  .  .  .  .  .  .  .  .  .  .  .  .  .  .  .  .  .  .  .  .  .  .  .  .  .  .  .  .  .  .  .  .  .  .  .  .  .  .  .  .  .  .  .  .  .  .  .  .  .  .  .  .  .  .  .  .  .  .  .  .  .  .  .  .  .  .  .  .  .  .  .  .  .  .  .  .  .  .  .  .  .  .  .  .  .  .  .  .  .  .  .  .  .  .  .  .  .  .  .  .  .  .  .  .  .  .  .  .  .  .  .  .  .  .  .  .  .  .  .  .  .  .  .  .  .  ",
".  .  .  .  .  .  .  .  .  .  .  .  .  .  .  .  .  .  .  .  .  .  .  .  .  .  .  .  .  .  .  .  .  .  .  .  .  .  .  .  .  .  .  .  .  .  .  .  .  .  .  .  .  .  .  .  G%.H%.^| e% D/ j. Y-    =% Q# zn v{ Wf )t  6 h< Or ~c ,_ I%.n..7u 8#.8#.J%.K%.K%.L%.U+.M%.N%.O%.P%.QM Q%.R%.QM OQ SM U` Q%.S%.LC kC 5G T%.OQ LC jC U%.V%._v 5v My My 3y 6v 6v 6v FS BJ 5v >y 5v Vu My >y :v W%.2F U%.S%. D 5G 6G 6G 6G 6G QM Q%.3S jC +H MC f..{E aT rI !E )E 1D 1D X%.Y%.Z%.`%.M%. &.r ..&.+&.Y^ 5~ @&.@&.$_ c] a@ c. 0@ ;; w] IO #&.#; Q- d% $&.%&.At 6& &&.6& *&.3_ .  .  .  .  .  .  .  .  .  .  .  .  .  .  .  .  .  .  .  .  .  .  .  .  .  .  .  .  .  .  .  .  .  .  .  .  .  .  .  .  .  .  .  .  .  .  .  .  .  .  .  .  .  .  .  .  .  .  .  .  .  .  .  .  .  .  .  .  .  .  .  .  .  .  .  .  .  .  .  .  .  .  .  .  .  .  .  .  .  .  .  .  .  .  .  .  .  .  .  .  .  .  .  .  .  .  .  .  .  .  .  .  .  .  .  .  .  .  .  .  .  .  .  .  .  .  .  .  .  .  .  .  .  .  .  .  .  .  .  .  .  .  .  .  .  .  .  .  .  .  .  .  .  .  .  .  .  .  .  .  .  .  .  .  .  .  .  .  .  .  .  .  .  .  .  .  .  .  .  .  .  .  .  .  .  .  .  .  .  .  .  .  .  .  .  .  .  .  .  .  .  .  .  .  .  .  .  .  .  .  .  ",
".  .  .  .  .  .  .  .  .  .  .  .  .  .  .  .  .  .  .  .  .  .  .  .  .  .  .  .  .  .  .  .  .  .  .  .  .  .  .  .  .  .  .  .  .  .  .  .  .  .  .  .  .  .  .  .  =&.o- -&.// =% !& ^. ^. }l +@ (@ n{ &q |x Z_ ij &K Pa Vm M( QC <{ <{ bf bf n) Or T} O' P' ;&.>&.,&.& .1D 3S !E !E NZ SM lC 5G lC f..2F rI ,O !E 2F 7G '&.3y >y >y >y 6v _v _v 6v 6v 5v 5v 5v 5v Vu Vu >y Vu lR )&.gH 7G lC lC lC lC lC 3D jC {E .I gH OY kC 6G kC lC lC 6G lC {E LC U` !&.~&.AH }{ Jc {&.Yf ]&.+_ h) !@ =% .* H( H( v. w> ,@ ,@  *  * 2. N| z. ^&./&.p$ .  .  .  .  .  .  .  .  .  .  .  .  .  .  .  .  .  .  .  .  .  .  .  .  .  .  .  .  .  .  .  .  .  .  .  .  .  .  .  .  .  .  .  .  .  .  .  .  .  .  .  .  .  .  .  .  .  .  .  .  .  .  .  .  .  .  .  .  .  .  .  .  .  .  .  .  .  .  .  .  .  .  .  .  .  .  .  .  .  .  .  .  .  .  .  .  .  .  .  .  .  .  .  .  .  .  .  .  .  .  .  .  .  .  .  .  .  .  .  .  .  .  .  .  .  .  .  .  .  .  .  .  .  .  .  .  .  .  .  .  .  .  .  .  .  .  .  .  .  .  .  .  .  .  .  .  .  .  .  .  .  .  .  .  .  .  .  .  .  .  .  .  .  .  .  .  .  .  .  .  .  .  .  .  .  .  .  .  .  .  .  .  .  .  .  .  .  .  .  .  .  .  .  .  .  .  .  .  .  .  .  .  .  .  .  .  ",
".  .  .  .  .  .  .  .  .  .  .  .  .  .  .  .  .  .  .  .  .  .  .  .  .  .  .  .  .  .  .  .  .  .  .  .  .  .  .  .  .  .  .  .  .  .  .  .  .  .  .  .  .  .  .  .  (&.o- e> .6 i) *)    5% s( ,[ gd 3& pf ji @^ r/ T^ ]8 x{ o< I~ _&._&._&.'4 2{ :&.L( :~ %( Oa <&.[&.)E lC lC lC BT }&.|&.LC LC 1&.2&..H !E !E !E {E OQ '&.3y >y >y >y >y 6v 3y >y qI NS iu 3y Vu iu Vu 2y pz lR ^L jC jC lC lC lC lC jC 8G {E {E 3&.,O 4&.1D lC 5G lC lC lC QM {E 5G 5&.1` ~&.AH ~c .( n) 'c 6&.}  M- M- :;    7&.Y- 2^ j{ `- ^. u( u( G^ i) ~@ SS 8&.p$ .  .  .  .  .  .  .  .  .  .  .  .  .  .  .  .  .  .  .  .  .  .  .  .  .  .  .  .  .  .  .  .  .  .  .  .  .  .  .  .  .  .  .  .  .  .  .  .  .  .  .  .  .  .  .  .  .  .  .  .  .  .  .  .  .  .  .  .  .  .  .  .  .  .  .  .  .  .  .  .  .  .  .  .  .  .  .  .  .  .  .  .  .  .  .  .  .  .  .  .  .  .  .  .  .  .  .  .  .  .  .  .  .  .  .  .  .  .  .  .  .  .  .  .  .  .  .  .  .  .  .  .  .  .  .  .  .  .  .  .  .  .  .  .  .  .  .  .  .  .  .  .  .  .  .  .  .  .  .  .  .  .  .  .  .  .  .  .  .  .  .  .  .  .  .  .  .  .  .  .  .  .  .  .  .  .  .  .  .  .  .  .  .  .  .  .  .  .  .  .  .  .  .  .  .  .  .  .  .  .  .  .  .  .  .  .  ",
".  .  .  .  .  .  .  .  .  .  .  .  .  .  .  .  .  .  .  .  .  .  .  .  .  .  .  .  .  .  .  .  .  .  .  .  .  .  .  .  .  .  .  .  .  .  .  .  .  .  .  .  .  .  .  .  (&.9&.c] @@ 8@ ;; .; .; .; Z/ 2^ i) &q /t N( 8/ ~6 &( J~ J~ 8/ 8/ 0&.o< a&.I~ I~ :{ lh N/ b&.c&.d&.)E 2F lC lC lC lC lC lC 5G aT kC ,O 5G .I !E .I {E '&.3y >y >y >y NS 5v Vu 5v 4v My iu >y 4v Fw <G Ly 2y <..rI {E {E 3D lC lC ~E BN jC {E !E 1D rI OY 1D 1F gN gH gH rI .I ,O f..e&.!&.~&.K .^f Ij i< yH f&.r+ <e D~ g&.t( j. ^. =% 4%       ,%    Y- P= &k h&.i&.j&..  .  .  .  .  .  .  .  .  .  .  .  .  .  .  .  .  .  .  .  .  .  .  .  .  .  .  .  .  .  .  .  .  .  .  .  .  .  .  .  .  .  .  .  .  .  .  .  .  .  .  .  .  .  .  .  .  .  .  .  .  .  .  .  .  .  .  .  .  .  .  .  .  .  .  .  .  .  .  .  .  .  .  .  .  .  .  .  .  .  .  .  .  .  .  .  .  .  .  .  .  .  .  .  .  .  .  .  .  .  .  .  .  .  .  .  .  .  .  .  .  .  .  .  .  .  .  .  .  .  .  .  .  .  .  .  .  .  .  .  .  .  .  .  .  .  .  .  .  .  .  .  .  .  .  .  .  .  .  .  .  .  .  .  .  .  .  .  .  .  .  .  .  .  .  .  .  .  .  .  .  .  .  .  .  .  .  .  .  .  .  .  .  .  .  .  .  .  .  .  .  .  .  .  .  .  .  .  .  .  .  .  .  .  .  .  ",
".  .  .  .  .  .  .  .  .  .  .  .  .  .  .  .  .  .  .  .  .  .  .  .  .  .  .  .  .  .  .  .  .  .  .  .  .  .  .  .  .  .  .  .  .  .  .  .  .  .  .  .  .  .  .  .  k&.l&.m&.G( '* y. 3j 3j ,] Mg 0( 99 n&.w%.G6 O' 5( Ma `J D{ 7' 07 K~ T^ T^ r/ r/ 5( %( N~ o&.p&.q&.r&.& .s&.4G .H t&.t&.t&.t&.u&.v&.+H {E lC !E .I {E '&.:v >y GC ,y :v *z *z :v My >y >y 3y >y NS >y >y 2y >y ^L QM LC 8G lC lC lC lC {E !E !E t&.w&.,O t&.t&.qY x&.m#.aT .I !E y&.n#.z&.B` M( m< Bu A&.B&.5b v$ @; |  :; :; y~ a1 $$ a@ :% y. y. [_ D( G= xV C&.D&.E&..  .  .  .  .  .  .  .  .  .  .  .  .  .  .  .  .  .  .  .  .  .  .  .  .  .  .  .  .  .  .  .  .  .  .  .  .  .  .  .  .  .  .  .  .  .  .  .  .  .  .  .  .  .  .  .  .  .  .  .  .  .  .  .  .  .  .  .  .  .  .  .  .  .  .  .  .  .  .  .  .  .  .  .  .  .  .  .  .  .  .  .  .  .  .  .  .  .  .  .  .  .  .  .  .  .  .  .  .  .  .  .  .  .  .  .  .  .  .  .  .  .  .  .  .  .  .  .  .  .  .  .  .  .  .  .  .  .  .  .  .  .  .  .  .  .  .  .  .  .  .  .  .  .  .  .  .  .  .  .  .  .  .  .  .  .  .  .  .  .  .  .  .  .  .  .  .  .  .  .  .  .  .  .  .  .  .  .  .  .  .  .  .  .  .  .  .  .  .  .  .  .  .  .  .  .  .  .  .  .  .  .  .  .  .  .  ",
".  .  .  .  .  .  .  .  .  .  .  .  .  .  .  .  .  .  .  .  .  .  .  .  .  .  .  .  .  .  .  .  .  .  .  .  .  .  .  .  .  .  .  .  .  .  .  .  .  .  .  .  .  .  .  .  F&.G&.H&.x_ w_ I&.I&.J&.K&.L&.O .A_ M&.N&.O&.P&..: 0m |h S} S} S} |h rL Aq Q&.f| l< .( %( W0 uZ R&.S&.T&.T&.T&.T&.T&.T&.T&.U&.V&.W&.X&.RM .I !E .I {E Y&.Z&.Z&.Z&.O@.<..`&.=#. *..*.+@.+*.<..O@.!M @*.#*.Z&.=#.$*.{E lC 7G {E mC lC {E !E !E !E .H %*.&*.T&.U&.**.=*.&*.-*.;*.&*.&*.>*.,*.'*.)*.!*.~*.{*.]*.X{ g@ g% ;; h. _* ^*./*.H&.(*._*.:*.:*.:*.<*.[*.}*.|*.1*.U* .  .  .  .  .  .  .  .  .  .  .  .  .  .  .  .  .  .  .  .  .  .  .  .  .  .  .  .  .  .  .  .  .  .  .  .  .  .  .  .  .  .  .  .  .  .  .  .  .  .  .  .  .  .  .  .  .  .  .  .  .  .  .  .  .  .  .  .  .  .  .  .  .  .  .  .  .  .  .  .  .  .  .  .  .  .  .  .  .  .  .  .  .  .  .  .  .  .  .  .  .  .  .  .  .  .  .  .  .  .  .  .  .  .  .  .  .  .  .  .  .  .  .  .  .  .  .  .  .  .  .  .  .  .  .  .  .  .  .  .  .  .  .  .  .  .  .  .  .  .  .  .  .  .  .  .  .  .  .  .  .  .  .  .  .  .  .  .  .  .  .  .  .  .  .  .  .  .  .  .  .  .  .  .  .  .  .  .  .  .  .  .  .  .  .  .  .  .  .  .  .  .  .  .  .  .  .  .  .  .  .  .  .  .  .  .  ",
".  .  .  .  .  .  .  .  .  .  .  .  .  .  .  .  .  .  .  .  .  .  .  .  .  .  .  .  .  .  .  .  .  .  .  .  .  .  .  .  .  .  .  .  .  .  .  .  .  .  .  .  .  .  .  .  x; 2*.3*.4*.5*.6*.7*.8*.9*.+! 0*.a*.b*.*[ c*.d*.e*.fj f*.g*.h*.5~ 3~ i*.h: j*.-o /) Z< ]n K~ k*.l*.m*.n*.o*.p*.q*.q*.q*.r*.yD s*.t*.u*.v*.8G 6G BN lC MC w*.x*.w*.y*.z*.+H w*.y*.BN y*.3S +H w*.y*.y*.A*.w*.iC jC lC lC BN BN BN lC  D !E .I !E r&.B*.C*.1A yD yD D*.yD yD q*.yD E*.F*.G*.aJ H*.1s &o HT I*.b' ]. >% J' Z8 J*.K*.L*.M*.N*.!b O*.P*.!b 5*.,+.Q*.R*.S*..  .  .  .  .  .  .  .  .  .  .  .  .  .  .  .  .  .  .  .  .  .  .  .  .  .  .  .  .  .  .  .  .  .  .  .  .  .  .  .  .  .  .  .  .  .  .  .  .  .  .  .  .  .  .  .  .  .  .  .  .  .  .  .  .  .  .  .  .  .  .  .  .  .  .  .  .  .  .  .  .  .  .  .  .  .  .  .  .  .  .  .  .  .  .  .  .  .  .  .  .  .  .  .  .  .  .  .  .  .  .  .  .  .  .  .  .  .  .  .  .  .  .  .  .  .  .  .  .  .  .  .  .  .  .  .  .  .  .  .  .  .  .  .  .  .  .  .  .  .  .  .  .  .  .  .  .  .  .  .  .  .  .  .  .  .  .  .  .  .  .  .  .  .  .  .  .  .  .  .  .  .  .  .  .  .  .  .  .  .  .  .  .  .  .  .  .  .  .  .  .  .  .  .  .  .  .  .  .  .  .  .  .  .  .  .  .  ",
".  .  .  .  .  .  .  .  .  .  .  .  .  .  .  .  .  .  .  .  .  .  .  .  .  .  .  .  .  .  .  .  .  .  .  .  .  .  .  .  .  .  .  .  .  .  .  .  .  .  .  .  .  .  .  .  .  .  j+ .  x< .  .  .  j+ .  B> .  T*.U*.Hf -4 |s ^| a@ 3)    mm Cg S~ V*.W*.Oo ~c eh K~ K~ &e X*.Y*.Z*.<{ ]8 `*. =.K .7' D{ .=.+=.@=.7S BN lC BN jC 3D lC jC BN BN lC jC lC lC 3D BN lC jC lC lC jC jC lC lC lC >O lC BN jC lC lC jC 1D 1D 1D OZ #=.$=.ZX ,4 ,_ Vm Zj %=.Rp X5 ]8 =_ de &=.5. o{ @, ^9 >% `- -% -) Hd *=.K@ ==..  j+ .  .  .  .  G. .  .  .  j+ .  .  .  .  .  .  .  .  .  .  .  .  .  .  .  .  .  .  .  .  .  .  .  .  .  .  .  .  .  .  .  .  .  .  .  .  .  .  .  .  .  .  .  .  .  .  .  .  .  .  .  .  .  .  .  .  .  .  .  .  .  .  .  .  .  .  .  .  .  .  .  .  .  .  .  .  .  .  .  .  .  .  .  .  .  .  .  .  .  .  .  .  .  .  .  .  .  .  .  .  .  .  .  .  .  .  .  .  .  .  .  .  .  .  .  .  .  .  .  .  .  .  .  .  .  .  .  .  .  .  .  .  .  .  .  .  .  .  .  .  .  .  .  .  .  .  .  .  .  .  .  .  .  .  .  .  .  .  .  .  .  .  .  .  .  .  .  .  .  .  .  .  .  .  .  .  .  .  .  .  .  .  .  .  .  .  .  .  .  .  .  .  .  .  .  .  .  .  .  .  .  .  .  .  .  .  .  .  .  .  .  .  .  .  .  .  .  .  ",
".  .  .  .  .  .  .  .  .  .  .  .  .  .  .  .  .  .  .  .  .  .  .  .  .  .  .  .  .  .  .  .  .  .  .  .  .  .  .  .  .  .  .  .  .  .  .  .  .  .  .  .  .  .  .  .  .  .  .  .  .  .  .  .  .  .  .  .  -=.;=.&p .@ q% A' ;; -% H' 1@ 1@ /{ W( >=.95 n( 6p :{ j( Fg FN Xa Y_ _h 5r f| Eg tf 4( `5 `5 l` ,=.& ..I BT BT f..BT lC BT .I BT 2F 2F f..jZ .I .I 2F 1F 2F 2F BT .I jZ OY !E .I !E .I .I !E BT .I jC {E {E OZ #=.'=.n( dd 2[ [{ [{ q/ b5 '! Gd cq 2M r% ({ y. +< 0@ ;; @; H! e@ 5/ B& )=.!=..  .  .  .  .  .  .  .  .  .  .  .  .  .  .  .  .  .  .  .  .  .  .  .  .  .  .  .  .  .  .  .  .  .  .  .  .  .  .  .  .  .  .  .  .  .  .  .  .  .  .  .  .  .  .  .  .  .  .  .  .  .  .  .  .  .  .  .  .  .  .  .  .  .  .  .  .  .  .  .  .  .  .  .  .  .  .  .  .  .  .  .  .  .  .  .  .  .  .  .  .  .  .  .  .  .  .  .  .  .  .  .  .  .  .  .  .  .  .  .  .  .  .  .  .  .  .  .  .  .  .  .  .  .  .  .  .  .  .  .  .  .  .  .  .  .  .  .  .  .  .  .  .  .  .  .  .  .  .  .  .  .  .  .  .  .  .  .  .  .  .  .  .  .  .  .  .  .  .  .  .  .  .  .  .  .  .  .  .  .  .  .  .  .  .  .  .  .  .  .  .  .  .  .  .  .  .  .  .  .  .  .  .  .  .  .  .  .  .  .  .  .  .  .  .  .  .  .  .  ",
".  .  .  .  .  .  .  .  .  .  .  .  .  .  .  .  .  .  .  .  .  .  .  .  .  .  .  .  .  .  .  .  .  .  .  .  .  .  .  .  .  .  .  .  .  .  .  .  .  .  .  .  .  .  .  .  .  .  .  .  .  .  .  .  .  .  .  .  ~=.{=.:3 P= 7- iy )f ^@ V' 1@ P% j{ k| ]=.QC CC m( ~c `5 z{ ^=.Lt -_ -_ n/ z{ ~s h< Z< :h ^8 l` ,=.!E .I 1D )E BT BT jZ )E .I .I ,O !E qY !E !E !E !E !E !E aT qY !E !E OY !E .I !E !E !E ,O BT BT {E {E {E >#.#=./=.%( 06 U^ T} O' L~ ]8 _] Xh Zj 2M !] M& (=._=./% R= ;@ ;- /@ w] ia :=.<=..  .  .  .  .  .  .  .  .  .  .  .  .  .  .  .  .  .  .  .  .  .  .  .  .  .  .  .  .  .  .  .  .  .  .  .  .  .  .  .  .  .  .  .  .  .  .  .  .  .  .  .  .  .  .  .  .  .  .  .  .  .  .  .  .  .  .  .  .  .  .  .  .  .  .  .  .  .  .  .  .  .  .  .  .  .  .  .  .  .  .  .  .  .  .  .  .  .  .  .  .  .  .  .  .  .  .  .  .  .  .  .  .  .  .  .  .  .  .  .  .  .  .  .  .  .  .  .  .  .  .  .  .  .  .  .  .  .  .  .  .  .  .  .  .  .  .  .  .  .  .  .  .  .  .  .  .  .  .  .  .  .  .  .  .  .  .  .  .  .  .  .  .  .  .  .  .  .  .  .  .  .  .  .  .  .  .  .  .  .  .  .  .  .  .  .  .  .  .  .  .  .  .  .  .  .  .  .  .  .  .  .  .  .  .  .  .  .  .  .  .  .  .  .  .  .  .  .  .  ",
".  .  .  .  .  .  .  .  .  .  .  .  .  .  .  .  .  .  .  .  .  .  .  .  .  .  .  .  .  .  .  .  .  .  .  .  .  .  .  .  .  .  .  .  .  .  .  .  .  .  .  .  .  .  .  .  .  .  .  .  .  .  .  .  .  .  .  .  [=.}=.0{ S( X$ x+ X$ U( |m :; y. kW |=.1=.:~ @( r/ T} .d R3 qk qk -f Fg Fg 2=.y{ &e K~ 6' fa 3=.,=.!E 1D )E )E )E )E )E )E )E )E !E !E !E ,O .I !E !E !E !E !E !E mC !E aT !E !E 1F !E !E ,O ,O !E !E )E )E NZ #=.4=.Z< T} R' cq =_ !d o< @d Ac T^ 5=.6=.@] p+ w& w+ uC U( r3 7=.68 (* 8=.gM .  .  .  .  .  .  .  .  .  .  .  .  .  .  .  .  .  .  .  .  .  .  .  .  .  .  .  .  .  .  .  .  .  .  .  .  .  .  .  .  .  .  .  .  .  .  .  .  .  .  .  .  .  .  .  .  .  .  .  .  .  .  .  .  .  .  .  .  .  .  .  .  .  .  .  .  .  .  .  .  .  .  .  .  .  .  .  .  .  .  .  .  .  .  .  .  .  .  .  .  .  .  .  .  .  .  .  .  .  .  .  .  .  .  .  .  .  .  .  .  .  .  .  .  .  .  .  .  .  .  .  .  .  .  .  .  .  .  .  .  .  .  .  .  .  .  .  .  .  .  .  .  .  .  .  .  .  .  .  .  .  .  .  .  .  .  .  .  .  .  .  .  .  .  .  .  .  .  .  .  .  .  .  .  .  .  .  .  .  .  .  .  .  .  .  .  .  .  .  .  .  .  .  .  .  .  .  .  .  .  .  .  .  .  .  .  .  .  .  .  .  .  .  .  .  .  .  .  .  ",
".  .  .  .  .  .  .  .  .  .  .  .  .  .  .  .  .  .  .  .  .  .  .  .  .  .  .  .  .  .  .  .  .  .  .  .  .  .  .  .  .  .  .  .  .  .  .  .  .  .  .  .  .  .  .  .  .  .  .  .  .  .  .  .  .  .  .  .  9=.0=.a=.b=.c=.d=.e=.f=.g=.h=.i=.j=.n% k=.l=.m=.75 bb n=.cb fF o=.p=.#} q=.'c bb cb ;o o=.Wa &@.r=.s=.t=.t=.t=.t=.t=.t=.t=.t=.t=.t=.t=.t=.t=.t=.t=.t=.t=.t=.t=.t=.t=.t=.t=.t=.t=.t=.t=.t=.t=.t=.t=.t=.t=.t=.u=.v=.w=.Z_ a5 x=.7L y=.q=.'c 75 5Z n_ z=.A=.B=.C=.UU D=.E=.F=.f=.G=.i=.H=.I=.J=..  .  .  .  .  .  .  .  .  .  .  .  .  .  .  .  .  .  .  .  .  .  .  .  .  .  .  .  .  .  .  .  .  .  .  .  .  .  .  .  .  .  .  .  .  .  .  .  .  .  .  .  .  .  .  .  .  .  .  .  .  .  .  .  .  .  .  .  .  .  .  .  .  .  .  .  .  .  .  .  .  .  .  .  .  .  .  .  .  .  .  .  .  .  .  .  .  .  .  .  .  .  .  .  .  .  .  .  .  .  .  .  .  .  .  .  .  .  .  .  .  .  .  .  .  .  .  .  .  .  .  .  .  .  .  .  .  .  .  .  .  .  .  .  .  .  .  .  .  .  .  .  .  .  .  .  .  .  .  .  .  .  .  .  .  .  .  .  .  .  .  .  .  .  .  .  .  .  .  .  .  .  .  .  .  .  .  .  .  .  .  .  .  .  .  .  .  .  .  .  .  .  .  .  .  .  .  .  .  .  .  .  .  .  .  .  .  .  .  .  .  .  .  .  .  .  .  .  .  ",
".  .  .  .  .  .  .  .  .  .  .  .  .  .  .  .  .  .  .  .  .  .  .  .  .  .  .  .  .  .  .  .  .  .  .  .  .  .  .  .  .  .  .  .  .  .  .  .  .  .  .  .  .  .  .  .  .  .  .  .  .  .  .  .  .  .  .  .  +K K=.L=.J1 M=.N=.O=.P=.F| Q=.R=.S=.T=.U=.V=.)s W=.X=.~a ~a Fr l/ l/ 76 76 Y=.Z=.`=. -..-.+-.@-.#-.$-.%-.&-.&-.&-.*-.*-.*-.*-.*-.=-.*-.=-.*-.--.=-.=-.*-.=-.*-.=-.=-.*-.*-.*-.*-.*-.=-.*-.*-.*-.&-.&-.&-.&-.;-.>-.,-.+-.W=.'-.%_ %_ 1m l/ 1m 1m )-.v3 !-.~-.J1 {-.N=.N=.N=.N=.]-.~-.J1 i= ^-..  .  .  .  .  .  .  .  .  .  .  .  .  .  .  .  .  .  .  .  .  .  .  .  .  .  .  .  .  .  .  .  .  .  .  .  .  .  .  .  .  .  .  .  .  .  .  .  .  .  .  .  .  .  .  .  .  .  .  .  .  .  .  .  .  .  .  .  .  .  .  .  .  .  .  .  .  .  .  .  .  .  .  .  .  .  .  .  .  .  .  .  .  .  .  .  .  .  .  .  .  .  .  .  .  .  .  .  .  .  .  .  .  .  .  .  .  .  .  .  .  .  .  .  .  .  .  .  .  .  .  .  .  .  .  .  .  .  .  .  .  .  .  .  .  .  .  .  .  .  .  .  .  .  .  .  .  .  .  .  .  .  .  .  .  .  .  .  .  .  .  .  .  .  .  .  .  .  .  .  .  .  .  .  .  .  .  .  .  .  .  .  .  .  .  .  .  .  .  .  .  .  .  .  .  .  .  .  .  .  .  .  .  .  .  .  .  .  .  .  .  .  .  .  .  .  .  .  .  ",
".  .  .  .  .  .  .  .  .  .  .  .  .  .  .  .  .  .  .  .  .  .  .  .  .  .  .  .  .  .  .  .  .  .  .  .  .  .  .  .  .  .  .  .  .  .  .  .  .  .  .  .  .  .  .  .  .  .  .  .  .  .  .  .  .  .  .  .  .  .  .  .  &y .  .  /-.o. (-.h# .  %, _-.:-.~_ _( !& ^. 3) 3) V+ J& =% =% g. 0@ !& ^9 (% @- Kg <-.k*.*N &e eh eh `Y `Y `Y `Y `Y gm FN Te ~p {6 3( .d [-..d Te Te }-.6p '4 '4 2{ zc q/ ZM p/ |-.1-.ok up `r 2-.3-.jh Z* s# y@ 3) ]. g@ V+ Jd q^ 4-.Ca 5-.LN .  .  .  .  .  .  .  LN .  .  .  .  .  .  .  .  .  .  .  .  .  .  .  .  .  .  .  .  .  .  .  .  .  .  .  .  .  .  .  .  .  .  .  .  .  .  .  .  .  .  .  .  .  .  .  .  .  .  .  .  .  .  .  .  .  .  .  .  .  .  .  .  .  .  .  .  .  .  .  .  .  .  .  .  .  .  .  .  .  .  .  .  .  .  .  .  .  .  .  .  .  .  .  .  .  .  .  .  .  .  .  .  .  .  .  .  .  .  .  .  .  .  .  .  .  .  .  .  .  .  .  .  .  .  .  .  .  .  .  .  .  .  .  .  .  .  .  .  .  .  .  .  .  .  .  .  .  .  .  .  .  .  .  .  .  .  .  .  .  .  .  .  .  .  .  .  .  .  .  .  .  .  .  .  .  .  .  .  .  .  .  .  .  .  .  .  .  .  .  .  .  .  .  .  .  .  .  .  .  .  .  .  .  .  .  .  .  .  .  .  .  .  .  .  .  .  .  .  .  .  .  .  .  .  .  .  .  .  .  .  ",
".  .  .  .  .  .  .  .  .  .  .  .  .  .  .  .  .  .  .  .  .  .  .  .  .  .  .  .  .  .  .  .  .  .  .  .  .  .  .  .  .  .  .  .  .  .  .  .  .  .  .  .  .  .  .  .  .  .  .  .  .  .  .  .  .  .  .  .  .  .  .  .  .  .  .  .  .  .  .  .  .  6-.k. ;{ :; h. 0@ 0@ 0@ ;; M& g% g% g% Y$ i) V$ @; 5/ %! R~ #h bf :{ :{ :{ :{ :{ :{ :{ :{ ;_ ;_ ;_ ;_ :{ :{ ;_ ;_ :{ :{ :{ :{ M( ;_ ;_ ;_ p/ {s {s D{ ;_ :{ 8b up x{ `h 7-.V$.Q- P/ 7# .; .; |( (@ 9~ Z3 8-.9-.0-..  .  .  .  .  .  .  .  .  .  .  .  .  .  .  .  .  .  .  .  .  .  .  .  .  .  .  .  .  .  .  .  .  .  .  .  .  .  .  .  .  .  .  .  .  .  .  .  .  .  .  .  .  .  .  .  .  .  .  .  .  .  .  .  .  .  .  .  .  .  .  .  .  .  .  .  .  .  .  .  .  .  .  .  .  .  .  .  .  .  .  .  .  .  .  .  .  .  .  .  .  .  .  .  .  .  .  .  .  .  .  .  .  .  .  .  .  .  .  .  .  .  .  .  .  .  .  .  .  .  .  .  .  .  .  .  .  .  .  .  .  .  .  .  .  .  .  .  .  .  .  .  .  .  .  .  .  .  .  .  .  .  .  .  .  .  .  .  .  .  .  .  .  .  .  .  .  .  .  .  .  .  .  .  .  .  .  .  .  .  .  .  .  .  .  .  .  .  .  .  .  .  .  .  .  .  .  .  .  .  .  .  .  .  .  .  .  .  .  .  .  .  .  .  .  .  .  .  .  .  .  .  .  .  .  .  .  .  .  .  .  ",
".  .  .  .  .  .  .  .  .  .  .  .  .  .  .  .  .  .  .  .  .  .  .  .  .  .  .  .  .  .  .  .  .  .  .  .  .  .  .  .  .  .  .  .  .  .  .  .  .  .  .  .  .  .  .  .  .  .  .  .  .  .  .  .  .  .  .  .  .  .  .  .  .  .  .  .  .  .  .  .  .  6-.a-.   #$ r& #$ #$ #$ H' H' H' H' P} -;  ; d@ ;- b-.c-.E{ K~ K~ !6 Gd !6 !6 !6 !6 !6 Gd &e &e &e &e &e &e &e &e T} T^ T^ T^ 4( ~s ~s ~s {8 <{ <{ <{ Z< )! T^ ^) K~ d-.e-.K6 /{ ;@ 5n t( .; 4) S& ih n7 f-.&t g-..  .  .  .  .  .  .  .  .  .  .  .  .  .  .  .  .  .  .  .  .  .  .  .  .  .  .  .  .  .  .  .  .  .  .  .  .  .  .  .  .  .  .  .  .  .  .  .  .  .  .  .  .  .  .  .  .  .  .  .  .  .  .  .  .  .  .  .  .  .  .  .  .  .  .  .  .  .  .  .  .  .  .  .  .  .  .  .  .  .  .  .  .  .  .  .  .  .  .  .  .  .  .  .  .  .  .  .  .  .  .  .  .  .  .  .  .  .  .  .  .  .  .  .  .  .  .  .  .  .  .  .  .  .  .  .  .  .  .  .  .  .  .  .  .  .  .  .  .  .  .  .  .  .  .  .  .  .  .  .  .  .  .  .  .  .  .  .  .  .  .  .  .  .  .  .  .  .  .  .  .  .  .  .  .  .  .  .  .  .  .  .  .  .  .  .  .  .  .  .  .  .  .  .  .  .  .  .  .  .  .  .  .  .  .  .  .  .  .  .  .  .  .  .  .  .  .  .  .  .  .  .  .  .  .  .  .  .  .  .  .  ",
".  .  .  .  .  .  .  .  .  .  .  .  .  .  .  .  .  .  .  .  .  .  .  .  .  .  .  .  .  .  .  .  .  .  .  .  .  .  .  .  .  .  .  .  .  .  .  .  .  .  .  .  .  .  .  .  .  .  .  .  .  .  .  .  .  .  .  .  .  .  .  .  .  .  .  .  .  .  .  .  .  h-.i-.E~ (@ -% -% y@ -% 2. y@ y@ y@ 2. Qe G{ 3u ;@ j-.`e k-.T^ fa ~6 ~6 ~6 ~6 ~6 ~6 ~6 up 8b 8b 8b o< ~u |{ M` up ]n J~ ^n fa :] E#.l-.K~ E#.Nr 1{ 1{ jp .( Nr 06 |{ 5< m-.n-.o-.E5 K' p-.'f V+ G{ @= {. q-.r-.s-..  .  .  .  .  .  .  .  .  .  .  .  .  .  .  .  .  .  .  .  .  .  .  .  .  .  .  .  .  .  .  .  .  .  .  .  .  .  .  .  .  .  .  .  .  .  .  .  .  .  .  .  .  .  .  .  .  .  .  .  .  .  .  .  .  .  .  .  .  .  .  .  .  .  .  .  .  .  .  .  .  .  .  .  .  .  .  .  .  .  .  .  .  .  .  .  .  .  .  .  .  .  .  .  .  .  .  .  .  .  .  .  .  .  .  .  .  .  .  .  .  .  .  .  .  .  .  .  .  .  .  .  .  .  .  .  .  .  .  .  .  .  .  .  .  .  .  .  .  .  .  .  .  .  .  .  .  .  .  .  .  .  .  .  .  .  .  .  .  .  .  .  .  .  .  .  .  .  .  .  .  .  .  .  .  .  .  .  .  .  .  .  .  .  .  .  .  .  .  .  .  .  .  .  .  .  .  .  .  .  .  .  .  .  .  .  .  .  .  .  .  .  .  .  .  .  .  .  .  .  .  .  .  .  .  .  .  .  .  .  .  ",
".  .  .  .  .  .  .  .  .  .  .  .  .  .  .  .  .  .  .  .  .  .  .  .  .  .  .  .  .  .  .  .  .  .  .  .  .  .  .  .  .  .  .  .  .  .  .  .  .  .  .  .  .  .  .  .  .  .  .  .  .  .  .  .  .  .  .  .  .  .  .  .  .  .  .  .  .  .  .  .  .  t-.u-.v-.w-.x-.y-.z-.x-.A-.;/ A-.AX B-.B-.C-.B-.D-.E-.F-.G-.H-.o9 `[ 9e 9e o9 X< Ae X< X< x@.X< x@.9e o9 o9 o9 o9 o9 ]6 X< o9 o9 Ae ab ab o9 *_ *_ *_ *_ *_ *_ x@.x@.I-.J-.K-.L-.M-.'/ Fl v& N-.O-.P-.Q-.R-.S-.T-..  .  .  .  .  .  .  .  .  .  .  .  .  .  .  .  .  .  .  .  .  .  .  .  .  .  .  .  .  .  .  .  .  .  .  .  .  .  .  .  .  .  .  .  .  .  .  .  .  .  .  .  .  .  .  .  .  .  .  .  .  .  .  .  .  .  .  .  .  .  .  .  .  .  .  .  .  .  .  .  .  .  .  .  .  .  .  .  .  .  .  .  .  .  .  .  .  .  .  .  .  .  .  .  .  .  .  .  .  .  .  .  .  .  .  .  .  .  .  .  .  .  .  .  .  .  .  .  .  .  .  .  .  .  .  .  .  .  .  .  .  .  .  .  .  .  .  .  .  .  .  .  .  .  .  .  .  .  .  .  .  .  .  .  .  .  .  .  .  .  .  .  .  .  .  .  .  .  .  .  .  .  .  .  .  .  .  .  .  .  .  .  .  .  .  .  .  .  .  .  .  .  .  .  .  .  .  .  .  .  .  .  .  .  .  .  .  .  .  .  .  .  .  .  .  .  .  .  .  .  .  .  .  .  .  .  .  .  .  .  .  ",
".  .  .  .  .  .  .  .  .  .  .  .  .  .  .  .  .  .  .  .  .  .  .  .  .  .  .  .  .  .  .  .  .  .  .  .  .  .  .  .  .  .  .  .  .  .  .  .  .  .  .  .  .  .  .  .  .  .  .  .  .  .  .  .  .  .  .  .  .  .  .  .  .  .  .  .  .  .  .  .  .  U-.V-.W-.X-.Y-.Z-.`-.`-.`-. ;..;.+;.@;.#;.+;.$;.%;.&;.*;.=;.-;.;;.>;.,;.7O ';.';.);.;;.!;.;;.!;.~;.{;.R] R] ZY ZY ZY I^ G: ];.6d f< h_ h_ h_ f< +0 ^;./;.(;.~;.R] _;.:;.<;.[;.};.|;.1;.`-.2;.3;.4;.5;.6;.7;.8;.0; .  .  .  .  .  .  .  .  .  .  .  .  .  .  .  .  .  .  .  .  .  .  .  .  .  .  .  .  .  .  .  .  .  .  .  .  .  .  .  .  .  .  .  .  .  .  .  .  .  .  .  .  .  .  .  .  .  .  .  .  .  .  .  .  .  .  .  .  .  .  .  .  .  .  .  .  .  .  .  .  .  .  .  .  .  .  .  .  .  .  .  .  .  .  .  .  .  .  .  .  .  .  .  .  .  .  .  .  .  .  .  .  .  .  .  .  .  .  .  .  .  .  .  .  .  .  .  .  .  .  .  .  .  .  .  .  .  .  .  .  .  .  .  .  .  .  .  .  .  .  .  .  .  .  .  .  .  .  .  .  .  .  .  .  .  .  .  .  .  .  .  .  .  .  .  .  .  .  .  .  .  .  .  .  .  .  .  .  .  .  .  .  .  .  .  .  .  .  .  .  .  .  .  .  .  .  .  .  .  .  .  .  .  .  .  .  .  .  .  .  .  .  .  .  .  .  .  .  .  .  .  .  .  .  .  .  .  .  .  .  .  ",
".  .  .  .  .  .  .  .  .  .  .  .  .  .  .  .  .  .  .  .  .  .  .  .  .  .  .  .  .  .  .  .  .  .  .  .  .  .  .  .  .  .  .  .  .  .  .  .  .  .  .  .  .  .  .  .  .  .  .  .  .  .  .  .  .  .  .  .  .  .  .  .  .  .  .  .  .  .  .  .  .  .  .  .  .  .  .  .  .  .  }; xF .  .  .  .  9;.~; .  b8 Wg 0;.f@ @- +- a@ 9@ a@ 9@ a@ a@    J' 5% i) W( (% (% (% R+ '@ J& !& S& S& S& S& S& I- I- h. h. h. :; :; :; a;.b;..  }; ~; ]; .  m# c;..  K_ .  .  .  .  .  .  .  .  .  .  .  .  .  .  .  .  .  .  .  .  .  .  .  .  .  .  .  .  .  .  .  .  .  .  .  .  .  .  .  .  .  .  .  .  .  .  .  .  .  .  .  .  .  .  .  .  .  .  .  .  .  .  .  .  .  .  .  .  .  .  .  .  .  .  .  .  .  .  .  .  .  .  .  .  .  .  .  .  .  .  .  .  .  .  .  .  .  .  .  .  .  .  .  .  .  .  .  .  .  .  .  .  .  .  .  .  .  .  .  .  .  .  .  .  .  .  .  .  .  .  .  .  .  .  .  .  .  .  .  .  .  .  .  .  .  .  .  .  .  .  .  .  .  .  .  .  .  .  .  .  .  .  .  .  .  .  .  .  .  .  .  .  .  .  .  .  .  .  .  .  .  .  .  .  .  .  .  .  .  .  .  .  .  .  .  .  .  .  .  .  .  .  .  .  .  .  .  .  .  .  .  .  .  .  .  .  .  .  .  .  .  .  .  .  .  .  .  .  .  .  .  .  .  .  .  .  .  .  .  .  .  .  .  .  .  ",
".  .  .  .  .  .  .  .  .  .  .  .  .  .  .  .  .  .  .  .  .  .  .  .  .  .  .  .  .  .  .  .  .  .  .  .  .  .  .  .  .  .  .  .  .  .  .  .  .  .  .  .  .  .  .  .  .  .  .  .  .  .  .  .  .  .  .  .  .  .  .  .  .  .  .  .  .  .  .  .  .  .  .  .  .  .  .  .  .  .  .  .  .  .  .  .  .  .  .  d;.,t +[ Q- g% T~ @; @; @; @; @; T~ .; g% g% g% g% g% g% g% r& r& r& w> H' H' H' H' ;; r& (% ;; ;; ;; ;; ;; ;; e;.f;..  .  .  .  .  .  .  .  .  .  .  .  .  .  .  .  .  .  .  .  .  .  .  .  .  .  .  .  .  .  .  .  .  .  .  .  .  .  .  .  .  .  .  .  .  .  .  .  .  .  .  .  .  .  .  .  .  .  .  .  .  .  .  .  .  .  .  .  .  .  .  .  .  .  .  .  .  .  .  .  .  .  .  .  .  .  .  .  .  .  .  .  .  .  .  .  .  .  .  .  .  .  .  .  .  .  .  .  .  .  .  .  .  .  .  .  .  .  .  .  .  .  .  .  .  .  .  .  .  .  .  .  .  .  .  .  .  .  .  .  .  .  .  .  .  .  .  .  .  .  .  .  .  .  .  .  .  .  .  .  .  .  .  .  .  .  .  .  .  .  .  .  .  .  .  .  .  .  .  .  .  .  .  .  .  .  .  .  .  .  .  .  .  .  .  .  .  .  .  .  .  .  .  .  .  .  .  .  .  .  .  .  .  .  .  .  .  .  .  .  .  .  .  .  .  .  .  .  .  .  .  .  .  .  .  .  .  .  .  .  .  .  .  .  .  .  .  .  .  .  .  .  .  .  ",
".  .  .  .  .  .  .  .  .  .  .  .  .  .  .  .  .  .  .  .  .  .  .  .  .  .  .  .  .  .  .  .  .  .  .  .  .  .  .  .  .  .  .  .  .  .  .  .  .  .  .  .  .  .  .  .  .  .  .  .  .  .  .  .  .  .  .  .  .  .  .  .  .  .  .  .  .  .  .  .  .  .  .  .  .  .  .  .  .  .  .  .  .  .  .  .  .  .  .  v[ Y= [i t{ Z* Z* Z* Z* Z* Z* Z* Z* t( 0@ 0@ 5. 0@ 0@ 0@ 0@ r& I' r& 5% !. !. !. !. !. {@ R= !. !. !. !. !. H' g;.h;..  .  .  .  .  .  .  .  .  .  .  .  .  .  .  .  .  .  .  .  .  .  .  .  .  .  .  .  .  .  .  .  .  .  .  .  .  .  .  .  .  .  .  .  .  .  .  .  .  .  .  .  .  .  .  .  .  .  .  .  .  .  .  .  .  .  .  .  .  .  .  .  .  .  .  .  .  .  .  .  .  .  .  .  .  .  .  .  .  .  .  .  .  .  .  .  .  .  .  .  .  .  .  .  .  .  .  .  .  .  .  .  .  .  .  .  .  .  .  .  .  .  .  .  .  .  .  .  .  .  .  .  .  .  .  .  .  .  .  .  .  .  .  .  .  .  .  .  .  .  .  .  .  .  .  .  .  .  .  .  .  .  .  .  .  .  .  .  .  .  .  .  .  .  .  .  .  .  .  .  .  .  .  .  .  .  .  .  .  .  .  .  .  .  .  .  .  .  .  .  .  .  .  .  .  .  .  .  .  .  .  .  .  .  .  .  .  .  .  .  .  .  .  .  .  .  .  .  .  .  .  .  .  .  .  .  .  .  .  .  .  .  .  .  .  .  .  .  .  .  .  .  .  .  ",
".  .  .  .  .  .  .  .  .  .  .  .  .  .  .  .  .  .  .  .  .  .  .  .  .  .  .  .  .  .  .  .  .  .  .  .  .  .  .  .  .  .  .  .  .  .  .  .  .  .  .  .  .  .  .  .  .  .  .  .  .  .  .  .  .  .  .  .  .  .  .  .  .  .  .  .  .  .  .  .  .  .  .  .  .  .  .  .  .  .  .  .  .  .  .  .  .  .  .  v[ i;.y~ -) ({ g. 0@ 0@ 0@ 0@ 0@ :% ;{ ;{ ;{ @* ;{ ;{ ;{ ;{ f@ 5. 5. e@ ;{ ;{ ;{ ;{ ;{ 5. 5. -; 0@ 0@ 0@ 0@ s# e1 3w .  .  .  .  .  .  .  .  .  .  .  .  .  .  .  .  .  .  .  .  .  .  .  .  .  .  .  .  .  .  .  .  .  .  .  .  .  .  .  .  .  .  .  .  .  .  .  .  .  .  .  .  .  .  .  .  .  .  .  .  .  .  .  .  .  .  .  .  .  .  .  .  .  .  .  .  .  .  .  .  .  .  .  .  .  .  .  .  .  .  .  .  .  .  .  .  .  .  .  .  .  .  .  .  .  .  .  .  .  .  .  .  .  .  .  .  .  .  .  .  .  .  .  .  .  .  .  .  .  .  .  .  .  .  .  .  .  .  .  .  .  .  .  .  .  .  .  .  .  .  .  .  .  .  .  .  .  .  .  .  .  .  .  .  .  .  .  .  .  .  .  .  .  .  .  .  .  .  .  .  .  .  .  .  .  .  .  .  .  .  .  .  .  .  .  .  .  .  .  .  .  .  .  .  .  .  .  .  .  .  .  .  .  .  .  .  .  .  .  .  .  .  .  .  .  .  .  .  .  .  .  .  .  .  .  .  .  .  .  .  .  .  .  .  .  .  .  .  .  .  .  .  .  .  ",
".  .  .  .  .  .  .  .  .  .  .  .  .  .  .  .  .  .  .  .  .  .  .  .  .  .  .  .  .  .  .  .  .  .  .  .  .  .  .  .  .  .  .  .  .  .  .  .  .  .  .  .  .  .  .  .  .  .  .  .  .  .  .  .  .  .  .  .  .  .  .  .  .  .  .  .  .  .  .  .  .  .  .  .  .  .  .  .  .  .  .  .  .  .  .  .  .  .  .  j;.k;.v) l;.&~ &~ [4 &~ ^O &~ &~ g^ [4 [4 [4 g^ x] [4 [4 [4 23 g^ g^ g^ g^ g^ A7 g^ g^ &~ [4 [4 [4 [4 &~ &~ >^ m;.n;..  .  .  .  .  .  .  .  .  .  .  .  .  .  .  .  .  .  .  .  .  .  .  .  .  .  .  .  .  .  .  .  .  .  .  .  .  .  .  .  .  .  .  .  .  .  .  .  .  .  .  .  .  .  .  .  .  .  .  .  .  .  .  .  .  .  .  .  .  .  .  .  .  .  .  .  .  .  .  .  .  .  .  .  .  .  .  .  .  .  .  .  .  .  .  .  .  .  .  .  .  .  .  .  .  .  .  .  .  .  .  .  .  .  .  .  .  .  .  .  .  .  .  .  .  .  .  .  .  .  .  .  .  .  .  .  .  .  .  .  .  .  .  .  .  .  .  .  .  .  .  .  .  .  .  .  .  .  .  .  .  .  .  .  .  .  .  .  .  .  .  .  .  .  .  .  .  .  .  .  .  .  .  .  .  .  .  .  .  .  .  .  .  .  .  .  .  .  .  .  .  .  .  .  .  .  .  .  .  .  .  .  .  .  .  .  .  .  .  .  .  .  .  .  .  .  .  .  .  .  .  .  .  .  .  .  .  .  .  .  .  .  .  .  .  .  .  .  .  .  .  .  .  .  ",
".  .  .  .  .  .  .  .  .  .  .  .  .  .  .  .  .  .  .  .  .  .  .  .  .  .  .  .  .  .  .  .  .  .  .  .  .  .  .  .  .  .  .  .  .  .  .  .  .  .  .  .  .  .  .  .  .  .  .  .  .  .  .  .  .  .  .  .  .  .  .  .  .  .  .  .  .  .  .  .  .  .  .  .  .  .  .  .  .  .  .  .  .  .  .  .  .  .  .  o;.h .p;.q;.r;.s;.t;.u;.v;.v;.v;.v;.v;.w;.x;.x;.x;.x;.x;.x;.x;.x;.y;.x;.z;.A;.v;.s;.s;.s;.s;.v;.B;. 7 C;.D;.E;.F;.G;.j+ .  .  .  .  .  .  .  .  .  .  .  .  .  .  .  .  .  .  .  .  .  .  .  .  .  .  .  .  .  .  .  .  .  .  .  .  .  .  .  .  .  .  .  .  .  .  .  .  .  .  .  .  .  .  .  .  .  .  .  .  .  .  .  .  .  .  .  .  .  .  .  .  .  .  .  .  .  .  .  .  .  .  .  .  .  .  .  .  .  .  .  .  .  .  .  .  .  .  .  .  .  .  .  .  .  .  .  .  .  .  .  .  .  .  .  .  .  .  .  .  .  .  .  .  .  .  .  .  .  .  .  .  .  .  .  .  .  .  .  .  .  .  .  .  .  .  .  .  .  .  .  .  .  .  .  .  .  .  .  .  .  .  .  .  .  .  .  .  .  .  .  .  .  .  .  .  .  .  .  .  .  .  .  .  .  .  .  .  .  .  .  .  .  .  .  .  .  .  .  .  .  .  .  .  .  .  .  .  .  .  .  .  .  .  .  .  .  .  .  .  .  .  .  .  .  .  .  .  .  .  .  .  .  .  .  .  .  .  .  .  .  .  .  .  .  .  .  .  .  .  .  .  .  ",
".  .  .  .  .  .  .  .  .  .  .  .  .  .  .  .  .  .  .  .  .  .  .  .  .  .  .  .  .  .  .  .  .  .  .  .  .  .  .  .  .  .  .  .  .  .  .  .  .  .  .  .  .  .  .  .  .  .  .  .  .  .  .  .  .  .  .  .  .  .  .  .  .  .  .  .  .  .  .  .  .  .  .  .  .  .  .  .  .  .  .  .  .  .  .  .  .  .  .  .  .  $/ fl .  .  ~k .  .  .  .  .  .  g- .  .  .  .  .  .  .  .  .  .  .  ^-..  .  .  .  .  .  .  .  H;.I;.J;..  .  .  .  .  .  .  .  .  .  .  .  .  .  .  .  .  .  .  .  .  .  .  .  .  .  .  .  .  .  .  .  .  .  .  .  .  .  .  .  .  .  .  .  .  .  .  .  .  .  .  .  .  .  .  .  .  .  .  .  .  .  .  .  .  .  .  .  .  .  .  .  .  .  .  .  .  .  .  .  .  .  .  .  .  .  .  .  .  .  .  .  .  .  .  .  .  .  .  .  .  .  .  .  .  .  .  .  .  .  .  .  .  .  .  .  .  .  .  .  .  .  .  .  .  .  .  .  .  .  .  .  .  .  .  .  .  .  .  .  .  .  .  .  .  .  .  .  .  .  .  .  .  .  .  .  .  .  .  .  .  .  .  .  .  .  .  .  .  .  .  .  .  .  .  .  .  .  .  .  .  .  .  .  .  .  .  .  .  .  .  .  .  .  .  .  .  .  .  .  .  .  .  .  .  .  .  .  .  .  .  .  .  .  .  .  .  .  .  .  .  .  .  .  .  .  .  .  .  .  .  .  .  .  .  .  .  .  .  .  .  .  .  .  .  .  .  .  .  .  .  .  .  .  .  .  ",
".  .  .  .  .  .  .  .  .  .  .  .  .  .  .  .  .  .  .  .  .  .  .  .  .  .  .  .  .  .  .  .  .  .  .  .  .  .  .  .  .  .  .  .  .  .  .  .  .  .  .  .  .  .  .  .  .  .  .  .  .  .  .  .  .  .  .  .  .  .  .  .  .  .  .  .  .  .  .  .  .  .  .  .  .  .  .  .  .  .  .  .  .  .  .  .  .  .  .  .  .  .  .  .  .  .  .  .  .  .  .  .  .  .  .  .  .  .  .  .  .  .  .  .  .  .  .  .  .  .  .  .  .  .  .  .  .  .  .  .  .  .  .  .  .  .  .  .  .  .  .  .  .  .  .  .  .  .  .  .  .  .  .  .  .  .  .  .  .  .  .  .  .  .  .  .  .  .  .  .  .  .  .  .  .  .  .  .  .  .  .  .  .  .  .  .  .  .  .  .  .  .  .  .  .  .  .  .  .  .  .  .  .  .  .  .  .  .  .  .  .  .  .  .  .  .  .  .  .  .  .  .  .  .  .  .  .  .  .  .  .  .  .  .  .  .  .  .  .  .  .  .  .  .  .  .  .  .  .  .  .  .  .  .  .  .  .  .  .  .  .  .  .  .  .  .  .  .  .  .  .  .  .  .  .  .  .  .  .  .  .  .  .  .  .  .  .  .  .  .  .  .  .  .  .  .  .  .  .  .  .  .  .  .  .  .  .  .  .  .  .  .  .  .  .  .  .  .  .  .  .  .  .  .  .  .  .  .  .  .  .  .  .  .  .  .  .  .  .  .  .  .  .  .  .  .  .  .  .  .  .  .  .  .  .  .  .  .  .  .  .  .  .  .  .  .  .  .  .  .  .  .  .  .  .  .  .  .  .  .  .  .  ",
".  .  .  .  .  .  .  .  .  .  .  .  .  .  .  .  .  .  .  .  .  .  .  .  .  .  .  .  .  .  .  .  .  .  .  .  .  .  .  .  .  .  .  .  .  .  .  .  .  .  .  .  .  .  .  .  .  .  .  .  .  .  .  .  .  .  .  .  .  .  .  .  .  .  .  .  .  .  .  .  .  .  .  .  .  .  .  .  .  .  .  .  .  .  .  .  .  .  .  .  .  .  .  .  .  .  .  .  .  .  .  .  .  .  .  .  .  .  .  .  .  .  .  .  .  .  .  .  .  .  .  .  .  .  .  .  .  .  .  .  .  .  .  .  .  .  .  .  .  .  .  .  .  .  .  .  .  .  .  .  .  .  .  .  .  .  .  .  .  .  .  .  .  .  .  .  .  .  .  .  .  .  .  .  .  .  .  .  .  .  .  .  .  .  .  .  .  .  .  .  .  .  .  .  .  .  .  .  .  .  .  .  .  .  .  .  .  .  .  .  .  .  .  .  .  .  .  .  .  .  .  .  .  .  .  .  .  .  .  .  .  .  .  .  .  .  .  .  .  .  .  .  .  .  .  .  .  .  .  .  .  .  .  .  .  .  .  .  .  .  .  .  .  .  .  .  .  .  .  .  .  .  .  .  .  .  .  .  .  .  .  .  .  .  .  .  .  .  .  .  .  .  .  .  .  .  .  .  .  .  .  .  .  .  .  .  .  .  .  .  .  .  .  .  .  .  .  .  .  .  .  .  .  .  .  .  .  .  .  .  .  .  .  .  .  .  .  .  .  .  .  .  .  .  .  .  .  .  .  .  .  .  .  .  .  .  .  .  .  .  .  .  .  .  .  .  .  .  .  .  .  .  .  .  .  .  .  .  .  .  .  .  ",
".  .  .  .  .  .  .  .  .  .  .  .  .  .  .  .  .  .  .  .  .  .  .  .  .  .  .  .  .  .  .  .  .  .  .  .  .  .  .  .  .  .  .  .  .  .  .  .  .  .  .  .  .  .  .  .  .  .  .  .  .  .  .  .  .  .  .  .  .  .  .  .  .  .  .  .  .  .  .  .  .  .  .  .  .  .  .  .  .  .  .  .  .  .  .  .  .  .  .  .  .  .  .  .  .  .  .  .  .  .  .  .  .  .  .  .  .  .  .  .  .  .  .  .  .  .  .  .  .  .  .  .  .  .  .  .  .  .  .  .  .  .  .  .  .  .  .  .  .  .  .  .  .  .  .  .  .  .  .  .  .  .  .  .  .  .  .  .  .  .  .  .  .  .  .  .  .  .  .  .  .  .  .  .  .  .  .  .  .  .  .  .  .  .  .  .  .  .  .  .  .  .  .  .  .  .  .  .  .  .  .  .  .  .  .  .  .  .  .  .  .  .  .  .  .  .  .  .  .  .  .  .  .  .  .  .  .  .  .  .  .  .  .  .  .  .  .  .  .  .  .  .  .  .  .  .  .  .  .  .  .  .  .  .  .  .  .  .  .  .  .  .  .  .  .  .  .  .  .  .  .  .  .  .  .  .  .  .  .  .  .  .  .  .  .  .  .  .  .  .  .  .  .  .  .  .  .  .  .  .  .  .  .  .  .  .  .  .  .  .  .  .  .  .  .  .  .  .  .  .  .  .  .  .  .  .  .  .  .  .  .  .  .  .  .  .  .  .  .  .  .  .  .  .  .  .  .  .  .  .  .  .  .  .  .  .  .  .  .  .  .  .  .  .  .  .  .  .  .  .  .  .  .  .  .  .  .  .  .  .  .  .  ",
".  .  .  .  .  .  .  .  .  .  .  .  .  .  .  .  .  .  .  .  .  .  .  .  .  .  .  .  .  .  .  .  .  .  .  .  .  .  .  .  .  .  .  .  .  .  .  .  .  .  .  .  .  .  .  .  .  .  .  .  .  .  .  .  .  .  .  .  .  .  .  .  .  .  .  .  .  .  .  .  .  .  .  .  .  .  .  .  .  .  .  .  .  .  .  .  .  .  .  .  .  .  .  .  .  .  .  .  .  .  .  .  .  .  .  .  .  .  .  .  .  .  .  .  .  .  .  .  .  .  .  .  .  .  .  .  .  .  .  .  .  .  .  .  .  .  .  .  .  .  .  .  .  .  .  .  .  .  .  .  .  .  .  .  .  .  .  .  .  .  .  .  .  .  .  .  .  .  .  .  .  .  .  .  .  .  .  .  .  .  .  .  .  .  .  .  .  .  .  .  .  .  .  .  .  .  .  .  .  .  .  .  .  .  .  .  .  .  .  .  .  .  .  .  .  .  .  .  .  .  .  .  .  .  .  .  .  .  .  .  .  .  .  .  .  .  .  .  .  .  .  .  .  .  .  .  .  .  .  .  .  .  .  .  .  .  .  .  .  .  .  .  .  .  .  .  .  .  .  .  .  .  .  .  .  .  .  .  .  .  .  .  .  .  .  .  .  .  .  .  .  .  .  .  .  .  .  .  .  .  .  .  .  .  .  .  .  .  .  .  .  .  .  .  .  .  .  .  .  .  .  .  .  .  .  .  .  .  .  .  .  .  .  .  .  .  .  .  .  .  .  .  .  .  .  .  .  .  .  .  .  .  .  .  .  .  .  .  .  .  .  .  .  .  .  .  .  .  .  .  .  .  .  .  .  .  .  .  .  .  .  .  ",
".  .  .  .  .  .  .  .  .  .  .  .  .  .  .  .  .  .  .  .  .  .  .  .  .  .  .  .  .  .  .  .  .  .  .  .  .  .  .  .  .  .  .  .  .  .  .  .  .  .  .  .  .  .  .  .  .  .  .  .  .  .  .  .  .  .  .  .  .  .  .  .  .  .  .  .  .  .  .  .  .  .  .  .  .  .  .  .  .  .  .  .  .  .  .  .  .  .  .  .  .  .  .  .  .  .  .  .  .  .  .  .  .  .  .  .  .  .  .  .  .  .  .  .  .  .  .  .  .  .  .  .  .  .  .  .  .  .  .  .  .  .  .  .  .  .  .  .  .  .  .  .  .  .  .  .  .  .  .  .  .  .  .  .  .  .  .  .  .  .  .  .  .  .  .  .  .  .  .  .  .  .  .  .  .  .  .  .  .  .  .  .  .  .  .  .  .  .  .  .  .  .  .  .  .  .  .  .  .  .  .  .  .  .  .  .  .  .  .  .  .  .  .  .  .  .  .  .  .  .  .  .  .  .  .  .  .  .  .  .  .  .  .  .  .  .  .  .  .  .  .  .  .  .  .  .  .  .  .  .  .  .  .  .  .  .  .  .  .  .  .  .  .  .  .  .  .  .  .  .  .  .  .  .  .  .  .  .  .  .  .  .  .  .  .  .  .  .  .  .  .  .  .  .  .  .  .  .  .  .  .  .  .  .  .  .  .  .  .  .  .  .  .  .  .  .  .  .  .  .  .  .  .  .  .  .  .  .  .  .  .  .  .  .  .  .  .  .  .  .  .  .  .  .  .  .  .  .  .  .  .  .  .  .  .  .  .  .  .  .  .  .  .  .  .  .  .  .  .  .  .  .  .  .  .  .  .  .  .  .  .  .  ",
".  .  .  .  .  .  .  .  .  .  .  .  .  .  .  .  .  .  .  .  .  .  .  .  .  .  .  .  .  .  .  .  .  .  .  .  .  .  .  .  .  .  .  .  .  .  .  .  .  .  .  .  .  .  .  .  .  .  .  .  .  .  .  .  .  .  .  .  .  .  .  .  .  .  .  .  .  .  .  .  .  .  .  .  .  .  .  .  .  .  .  .  .  .  .  .  .  .  .  .  .  .  .  .  .  .  .  .  .  .  .  .  .  .  .  .  .  .  .  .  .  .  .  .  .  .  .  .  .  .  .  .  .  .  .  .  .  .  .  .  .  .  .  .  .  .  .  .  .  .  .  .  .  .  .  .  .  .  .  .  .  .  .  .  .  .  .  .  .  .  .  .  .  .  .  .  .  .  .  .  .  .  .  .  .  .  .  .  .  .  .  .  .  .  .  .  .  .  .  .  .  .  .  .  .  .  .  .  .  .  .  .  .  .  .  .  .  .  .  .  .  .  .  .  .  .  .  .  .  .  .  .  .  .  .  .  .  .  .  .  .  .  .  .  .  .  .  .  .  .  .  .  .  .  .  .  .  .  .  .  .  .  .  .  .  .  .  .  .  .  .  .  .  .  .  .  .  .  .  .  .  .  .  .  .  .  .  .  .  .  .  .  .  .  .  .  .  .  .  .  .  .  .  .  .  .  .  .  .  .  .  .  .  .  .  .  .  .  .  .  .  .  .  .  .  .  .  .  .  .  .  .  .  .  .  .  .  .  .  .  .  .  .  .  .  .  .  .  .  .  .  .  .  .  .  .  .  .  .  .  .  .  .  .  .  .  .  .  .  .  .  .  .  .  .  .  .  .  .  .  .  .  .  .  .  .  .  .  .  .  .  .  ",
".  .  .  .  .  .  .  .  .  .  .  .  .  .  .  .  .  .  .  .  .  .  .  .  .  .  .  .  .  .  .  .  .  .  .  .  .  .  .  .  .  .  .  .  .  .  .  .  .  .  .  .  .  .  .  .  .  .  .  .  .  .  .  .  .  .  .  .  .  .  .  .  .  .  .  .  .  .  .  .  .  .  .  .  .  .  .  .  .  .  .  .  .  .  .  .  .  .  .  .  .  .  .  .  .  .  .  .  .  .  .  .  .  .  .  .  .  .  .  .  .  .  .  .  .  .  .  .  .  .  .  .  .  .  .  .  .  .  .  .  .  .  .  .  .  .  .  .  .  .  .  .  .  .  .  .  .  .  .  .  .  .  .  .  .  .  .  .  .  .  .  .  .  .  .  .  .  .  .  .  .  .  .  .  .  .  .  .  .  .  .  .  .  .  .  .  .  .  .  .  .  .  .  .  .  .  .  .  .  .  .  .  .  .  .  .  .  .  .  .  .  .  .  .  .  .  .  .  .  .  .  .  .  .  .  .  .  .  .  .  .  .  .  .  .  .  .  .  .  .  .  .  .  .  .  .  .  .  .  .  .  .  .  .  .  .  .  .  .  .  .  .  .  .  .  .  .  .  .  .  .  .  .  .  .  .  .  .  .  .  .  .  .  .  .  .  .  .  .  .  .  .  .  .  .  .  .  .  .  .  .  .  .  .  .  .  .  .  .  .  .  .  .  .  .  .  .  .  .  .  .  .  .  .  .  .  .  .  .  .  .  .  .  .  .  .  .  .  .  .  .  .  .  .  .  .  .  .  .  .  .  .  .  .  .  .  .  .  .  .  .  .  .  .  .  .  .  .  .  .  .  .  .  .  .  .  .  .  .  .  .  .  ",
".  .  .  .  .  .  .  .  .  .  .  .  .  .  .  .  .  .  .  .  .  .  .  .  .  .  .  .  .  .  .  .  .  .  .  .  .  .  .  .  .  .  .  .  .  .  .  .  .  .  .  .  .  .  .  .  .  .  .  .  .  .  .  .  .  .  .  .  .  .  .  .  .  .  .  .  .  .  .  .  .  .  .  .  .  .  .  .  .  .  .  .  .  .  .  .  .  .  .  .  .  .  .  .  .  .  .  .  .  .  .  .  .  .  .  .  .  .  .  .  .  .  .  .  .  .  .  .  .  .  .  .  .  .  .  .  .  .  .  .  .  .  .  .  .  .  .  .  .  .  .  .  .  .  .  .  .  .  .  .  .  .  .  .  .  .  .  .  .  .  .  .  .  .  .  .  .  .  .  .  .  .  .  .  .  .  .  .  .  .  .  .  .  .  .  .  .  .  .  .  .  .  .  .  .  .  .  .  .  .  .  .  .  .  .  .  .  .  .  .  .  .  .  .  .  .  .  .  .  .  .  .  .  .  .  .  .  .  .  .  .  .  .  .  .  .  .  .  .  .  .  .  .  .  .  .  .  .  .  .  .  .  .  .  .  .  .  .  .  .  .  .  .  .  .  .  .  .  .  .  .  .  .  .  .  .  .  .  .  .  .  .  .  .  .  .  .  .  .  .  .  .  .  .  .  .  .  .  .  .  .  .  .  .  .  .  .  .  .  .  .  .  .  .  .  .  .  .  .  .  .  .  .  .  .  .  .  .  .  .  .  .  .  .  .  .  .  .  .  .  .  .  .  .  .  .  .  .  .  .  .  .  .  .  .  .  .  .  .  .  .  .  .  .  .  .  .  .  .  .  .  .  .  .  .  .  .  .  .  .  .  .  ",
".  .  .  .  .  .  .  .  .  .  .  .  .  .  .  .  .  .  .  .  .  .  .  .  .  .  .  .  .  .  .  .  .  .  .  .  .  .  .  .  .  .  .  .  .  .  .  .  .  .  .  .  .  .  .  .  .  .  .  .  .  .  .  .  .  .  .  .  .  .  .  .  .  .  .  .  .  .  .  .  .  .  .  .  .  .  .  .  .  .  .  .  .  .  .  .  .  .  .  .  .  .  .  .  .  .  .  .  .  .  .  .  .  .  .  .  .  .  .  .  .  .  .  .  .  .  .  .  .  .  .  .  .  .  .  .  .  .  .  .  .  .  .  .  .  .  .  .  .  .  .  .  .  .  .  .  .  .  .  .  .  .  .  .  .  .  .  .  .  .  .  .  .  .  .  .  .  .  .  .  .  .  .  .  .  .  .  .  .  .  .  .  .  .  .  .  .  .  .  .  .  .  .  .  .  .  .  .  .  .  .  .  .  .  .  .  .  .  .  .  .  .  .  .  .  .  .  .  .  .  .  .  .  .  .  .  .  .  .  .  .  .  .  .  .  .  .  .  .  .  .  .  .  .  .  .  .  .  .  .  .  .  .  .  .  .  .  .  .  .  .  .  .  .  .  .  .  .  .  .  .  .  .  .  .  .  .  .  .  .  .  .  .  .  .  .  .  .  .  .  .  .  .  .  .  .  .  .  .  .  .  .  .  .  .  .  .  .  .  .  .  .  .  .  .  .  .  .  .  .  .  .  .  .  .  .  .  .  .  .  .  .  .  .  .  .  .  .  .  .  .  .  .  .  .  .  .  .  .  .  .  .  .  .  .  .  .  .  .  .  .  .  .  .  .  .  .  .  .  .  .  .  .  .  .  .  .  .  .  .  .  .  ",
".  .  .  .  .  .  .  .  .  .  .  .  .  .  .  .  .  .  .  .  .  .  .  .  .  .  .  .  .  .  .  .  .  .  .  .  .  .  .  .  .  .  .  .  .  .  .  .  .  .  .  .  .  .  .  .  .  .  .  .  .  .  .  .  .  .  .  .  .  .  .  .  .  .  .  .  .  .  .  .  .  .  .  .  .  .  .  .  .  .  .  .  .  .  .  .  .  .  .  .  .  .  .  .  .  .  .  .  .  .  .  .  .  .  .  .  .  .  .  .  .  .  .  .  .  .  .  .  .  .  .  .  .  .  .  .  .  .  .  .  .  .  .  .  .  .  .  .  .  .  .  .  .  .  .  .  .  .  .  .  .  .  .  .  .  .  .  .  .  .  .  .  .  .  .  .  .  .  .  .  .  .  .  .  .  .  .  .  .  .  .  .  .  .  .  .  .  .  .  .  .  .  .  .  .  .  .  .  .  .  .  .  .  .  .  .  .  .  .  .  .  .  .  .  .  .  .  .  .  .  .  .  .  .  .  .  .  .  .  .  .  .  .  .  .  .  .  .  .  .  .  .  .  .  .  .  .  .  .  .  .  .  .  .  .  .  .  .  .  .  .  .  .  .  .  .  .  .  .  .  .  .  .  .  .  .  .  .  .  .  .  .  .  .  .  .  .  .  .  .  .  .  .  .  .  .  .  .  .  .  .  .  .  .  .  .  .  .  .  .  .  .  .  .  .  .  .  .  .  .  .  .  .  .  .  .  .  .  .  .  .  .  .  .  .  .  .  .  .  .  .  .  .  .  .  .  .  .  .  .  .  .  .  .  .  .  .  .  .  .  .  .  .  .  .  .  .  .  .  .  .  .  .  .  .  .  .  .  .  .  .  .  ",
".  .  .  .  .  .  .  .  .  .  .  .  .  .  .  .  .  .  .  .  .  .  .  .  .  .  .  .  .  .  .  .  .  .  .  .  .  .  .  .  .  .  .  .  .  .  .  .  .  .  .  .  .  .  .  .  .  .  .  .  .  .  .  .  .  .  .  .  .  .  .  .  .  .  .  .  .  .  .  .  .  .  .  .  .  .  .  .  .  .  .  .  .  .  .  .  .  .  .  .  .  .  .  .  .  .  .  .  .  .  .  .  .  .  .  .  .  .  .  .  .  .  .  .  .  .  .  .  .  .  .  .  .  .  .  .  .  .  .  .  .  .  .  .  .  .  .  .  .  .  .  .  .  .  .  .  .  .  .  .  .  .  .  .  .  .  .  .  .  .  .  .  .  .  .  .  .  .  .  .  .  .  .  .  .  .  .  .  .  .  .  .  .  .  .  .  .  .  .  .  .  .  .  .  .  .  .  .  .  .  .  .  .  .  .  .  .  .  .  .  .  .  .  .  .  .  .  .  .  .  .  .  .  .  .  .  .  .  .  .  .  .  .  .  .  .  .  .  .  .  .  .  .  .  .  .  .  .  .  .  .  .  .  .  .  .  .  .  .  .  .  .  .  .  .  .  .  .  .  .  .  .  .  .  .  .  .  .  .  .  .  .  .  .  .  .  .  .  .  .  .  .  .  .  .  .  .  .  .  .  .  .  .  .  .  .  .  .  .  .  .  .  .  .  .  .  .  .  .  .  .  .  .  .  .  .  .  .  .  .  .  .  .  .  .  .  .  .  .  .  .  .  .  .  .  .  .  .  .  .  .  .  .  .  .  .  .  .  .  .  .  .  .  .  .  .  .  .  .  .  .  .  .  .  .  .  .  .  .  .  .  .  ",
".  .  .  .  .  .  .  .  .  .  .  .  .  .  .  .  .  .  .  .  .  .  .  .  .  .  .  .  .  .  .  .  .  .  .  .  .  .  .  .  .  .  .  .  .  .  .  .  .  .  .  .  .  .  .  .  .  .  .  .  .  .  .  .  .  .  .  .  .  .  .  .  .  .  .  .  .  .  .  .  .  .  .  .  .  .  .  .  .  .  .  .  .  .  .  .  .  .  .  .  .  .  .  .  .  .  .  .  .  .  .  .  .  .  .  .  .  .  .  .  .  .  .  .  .  .  .  .  .  .  .  .  .  .  .  .  .  .  .  .  .  .  .  .  .  .  .  .  .  .  .  .  .  .  .  .  .  .  .  .  .  .  .  .  .  .  .  .  .  .  .  .  .  .  .  .  .  .  .  .  .  .  .  .  .  .  .  .  .  .  .  .  .  .  .  .  .  .  .  .  .  .  .  .  .  .  .  .  .  .  .  .  .  .  .  .  .  .  .  .  .  .  .  .  .  .  .  .  .  .  .  .  .  .  .  .  .  .  .  .  .  .  .  .  .  .  .  .  .  .  .  .  .  .  .  .  .  .  .  .  .  .  .  .  .  .  .  .  .  .  .  .  .  .  .  .  .  .  .  .  .  .  .  .  .  .  .  .  .  .  .  .  .  .  .  .  .  .  .  .  .  .  .  .  .  .  .  .  .  .  .  .  .  .  .  .  .  .  .  .  .  .  .  .  .  .  .  .  .  .  .  .  .  .  .  .  .  .  .  .  .  .  .  .  .  .  .  .  .  .  .  .  .  .  .  .  .  .  .  .  .  .  .  .  .  .  .  .  .  .  .  .  .  .  .  .  .  .  .  .  .  .  .  .  .  .  .  .  .  .  .  .  ",
".  .  .  .  .  .  .  .  .  .  .  .  .  .  .  .  .  .  .  .  .  .  .  .  .  .  .  .  .  .  .  .  .  .  .  .  .  .  .  .  .  .  .  .  .  .  .  .  .  .  .  .  .  .  .  .  .  .  .  .  .  .  .  .  .  .  .  .  .  .  .  .  .  .  .  .  .  .  .  .  .  .  .  .  .  .  .  .  .  .  .  .  .  .  .  .  .  .  .  .  .  .  .  .  .  .  .  .  .  .  .  .  .  .  .  .  .  .  .  .  .  .  .  .  .  .  .  .  .  .  .  .  .  .  .  .  .  .  .  .  .  .  .  .  .  .  .  .  .  .  .  .  .  .  .  .  .  .  .  .  .  .  .  .  .  .  .  .  .  .  .  .  .  .  .  .  .  .  .  .  .  .  .  .  .  .  .  .  .  .  .  .  .  .  .  .  .  .  .  .  .  .  .  .  .  .  .  .  .  .  .  .  .  .  .  .  .  .  .  .  .  .  .  .  .  .  .  .  .  .  .  .  .  .  .  .  .  .  .  .  .  .  .  .  .  .  .  .  .  .  .  .  .  .  .  .  .  .  .  .  .  .  .  .  .  .  .  .  .  .  .  .  .  .  .  .  .  .  .  .  .  .  .  .  .  .  .  .  .  .  .  .  .  .  .  .  .  .  .  .  .  .  .  .  .  .  .  .  .  .  .  .  .  .  .  .  .  .  .  .  .  .  .  .  .  .  .  .  .  .  .  .  .  .  .  .  .  .  .  .  .  .  .  .  .  .  .  .  .  .  .  .  .  .  .  .  .  .  .  .  .  .  .  .  .  .  .  .  .  .  .  .  .  .  .  .  .  .  .  .  .  .  .  .  .  .  .  .  .  .  .  .  ",
".  .  .  .  .  .  .  .  .  .  .  .  .  .  .  .  .  .  .  .  .  .  .  .  .  .  .  .  .  .  .  .  .  .  .  .  .  .  .  .  .  .  .  .  .  .  .  .  .  .  .  .  .  .  .  .  .  .  .  .  .  .  .  .  .  .  .  .  .  .  .  .  .  .  .  .  .  .  .  .  .  .  .  .  .  .  .  .  .  .  .  .  .  .  .  .  .  .  .  .  .  .  .  .  .  .  .  .  .  .  .  .  .  .  .  .  .  .  .  .  .  .  .  .  .  .  .  .  .  .  .  .  .  .  .  .  .  .  .  .  .  .  .  .  .  .  .  .  .  .  .  .  .  .  .  .  .  .  .  .  .  .  .  .  .  .  .  .  .  .  .  .  .  .  .  .  .  .  .  .  .  .  .  .  .  .  .  .  .  .  .  .  .  .  .  .  .  .  .  .  .  .  .  .  .  .  .  .  .  .  .  .  .  .  .  .  .  .  .  .  .  .  .  .  .  .  .  .  .  .  .  .  .  .  .  .  .  .  .  .  .  .  .  .  .  .  .  .  .  .  .  .  .  .  .  .  .  .  .  .  .  .  .  .  .  .  .  .  .  .  .  .  .  .  .  .  .  .  .  .  .  .  .  .  .  .  .  .  .  .  .  .  .  .  .  .  .  .  .  .  .  .  .  .  .  .  .  .  .  .  .  .  .  .  .  .  .  .  .  .  .  .  .  .  .  .  .  .  .  .  .  .  .  .  .  .  .  .  .  .  .  .  .  .  .  .  .  .  .  .  .  .  .  .  .  .  .  .  .  .  .  .  .  .  .  .  .  .  .  .  .  .  .  .  .  .  .  .  .  .  .  .  .  .  .  .  .  .  .  .  .  .  ",
".  .  .  .  .  .  .  .  .  .  .  .  .  .  .  .  .  .  .  .  .  .  .  .  .  .  .  .  .  .  .  .  .  .  .  .  .  .  .  .  .  .  .  .  .  .  .  .  .  .  .  .  .  .  .  .  .  .  .  .  .  .  .  .  .  .  .  .  .  .  .  .  .  .  .  .  .  .  .  .  .  .  .  .  .  .  .  .  .  .  .  .  .  .  .  .  .  .  .  .  .  .  .  .  .  .  .  .  .  .  .  .  .  .  .  .  .  .  .  .  .  .  .  .  .  .  .  .  .  .  .  .  .  .  .  .  .  .  .  .  .  .  .  .  .  .  .  .  .  .  .  .  .  .  .  .  .  .  .  .  .  .  .  .  .  .  .  .  .  .  .  .  .  .  .  .  .  .  .  .  .  .  .  .  .  .  .  .  .  .  .  .  .  .  .  .  .  .  .  .  .  .  .  .  .  .  .  .  .  .  .  .  .  .  .  .  .  .  .  .  .  .  .  .  .  .  .  .  .  .  .  .  .  .  .  .  .  .  .  .  .  .  .  .  .  .  .  .  .  .  .  .  .  .  .  .  .  .  .  .  .  .  .  .  .  .  .  .  .  .  .  .  .  .  .  .  .  .  .  .  .  .  .  .  .  .  .  .  .  .  .  .  .  .  .  .  .  .  .  .  .  .  .  .  .  .  .  .  .  .  .  .  .  .  .  .  .  .  .  .  .  .  .  .  .  .  .  .  .  .  .  .  .  .  .  .  .  .  .  .  .  .  .  .  .  .  .  .  .  .  .  .  .  .  .  .  .  .  .  .  .  .  .  .  .  .  .  .  .  .  .  .  .  .  .  .  .  .  .  .  .  .  .  .  .  .  .  .  .  .  .  .  ",
".  .  .  .  .  .  .  .  .  .  .  .  .  .  .  .  .  .  .  .  .  .  .  .  .  .  .  .  .  .  .  .  .  .  .  .  .  .  .  .  .  .  .  .  .  .  .  .  .  .  .  .  .  .  .  .  .  .  .  .  .  .  .  .  .  .  .  .  .  .  .  .  .  .  .  .  .  .  .  .  .  .  .  .  .  .  .  .  .  .  .  .  .  .  .  .  .  .  .  .  .  .  .  .  .  .  .  .  .  .  .  .  .  .  .  .  .  .  .  .  .  .  .  .  .  .  .  .  .  .  .  .  .  .  .  .  .  .  .  .  .  .  .  .  .  .  .  .  .  .  .  .  .  .  .  .  .  .  .  .  .  .  .  .  .  .  .  .  .  .  .  .  .  .  .  .  .  .  .  .  .  .  .  .  .  .  .  .  .  .  .  .  .  .  .  .  .  .  .  .  .  .  .  .  .  .  .  .  .  .  .  .  .  .  .  .  .  .  .  .  .  .  .  .  .  .  .  .  .  .  .  .  .  .  .  .  .  .  .  .  .  .  .  .  .  .  .  .  .  .  .  .  .  .  .  .  .  .  .  .  .  .  .  .  .  .  .  .  .  .  .  .  .  .  .  .  .  .  .  .  .  .  .  .  .  .  .  .  .  .  .  .  .  .  .  .  .  .  .  .  .  .  .  .  .  .  .  .  .  .  .  .  .  .  .  .  .  .  .  .  .  .  .  .  .  .  .  .  .  .  .  .  .  .  .  .  .  .  .  .  .  .  .  .  .  .  .  .  .  .  .  .  .  .  .  .  .  .  .  .  .  .  .  .  .  .  .  .  .  .  .  .  .  .  .  .  .  .  .  .  .  .  .  .  .  .  .  .  .  .  .  .  ",
".  .  .  .  .  .  .  .  .  .  .  .  .  .  .  .  .  .  .  .  .  .  .  .  .  .  .  .  .  .  .  .  .  .  .  .  .  .  .  .  .  .  .  .  .  .  .  .  .  .  .  .  .  .  .  .  .  .  .  .  .  .  .  .  .  .  .  .  .  .  .  .  .  .  .  .  .  .  .  .  .  .  .  .  .  .  .  .  .  .  .  .  .  .  .  .  .  .  .  .  .  .  .  .  .  .  .  .  .  .  .  .  .  .  .  .  .  .  .  .  .  .  .  .  .  .  .  .  .  .  .  .  .  .  .  .  .  .  .  .  .  .  .  .  .  .  .  .  .  .  .  .  .  .  .  .  .  .  .  .  .  .  .  .  .  .  .  .  .  .  .  .  .  .  .  .  .  .  .  .  .  .  .  .  .  .  .  .  .  .  .  .  .  .  .  .  .  .  .  .  .  .  .  .  .  .  .  .  .  .  .  .  .  .  .  .  .  .  .  .  .  .  .  .  .  .  .  .  .  .  .  .  .  .  .  .  .  .  .  .  .  .  .  .  .  .  .  .  .  .  .  .  .  .  .  .  .  .  .  .  .  .  .  .  .  .  .  .  .  .  .  .  .  .  .  .  .  .  .  .  .  .  .  .  .  .  .  .  .  .  .  .  .  .  .  .  .  .  .  .  .  .  .  .  .  .  .  .  .  .  .  .  .  .  .  .  .  .  .  .  .  .  .  .  .  .  .  .  .  .  .  .  .  .  .  .  .  .  .  .  .  .  .  .  .  .  .  .  .  .  .  .  .  .  .  .  .  .  .  .  .  .  .  .  .  .  .  .  .  .  .  .  .  .  .  .  .  .  .  .  .  .  .  .  .  .  .  .  .  .  .  .  ",
".  .  .  .  .  .  .  .  .  .  .  .  .  .  .  .  .  .  .  .  .  .  .  .  .  .  .  .  .  .  .  .  .  .  .  .  .  .  .  .  .  .  .  .  .  .  .  .  .  .  .  .  .  .  .  .  .  .  .  .  .  .  .  .  .  .  .  .  .  .  .  .  .  .  .  .  .  .  .  .  .  .  .  .  .  .  .  .  .  .  .  .  .  .  .  .  .  .  .  .  .  .  .  .  .  .  .  .  .  .  .  .  .  .  .  .  .  .  .  .  .  .  .  .  .  .  .  .  .  .  .  .  .  .  .  .  .  .  .  .  .  .  .  .  .  .  .  .  .  .  .  .  .  .  .  .  .  .  .  .  .  .  .  .  .  .  .  .  .  .  .  .  .  .  .  .  .  .  .  .  .  .  .  .  .  .  .  .  .  .  .  .  .  .  .  .  .  .  .  .  .  .  .  .  .  .  .  .  .  .  .  .  .  .  .  .  .  .  .  .  .  .  .  .  .  .  .  .  .  .  .  .  .  .  .  .  .  .  .  .  .  .  .  .  .  .  .  .  .  .  .  .  .  .  .  .  .  .  .  .  .  .  .  .  .  .  .  .  .  .  .  .  .  .  .  .  .  .  .  .  .  .  .  .  .  .  .  .  .  .  .  .  .  .  .  .  .  .  .  .  .  .  .  .  .  .  .  .  .  .  .  .  .  .  .  .  .  .  .  .  .  .  .  .  .  .  .  .  .  .  .  .  .  .  .  .  .  .  .  .  .  .  .  .  .  .  .  .  .  .  .  .  .  .  .  .  .  .  .  .  .  .  .  .  .  .  .  .  .  .  .  .  .  .  .  .  .  .  .  .  .  .  .  .  .  .  .  .  .  .  .  .  ",
".  .  .  .  .  .  .  .  .  .  .  .  .  .  .  .  .  .  .  .  .  .  .  .  .  .  .  .  .  .  .  .  .  .  .  .  .  .  .  .  .  .  .  .  .  .  .  .  .  .  .  .  .  .  .  .  .  .  .  .  .  .  .  .  .  .  .  .  .  .  .  .  .  .  .  .  .  .  .  .  .  .  .  .  .  .  .  .  .  .  .  .  .  .  .  .  .  .  .  .  .  .  .  .  .  .  .  .  .  .  .  .  .  .  .  .  .  .  .  .  .  .  .  .  .  .  .  .  .  .  .  .  .  .  .  .  .  .  .  .  .  .  .  .  .  .  .  .  .  .  .  .  .  .  .  .  .  .  .  .  .  .  .  .  .  .  .  .  .  .  .  .  .  .  .  .  .  .  .  .  .  .  .  .  .  .  .  .  .  .  .  .  .  .  .  .  .  .  .  .  .  .  .  .  .  .  .  .  .  .  .  .  .  .  .  .  .  .  .  .  .  .  .  .  .  .  .  .  .  .  .  .  .  .  .  .  .  .  .  .  .  .  .  .  .  .  .  .  .  .  .  .  .  .  .  .  .  .  .  .  .  .  .  .  .  .  .  .  .  .  .  .  .  .  .  .  .  .  .  .  .  .  .  .  .  .  .  .  .  .  .  .  .  .  .  .  .  .  .  .  .  .  .  .  .  .  .  .  .  .  .  .  .  .  .  .  .  .  .  .  .  .  .  .  .  .  .  .  .  .  .  .  .  .  .  .  .  .  .  .  .  .  .  .  .  .  .  .  .  .  .  .  .  .  .  .  .  .  .  .  .  .  .  .  .  .  .  .  .  .  .  .  .  .  .  .  .  .  .  .  .  .  .  .  .  .  .  .  .  .  .  .  ",
".  .  .  .  .  .  .  .  .  .  .  .  .  .  .  .  .  .  .  .  .  .  .  .  .  .  .  .  .  .  .  .  .  .  .  .  .  .  .  .  .  .  .  .  .  .  .  .  .  .  .  .  .  .  .  .  .  .  .  .  .  .  .  .  .  .  .  .  .  .  .  .  .  .  .  .  .  .  .  .  .  .  .  .  .  .  .  .  .  .  .  .  .  .  .  .  .  .  .  .  .  .  .  .  .  .  .  .  .  .  .  .  .  .  .  .  .  .  .  .  .  .  .  .  .  .  .  .  .  .  .  .  .  .  .  .  .  .  .  .  .  .  .  .  .  .  .  .  .  .  .  .  .  .  .  .  .  .  .  .  .  .  .  .  .  .  .  .  .  .  .  .  .  .  .  .  .  .  .  .  .  .  .  .  .  .  .  .  .  .  .  .  .  .  .  .  .  .  .  .  .  .  .  .  .  .  .  .  .  .  .  .  .  .  .  .  .  .  .  .  .  .  .  .  .  .  .  .  .  .  .  .  .  .  .  .  .  .  .  .  .  .  .  .  .  .  .  .  .  .  .  .  .  .  .  .  .  .  .  .  .  .  .  .  .  .  .  .  .  .  .  .  .  .  .  .  .  .  .  .  .  .  .  .  .  .  .  .  .  .  .  .  .  .  .  .  .  .  .  .  .  .  .  .  .  .  .  .  .  .  .  .  .  .  .  .  .  .  .  .  .  .  .  .  .  .  .  .  .  .  .  .  .  .  .  .  .  .  .  .  .  .  .  .  .  .  .  .  .  .  .  .  .  .  .  .  .  .  .  .  .  .  .  .  .  .  .  .  .  .  .  .  .  .  .  .  .  .  .  .  .  .  .  .  .  .  .  .  .  .  .  .  ",
".  .  .  .  .  .  .  .  .  .  .  .  .  .  .  .  .  .  .  .  .  .  .  .  .  .  .  .  .  .  .  .  .  .  .  .  .  .  .  .  .  .  .  .  .  .  .  .  .  .  .  .  .  .  .  .  .  .  .  .  .  .  .  .  .  .  .  .  .  .  .  .  .  .  .  .  .  .  .  .  .  .  .  .  .  .  .  .  .  .  .  .  .  .  .  .  .  .  .  .  .  .  .  .  .  .  .  .  .  .  .  .  .  .  .  .  .  .  .  .  .  .  .  .  .  .  .  .  .  .  .  .  .  .  .  .  .  .  .  .  .  .  .  .  .  .  .  .  .  .  .  .  .  .  .  .  .  .  .  .  .  .  .  .  .  .  .  .  .  .  .  .  .  .  .  .  .  .  .  .  .  .  .  .  .  .  .  .  .  .  .  .  .  .  .  .  .  .  .  .  .  .  .  .  .  .  .  .  .  .  .  .  .  .  .  .  .  .  .  .  .  .  .  .  .  .  .  .  .  .  .  .  .  .  .  .  .  .  .  .  .  .  .  .  .  .  .  .  .  .  .  .  .  .  .  .  .  .  .  .  .  .  .  .  .  .  .  .  .  .  .  .  .  .  .  .  .  .  .  .  .  .  .  .  .  .  .  .  .  .  .  .  .  .  .  .  .  .  .  .  .  .  .  .  .  .  .  .  .  .  .  .  .  .  .  .  .  .  .  .  .  .  .  .  .  .  .  .  .  .  .  .  .  .  .  .  .  .  .  .  .  .  .  .  .  .  .  .  .  .  .  .  .  .  .  .  .  .  .  .  .  .  .  .  .  .  .  .  .  .  .  .  .  .  .  .  .  .  .  .  .  .  .  .  .  .  .  .  .  .  .  .  ",
".  .  .  .  .  .  .  .  .  .  .  .  .  .  .  .  .  .  .  .  .  .  .  .  .  .  .  .  .  .  .  .  .  .  .  .  .  .  .  .  .  .  .  .  .  .  .  .  .  .  .  .  .  .  .  .  .  .  .  .  .  .  .  .  .  .  .  .  .  .  .  .  .  .  .  .  .  .  .  .  .  .  .  .  .  .  .  .  .  .  .  .  .  .  .  .  .  .  .  .  .  .  .  .  .  .  .  .  .  .  .  .  .  .  .  .  .  .  .  .  .  .  .  .  .  .  .  .  .  .  .  .  .  .  .  .  .  .  .  .  .  .  .  .  .  .  .  .  .  .  .  .  .  .  .  .  .  .  .  .  .  .  .  .  .  .  .  .  .  .  .  .  .  .  .  .  .  .  .  .  .  .  .  .  .  .  .  .  .  .  .  .  .  .  .  .  .  .  .  .  .  .  .  .  .  .  .  .  .  .  .  .  .  .  .  .  .  .  .  .  .  .  .  .  .  .  .  .  .  .  .  .  .  .  .  .  .  .  .  .  .  .  .  .  .  .  .  .  .  .  .  .  .  .  .  .  .  .  .  .  .  .  .  .  .  .  .  .  .  .  .  .  .  .  .  .  .  .  .  .  .  .  .  .  .  .  .  .  .  .  .  .  .  .  .  .  .  .  .  .  .  .  .  .  .  .  .  .  .  .  .  .  .  .  .  .  .  .  .  .  .  .  .  .  .  .  .  .  .  .  .  .  .  .  .  .  .  .  .  .  .  .  .  .  .  .  .  .  .  .  .  .  .  .  .  .  .  .  .  .  .  .  .  .  .  .  .  .  .  .  .  .  .  .  .  .  .  .  .  .  .  .  .  .  .  .  .  .  .  .  .  .  ",
".  .  .  .  .  .  .  .  .  .  .  .  .  .  .  .  .  .  .  .  .  .  .  .  .  .  .  .  .  .  .  .  .  .  .  .  .  .  .  .  .  .  .  .  .  .  .  .  .  .  .  .  .  .  .  .  .  .  .  .  .  .  .  .  .  .  .  .  .  .  .  .  .  .  .  .  .  .  .  .  .  .  .  .  .  .  .  .  .  .  .  .  .  .  .  .  .  .  .  .  .  .  .  .  .  .  .  .  .  .  .  .  .  .  .  .  .  .  .  .  .  .  .  .  .  .  .  .  .  .  .  .  .  .  .  .  .  .  .  .  .  .  .  .  .  .  .  .  .  .  .  .  .  .  .  .  .  .  .  .  .  .  .  .  .  .  .  .  .  .  .  .  .  .  .  .  .  .  .  .  .  .  .  .  .  .  .  .  .  .  .  .  .  .  .  .  .  .  .  .  .  .  .  .  .  .  .  .  .  .  .  .  .  .  .  .  .  .  .  .  .  .  .  .  .  .  .  .  .  .  .  .  .  .  .  .  .  .  .  .  .  .  .  .  .  .  .  .  .  .  .  .  .  .  .  .  .  .  .  .  .  .  .  .  .  .  .  .  .  .  .  .  .  .  .  .  .  .  .  .  .  .  .  .  .  .  .  .  .  .  .  .  .  .  .  .  .  .  .  .  .  .  .  .  .  .  .  .  .  .  .  .  .  .  .  .  .  .  .  .  .  .  .  .  .  .  .  .  .  .  .  .  .  .  .  .  .  .  .  .  .  .  .  .  .  .  .  .  .  .  .  .  .  .  .  .  .  .  .  .  .  .  .  .  .  .  .  .  .  .  .  .  .  .  .  .  .  .  .  .  .  .  .  .  .  .  .  .  .  .  .  .  ",
".  .  .  .  .  .  .  .  .  .  .  .  .  .  .  .  .  .  .  .  .  .  .  .  .  .  .  .  .  .  .  .  .  .  .  .  .  .  .  .  .  .  .  .  .  .  .  .  .  .  .  .  .  .  .  .  .  .  .  .  .  .  .  .  .  .  .  .  .  .  .  .  .  .  .  .  .  .  .  .  .  .  .  .  .  .  .  .  .  .  .  .  .  .  .  .  .  .  .  .  .  .  .  .  .  .  .  .  .  .  .  .  .  .  .  .  .  .  .  .  .  .  .  .  .  .  .  .  .  .  .  .  .  .  .  .  .  .  .  .  .  .  .  .  .  .  .  .  .  .  .  .  .  .  .  .  .  .  .  .  .  .  .  .  .  .  .  .  .  .  .  .  .  .  .  .  .  .  .  .  .  .  .  .  .  .  .  .  .  .  .  .  .  .  .  .  .  .  .  .  .  .  .  .  .  .  .  .  .  .  .  .  .  .  .  .  .  .  .  .  .  .  .  .  .  .  .  .  .  .  .  .  .  .  .  .  .  .  .  .  .  .  .  .  .  .  .  .  .  .  .  .  .  .  .  .  .  .  .  .  .  .  .  .  .  .  .  .  .  .  .  .  .  .  .  .  .  .  .  .  .  .  .  .  .  .  .  .  .  .  .  .  .  .  .  .  .  .  .  .  .  .  .  .  .  .  .  .  .  .  .  .  .  .  .  .  .  .  .  .  .  .  .  .  .  .  .  .  .  .  .  .  .  .  .  .  .  .  .  .  .  .  .  .  .  .  .  .  .  .  .  .  .  .  .  .  .  .  .  .  .  .  .  .  .  .  .  .  .  .  .  .  .  .  .  .  .  .  .  .  .  .  .  .  .  .  .  .  .  .  .  .  ",
".  .  .  .  .  .  .  .  .  .  .  .  .  .  .  .  .  .  .  .  .  .  .  .  .  .  .  .  .  .  .  .  .  .  .  .  .  .  .  .  .  .  .  .  .  .  .  .  .  .  .  .  .  .  .  .  .  .  .  .  .  .  .  .  .  .  .  .  .  .  .  .  .  .  .  .  .  .  .  .  .  .  .  .  .  .  .  .  .  .  .  .  .  .  .  .  .  .  .  .  .  .  .  .  .  .  .  .  .  .  .  .  .  .  .  .  .  .  .  .  .  .  .  .  .  .  .  .  .  .  .  .  .  .  .  .  .  .  .  .  .  .  .  .  .  .  .  .  .  .  .  .  .  .  .  .  .  .  .  .  .  .  .  .  .  .  .  .  .  .  .  .  .  .  .  .  .  .  .  .  .  .  .  .  .  .  .  .  .  .  .  .  .  .  .  .  .  .  .  .  .  .  .  .  .  .  .  .  .  .  .  .  .  .  .  .  .  .  .  .  .  .  .  .  .  .  .  .  .  .  .  .  .  .  .  .  .  .  .  .  .  .  .  .  .  .  .  .  .  .  .  .  .  .  .  .  .  .  .  .  .  .  .  .  .  .  .  .  .  .  .  .  .  .  .  .  .  .  .  .  .  .  .  .  .  .  .  .  .  .  .  .  .  .  .  .  .  .  .  .  .  .  .  .  .  .  .  .  .  .  .  .  .  .  .  .  .  .  .  .  .  .  .  .  .  .  .  .  .  .  .  .  .  .  .  .  .  .  .  .  .  .  .  .  .  .  .  .  .  .  .  .  .  .  .  .  .  .  .  .  .  .  .  .  .  .  .  .  .  .  .  .  .  .  .  .  .  .  .  .  .  .  .  .  .  .  .  .  .  .  .  .  ",
".  .  .  .  .  .  .  .  .  .  .  .  .  .  .  .  .  .  .  .  .  .  .  .  .  .  .  .  .  .  .  .  .  .  .  .  .  .  .  .  .  .  .  .  .  .  .  .  .  .  .  .  .  .  .  .  .  .  .  .  .  .  .  .  .  .  .  .  .  .  .  .  .  .  .  .  .  .  .  .  .  .  .  .  .  .  .  .  .  .  .  .  .  .  .  .  .  .  .  .  .  .  .  .  .  .  .  .  .  .  .  .  .  .  .  .  .  .  .  .  .  .  .  .  .  .  .  .  .  .  .  .  .  .  .  .  .  .  .  .  .  .  .  .  .  .  .  .  .  .  .  .  .  .  .  .  .  .  .  .  .  .  .  .  .  .  .  .  .  .  .  .  .  .  .  .  .  .  .  .  .  .  .  .  .  .  .  .  .  .  .  .  .  .  .  .  .  .  .  .  .  .  .  .  .  .  .  .  .  .  .  .  .  .  .  .  .  .  .  .  .  .  .  .  .  .  .  .  .  .  .  .  .  .  .  .  .  .  .  .  .  .  .  .  .  .  .  .  .  .  .  .  .  .  .  .  .  .  .  .  .  .  .  .  .  .  .  .  .  .  .  .  .  .  .  .  .  .  .  .  .  .  .  .  .  .  .  .  .  .  .  .  .  .  .  .  .  .  .  .  .  .  .  .  .  .  .  .  .  .  .  .  .  .  .  .  .  .  .  .  .  .  .  .  .  .  .  .  .  .  .  .  .  .  .  .  .  .  .  .  .  .  .  .  .  .  .  .  .  .  .  .  .  .  .  .  .  .  .  .  .  .  .  .  .  .  .  .  .  .  .  .  .  .  .  .  .  .  .  .  .  .  .  .  .  .  .  .  .  .  .  .  ",
".  .  .  .  .  .  .  .  .  .  .  .  .  .  .  .  .  .  .  .  .  .  .  .  .  .  .  .  .  .  .  .  .  .  .  .  .  .  .  .  .  .  .  .  .  .  .  .  .  .  .  .  .  .  .  .  .  .  .  .  .  .  .  .  .  .  .  .  .  .  .  .  .  .  .  .  .  .  .  .  .  .  .  .  .  .  .  .  .  .  .  .  .  .  .  .  .  .  .  .  .  .  .  .  .  .  .  .  .  .  .  .  .  .  .  .  .  .  .  .  .  .  .  .  .  .  .  .  .  .  .  .  .  .  .  .  .  .  .  .  .  .  .  .  .  .  .  .  .  .  .  .  .  .  .  .  .  .  .  .  .  .  .  .  .  .  .  .  .  .  .  .  .  .  .  .  .  .  .  .  .  .  .  .  .  .  .  .  .  .  .  .  .  .  .  .  .  .  .  .  .  .  .  .  .  .  .  .  .  .  .  .  .  .  .  .  .  .  .  .  .  .  .  .  .  .  .  .  .  .  .  .  .  .  .  .  .  .  .  .  .  .  .  .  .  .  .  .  .  .  .  .  .  .  .  .  .  .  .  .  .  .  .  .  .  .  .  .  .  .  .  .  .  .  .  .  .  .  .  .  .  .  .  .  .  .  .  .  .  .  .  .  .  .  .  .  .  .  .  .  .  .  .  .  .  .  .  .  .  .  .  .  .  .  .  .  .  .  .  .  .  .  .  .  .  .  .  .  .  .  .  .  .  .  .  .  .  .  .  .  .  .  .  .  .  .  .  .  .  .  .  .  .  .  .  .  .  .  .  .  .  .  .  .  .  .  .  .  .  .  .  .  .  .  .  .  .  .  .  .  .  .  .  .  .  .  .  .  .  .  .  .  ",
".  .  .  .  .  .  .  .  .  .  .  .  .  .  .  .  .  .  .  .  .  .  .  .  .  .  .  .  .  .  .  .  .  .  .  .  .  .  .  .  .  .  .  .  .  .  .  .  .  .  .  .  .  .  .  .  .  .  .  .  .  .  .  .  .  .  .  .  .  .  .  .  .  .  .  .  .  .  .  .  .  .  .  .  .  .  .  .  .  .  .  .  .  .  .  .  .  .  .  .  .  .  .  .  .  .  .  .  .  .  .  .  .  .  .  .  .  .  .  .  .  .  .  .  .  .  .  .  .  .  .  .  .  .  .  .  .  .  .  .  .  .  .  .  .  .  .  .  .  .  .  .  .  .  .  .  .  .  .  .  .  .  .  .  .  .  .  .  .  .  .  .  .  .  .  .  .  .  .  .  .  .  .  .  .  .  .  .  .  .  .  .  .  .  .  .  .  .  .  .  .  .  .  .  .  .  .  .  .  .  .  .  .  .  .  .  .  .  .  .  .  .  .  .  .  .  .  .  .  .  .  .  .  .  .  .  .  .  .  .  .  .  .  .  .  .  .  .  .  .  .  .  .  .  .  .  .  .  .  .  .  .  .  .  .  .  .  .  .  .  .  .  .  .  .  .  .  .  .  .  .  .  .  .  .  .  .  .  .  .  .  .  .  .  .  .  .  .  .  .  .  .  .  .  .  .  .  .  .  .  .  .  .  .  .  .  .  .  .  .  .  .  .  .  .  .  .  .  .  .  .  .  .  .  .  .  .  .  .  .  .  .  .  .  .  .  .  .  .  .  .  .  .  .  .  .  .  .  .  .  .  .  .  .  .  .  .  .  .  .  .  .  .  .  .  .  .  .  .  .  .  .  .  .  .  .  .  .  .  .  .  .  ",
".  .  .  .  .  .  .  .  .  .  .  .  .  .  .  .  .  .  .  .  .  .  .  .  .  .  .  .  .  .  .  .  .  .  .  .  .  .  .  .  .  .  .  .  .  .  .  .  .  .  .  .  .  .  .  .  .  .  .  .  .  .  .  .  .  .  .  .  .  .  .  .  .  .  .  .  .  .  .  .  .  .  .  .  .  .  .  .  .  .  .  .  .  .  .  .  .  .  .  .  .  .  .  .  .  .  .  .  .  .  .  .  .  .  .  .  .  .  .  .  .  .  .  .  .  .  .  .  .  .  .  .  .  .  .  .  .  .  .  .  .  .  .  .  .  .  .  .  .  .  .  .  .  .  .  .  .  .  .  .  .  .  .  .  .  .  .  .  .  .  .  .  .  .  .  .  .  .  .  .  .  .  .  .  .  .  .  .  .  .  .  .  .  .  .  .  .  .  .  .  .  .  .  .  .  .  .  .  .  .  .  .  .  .  .  .  .  .  .  .  .  .  .  .  .  .  .  .  .  .  .  .  .  .  .  .  .  .  .  .  .  .  .  .  .  .  .  .  .  .  .  .  .  .  .  .  .  .  .  .  .  .  .  .  .  .  .  .  .  .  .  .  .  .  .  .  .  .  .  .  .  .  .  .  .  .  .  .  .  .  .  .  .  .  .  .  .  .  .  .  .  .  .  .  .  .  .  .  .  .  .  .  .  .  .  .  .  .  .  .  .  .  .  .  .  .  .  .  .  .  .  .  .  .  .  .  .  .  .  .  .  .  .  .  .  .  .  .  .  .  .  .  .  .  .  .  .  .  .  .  .  .  .  .  .  .  .  .  .  .  .  .  .  .  .  .  .  .  .  .  .  .  .  .  .  .  .  .  .  .  .  .  ",
".  .  .  .  .  .  .  .  .  .  .  .  .  .  .  .  .  .  .  .  .  .  .  .  .  .  .  .  .  .  .  .  .  .  .  .  .  .  .  .  .  .  .  .  .  .  .  .  .  .  .  .  .  .  .  .  .  .  .  .  .  .  .  .  .  .  .  .  .  .  .  .  .  .  .  .  .  .  .  .  .  .  .  .  .  .  .  .  .  .  .  .  .  .  .  .  .  .  .  .  .  .  .  .  .  .  .  .  .  .  .  .  .  .  .  .  .  .  .  .  .  .  .  .  .  .  .  .  .  .  .  .  .  .  .  .  .  .  .  .  .  .  .  .  .  .  .  .  .  .  .  .  .  .  .  .  .  .  .  .  .  .  .  .  .  .  .  .  .  .  .  .  .  .  .  .  .  .  .  .  .  .  .  .  .  .  .  .  .  .  .  .  .  .  .  .  .  .  .  .  .  .  .  .  .  .  .  .  .  .  .  .  .  .  .  .  .  .  .  .  .  .  .  .  .  .  .  .  .  .  .  .  .  .  .  .  .  .  .  .  .  .  .  .  .  .  .  .  .  .  .  .  .  .  .  .  .  .  .  .  .  .  .  .  .  .  .  .  .  .  .  .  .  .  .  .  .  .  .  .  .  .  .  .  .  .  .  .  .  .  .  .  .  .  .  .  .  .  .  .  .  .  .  .  .  .  .  .  .  .  .  .  .  .  .  .  .  .  .  .  .  .  .  .  .  .  .  .  .  .  .  .  .  .  .  .  .  .  .  .  .  .  .  .  .  .  .  .  .  .  .  .  .  .  .  .  .  .  .  .  .  .  .  .  .  .  .  .  .  .  .  .  .  .  .  .  .  .  .  .  .  .  .  .  .  .  .  .  .  .  .  .  ",
".  .  .  .  .  .  .  .  .  .  .  .  .  .  .  .  .  .  .  .  .  .  .  .  .  .  .  .  .  .  .  .  .  .  .  .  .  .  .  .  .  .  .  .  .  .  .  .  .  .  .  .  .  .  .  .  .  .  .  .  .  .  .  .  .  .  .  .  .  .  .  .  .  .  .  .  .  .  .  .  .  .  .  .  .  .  .  .  .  .  .  .  .  .  .  .  .  .  .  .  .  .  .  .  .  .  .  .  .  .  .  .  .  .  .  .  .  .  .  .  .  .  .  .  .  .  .  .  .  .  .  .  .  .  .  .  .  .  .  .  .  .  .  .  .  .  .  .  .  .  .  .  .  .  .  .  .  .  .  .  .  .  .  .  .  .  .  .  .  .  .  .  .  .  .  .  .  .  .  .  .  .  .  .  .  .  .  .  .  .  .  .  .  .  .  .  .  .  .  .  .  .  .  .  .  .  .  .  .  .  .  .  .  .  .  .  .  .  .  .  .  .  .  .  .  .  .  .  .  .  .  .  .  .  .  .  .  .  .  .  .  .  .  .  .  .  .  .  .  .  .  .  .  .  .  .  .  .  .  .  .  .  .  .  .  .  .  .  .  .  .  .  .  .  .  .  .  .  .  .  .  .  .  .  .  .  .  .  .  .  .  .  .  .  .  .  .  .  .  .  .  .  .  .  .  .  .  .  .  .  .  .  .  .  .  .  .  .  .  .  .  .  .  .  .  .  .  .  .  .  .  .  .  .  .  .  .  .  .  .  .  .  .  .  .  .  .  .  .  .  .  .  .  .  .  .  .  .  .  .  .  .  .  .  .  .  .  .  .  .  .  .  .  .  .  .  .  .  .  .  .  .  .  .  .  .  .  .  .  .  .  .  ",
".  .  .  .  .  .  .  .  .  .  .  .  .  .  .  .  .  .  .  .  .  .  .  .  .  .  .  .  .  .  .  .  .  .  .  .  .  .  .  .  .  .  .  .  .  .  .  .  .  .  .  .  .  .  .  .  .  .  .  .  .  .  .  .  .  .  .  .  .  .  .  .  .  .  .  .  .  .  .  .  .  .  .  .  .  .  .  .  .  .  .  .  .  .  .  .  .  .  .  .  .  .  .  .  .  .  .  .  .  .  .  .  .  .  .  .  .  .  .  .  .  .  .  .  .  .  .  .  .  .  .  .  .  .  .  .  .  .  .  .  .  .  .  .  .  .  .  .  .  .  .  .  .  .  .  .  .  .  .  .  .  .  .  .  .  .  .  .  .  .  .  .  .  .  .  .  .  .  .  .  .  .  .  .  .  .  .  .  .  .  .  .  .  .  .  .  .  .  .  .  .  .  .  .  .  .  .  .  .  .  .  .  .  .  .  .  .  .  .  .  .  .  .  .  .  .  .  .  .  .  .  .  .  .  .  .  .  .  .  .  .  .  .  .  .  .  .  .  .  .  .  .  .  .  .  .  .  .  .  .  .  .  .  .  .  .  .  .  .  .  .  .  .  .  .  .  .  .  .  .  .  .  .  .  .  .  .  .  .  .  .  .  .  .  .  .  .  .  .  .  .  .  .  .  .  .  .  .  .  .  .  .  .  .  .  .  .  .  .  .  .  .  .  .  .  .  .  .  .  .  .  .  .  .  .  .  .  .  .  .  .  .  .  .  .  .  .  .  .  .  .  .  .  .  .  .  .  .  .  .  .  .  .  .  .  .  .  .  .  .  .  .  .  .  .  .  .  .  .  .  .  .  .  .  .  .  .  .  .  .  .  .  ",
".  .  .  .  .  .  .  .  .  .  .  .  .  .  .  .  .  .  .  .  .  .  .  .  .  .  .  .  .  .  .  .  .  .  .  .  .  .  .  .  .  .  .  .  .  .  .  .  .  .  .  .  .  .  .  .  .  .  .  .  .  .  .  .  .  .  .  .  .  .  .  .  .  .  .  .  .  .  .  .  .  .  .  .  .  .  .  .  .  .  .  .  .  .  .  .  .  .  .  .  .  .  .  .  .  .  .  .  .  .  .  .  .  .  .  .  .  .  .  .  .  .  .  .  .  .  .  .  .  .  .  .  .  .  .  .  .  .  .  .  .  .  .  .  .  .  .  .  .  .  .  .  .  .  .  .  .  .  .  .  .  .  .  .  .  .  .  .  .  .  .  .  .  .  .  .  .  .  .  .  .  .  .  .  .  .  .  .  .  .  .  .  .  .  .  .  .  .  .  .  .  .  .  .  .  .  .  .  .  .  .  .  .  .  .  .  .  .  .  .  .  .  .  .  .  .  .  .  .  .  .  .  .  .  .  .  .  .  .  .  .  .  .  .  .  .  .  .  .  .  .  .  .  .  .  .  .  .  .  .  .  .  .  .  .  .  .  .  .  .  .  .  .  .  .  .  .  .  .  .  .  .  .  .  .  .  .  .  .  .  .  .  .  .  .  .  .  .  .  .  .  .  .  .  .  .  .  .  .  .  .  .  .  .  .  .  .  .  .  .  .  .  .  .  .  .  .  .  .  .  .  .  .  .  .  .  .  .  .  .  .  .  .  .  .  .  .  .  .  .  .  .  .  .  .  .  .  .  .  .  .  .  .  .  .  .  .  .  .  .  .  .  .  .  .  .  .  .  .  .  .  .  .  .  .  .  .  .  .  .  .  .  ",
".  .  .  .  .  .  .  .  .  .  .  .  .  .  .  .  .  .  .  .  .  .  .  .  .  .  .  .  .  .  .  .  .  .  .  .  .  .  .  .  .  .  .  .  .  .  .  .  .  .  .  .  .  .  .  .  .  .  .  .  .  .  .  .  .  .  .  .  .  .  .  .  .  .  .  .  .  .  .  .  .  .  .  .  .  .  .  .  .  .  .  .  .  .  .  .  .  .  .  .  .  .  .  .  .  .  .  .  .  .  .  .  .  .  .  .  .  .  .  .  .  .  .  .  .  .  .  .  .  .  .  .  .  .  .  .  .  .  .  .  .  .  .  .  .  .  .  .  .  .  .  .  .  .  .  .  .  .  .  .  .  .  .  .  .  .  .  .  .  .  .  .  .  .  .  .  .  .  .  .  .  .  .  .  .  .  .  .  .  .  .  .  .  .  .  .  .  .  .  .  .  .  .  .  .  .  .  .  .  .  .  .  .  .  .  .  .  .  .  .  .  .  .  .  .  .  .  .  .  .  .  .  .  .  .  .  .  .  .  .  .  .  .  .  .  .  .  .  .  .  .  .  .  .  .  .  .  .  .  .  .  .  .  .  .  .  .  .  .  .  .  .  .  .  .  .  .  .  .  .  .  .  .  .  .  .  .  .  .  .  .  .  .  .  .  .  .  .  .  .  .  .  .  .  .  .  .  .  .  .  .  .  .  .  .  .  .  .  .  .  .  .  .  .  .  .  .  .  .  .  .  .  .  .  .  .  .  .  .  .  .  .  .  .  .  .  .  .  .  .  .  .  .  .  .  .  .  .  .  .  .  .  .  .  .  .  .  .  .  .  .  .  .  .  .  .  .  .  .  .  .  .  .  .  .  .  .  .  .  .  .  .  ",
".  .  .  .  .  .  .  .  .  .  .  .  .  .  .  .  .  .  .  .  .  .  .  .  .  .  .  .  .  .  .  .  .  .  .  .  .  .  .  .  .  .  .  .  .  .  .  .  .  .  .  .  .  .  .  .  .  .  .  .  .  .  .  .  .  .  .  .  .  .  .  .  .  .  .  .  .  .  .  .  .  .  .  .  .  .  .  .  .  .  .  .  .  .  .  .  .  .  .  .  .  .  .  .  .  .  .  .  .  .  .  .  .  .  .  .  .  .  .  .  .  .  .  .  .  .  .  .  .  .  .  .  .  .  .  .  .  .  .  .  .  .  .  .  .  .  .  .  .  .  .  .  .  .  .  .  .  .  .  .  .  .  .  .  .  .  .  .  .  .  .  .  .  .  .  .  .  .  .  .  .  .  .  .  .  .  .  .  .  .  .  .  .  .  .  .  .  .  .  .  .  .  .  .  .  .  .  .  .  .  .  .  .  .  .  .  .  .  .  .  .  .  .  .  .  .  .  .  .  .  .  .  .  .  .  .  .  .  .  .  .  .  .  .  .  .  .  .  .  .  .  .  .  .  .  .  .  .  .  .  .  .  .  .  .  .  .  .  .  .  .  .  .  .  .  .  .  .  .  .  .  .  .  .  .  .  .  .  .  .  .  .  .  .  .  .  .  .  .  .  .  .  .  .  .  .  .  .  .  .  .  .  .  .  .  .  .  .  .  .  .  .  .  .  .  .  .  .  .  .  .  .  .  .  .  .  .  .  .  .  .  .  .  .  .  .  .  .  .  .  .  .  .  .  .  .  .  .  .  .  .  .  .  .  .  .  .  .  .  .  .  .  .  .  .  .  .  .  .  .  .  .  .  .  .  .  .  .  .  .  .  .  ",
".  .  .  .  .  .  .  .  .  .  .  .  .  .  .  .  .  .  .  .  .  .  .  .  .  .  .  .  .  .  .  .  .  .  .  .  .  .  .  .  .  .  .  .  .  .  .  .  .  .  .  .  .  .  .  .  .  .  .  .  .  .  .  .  .  .  .  .  .  .  .  .  .  .  .  .  .  .  .  .  .  .  .  .  .  .  .  .  .  .  .  .  .  .  .  .  .  .  .  .  .  .  .  .  .  .  .  .  .  .  .  .  .  .  .  .  .  .  .  .  .  .  .  .  .  .  .  .  .  .  .  .  .  .  .  .  .  .  .  .  .  .  .  .  .  .  .  .  .  .  .  .  .  .  .  .  .  .  .  .  .  .  .  .  .  .  .  .  .  .  .  .  .  .  .  .  .  .  .  .  .  .  .  .  .  .  .  .  .  .  .  .  .  .  .  .  .  .  .  .  .  .  .  .  .  .  .  .  .  .  .  .  .  .  .  .  .  .  .  .  .  .  .  .  .  .  .  .  .  .  .  .  .  .  .  .  .  .  .  .  .  .  .  .  .  .  .  .  .  .  .  .  .  .  .  .  .  .  .  .  .  .  .  .  .  .  .  .  .  .  .  .  .  .  .  .  .  .  .  .  .  .  .  .  .  .  .  .  .  .  .  .  .  .  .  .  .  .  .  .  .  .  .  .  .  .  .  .  .  .  .  .  .  .  .  .  .  .  .  .  .  .  .  .  .  .  .  .  .  .  .  .  .  .  .  .  .  .  .  .  .  .  .  .  .  .  .  .  .  .  .  .  .  .  .  .  .  .  .  .  .  .  .  .  .  .  .  .  .  .  .  .  .  .  .  .  .  .  .  .  .  .  .  .  .  .  .  .  .  .  .  .  ",
".  .  .  .  .  .  .  .  .  .  .  .  .  .  .  .  .  .  .  .  .  .  .  .  .  .  .  .  .  .  .  .  .  .  .  .  .  .  .  .  .  .  .  .  .  .  .  .  .  .  .  .  .  .  .  .  .  .  .  .  .  .  .  .  .  .  .  .  .  .  .  .  .  .  .  .  .  .  .  .  .  .  .  .  .  .  .  .  .  .  .  .  .  .  .  .  .  .  .  .  .  .  .  .  .  .  .  .  .  .  .  .  .  .  .  .  .  .  .  .  .  .  .  .  .  .  .  .  .  .  .  .  .  .  .  .  .  .  .  .  .  .  .  .  .  .  .  .  .  .  .  .  .  .  .  .  .  .  .  .  .  .  .  .  .  .  .  .  .  .  .  .  .  .  .  .  .  .  .  .  .  .  .  .  .  .  .  .  .  .  .  .  .  .  .  .  .  .  .  .  .  .  .  .  .  .  .  .  .  .  .  .  .  .  .  .  .  .  .  .  .  .  .  .  .  .  .  .  .  .  .  .  .  .  .  .  .  .  .  .  .  .  .  .  .  .  .  .  .  .  .  .  .  .  .  .  .  .  .  .  .  .  .  .  .  .  .  .  .  .  .  .  .  .  .  .  .  .  .  .  .  .  .  .  .  .  .  .  .  .  .  .  .  .  .  .  .  .  .  .  .  .  .  .  .  .  .  .  .  .  .  .  .  .  .  .  .  .  .  .  .  .  .  .  .  .  .  .  .  .  .  .  .  .  .  .  .  .  .  .  .  .  .  .  .  .  .  .  .  .  .  .  .  .  .  .  .  .  .  .  .  .  .  .  .  .  .  .  .  .  .  .  .  .  .  .  .  .  .  .  .  .  .  .  .  .  .  .  .  .  .  .  ",
".  .  .  .  .  .  .  .  .  .  .  .  .  .  .  .  .  .  .  .  .  .  .  .  .  .  .  .  .  .  .  .  .  .  .  .  .  .  .  .  .  .  .  .  .  .  .  .  .  .  .  .  .  .  .  .  .  .  .  .  .  .  .  .  .  .  .  .  .  .  .  .  .  .  .  .  .  .  .  .  .  .  .  .  .  .  .  .  .  .  .  .  .  .  .  .  .  .  .  .  .  .  .  .  .  .  .  .  .  .  .  .  .  .  .  .  .  .  .  .  .  .  .  .  .  .  .  .  .  .  .  .  .  .  .  .  .  .  .  .  .  .  .  .  .  .  .  .  .  .  .  .  .  .  .  .  .  .  .  .  .  .  .  .  .  .  .  .  .  .  .  .  .  .  .  .  .  .  .  .  .  .  .  .  .  .  .  .  .  .  .  .  .  .  .  .  .  .  .  .  .  .  .  .  .  .  .  .  .  .  .  .  .  .  .  .  .  .  .  .  .  .  .  .  .  .  .  .  .  .  .  .  .  .  .  .  .  .  .  .  .  .  .  .  .  .  .  .  .  .  .  .  .  .  .  .  .  .  .  .  .  .  .  .  .  .  .  .  .  .  .  .  .  .  .  .  .  .  .  .  .  .  .  .  .  .  .  .  .  .  .  .  .  .  .  .  .  .  .  .  .  .  .  .  .  .  .  .  .  .  .  .  .  .  .  .  .  .  .  .  .  .  .  .  .  .  .  .  .  .  .  .  .  .  .  .  .  .  .  .  .  .  .  .  .  .  .  .  .  .  .  .  .  .  .  .  .  .  .  .  .  .  .  .  .  .  .  .  .  .  .  .  .  .  .  .  .  .  .  .  .  .  .  .  .  .  .  .  .  .  .  .  ",
".  .  .  .  .  .  .  .  .  .  .  .  .  .  .  .  .  .  .  .  .  .  .  .  .  .  .  .  .  .  .  .  .  .  .  .  .  .  .  .  .  .  .  .  .  .  .  .  .  .  .  .  .  .  .  .  .  .  .  .  .  .  .  .  .  .  .  .  .  .  .  .  .  .  .  .  .  .  .  .  .  .  .  .  .  .  .  .  .  .  .  .  .  .  .  .  .  .  .  .  .  .  .  .  .  .  .  .  .  .  .  .  .  .  .  .  .  .  .  .  .  .  .  .  .  .  .  .  .  .  .  .  .  .  .  .  .  .  .  .  .  .  .  .  .  .  .  .  .  .  .  .  .  .  .  .  .  .  .  .  .  .  .  .  .  .  .  .  .  .  .  .  .  .  .  .  .  .  .  .  .  .  .  .  .  .  .  .  .  .  .  .  .  .  .  .  .  .  .  .  .  .  .  .  .  .  .  .  .  .  .  .  .  .  .  .  .  .  .  .  .  .  .  .  .  .  .  .  .  .  .  .  .  .  .  .  .  .  .  .  .  .  .  .  .  .  .  .  .  .  .  .  .  .  .  .  .  .  .  .  .  .  .  .  .  .  .  .  .  .  .  .  .  .  .  .  .  .  .  .  .  .  .  .  .  .  .  .  .  .  .  .  .  .  .  .  .  .  .  .  .  .  .  .  .  .  .  .  .  .  .  .  .  .  .  .  .  .  .  .  .  .  .  .  .  .  .  .  .  .  .  .  .  .  .  .  .  .  .  .  .  .  .  .  .  .  .  .  .  .  .  .  .  .  .  .  .  .  .  .  .  .  .  .  .  .  .  .  .  .  .  .  .  .  .  .  .  .  .  .  .  .  .  .  .  .  .  .  .  .  .  .  ",
".  .  .  .  .  .  .  .  .  .  .  .  .  .  .  .  .  .  .  .  .  .  .  .  .  .  .  .  .  .  .  .  .  .  .  .  .  .  .  .  .  .  .  .  .  .  .  .  .  .  .  .  .  .  .  .  .  .  .  .  .  .  .  .  .  .  .  .  .  .  .  .  .  .  .  .  .  .  .  .  .  .  .  .  .  .  .  .  .  .  .  .  .  .  .  .  .  .  .  .  .  .  .  .  .  .  .  .  .  .  .  .  .  .  .  .  .  .  .  .  .  .  .  .  .  .  .  .  .  .  .  .  .  .  .  .  .  .  .  .  .  .  .  .  .  .  .  .  .  .  .  .  .  .  .  .  .  .  .  .  .  .  .  .  .  .  .  .  .  .  .  .  .  .  .  .  .  .  .  .  .  .  .  .  .  .  .  .  .  .  .  .  .  .  .  .  .  .  .  .  .  .  .  .  .  .  .  .  .  .  .  .  .  .  .  .  .  .  .  .  .  .  .  .  .  .  .  .  .  .  .  .  .  .  .  .  .  .  .  .  .  .  .  .  .  .  .  .  .  .  .  .  .  .  .  .  .  .  .  .  .  .  .  .  .  .  .  .  .  .  .  .  .  .  .  .  .  .  .  .  .  .  .  .  .  .  .  .  .  .  .  .  .  .  .  .  .  .  .  .  .  .  .  .  .  .  .  .  .  .  .  .  .  .  .  .  .  .  .  .  .  .  .  .  .  .  .  .  .  .  .  .  .  .  .  .  .  .  .  .  .  .  .  .  .  .  .  .  .  .  .  .  .  .  .  .  .  .  .  .  .  .  .  .  .  .  .  .  .  .  .  .  .  .  .  .  .  .  .  .  .  .  .  .  .  .  .  .  .  .  .  .  "};
