/* XPM */
static char *meteor[] = {
/* columns rows colors chars-per-pixel */
"32 32 7 1",
"  c #000000",
". c #130D0C",
"X c #130D0C",
"o c #1D1412",
"O c #372826",
"+ c #513F3B",
"@ c #614744",
/* pixels */
"                                ",
"                                ",
"          ........              ",
"         .@@@ooOOO...           ",
"        .@++++ooo+@@@.          ",
"       .O+++++++++++@.          ",
"      .OO++++OOO++++oO.         ",
"      .OO+++oOOOO+++oOO..       ",
"      .OO+++oOOOO+++ooOO@.      ",
"      .OO+++oOOOO++++oo++@.     ",
"      .OO+++oOOO+++++++++@.     ",
"     .OOO+++ooOO++++++++++@.    ",
"     .OOOO+++oo+++++++OO++@.    ",
"     .OOOO+++++++++++oOOO+@.    ",
"     .OOOO+++++++++++oOOOO@.    ",
"     .OOOO+++++OO++++oOOOO@.    ",
"     .OOOO++++oOO++++oOOOO.     ",
"     .OOOOO+++oOO+++ooOOOO.     ",
"     .OOOOOO++oOO+++oooOO@.     ",
"     .OOOOOOO++o++++++oo+@.     ",
"      .OOOOOOO+++++++++++@.     ",
"      .OOOOOOOO+++++++++@.      ",
"      .OOXoOOOOO++++++++@.      ",
"      .OOXoooOOOO+++++++@.      ",
"      .OOXoooOOOOOOOO+++@.      ",
"       .OXXooOOXooOOOOOO.       ",
"       .OOXXOOOXXooOOOOO.       ",
"        .OOOOOOOXXXOOOO.        ",
"         ..............         ",
"                                ",
"                                ",
"                                "
};
