/* XPM */
static char *meteor_double[] = {
/* columns rows colors chars-per-pixel */
"64 64 32 1 ",
"  c #000000",
". c #090706",
"X c #0B0807",
"o c #0D0909",
"O c #140E0D",
"+ c #16100F",
"@ c #19110F",
"# c #171110",
"$ c #1B1312",
"% c #211715",
"& c #221816",
"* c #251A18",
"= c #291E1C",
"- c #2D201E",
"; c #2E2220",
": c #332523",
"> c #372826",
", c #382927",
"< c #3C2C2A",
"1 c #402F2C",
"2 c #42322F",
"3 c #453532",
"4 c #493634",
"5 c #4B3936",
"6 c #4E3C38",
"7 c #513F3B",
"8 c #53403C",
"9 c #59433F",
"0 c #5D4542",
"q c #604744",
"w c #614845",
"e c None",
/* pixels */
"eeeeeeeeeeeeeeeeeeeeeeeeeeeeeeeeeeeeeeeeeeeeeeeeeeeeeeeeeeeeeeee",
"eeeeeeeeeeeeeeeeeeeeeeeeeeeeeeeeeeeeeeeeeeeeeeeeeeeeeeeeeeeeeeee",
"eeeeeeeeeeeeeeeeeeeeeeeeeeeeeeeeeeeeeeeeeeeeeeeeeeeeeeeeeeeeeeee",
"eeeeeeeeeeeeeeeeeeeeeeeeeeeeeeeeeeeeeeeeeeeeeeeeeeeeeeeeeeeeeeee",
"eeeeeeeeeeeeeeeeeeee                eeeeeeeeeeeeeeeeeeeeeeeeeeee",
"eeeeeeeeeeeeeeeeeeee$#$+#O....ooooooeeeeeeeeeeeeeeeeeeeeeeeeeeee",
"eeeeeeeeeeeeeeeeee +<3834<%OO$*=;==$o     eeeeeeeeeeeeeeeeeeeeee",
"eeeeeeeeeeeeeeeeee+-8099w7,*$%=:;><>&+##$Oeeeeeeeeeeeeeeeeeeeeee",
"eeeeeeeeeeeeeeee.O,88888886<=#&&&-2554454,# eeeeeeeeeeeeeeeeeeee",
"eeeeeeeeeeeeeeeeX&8888888883:==*=:58000ww5$ eeeeeeeeeeeeeeeeeeee",
"eeeeeeeeeeeeee X&>6888888886333333688880w5# eeeeeeeeeeeeeeeeeeee",
"eeeeeeeeeeeeeeX#-<588888866566666888888871$Xeeeeeeeeeeeeeeeeeeee",
"eeeeeeeeeeee o%-:<686888862<<<<368888884>==&o eeeeeeeeeeeeeeeeee",
"eeeeeeeeeeee o=,><58888632<>>>><36686883=&:=$Xeeeeeeeeeeeeeeeeee",
"eeeeeeeeeeee o=,<<588883:=;<>>>><3568883=%:>-%o   eeeeeeeeeeeeee",
"eeeeeeeeeeee o=,:<586883=&->>>>>><58888<=%=:,;$oO+eeeeeeeeeeeeee",
"eeeeeeeeeeee o=>><66770<=&;>>>>>:<888883-$$-::-:2,+ eeeeeeeeeeee",
"eeeeeeeeeeee o=,,<677703=&;<>>>>:<388883:*%$-:<305=Oeeeeeeeeeeee",
"eeeeeeeeeeee o-,,<67886<=&;>>>>>><3888833<*$$-<8775,O eeeeeeeeee",
"eeeeeeeeeeee o=>,<668803=&;>>>>><<38888885;=-:3870w5$ eeeeeeeeee",
"eeeeeeeeeeee X=,><<8888<=&;<>>><88888888883<336870w4# eeeeeeeeee",
"eeeeeeeeeeeeX#-,><88860<=&=:>>><38883888888888887704=Oeeeeeeeeee",
"eeeeeeeeee X&;:,><00880<=#&*:>><388888888888888877775<+ eeeeeeee",
"eeeeeeeeee o-,,>><<<8888:=#&=:,383888858888855557770w4# eeeeeeee",
"eeeeeeeeee o=,,>>><<67765,*#$;368888838888862<<25879w4# eeeeeeee",
"eeeeeeeeee o=,,,>><<677775:==:37888888888632,>><456804# eeeeeeee",
"eeeeeeeeee o=,,>>>><5777763333678888838883:-:>>,<350w4+ eeeeeeee",
"eeeeeeeeee o=,,>>>><5777776077778838888882=%;,>>>,3704$ eeeeeeee",
"eeeeeeeeee o=,,,>>><8066777777778888888873=%:,>>>>,475# eeeeeeee",
"eeeeeeeeee o=,,,>>,<3506777777658<88888873=%;,>>>>>204# eeeeeeee",
"eeeeeeeeee o=,,,>>><56667777763<><8888<883=%;>>>>>>104$ eeeeeeee",
"eeeeeeeeee o=,,,>>><5006777652>>><38888873=%:>>>>>><4,+ eeeeeeee",
"eeeeeeeeee o-,,>,,,<58888884:-:>><88888883=&;,,>>>,;$+eeeeeeeeee",
"eeeeeeeeee o=,,>:,:<35588882=%;,,<<888835<*&;,>>>,,=O eeeeeeeeee",
"eeeeeeeeee o=>>>,,,,<<888882=%;,><888883>*$*;,,>,,,=o eeeeeeeeee",
"eeeeeeeeee X=,,>>,,,,<358882=%;,><88888<=##*-:>,>,2;O eeeeeeeeee",
"eeeeeeeeee o=>>>>>,::,<25882=&;,,<55888<=##$*=:>><8<+.eeeeeeeeee",
"eeeeeeeeee o-,,>>>,,>>><2883:=-:<<588885:==*&#=><383# eeeeeeeeee",
"eeeeeeeeee o-,>>:,,:>>>,<2584<==<8888888333<*##-2898# eeeeeeeeee",
"eeeeeeeeee o&;:>,,,,>>>>>,2874::388858888885:==:38w8#.eeeeeeeeee",
"eeeeeeeeeeeeX#->,,,,,>>>>,<1775488888866888633336904$ eeeeeeeeee",
"eeeeeeeeeeee o-,,,,,,>>>>>><35778886688886888888886,+ eeeeeeeeee",
"eeeeeeeeeeee o->,,,,,,,:>>>><277868688688868777805-Oeeeeeeeeeeee",
"eeeeeeeeeeee o=>,:---:>,>>>>>,35688868886688777805$ eeeeeeeeeeee",
"eeeeeeeeeeee X-,,:&@$-:>>>>>>>115888688688777670q4$ eeeeeeeeeeee",
"eeeeeeeeeeee X-,,-@+$&---:>>>>><368888888677887804# eeeeeeeeeeee",
"eeeeeeeeeeee o->,-$+@%&&&=:>>>>,<35888888887777804# eeeeeeeeeeee",
"eeeeeeeeeeee o-<,;$+@$$$$&:>>>>>:<35353655687770w4# eeeeeeeeeeee",
"eeeeeeeeeeee o-,,;$+$$%$$&:>>>>>>,<<<<<<<<688660w5$ eeeeeeeeeeee",
"eeeeeeeeeeee o&;:;$O+$$$$&;>>::-:;::>,,:,<3666465,O eeeeeeeeeeee",
"eeeeeeeeeeeeeeX#;;$OOO$$@&:>,:&$$*&=:,>>,,<<<<<,&Oeeeeeeeeeeeeee",
"eeeeeeeeeeeeee o=:&$OO$$%=:>,-@OO$$&=:>,,,:>>,,=o eeeeeeeeeeeeee",
"eeeeeeeeeeeeee o=,:*OOO$=:>,,-$OO@$$&=:,,,>>>>,;o eeeeeeeeeeeeee",
"eeeeeeeeeeeeee o&;>:&$$&:,,,,:&+OO@$$&;,,,,,,>;$o eeeeeeeeeeeeee",
"eeeeeeeeeeeeeeeeX#;,:;:::,,,,>:=@OO+#$;,,,,,,;#Xeeeeeeeeeeeeeeee",
"eeeeeeeeeeeeeeee X&-======-=====+oooo#$;=====%o eeeeeeeeeeeeeeee",
"eeeeeeeeeeeeeeeeeeoooooooooooooX.  . .XOooooooeeeeeeeeeeeeeeeeee",
"eeeeeeeeeeeeeeeeee                            eeeeeeeeeeeeeeeeee",
"eeeeeeeeeeeeeeeeeeeeeeeeeeeeeeeeeeeeeeeeeeeeeeeeeeeeeeeeeeeeeeee",
"eeeeeeeeeeeeeeeeeeeeeeeeeeeeeeeeeeeeeeeeeeeeeeeeeeeeeeeeeeeeeeee",
"eeeeeeeeeeeeeeeeeeeeeeeeeeeeeeeeeeeeeeeeeeeeeeeeeeeeeeeeeeeeeeee",
"eeeeeeeeeeeeeeeeeeeeeeeeeeeeeeeeeeeeeeeeeeeeeeeeeeeeeeeeeeeeeeee",
"eeeeeeeeeeeeeeeeeeeeeeeeeeeeeeeeeeeeeeeeeeeeeeeeeeeeeeeeeeeeeeee",
"eeeeeeeeeeeeeeeeeeeeeeeeeeeeeeeeeeeeeeeeeeeeeeeeeeeeeeeeeeeeeeee"
};
