/* XPM */
static char *mouse1[] = {
/* columns rows colors chars-per-pixel */
"40 60 103 2 ",
"   c None",
".  c #1B1815",
"X  c #1B1816",
"o  c #3A2617",
"O  c #362418",
"+  c #34271E",
"@  c #212121",
"#  c #222222",
"$  c #232323",
"%  c #2B2B2B",
"&  c #2D2C2B",
"*  c #2C2C2C",
"=  c #2E2E2E",
"-  c #2E2E2F",
";  c #2F2F2F",
":  c #3A2C22",
">  c #3B2D23",
",  c #3D2F25",
"<  c #3E2F25",
"1  c #303030",
"2  c #313130",
"3  c #313131",
"4  c #323232",
"5  c #343434",
"6  c #353535",
"7  c #373737",
"8  c #3A3A3A",
"9  c #3E3E3E",
"0  c #532D13",
"q  c #5A3012",
"w  c #483C33",
"e  c #55453A",
"r  c #5B4A3D",
"t  c #5E4C3F",
"y  c #3D4042",
"u  c #404040",
"i  c #404344",
"p  c #444444",
"a  c #494949",
"s  c #494A4A",
"d  c #4B4B4B",
"f  c #4C4C4C",
"g  c #4D4D4D",
"h  c #4E4D4D",
"j  c #4F4F4F",
"k  c #505050",
"l  c #515151",
"z  c #525252",
"x  c #535353",
"c  c #545454",
"v  c #555454",
"b  c #555555",
"n  c #565656",
"m  c #565757",
"M  c #575757",
"N  c #585757",
"B  c #565758",
"V  c #575758",
"C  c #575858",
"Z  c #585858",
"A  c #595959",
"S  c #595A5A",
"D  c #5A5A5A",
"F  c #614F42",
"G  c #645144",
"H  c #685547",
"J  c #6B5748",
"K  c #6C5849",
"L  c #6C584A",
"P  c #9B4E18",
"I  c #A15018",
"U  c #A55219",
"Y  c #BD5E1D",
"T  c #C4621E",
"R  c #CA641D",
"E  c #D76B20",
"W  c #D96C20",
"Q  c #DC6D20",
"!  c #DC6E21",
"~  c #DD6E21",
"^  c #DF6E21",
"/  c #F27824",
"(  c #F47924",
")  c #F67A25",
"_  c #F67C26",
"`  c #F87B25",
"'  c #FA7C25",
"]  c #F87C26",
"[  c #F87D26",
"{  c #F97D26",
"}  c #FA7D26",
"|  c #FB7E27",
" . c #FC7D25",
".. c #FD7E25",
"X. c #FC7E27",
"o. c #FD7E27",
"O. c #FD7F27",
"+. c #FE7E26",
"@. c #FF7F26",
"#. c #FE7F27",
"$. c #FF7F27",
"%. c #FF8027",
"&. c #FF8128",
/* pixels */
"                                                                                ",
"                                                                                ",
"                                                                                ",
"                                                                                ",
"                              #.#.%.W : m Z N m                                 ",
"                          #.#.#.#.%.W : B Z Z Z Z m                             ",
"                      _ #.#.#.#.#.&.W : m Z Z Z Z Z m m                         ",
"                    #.#.#.#.#.#.#.Y 0 X * m Z Z Z Z Z Z m                       ",
"                  _ #.#.#.#.#.%.E O i j 3 * m N Z Z Z Z Z                       ",
"                  #.#.#.#.#.#.&.I 3 Z Z m @ m Z Z Z Z Z Z m                     ",
"                #.#.#.#.#.#.#.&.P 3 Z m m @ j Z Z Z Z Z Z Z m                   ",
"                #.#.#.#.#.#.#.&.P 3 Z m m @ j Z Z Z Z Z Z Z N                   ",
"              #.#.#.#.#.#.#.#.&.P 3 Z Z m @ j Z Z Z Z Z Z Z Z m                 ",
"              #.#.#.#.#.#.#.#.&.P 3 Z Z m @ j Z Z Z Z Z Z Z Z m                 ",
"              #.#.#.#.#.#.#.#.&.P 3 Z Z m @ j Z Z Z Z Z Z Z Z m                 ",
"              #.#.#.#.#.#.#.#.&.I 3 Z Z m @ m Z Z Z Z Z Z Z Z Z                 ",
"              #.#.#.#.#.#.#.#.%.W o y j * * m Z Z Z Z Z Z Z Z Z                 ",
"              #.#.#.#.#.#.#.#.#.&.T q X * m Z Z Z Z Z Z Z Z Z Z                 ",
"              #.#.#.#.#.#.#.#.#.#.&.W : B Z Z Z Z Z Z Z Z Z Z Z                 ",
"              #.#.#.#.#.#.#.#.#.%.&.W < C Z Z Z Z Z Z Z Z Z Z Z                 ",
"              #.#.#.#.#.#.#.#._ _ _ R + j j j j j j k m m m m m                 ",
"                K K K J H G F r r e w * * * 3 3 3 3 9 9 i i j j                 ",
"              B C C C C C C C C C C C Z m m m m m N N m N N Z m                 ",
"              Z Z Z Z Z Z Z Z Z Z Z Z Z Z Z Z Z Z Z N N N Z Z N                 ",
"              Z Z Z Z Z Z Z Z Z Z Z Z Z Z Z Z Z Z Z Z Z Z Z Z Z                 ",
"              Z Z Z Z Z Z Z Z Z Z Z Z Z Z Z Z Z Z Z Z Z Z Z Z Z                 ",
"              Z Z Z Z Z Z Z Z Z Z Z Z Z Z Z Z Z Z Z Z Z Z Z Z Z                 ",
"              Z Z Z Z Z Z Z Z Z Z Z Z Z Z Z Z Z Z Z Z Z Z Z Z Z                 ",
"              Z Z Z Z Z Z Z Z Z Z Z Z Z Z Z Z Z Z Z Z Z Z Z Z Z                 ",
"              Z Z Z Z Z Z Z Z Z Z Z Z Z Z Z Z Z Z Z Z Z Z Z Z Z                 ",
"              Z Z Z Z Z Z Z Z Z Z Z Z Z Z Z Z Z Z Z Z Z Z Z Z Z                 ",
"              Z Z Z Z Z Z Z Z Z Z Z Z Z Z Z Z Z Z Z Z Z Z Z Z Z                 ",
"              Z Z Z Z Z Z Z Z Z Z Z Z Z Z Z Z Z Z Z Z Z Z Z Z Z                 ",
"              Z Z Z Z Z Z Z Z Z Z Z Z Z Z Z Z Z Z Z Z Z Z Z Z Z                 ",
"              Z Z Z Z Z Z Z Z Z Z Z Z Z Z Z Z Z Z Z Z Z Z Z Z Z                 ",
"              Z Z Z Z Z Z Z Z Z Z Z Z Z Z Z Z Z Z Z Z Z Z Z Z Z                 ",
"              Z Z Z Z Z Z Z Z Z Z Z Z Z Z Z Z Z Z Z Z Z Z Z Z Z                 ",
"              Z Z Z Z Z Z Z Z Z Z Z Z Z Z Z Z Z Z Z Z Z Z Z Z Z                 ",
"              Z Z Z Z Z Z Z Z Z Z Z Z Z Z Z Z Z Z Z Z Z Z Z Z Z                 ",
"              Z Z Z Z Z Z Z Z Z Z Z Z Z Z Z Z Z Z Z Z Z Z Z Z Z                 ",
"              Z Z Z Z Z Z Z Z Z Z Z Z Z Z Z Z Z Z Z Z Z Z Z Z Z                 ",
"              Z Z Z Z Z Z Z Z Z Z Z Z Z Z Z Z Z Z Z Z Z Z Z Z Z                 ",
"              Z Z Z Z Z Z Z Z Z Z Z Z Z Z Z Z Z Z Z Z Z Z Z Z Z                 ",
"              Z Z Z Z Z Z Z Z Z Z Z Z Z Z Z Z Z Z Z Z Z Z Z Z Z                 ",
"              Z Z Z Z Z Z Z Z Z Z Z Z Z Z Z Z Z Z Z Z Z Z Z Z Z                 ",
"              Z Z Z Z Z Z Z Z Z Z Z Z Z Z Z Z Z Z Z Z Z Z Z Z Z                 ",
"              Z Z Z Z Z Z Z Z Z Z Z Z Z Z Z Z Z Z Z Z Z Z Z Z N                 ",
"              Z Z Z Z Z Z Z Z Z Z Z Z Z Z Z Z Z Z Z Z Z Z Z Z m                 ",
"              m Z Z Z Z Z Z Z Z Z Z Z Z Z Z Z Z Z Z Z Z Z Z Z m                 ",
"                Z Z Z Z Z Z Z Z Z Z Z Z Z Z Z Z Z Z Z Z Z Z Z                   ",
"                m Z Z Z Z Z Z Z Z Z Z Z Z Z Z Z Z Z Z Z Z Z m                   ",
"                  Z Z Z Z Z Z Z Z Z Z Z Z Z Z Z Z Z Z Z Z Z                     ",
"                  m Z Z Z Z Z Z Z Z Z Z Z Z Z Z Z Z Z Z Z                       ",
"                    m Z Z Z Z Z Z Z Z Z Z Z Z Z Z Z Z Z m                       ",
"                      m Z Z Z Z Z Z Z Z Z Z Z Z Z Z Z m                         ",
"                          Z Z Z Z Z Z Z Z Z Z Z Z Z                             ",
"                              Z Z Z Z Z Z Z Z N                                 ",
"                                      m                                         ",
"                                                                                ",
"                                                                                "
};
