/* XPM */
static char * planeta[] = {
"416 423 11374 3",
"   	c #000000",
".  	c #000000",
"+  	c #030508",
"@  	c #010616",
"#  	c #010512",
"$  	c #060203",
"%  	c #060204",
"&  	c #060205",
"*  	c #040306",
"=  	c #000001",
"-  	c #020300",
";  	c #131A60",
">  	c #29839C",
",  	c #7D8B93",
"'  	c #86868C",
")  	c #878881",
"!  	c #8A652D",
"~  	c #611C26",
"{  	c #02040B",
"]  	c #060900",
"^  	c #1428AC",
"/  	c #45CDE9",
"(  	c #D0E2E5",
"_  	c #DFDFE9",
":  	c #DEE4D6",
"<  	c #DAB64A",
"[  	c #992428",
"}  	c #0B0507",
"|  	c #060800",
"1  	c #162FB6",
"2  	c #46CCE9",
"3  	c #D3E5E7",
"4  	c #E0E0E9",
"5  	c #DFE3D7",
"6  	c #DBBF4F",
"7  	c #972229",
"8  	c #030509",
"9  	c #010103",
"0  	c #07091A",
"a  	c #060716",
"b  	c #070B00",
"c  	c #1730B7",
"d  	c #E1E1E9",
"e  	c #992127",
"f  	c #100404",
"g  	c #0F1322",
"h  	c #192133",
"i  	c #3A3326",
"j  	c #141021",
"k  	c #010205",
"l  	c #0B0C0C",
"m  	c #13070F",
"n  	c #100D1A",
"o  	c #0F0F1D",
"p  	c #0F0F1C",
"q  	c #051033",
"r  	c #060F32",
"s  	c #11050F",
"t  	c #110611",
"u  	c #080E32",
"v  	c #180E12",
"w  	c #162DB8",
"x  	c #43CCE9",
"y  	c #CDDFE2",
"z  	c #DBDFE8",
"A  	c #D9DDD0",
"B  	c #D9AE41",
"C  	c #991D1E",
"D  	c #0A1130",
"E  	c #031037",
"F  	c #0E0F1F",
"G  	c #061031",
"H  	c #0D0F23",
"I  	c #0A102E",
"J  	c #101724",
"K  	c #111725",
"L  	c #0E1321",
"M  	c #090C1C",
"N  	c #0F1422",
"O  	c #0B0E1E",
"P  	c #111825",
"Q  	c #111925",
"R  	c #13151F",
"S  	c #0D1521",
"T  	c #050715",
"U  	c #03030D",
"V  	c #11203D",
"W  	c #273148",
"X  	c #655621",
"Y  	c #231523",
"Z  	c #020307",
"`  	c #090B1F",
" . 	c #0A3F9C",
".. 	c #2E88A4",
"+. 	c #448A9C",
"@. 	c #438A9C",
"#. 	c #438A9E",
"$. 	c #438A9D",
"%. 	c #458EA0",
"&. 	c #448C9E",
"*. 	c #3E90B6",
"=. 	c #4DABC3",
"-. 	c #76B2C1",
";. 	c #7AB3C3",
">. 	c #79B2BD",
",. 	c #7BA5A1",
"'. 	c #5C8E9C",
"). 	c #448D9C",
"!. 	c #478977",
"~. 	c #3F5850",
"{. 	c #2B4E4B",
"]. 	c #294E4A",
"^. 	c #274D49",
"/. 	c #2A4E4A",
"(. 	c #284D4A",
"_. 	c #2B4F4B",
":. 	c #2C4F48",
"<. 	c #2B413E",
"[. 	c #26323D",
"}. 	c #24303A",
"|. 	c #29282E",
"1. 	c #1F1B24",
"2. 	c #020204",
"3. 	c #03040E",
"4. 	c #0C1129",
"5. 	c #151C2D",
"6. 	c #2E2C2C",
"7. 	c #0C0814",
"8. 	c #0E1427",
"9. 	c #1645AC",
"0. 	c #3EA1BC",
"a. 	c #53A7BA",
"b. 	c #50A7BB",
"c. 	c #50A7BC",
"d. 	c #51A7BB",
"e. 	c #52A7BB",
"f. 	c #51A4B8",
"g. 	c #4FA3B7",
"h. 	c #4BA2B6",
"i. 	c #4CA3B7",
"j. 	c #4FA6BB",
"k. 	c #53A7BB",
"l. 	c #4FA7BA",
"m. 	c #4FA089",
"n. 	c #4B6A51",
"o. 	c #345653",
"p. 	c #2F5854",
"q. 	c #2F584D",
"r. 	c #2D4540",
"s. 	c #293540",
"t. 	c #293640",
"u. 	c #293531",
"v. 	c #32211B",
"w. 	c #0B0919",
"x. 	c #050514",
"y. 	c #02020A",
"z. 	c #000101",
"A. 	c #0E1426",
"B. 	c #3B9FBA",
"C. 	c #4EA3B7",
"D. 	c #4FA4B8",
"E. 	c #4FA4B9",
"F. 	c #4FA3B8",
"G. 	c #4FA5B7",
"H. 	c #4FA086",
"I. 	c #315551",
"J. 	c #2E5551",
"K. 	c #2E5552",
"L. 	c #2E554C",
"M. 	c #2D4440",
"N. 	c #29343F",
"O. 	c #27353E",
"P. 	c #2A3534",
"Q. 	c #302121",
"R. 	c #0A0819",
"S. 	c #03040F",
"T. 	c #050615",
"U. 	c #0B0F22",
"V. 	c #121D2B",
"W. 	c #17222F",
"X. 	c #152232",
"Y. 	c #11203C",
"Z. 	c #10203D",
"`. 	c #171D2B",
" + 	c #181D26",
".+ 	c #181D28",
"++ 	c #0F2140",
"@+ 	c #131F37",
"#+ 	c #0C2246",
"$+ 	c #1646AC",
"%+ 	c #3CA0BA",
"&+ 	c #4FA4B5",
"*+ 	c #4F6E5C",
"=+ 	c #325D5A",
"-+ 	c #315C5A",
";+ 	c #315C5B",
">+ 	c #305D54",
",+ 	c #2E4B44",
"'+ 	c #2A3644",
")+ 	c #293642",
"!+ 	c #2B3634",
"~+ 	c #2F211E",
"{+ 	c #211620",
"]+ 	c #171C27",
"^+ 	c #161F2C",
"/+ 	c #181A23",
"(+ 	c #181A24",
"_+ 	c #171D29",
":+ 	c #171B25",
"<+ 	c #161F2D",
"[+ 	c #0F1624",
"}+ 	c #0B0C1D",
"|+ 	c #040512",
"1+ 	c #0D112B",
"2+ 	c #0B49A8",
"3+ 	c #3492AE",
"4+ 	c #4894A7",
"5+ 	c #4994A7",
"6+ 	c #439BB9",
"7+ 	c #4CA2B7",
"8+ 	c #4FA4B0",
"9+ 	c #4D9DAD",
"0+ 	c #4B9BAE",
"a+ 	c #4B9BAD",
"b+ 	c #4C9C9A",
"c+ 	c #4D7572",
"d+ 	c #40486E",
"e+ 	c #3E476E",
"f+ 	c #3F4859",
"g+ 	c #3D393E",
"h+ 	c #2A343E",
"i+ 	c #28333F",
"j+ 	c #28353E",
"k+ 	c #26323E",
"l+ 	c #23313D",
"m+ 	c #29353E",
"n+ 	c #21313D",
"o+ 	c #28333E",
"p+ 	c #27333F",
"q+ 	c #2A2427",
"r+ 	c #251720",
"s+ 	c #0A0D1D",
"t+ 	c #172036",
"u+ 	c #184DAE",
"v+ 	c #40A2BC",
"w+ 	c #50A6BB",
"x+ 	c #52A7BA",
"y+ 	c #4FA4BA",
"z+ 	c #4FA5B9",
"A+ 	c #4FA4A3",
"B+ 	c #4E7673",
"C+ 	c #464973",
"D+ 	c #404974",
"E+ 	c #40495A",
"F+ 	c #3E3A3F",
"G+ 	c #2B363F",
"H+ 	c #273541",
"I+ 	c #283440",
"J+ 	c #293542",
"K+ 	c #293541",
"L+ 	c #283542",
"M+ 	c #283541",
"N+ 	c #2A3740",
"O+ 	c #29363F",
"P+ 	c #293329",
"Q+ 	c #2D1B1D",
"R+ 	c #101926",
"S+ 	c #111931",
"T+ 	c #3DA0BA",
"U+ 	c #4FA3B6",
"V+ 	c #2A343F",
"W+ 	c #283540",
"X+ 	c #28343F",
"Y+ 	c #253540",
"Z+ 	c #283228",
"`+ 	c #2F1C1C",
" @ 	c #09101E",
".@ 	c #020306",
"+@ 	c #030407",
"@@ 	c #030306",
"#@ 	c #030408",
"$@ 	c #02040E",
"%@ 	c #04030A",
"&@ 	c #02040F",
"*@ 	c #040818",
"=@ 	c #20172F",
"-@ 	c #4CA3B6",
";@ 	c #4FA6BA",
">@ 	c #4FA3A3",
",@ 	c #2A353F",
"'@ 	c #27343F",
")@ 	c #2E1B1C",
"!@ 	c #1B1926",
"~@ 	c #0F0B1D",
"{@ 	c #060307",
"]@ 	c #050204",
"^@ 	c #040305",
"/@ 	c #090B23",
"(@ 	c #0F3269",
"_@ 	c #25586B",
":@ 	c #2E5865",
"<@ 	c #2D5868",
"[@ 	c #2B596D",
"}@ 	c #2F5865",
"|@ 	c #305869",
"1@ 	c #2C596B",
"2@ 	c #2E5866",
"3@ 	c #2A596F",
"4@ 	c #2B596B",
"5@ 	c #2A5A72",
"6@ 	c #2E6DAF",
"7@ 	c #42A1B9",
"8@ 	c #4EA8C7",
"9@ 	c #66B9C9",
"0@ 	c #8BBAC8",
"a@ 	c #8EBAC9",
"b@ 	c #8EBAC8",
"c@ 	c #8CBFCA",
"d@ 	c #98C4C8",
"e@ 	c #98C4C7",
"f@ 	c #96C1C8",
"g@ 	c #8FBAC9",
"h@ 	c #96B9B4",
"i@ 	c #8A93A4",
"j@ 	c #4C8AA0",
"k@ 	c #498AA1",
"l@ 	c #498AA0",
"m@ 	c #4A8C92",
"n@ 	c #4A6C74",
"o@ 	c #444973",
"p@ 	c #404963",
"q@ 	c #3E3F52",
"r@ 	c #333E55",
"s@ 	c #303C54",
"t@ 	c #313C53",
"u@ 	c #313C54",
"v@ 	c #323E54",
"w@ 	c #313A3A",
"x@ 	c #382429",
"y@ 	c #302228",
"z@ 	c #2B2129",
"A@ 	c #272534",
"B@ 	c #293334",
"C@ 	c #293332",
"D@ 	c #2A2C28",
"E@ 	c #28232B",
"F@ 	c #222630",
"G@ 	c #25242D",
"H@ 	c #21232E",
"I@ 	c #181322",
"J@ 	c #020208",
"K@ 	c #0E1435",
"L@ 	c #1454B0",
"M@ 	c #3F9EB8",
"N@ 	c #4EA2B6",
"O@ 	c #50A2B5",
"P@ 	c #4DA2B6",
"Q@ 	c #4FA2B5",
"R@ 	c #4EA3B6",
"S@ 	c #4AADE1",
"T@ 	c #8BDBE6",
"U@ 	c #D8E0E6",
"V@ 	c #DDDFE6",
"W@ 	c #DDE0E7",
"X@ 	c #DFF5E8",
"Y@ 	c #F1FBE5",
"Z@ 	c #F4FBE5",
"`@ 	c #F3FBE6",
" # 	c #F1FBE7",
".# 	c #F3FBE5",
"+# 	c #F2FBE7",
"@# 	c #F1FBE8",
"## 	c #F1F1E7",
"$# 	c #E1E0E7",
"%# 	c #DDDFE7",
"&# 	c #DFE2E6",
"*# 	c #E3DCA8",
"=# 	c #D27171",
"-# 	c #474871",
";# 	c #3E4771",
"># 	c #3F4871",
",# 	c #404873",
"'# 	c #404973",
")# 	c #3F4974",
"!# 	c #3F4874",
"~# 	c #404874",
"{# 	c #404872",
"]# 	c #3E4872",
"^# 	c #404853",
"/# 	c #3B373F",
"(# 	c #253441",
"_# 	c #283A50",
":# 	c #2C5752",
"<# 	c #2F5753",
"[# 	c #2F574F",
"}# 	c #2F483D",
"|# 	c #26353F",
"1# 	c #2A2D29",
"2# 	c #08091B",
"3# 	c #0E1535",
"4# 	c #1955B0",
"5# 	c #40A1BA",
"6# 	c #4EA4B8",
"7# 	c #50A4B8",
"8# 	c #4BADE0",
"9# 	c #8EDBE8",
"0# 	c #DDE3E8",
"a# 	c #DFE0E8",
"b# 	c #DFDFE8",
"c# 	c #E2FCE8",
"d# 	c #F5FFE7",
"e# 	c #F4FFE8",
"f# 	c #F4F2E7",
"g# 	c #E5E0E8",
"h# 	c #DFE0E9",
"i# 	c #E3DAA4",
"j# 	c #D1726F",
"k# 	c #444873",
"l# 	c #3E4972",
"m# 	c #404972",
"n# 	c #3F4972",
"o# 	c #404852",
"p# 	c #283950",
"q# 	c #2A5553",
"r# 	c #2F564E",
"s# 	c #2D4840",
"t# 	c #27353F",
"u# 	c #28332A",
"v# 	c #301D1C",
"w# 	c #0A0B1C",
"x# 	c #0B0F31",
"y# 	c #1356AE",
"z# 	c #3D9FB8",
"A# 	c #4FA2B6",
"B# 	c #4CA3B9",
"C# 	c #4AADE0",
"D# 	c #DEDFE8",
"E# 	c #E1FCE8",
"F# 	c #F4FFE7",
"G# 	c #F4FEE7",
"H# 	c #F3F1E7",
"I# 	c #E4E0E8",
"J# 	c #DEE0E5",
"K# 	c #E3DB9E",
"L# 	c #3D4872",
"M# 	c #3F4872",
"N# 	c #3F4973",
"O# 	c #404A72",
"P# 	c #404851",
"Q# 	c #2A5453",
"R# 	c #293029",
"S# 	c #221921",
"T# 	c #03030B",
"U# 	c #0F131F",
"V# 	c #0F1522",
"W# 	c #10131F",
"X# 	c #110F14",
"Y# 	c #060B2E",
"Z# 	c #0F020A",
"`# 	c #060B27",
" $ 	c #040D3F",
".$ 	c #0F50AE",
"+$ 	c #3B9DB7",
"@$ 	c #50A2B7",
"#$ 	c #4DA4B8",
"$$ 	c #4AA1B9",
"%$ 	c #4FAFDF",
"&$ 	c #91DCEA",
"*$ 	c #DBE1E8",
"=$ 	c #E0E0E8",
"-$ 	c #E6E0E8",
";$ 	c #DFE0E6",
">$ 	c #E1DAAD",
",$ 	c #D06E6F",
"'$ 	c #4D4370",
")$ 	c #3D4973",
"!$ 	c #3E4973",
"~$ 	c #3F4A73",
"{$ 	c #404B73",
"]$ 	c #404A73",
"^$ 	c #3E4B73",
"/$ 	c #3F4873",
"($ 	c #404751",
"_$ 	c #3B373D",
":$ 	c #27394F",
"<$ 	c #295452",
"[$ 	c #2E5853",
"}$ 	c #2E574E",
"|$ 	c #2B353F",
"1$ 	c #293441",
"2$ 	c #2F2E2E",
"3$ 	c #261119",
"4$ 	c #00092D",
"5$ 	c #000C31",
"6$ 	c #150119",
"7$ 	c #101019",
"8$ 	c #11101A",
"9$ 	c #0F1421",
"0$ 	c #060818",
"a$ 	c #010105",
"b$ 	c #0B1633",
"c$ 	c #10444C",
"d$ 	c #2A4D4B",
"e$ 	c #294C4A",
"f$ 	c #294F77",
"g$ 	c #3184A0",
"h$ 	c #428698",
"i$ 	c #418699",
"j$ 	c #41879B",
"k$ 	c #4592B1",
"l$ 	c #4AA2B7",
"m$ 	c #4CA9D6",
"n$ 	c #86E7E2",
"o$ 	c #D1EBDC",
"p$ 	c #D2E6D9",
"q$ 	c #D2E7D9",
"r$ 	c #D2E9E0",
"s$ 	c #DCF7E9",
"t$ 	c #EFF6E7",
"u$ 	c #F0F6E7",
"v$ 	c #F0FEE7",
"w$ 	c #F4FBE7",
"x$ 	c #F1F6E7",
"y$ 	c #EFF6E6",
"z$ 	c #F0F7D5",
"A$ 	c #ECD6D4",
"B$ 	c #D1D6CB",
"C$ 	c #D0D6CC",
"D$ 	c #CED4CC",
"E$ 	c #C1C4CA",
"F$ 	c #BEC1CC",
"G$ 	c #BEC2CA",
"H$ 	c #C3C6A2",
"I$ 	c #C28249",
"J$ 	c #563B4B",
"K$ 	c #2E3A4F",
"L$ 	c #303C5B",
"M$ 	c #2D4373",
"N$ 	c #3C4973",
"O$ 	c #40496D",
"P$ 	c #3E4468",
"Q$ 	c #3A4468",
"R$ 	c #3C466C",
"S$ 	c #3A4A6B",
"T$ 	c #3B4C6C",
"U$ 	c #3B4C6D",
"V$ 	c #3C4D63",
"W$ 	c #3D4D4E",
"X$ 	c #334F4D",
"Y$ 	c #2D4F4D",
"Z$ 	c #2D504F",
"`$ 	c #2E5278",
" % 	c #35839D",
".% 	c #40869A",
"+% 	c #448C95",
"@% 	c #447D61",
"#% 	c #3A4C4C",
"$% 	c #284C48",
"%% 	c #2A4C4B",
"&% 	c #2A4D49",
"*% 	c #283B2E",
"=% 	c #120A1A",
"-% 	c #03050C",
";% 	c #192334",
">% 	c #124A4F",
",% 	c #2E5952",
"'% 	c #2F5855",
")% 	c #2E5B9B",
"!% 	c #3399BA",
"~% 	c #4FA7BB",
"{% 	c #4CABDD",
"]% 	c #92F4EB",
"^% 	c #F1FFE8",
"/% 	c #F9FFEB",
"(% 	c #F9FFE8",
"_% 	c #F9FFEA",
":% 	c #F9FFE9",
"<% 	c #F8FFE8",
"[% 	c #F7FFE8",
"}% 	c #F4FFE9",
"|% 	c #F5FEEB",
"1% 	c #F9FEEB",
"2% 	c #F8F9EB",
"3% 	c #EBE2E9",
"4% 	c #E2E2EC",
"5% 	c #E2E3EA",
"6% 	c #E1E3B8",
"7% 	c #D48B38",
"8% 	c #5B373D",
"9% 	c #243540",
"0% 	c #27343E",
"a% 	c #27353D",
"b% 	c #293653",
"c% 	c #284173",
"d% 	c #3B4973",
"e% 	c #404975",
"f% 	c #3E486B",
"g% 	c #3D5251",
"h% 	c #335854",
"i% 	c #2F5653",
"j% 	c #2E5A99",
"k% 	c #3298BA",
"l% 	c #4FA7BC",
"m% 	c #4FA6B6",
"n% 	c #4F9F6B",
"o% 	c #475D50",
"p% 	c #315653",
"q% 	c #34594C",
"r% 	c #3A361E",
"s% 	c #1C1020",
"t% 	c #010104",
"u% 	c #03030A",
"v% 	c #101A39",
"w% 	c #0D4951",
"x% 	c #2D5852",
"y% 	c #2F5654",
"z% 	c #2E5B9C",
"A% 	c #3299BA",
"B% 	c #4CA2B6",
"C% 	c #4FA4B7",
"D% 	c #F3F7E7",
"E% 	c #EAE1E7",
"F% 	c #DEDFE6",
"G% 	c #DFE0B6",
"H% 	c #D48B39",
"I% 	c #283653",
"J% 	c #3F486C",
"K% 	c #404E51",
"L% 	c #355653",
"M% 	c #3198BA",
"N% 	c #4BA3B7",
"O% 	c #4FA5B3",
"P% 	c #4F9B6D",
"Q% 	c #32544C",
"R% 	c #3C371E",
"S% 	c #1C0E1B",
"T% 	c #080A1A",
"U% 	c #192335",
"V% 	c #114A4F",
"W% 	c #3299BB",
"X% 	c #4EA4BA",
"Y% 	c #4DA3B7",
"Z% 	c #4DA3B6",
"`% 	c #49A0B8",
" & 	c #4AAADD",
".& 	c #F6FFE7",
"+& 	c #EBE2E7",
"@& 	c #E1E1E8",
"#& 	c #E2E2E9",
"$& 	c #26333D",
"%& 	c #25333D",
"&& 	c #26344F",
"*& 	c #284171",
"=& 	c #394770",
"-& 	c #3C476F",
";& 	c #3F496D",
">& 	c #3D5151",
",& 	c #335853",
"'& 	c #2F5652",
")& 	c #4CA3B8",
"!& 	c #465D4F",
"~& 	c #2E5450",
"{& 	c #3B361D",
"]& 	c #1D1523",
"^& 	c #080A19",
"/& 	c #192833",
"(& 	c #1D252D",
"_& 	c #1A2634",
":& 	c #1A2F43",
"<& 	c #164C4F",
"[& 	c #2D5753",
"}& 	c #2E5B96",
"|& 	c #368FAC",
"1& 	c #4A98AA",
"2& 	c #4A98AC",
"3& 	c #49A2BC",
"4& 	c #60B0C1",
"5& 	c #72B2C0",
"6& 	c #73B2BF",
"7& 	c #73B2C0",
"8& 	c #70AFC0",
"9& 	c #6EAFC0",
"0& 	c #6EAFBF",
"a& 	c #6EAEBF",
"b& 	c #6FB6DC",
"c& 	c #9CF5EB",
"d& 	c #F2FFE8",
"e& 	c #F3FAE7",
"f& 	c #F2F9E7",
"g& 	c #F1F4E3",
"h& 	c #E1DAE1",
"i& 	c #CAD5DF",
"j& 	c #CCD7DF",
"k& 	c #CED4AA",
"l& 	c #CC883A",
"m& 	c #58363D",
"n& 	c #253541",
"o& 	c #28365A",
"p& 	c #2E5769",
"q& 	c #556368",
"r& 	c #596268",
"s& 	c #596267",
"t& 	c #5C6467",
"u& 	c #5E6667",
"v& 	c #5E6670",
"w& 	c #606985",
"x& 	c #697188",
"y& 	c #6A7189",
"z& 	c #6A7289",
"A& 	c #696A77",
"B& 	c #615171",
"C& 	c #404E55",
"D& 	c #365557",
"E& 	c #315657",
"F& 	c #315459",
"G& 	c #30589A",
"H& 	c #3398BA",
"I& 	c #4FA4B3",
"J& 	c #4F9C76",
"K& 	c #4C6968",
"L& 	c #356366",
"M& 	c #356567",
"N& 	c #376360",
"O& 	c #3F4326",
"P& 	c #382122",
"Q& 	c #1E252D",
"R& 	c #192935",
"S& 	c #1C262E",
"T& 	c #1A1F2D",
"U& 	c #040513",
"V& 	c #010003",
"W& 	c #121F34",
"X& 	c #1B4F50",
"Y& 	c #2C5451",
"Z& 	c #2D5451",
"`& 	c #2D5450",
" * 	c #2E5451",
".* 	c #305A56",
"+* 	c #2E5570",
"@* 	c #2A92DF",
"#* 	c #A2EEEB",
"$* 	c #E9F6E4",
"%* 	c #EDF8E3",
"&* 	c #ECF4E4",
"** 	c #E0DEE7",
"=* 	c #D8DCE4",
"-* 	c #D8DDE4",
";* 	c #D9DFE5",
">* 	c #E4FDE8",
",* 	c #F3FDE7",
"'* 	c #F2E6E7",
")* 	c #E0E1E8",
"!* 	c #E1E1E7",
"~* 	c #E0D2BB",
"{* 	c #ADA4B7",
"]* 	c #52A5B9",
"^* 	c #55A7B8",
"/* 	c #59A493",
"(* 	c #566940",
"_* 	c #30343F",
":* 	c #1F31AD",
"<* 	c #42C4E9",
"[* 	c #C8DDE1",
"}* 	c #D8D9E2",
"|* 	c #D7D9E2",
"1* 	c #D8DBE1",
"2* 	c #E0EADF",
"3* 	c #E9EEDF",
"4* 	c #EAEEE0",
"5* 	c #EBF1E1",
"6* 	c #EBF2E2",
"7* 	c #ECF2E2",
"8* 	c #ECF2E1",
"9* 	c #EDE390",
"0* 	c #CD6870",
"a* 	c #3F4870",
"b* 	c #404970",
"c* 	c #3E4CA0",
"d* 	c #4198BA",
"e* 	c #4FA5B5",
"f* 	c #4DA0B4",
"g* 	c #4EA0B4",
"h* 	c #4EA1A3",
"i* 	c #4E8755",
"j* 	c #395550",
"k* 	c #255352",
"l* 	c #245353",
"m* 	c #275454",
"n* 	c #285452",
"o* 	c #2E332A",
"p* 	c #0B121F",
"q* 	c #04030E",
"r* 	c #091E41",
"s* 	c #124F53",
"t* 	c #2D5853",
"u* 	c #2F5853",
"v* 	c #2F5752",
"w* 	c #2F5650",
"x* 	c #2F536A",
"y* 	c #2992DE",
"z* 	c #ABF6EB",
"A* 	c #F6FFE8",
"B* 	c #F7FFE7",
"C* 	c #F6F8E7",
"D* 	c #EBE1E7",
"E* 	c #E3FDE8",
"F* 	c #DEDFE7",
"G* 	c #E0D3BC",
"H* 	c #ACA5B7",
"I* 	c #4DA2B7",
"J* 	c #4DA4B7",
"K* 	c #4DA092",
"L* 	c #436942",
"M* 	c #2C363F",
"N* 	c #1F31AC",
"O* 	c #43C3E8",
"P* 	c #D0E5E8",
"Q* 	c #E2E2EA",
"R* 	c #E1E1EA",
"S* 	c #E1E5EA",
"T* 	c #E9FFE9",
"U* 	c #F7FFEA",
"V* 	c #F5FFE9",
"W* 	c #F6FFE5",
"X* 	c #FAF28D",
"Y* 	c #CD6B70",
"Z* 	c #444E72",
"`* 	c #4FA4A6",
" = 	c #3C5652",
".= 	c #305753",
"+= 	c #305652",
"@= 	c #305550",
"#= 	c #325651",
"$= 	c #335955",
"%= 	c #305852",
"&= 	c #36452F",
"*= 	c #121521",
"== 	c #040309",
"-= 	c #0C0C1D",
";= 	c #0A1F41",
">= 	c #135053",
",= 	c #2D544F",
"'= 	c #2C544F",
")= 	c #2B544F",
"!= 	c #2B544E",
"~= 	c #2A5168",
"{= 	c #2A93DE",
"]= 	c #F5FFE8",
"^= 	c #F4FEEB",
"/= 	c #F8F9EA",
"(= 	c #E2E2EB",
"_= 	c #E1E2E8",
":= 	c #E7FEE8",
"<= 	c #F8FEE7",
"[= 	c #4EA092",
"}= 	c #436640",
"|= 	c #2C353F",
"1= 	c #CEE5E6",
"2= 	c #DEE3E8",
"3= 	c #F7FEE7",
"4= 	c #F8FEE8",
"5= 	c #F7FDE6",
"6= 	c #F8F090",
"7= 	c #CD6A70",
"8= 	c #3E4871",
"9= 	c #3D4770",
"0= 	c #3E4870",
"a= 	c #4FA3A4",
"b= 	c #395650",
"c= 	c #2D5551",
"d= 	c #3A4028",
"e= 	c #14131E",
"f= 	c #020203",
"g= 	c #010102",
"h= 	c #0B0F28",
"i= 	c #1F2E34",
"j= 	c #272F32",
"k= 	c #213033",
"l= 	c #19396F",
"m= 	c #32808C",
"n= 	c #758D8B",
"o= 	c #798A8B",
"p= 	c #788D8D",
"q= 	c #7D938D",
"r= 	c #83948C",
"s= 	c #83958C",
"t= 	c #839397",
"u= 	c #80B3E0",
"v= 	c #BEF8EA",
"w= 	c #F3F8E7",
"x= 	c #EFF5E7",
"y= 	c #EFF5E6",
"z= 	c #F1F4D1",
"A= 	c #E0D8C5",
"B= 	c #CBD3C6",
"C= 	c #CAD3C6",
"D= 	c #C8D1C5",
"E= 	c #BBC1C4",
"F= 	c #B9BEC5",
"G= 	c #B9BFC5",
"H= 	c #BAC7DC",
"I= 	c #D0F4E8",
"J= 	c #EEF5E7",
"K= 	c #F1FFE7",
"L= 	c #F0F5E7",
"M= 	c #EFF4E0",
"N= 	c #EAEADC",
"O= 	c #CFE3D7",
"P= 	c #CEE4D8",
"Q= 	c #C8D5DD",
"R= 	c #BDCFD9",
"S= 	c #C7C9BB",
"T= 	c #93A3B7",
"U= 	c #4EA2B7",
"V= 	c #4EA093",
"W= 	c #466E47",
"X= 	c #314245",
"Y= 	c #293E43",
"Z= 	c #223EAE",
"`= 	c #43C4E8",
" - 	c #DEE2E8",
".- 	c #E5F6E8",
"+- 	c #EFFBE7",
"@- 	c #F3FFE7",
"#- 	c #EFF5E5",
"$- 	c #EEEFDD",
"%- 	c #D5E4D8",
"&- 	c #CEE4D9",
"*- 	c #CDD3B2",
"=- 	c #B77887",
"-- 	c #476985",
";- 	c #446988",
">- 	c #456988",
",- 	c #4469A5",
"'- 	c #459BB9",
")- 	c #4FA5AA",
"!- 	c #508A6F",
"~- 	c #455D69",
"{- 	c #415C68",
"]- 	c #3F5A67",
"^- 	c #46626B",
"/- 	c #415C67",
"(- 	c #405D69",
"_- 	c #425F6A",
":- 	c #405965",
"<- 	c #484E53",
"[- 	c #403B50",
"}- 	c #393C53",
"|- 	c #33394B",
"1- 	c #202125",
"2- 	c #140C1F",
"3- 	c #04091D",
"4- 	c #0B3449",
"5- 	c #2E5752",
"6- 	c #2A61C1",
"7- 	c #5AD1EB",
"8- 	c #D3DFE5",
"9- 	c #DDDDE6",
"0- 	c #DCDDE6",
"a- 	c #DCE4E7",
"b- 	c #E6F5E6",
"c- 	c #F1F7E6",
"d- 	c #F2F7E4",
"e- 	c #F2F7E5",
"f- 	c #F2F7E7",
"g- 	c #F2F7E6",
"h- 	c #F2F6E8",
"i- 	c #F3EAE7",
"j- 	c #E1E0E8",
"k- 	c #DFE1E3",
"l- 	c #E3DA98",
"m- 	c #CE754F",
"n- 	c #3A5151",
"o- 	c #265551",
"p- 	c #275551",
"q- 	c #2A5751",
"r- 	c #2A5356",
"s- 	c #266DCD",
"t- 	c #71D6E9",
"u- 	c #D9E3E8",
"v- 	c #DFE4E8",
"w- 	c #F3F0E7",
"x- 	c #E1DCCA",
"y- 	c #CEABB6",
"z- 	c #58A1B8",
"A- 	c #4CA4B8",
"B- 	c #4EA5B8",
"C- 	c #4EA5B7",
"D- 	c #4FA295",
"E- 	c #4D7852",
"F- 	c #375653",
"G- 	c #2F5552",
"H- 	c #2A58B2",
"I- 	c #44C6E8",
"J- 	c #DEDEE8",
"K- 	c #E0DFE8",
"L- 	c #DFF1E8",
"M- 	c #F3E8E7",
"N- 	c #E0DFDF",
"O- 	c #DBC1B6",
"P- 	c #7C9FB5",
"Q- 	c #4FA4B4",
"R- 	c #4BA3B8",
"S- 	c #4FA2B7",
"T- 	c #51A2B7",
"U- 	c #4FA5AF",
"V- 	c #4F8F9B",
"W- 	c #616F97",
"X- 	c #696F9A",
"Y- 	c #676F9A",
"Z- 	c #676F98",
"`- 	c #676F99",
" ; 	c #686F99",
".; 	c #686E98",
"+; 	c #677099",
"@; 	c #636B88",
"#; 	c #54491D",
"$; 	c #251422",
"%; 	c #030D26",
"&; 	c #0C4252",
"*; 	c #265753",
"=; 	c #2F5454",
"-; 	c #2960C5",
";; 	c #5FD1EA",
">; 	c #D6E5E7",
",; 	c #DFE9E9",
"'; 	c #ECFFE8",
"); 	c #DEE1E4",
"!; 	c #E3DB9A",
"~; 	c #CD7750",
"{; 	c #3D5252",
"]; 	c #2B5652",
"^; 	c #2E5652",
"/; 	c #2E5651",
"(; 	c #2E5255",
"_; 	c #2968CE",
":; 	c #6ED5EA",
"<; 	c #D8E5E7",
"[; 	c #E8FEE8",
"}; 	c #E3E0E8",
"|; 	c #DEDFE9",
"1; 	c #E1DCCB",
"2; 	c #CEAEB7",
"3; 	c #58A2B8",
"4; 	c #4D7751",
"5; 	c #375652",
"6; 	c #DEF1E8",
"7; 	c #F4FDE7",
"8; 	c #E0E1D4",
"9; 	c #DCC2B8",
"0; 	c #7FA2B8",
"a; 	c #4FA3B3",
"b; 	c #4F8F99",
"c; 	c #5F7098",
"d; 	c #686F98",
"e; 	c #69719B",
"f; 	c #696F8C",
"g; 	c #6B5829",
"h; 	c #3B262F",
"i; 	c #040509",
"j; 	c #050718",
"k; 	c #173F45",
"l; 	c #275753",
"m; 	c #D5E5E7",
"n; 	c #DEE8E8",
"o; 	c #ECFFE7",
"p; 	c #F5FEE8",
"q; 	c #F4EAE7",
"r; 	c #E1E0E9",
"s; 	c #DFE2E4",
"t; 	c #E3DC9A",
"u; 	c #CE7751",
"v; 	c #3E5453",
"w; 	c #2C5853",
"x; 	c #2F5356",
"y; 	c #6FD5EA",
"z; 	c #D9E4E8",
"A; 	c #DFE4E9",
"B; 	c #DEE1E3",
"C; 	c #E1DDC5",
"D; 	c #365652",
"E; 	c #CFE5E7",
"F; 	c #DFF2E8",
"G; 	c #F5FEE7",
"H; 	c #F3E9E7",
"I; 	c #E0DFDE",
"J; 	c #DCC2B7",
"K; 	c #81A3B8",
"L; 	c #4F8F9A",
"M; 	c #5E7098",
"N; 	c #696F8B",
"O; 	c #63541E",
"P; 	c #261C2B",
"Q; 	c #04060C",
"R; 	c #050400",
"S; 	c #00001D",
"T; 	c #040E17",
"U; 	c #0F0F1A",
"V; 	c #09193C",
"W; 	c #12414F",
"X; 	c #285653",
"Y; 	c #5ED0EA",
"Z; 	c #D4E4E7",
"`; 	c #EDFFE8",
" > 	c #EFF8E6",
".> 	c #EBE7E3",
"+> 	c #DCE0E2",
"@> 	c #E1DC96",
"#> 	c #CB7851",
"$> 	c #2A68CA",
"%> 	c #6FD5EB",
"&> 	c #D5DFE5",
"*> 	c #DCE1E7",
"=> 	c #E3F7E8",
"-> 	c #F2F8E7",
";> 	c #F2F7E8",
">> 	c #CEADB7",
",> 	c #4FA294",
"'> 	c #4F7753",
")> 	c #335752",
"!> 	c #2F5555",
"~> 	c #2957B3",
"{> 	c #44C6E9",
"]> 	c #CDE0E5",
"^> 	c #DDE0E8",
"/> 	c #DCDFE6",
"(> 	c #DCECE8",
"_> 	c #ECFAE5",
":> 	c #EDE8E8",
"<> 	c #DEDEDD",
"[> 	c #DAC2B7",
"}> 	c #7FA3B8",
"|> 	c #4FA3B1",
"1> 	c #68709A",
"2> 	c #675621",
"3> 	c #3A1E24",
"4> 	c #141116",
"5> 	c #050A14",
"6> 	c #060A15",
"7> 	c #040816",
"8> 	c #00020A",
"9> 	c #070B09",
"0> 	c #0E2989",
"a> 	c #649FB4",
"b> 	c #AEBCC0",
"c> 	c #B5B8BF",
"d> 	c #B7BCAA",
"e> 	c #BBA047",
"f> 	c #704749",
"g> 	c #274846",
"h> 	c #244A4D",
"i> 	c #285152",
"j> 	c #2961C5",
"k> 	c #65E2EB",
"l> 	c #E3F7E7",
"m> 	c #EEF4E7",
"n> 	c #EEF7E7",
"o> 	c #F3EEE7",
"p> 	c #E7E9E8",
"q> 	c #E7EAE6",
"r> 	c #E8E3AA",
"s> 	c #D3A28C",
"t> 	c #89968E",
"u> 	c #85978E",
"v> 	c #86978E",
"w> 	c #80928D",
"x> 	c #7C8C8D",
"y> 	c #7B8D8B",
"z> 	c #808B68",
"A> 	c #726352",
"B> 	c #335653",
"C> 	c #2E5B82",
"D> 	c #478B95",
"E> 	c #788E8D",
"F> 	c #7B8C8D",
"G> 	c #7B8E8E",
"H> 	c #7E9691",
"I> 	c #85969A",
"J> 	c #83B8E1",
"K> 	c #C3F9EA",
"L> 	c #EFF5E8",
"M> 	c #F3EFC8",
"N> 	c #DCB2B6",
"O> 	c #57A2B8",
"P> 	c #4FA4AD",
"Q> 	c #4E979F",
"R> 	c #478F9F",
"S> 	c #468F9F",
"T> 	c #4491B3",
"U> 	c #4CAEC8",
"V> 	c #81B8C4",
"W> 	c #88B8C6",
"X> 	c #86BAC7",
"Y> 	c #90C0C6",
"Z> 	c #91C0C6",
"`> 	c #91C1C5",
" , 	c #8FBBC7",
"., 	c #88B8C7",
"+, 	c #8AB8C4",
"@, 	c #8AAEB9",
"#, 	c #5FA3B8",
"$, 	c #4FA3B2",
"%, 	c #686F8E",
"&, 	c #696067",
"*, 	c #4C3F60",
"=, 	c #353C5D",
"-, 	c #333B5D",
";, 	c #333C5E",
">, 	c #35392B",
",, 	c #28121C",
"', 	c #02070F",
"), 	c #0F1714",
"!, 	c #1940C3",
"~, 	c #5FD1E8",
"{, 	c #D7E4E8",
"], 	c #E3E2EB",
"^, 	c #E2E6D2",
"/, 	c #E0B758",
"(, 	c #8C5551",
"_, 	c #68E8EB",
":, 	c #EBFEE8",
"<, 	c #E3DA92",
"[, 	c #CA6E4E",
"}, 	c #354F51",
"|, 	c #2A544F",
"1, 	c #2A5452",
"2, 	c #2B5853",
"3, 	c #2E5753",
"4, 	c #2E5550",
"5, 	c #2B516C",
"6, 	c #2A99E0",
"7, 	c #B1F7EB",
"8, 	c #F8F7C7",
"9, 	c #E1B4B6",
"0, 	c #4FA4AF",
"a, 	c #696F99",
"b, 	c #686F8F",
"c, 	c #686274",
"d, 	c #524972",
"e, 	c #414D76",
"f, 	c #404B76",
"g, 	c #3F4B6E",
"h, 	c #3E3F2B",
"i, 	c #2A1820",
"j, 	c #040914",
"k, 	c #06182F",
"l, 	c #1741C6",
"m, 	c #5ED3EA",
"n, 	c #D7E5E7",
"o, 	c #E0E2D0",
"p, 	c #DFB758",
"q, 	c #8A5551",
"r, 	c #C97150",
"s, 	c #385453",
"t, 	c #2F5751",
"u, 	c #2F536E",
"v, 	c #2999E0",
"w, 	c #524973",
"x, 	c #414973",
"y, 	c #3F4A6E",
"z, 	c #281821",
"A, 	c #050A15",
"B, 	c #03030E",
"C, 	c #050515",
"D, 	c #050616",
"E, 	c #0A1B33",
"F, 	c #D8E5E8",
"G, 	c #2C5453",
"H, 	c #2F5353",
"I, 	c #F4E9E8",
"J, 	c #E2E5E6",
"K, 	c #E4DB94",
"L, 	c #CD7150",
"M, 	c #2C5753",
"N, 	c #2E5653",
"O, 	c #2A534F",
"P, 	c #2A544E",
"Q, 	c #2A506C",
"R, 	c #2899E0",
"S, 	c #FAF7C7",
"T, 	c #5DA2B9",
"U, 	c #3D476D",
"V, 	c #3E402C",
"W, 	c #2E1921",
"X, 	c #070E1E",
"Y, 	c #000002",
"Z, 	c #02030B",
"`, 	c #0D1326",
" ' 	c #1B212B",
".' 	c #251E25",
"+' 	c #1A2332",
"@' 	c #1843C4",
"#' 	c #58CEE5",
"$' 	c #C6D9DD",
"%' 	c #CFD9E3",
"&' 	c #D2D7CF",
"*' 	c #D6B662",
"=' 	c #805C5C",
"-' 	c #356263",
";' 	c #346363",
">' 	c #346361",
",' 	c #335F63",
"'' 	c #2C67C6",
")' 	c #61E2E9",
"!' 	c #D4EAE2",
"~' 	c #E2F1DF",
"{' 	c #E2F0DE",
"]' 	c #E2EEDB",
"^' 	c #E0E7D8",
"/' 	c #DDE3D5",
"(' 	c #D6D9D5",
"_' 	c #CCCFD7",
":' 	c #CCD2D2",
"<' 	c #D5D184",
"[' 	c #B97051",
"}' 	c #2E575F",
"|' 	c #326263",
"1' 	c #34635F",
"2' 	c #355B55",
"3' 	c #315656",
"4' 	c #305756",
"5' 	c #305658",
"6' 	c #305668",
"7' 	c #376C6F",
"8' 	c #51706C",
"9' 	c #526F6C",
"0' 	c #526D80",
"a' 	c #519DDC",
"b' 	c #A5DFE4",
"c' 	c #DEEFE0",
"d' 	c #E1ECDA",
"e' 	c #DEE5D7",
"f' 	c #DEDBC0",
"g' 	c #CBAAB2",
"h' 	c #4F9BAF",
"i' 	c #4B9AAC",
"j' 	c #4B9AAF",
"k' 	c #4AA3BB",
"l' 	c #5FACBD",
"m' 	c #68ADBD",
"n' 	c #6AABBA",
"o' 	c #5EA2B8",
"p' 	c #4E9DAB",
"q' 	c #4B9AAD",
"r' 	c #4A9FB5",
"s' 	c #686F95",
"t' 	c #686377",
"u' 	c #534C75",
"v' 	c #434C78",
"w' 	c #434D78",
"x' 	c #464E76",
"y' 	c #474973",
"z' 	c #3C466D",
"A' 	c #3E402F",
"B' 	c #341E21",
"C' 	c #2C1E23",
"D' 	c #1C2229",
"E' 	c #121722",
"F' 	c #04040F",
"G' 	c #070D1F",
"H' 	c #0B2C45",
"I' 	c #2A514F",
"J' 	c #27524C",
"K' 	c #2C5DA1",
"L' 	c #379CBB",
"M' 	c #55A8BA",
"N' 	c #58A8BA",
"O' 	c #58A8B9",
"P' 	c #58A4B1",
"Q' 	c #4E9FB3",
"R' 	c #4D9FB3",
"S' 	c #4D9FB2",
"T' 	c #4CA1B5",
"U' 	c #51A6BB",
"V' 	c #5DA7AA",
"W' 	c #61975D",
"X' 	c #49615A",
"Y' 	c #39605B",
"Z' 	c #3A605B",
"`' 	c #375B55",
" ) 	c #355A53",
".) 	c #2E60A5",
"+) 	c #3A99B4",
"@) 	c #4D9EB2",
"#) 	c #4DA0A0",
"$) 	c #4E7A74",
"%) 	c #434870",
"&) 	c #3F486F",
"*) 	c #3C55C7",
"=) 	c #68D2E6",
"-) 	c #CCDADF",
";) 	c #D5D7E0",
">) 	c #D5D7DD",
",) 	c #D3CDC1",
"') 	c #9AA3B7",
")) 	c #59A7BA",
"!) 	c #5EA7A1",
"~) 	c #5F8C5A",
"{) 	c #43615B",
"]) 	c #39605C",
"^) 	c #325857",
"/) 	c #315B58",
"() 	c #315B59",
"_) 	c #2E5784",
":) 	c #289EE3",
"<) 	c #ABDAE2",
"[) 	c #D5DCE5",
"}) 	c #D6DCE4",
"|) 	c #D6DCE3",
"1) 	c #DED3BB",
"2) 	c #A4A4B6",
"3) 	c #507959",
"4) 	c #355C59",
"5) 	c #305D5E",
"6) 	c #2E68AD",
"7) 	c #3D9FBA",
"8) 	c #666E96",
"9) 	c #656F99",
"0) 	c #656D94",
"a) 	c #676C85",
"b) 	c #645373",
"c) 	c #454873",
"d) 	c #434973",
"e) 	c #415055",
"f) 	c #3B5552",
"g) 	c #30564E",
"h) 	c #393C27",
"i) 	c #16121F",
"j) 	c #091433",
"k) 	c #124553",
"l) 	c #2B5551",
"m) 	c #2D544D",
"n) 	c #2E5EA1",
"o) 	c #359CBB",
"p) 	c #4EA3A8",
"q) 	c #4E8C58",
"r) 	c #3C554F",
"s) 	c #2B5450",
"t) 	c #2C5450",
"u) 	c #2C5552",
"v) 	c #2F5656",
"w) 	c #369DBB",
"x) 	c #4EA4B9",
"y) 	c #4FA4A5",
"z) 	c #4E7A73",
"A) 	c #3F476F",
"B) 	c #6BD3E6",
"C) 	c #D7E5E9",
"D) 	c #E0E0E6",
"E) 	c #DFCEB9",
"F) 	c #9FA4B8",
"G) 	c #4FA2A0",
"H) 	c #4D8253",
"I) 	c #375550",
"J) 	c #2C5550",
"K) 	c #2F5651",
"L) 	c #2E547D",
"M) 	c #279EE3",
"N) 	c #B3E1E9",
"O) 	c #E1E3EA",
"P) 	c #E0E0E7",
"Q) 	c #355551",
"R) 	c #2F565A",
"S) 	c #696E85",
"T) 	c #3D476F",
"U) 	c #404F54",
"V) 	c #3A5753",
"W) 	c #31594F",
"X) 	c #35422C",
"Y) 	c #200C1C",
"Z) 	c #010106",
"`) 	c #010203",
" ! 	c #020206",
".! 	c #101528",
"+! 	c #112D47",
"@! 	c #1D4E52",
"#! 	c #245150",
"$! 	c #2C514C",
"%! 	c #2E5DA1",
"&! 	c #369CBB",
"*! 	c #50A3B7",
"=! 	c #4FA5BA",
"-! 	c #4FA6BC",
";! 	c #4FA5AD",
">! 	c #4E8D58",
",! 	c #3F5751",
"'! 	c #414970",
")! 	c #D7E3E8",
"!! 	c #E1E1E5",
"~! 	c #9EA4B8",
"{! 	c #51A4BA",
"]! 	c #4FA3A0",
"^! 	c #4E8253",
"/! 	c #375650",
"(! 	c #2A527C",
"_! 	c #B1E1E8",
":! 	c #E0E2E8",
"<! 	c #50A4BA",
"[! 	c #4FA399",
"}! 	c #2A505C",
"|! 	c #617098",
"1! 	c #696F98",
"2! 	c #696E83",
"3! 	c #424872",
"4! 	c #3F4C53",
"5! 	c #3C5453",
"6! 	c #2F544E",
"7! 	c #353F2C",
"8! 	c #131526",
"9! 	c #030207",
"0! 	c #01030B",
"a! 	c #102232",
"b! 	c #1C313A",
"c! 	c #1F3038",
"d! 	c #222C46",
"e! 	c #1C556C",
"f! 	c #32656B",
"g! 	c #34676B",
"h! 	c #366C6F",
"i! 	c #3571A7",
"j! 	c #3C9DBA",
"k! 	c #4E9DA1",
"l! 	c #4A93A3",
"m! 	c #4893A3",
"n! 	c #489499",
"o! 	c #4A8557",
"p! 	c #3C5752",
"q! 	c #4FA4AB",
"r! 	c #4D93A7",
"s! 	c #4A91A6",
"t! 	c #4B939A",
"u! 	c #4C7D87",
"v! 	c #456486",
"w! 	c #446485",
"x! 	c #456483",
"y! 	c #416AC4",
"z! 	c #63CADE",
"A! 	c #B9D1D7",
"B! 	c #C2D1DB",
"C! 	c #C3D1D9",
"D! 	c #CAC7B9",
"E! 	c #8CA3B7",
"F! 	c #508A72",
"G! 	c #406B71",
"H! 	c #386D72",
"I! 	c #377181",
"J! 	c #3F8289",
"K! 	c #6B8584",
"L! 	c #708384",
"M! 	c #70839B",
"N! 	c #71B2E1",
"O! 	c #BBE1E7",
"P! 	c #E0E1D3",
"Q! 	c #D5CDC8",
"R! 	c #BFC3CA",
"S! 	c #BEC3CA",
"T! 	c #BEC3C9",
"U! 	c #CAC3AE",
"V! 	c #9197A7",
"W! 	c #4793A4",
"X! 	c #499489",
"Y! 	c #487252",
"Z! 	c #2E576F",
"`! 	c #357C89",
" ~ 	c #6A8584",
".~ 	c #708383",
"+~ 	c #70818A",
"@~ 	c #6C88B9",
"#~ 	c #75AFC3",
"$~ 	c #7EB4C4",
"%~ 	c #7FB4C4",
"&~ 	c #80B4C1",
"*~ 	c #81ACB9",
"=~ 	c #5CA3B7",
"-~ 	c #4F93A0",
";~ 	c #5C7B9E",
">~ 	c #657BA1",
",~ 	c #60799A",
"'~ 	c #656F98",
")~ 	c #686F97",
"!~ 	c #696E8B",
"~~ 	c #656684",
"{~ 	c #466486",
"]~ 	c #44676F",
"^~ 	c #3F7174",
"/~ 	c #396E69",
"(~ 	c #395C53",
"_~ 	c #393243",
":~ 	c #353344",
"<~ 	c #33374B",
"[~ 	c #35373E",
"}~ 	c #251E24",
"|~ 	c #04030B",
"1~ 	c #040C21",
"2~ 	c #083C50",
"3~ 	c #275552",
"4~ 	c #2E567D",
"5~ 	c #3187B6",
"6~ 	c #4EA1B6",
"7~ 	c #4FA3A6",
"8~ 	c #4F8956",
"9~ 	c #3C5854",
"0~ 	c #4F9C86",
"a~ 	c #4D5576",
"b~ 	c #404988",
"c~ 	c #3B7EB5",
"d~ 	c #4AA0B6",
"e~ 	c #50A4B7",
"f~ 	c #50A5B8",
"g~ 	c #4FA5B8",
"h~ 	c #4EA4B7",
"i~ 	c #4EA1B5",
"j~ 	c #4BA6D7",
"k~ 	c #64D5E8",
"l~ 	c #CFDFE3",
"m~ 	c #DBDCE5",
"n~ 	c #DBDFE5",
"o~ 	c #CF7950",
"p~ 	c #3F5453",
"q~ 	c #2B5852",
"r~ 	c #2C5852",
"s~ 	c #295753",
"t~ 	c #2C554F",
"u~ 	c #2F5553",
"v~ 	c #2B58AE",
"w~ 	c #44C7E9",
"x~ 	c #CBDFE4",
"y~ 	c #DBDFE6",
"z~ 	c #DBDEE6",
"A~ 	c #DDDEDD",
"B~ 	c #7EA3B8",
"C~ 	c #50A3B8",
"D~ 	c #50A1B7",
"E~ 	c #50A2B8",
"F~ 	c #50A1B6",
"G~ 	c #50A2B3",
"H~ 	c #4E999C",
"I~ 	c #597198",
"J~ 	c #6971A9",
"K~ 	c #689BB9",
"L~ 	c #54A4B8",
"M~ 	c #4DA1B6",
"N~ 	c #4EA2B1",
"O~ 	c #519499",
"P~ 	c #5E6C91",
"Q~ 	c #636D92",
"R~ 	c #666F96",
"S~ 	c #6B6A6A",
"T~ 	c #493619",
"U~ 	c #100E20",
"V~ 	c #03091C",
"W~ 	c #083A4D",
"X~ 	c #275653",
"Y~ 	c #2F577F",
"Z~ 	c #2E89B8",
"`~ 	c #4E8956",
" { 	c #3C5651",
".{ 	c #4F9D87",
"+{ 	c #4B5371",
"@{ 	c #3F4987",
"#{ 	c #3E81B7",
"${ 	c #4DA3B9",
"%{ 	c #4BA7D7",
"&{ 	c #65D4E7",
"*{ 	c #D7E4E9",
"={ 	c #E3DB9C",
"-{ 	c #CE7850",
";{ 	c #3E5252",
">{ 	c #2A5651",
",{ 	c #2D5651",
"'{ 	c #E2E1E9",
"){ 	c #E2E1DE",
"!{ 	c #4FA6B3",
"~{ 	c #689AB8",
"{{ 	c #4F949B",
"]{ 	c #5D7099",
"^{ 	c #687099",
"/{ 	c #697099",
"({ 	c #6D6C6E",
"_{ 	c #4A371A",
":{ 	c #0D0A1B",
"<{ 	c #03091B",
"[{ 	c #093A4D",
"}{ 	c #285752",
"|{ 	c #2E567A",
"1{ 	c #4BA2B8",
"2{ 	c #4FA3A7",
"3{ 	c #3D5651",
"4{ 	c #2E5556",
"5{ 	c #4DA2B8",
"6{ 	c #3F5352",
"7{ 	c #2B5752",
"8{ 	c #E0E2D3",
"9{ 	c #4FA5B2",
"0{ 	c #4FA5B0",
"a{ 	c #69719A",
"b{ 	c #4B3619",
"c{ 	c #08040A",
"d{ 	c #03030C",
"e{ 	c #080A14",
"f{ 	c #0E0C15",
"g{ 	c #0C101B",
"h{ 	c #0D1C38",
"i{ 	c #133C47",
"j{ 	c #275554",
"k{ 	c #2E5654",
"l{ 	c #2F5680",
"m{ 	c #2D88B8",
"n{ 	c #47A1B7",
"o{ 	c #4FA4B6",
"p{ 	c #4EA3B8",
"q{ 	c #4EA2B8",
"r{ 	c #4E8A56",
"s{ 	c #2D5550",
"t{ 	c #2A5650",
"u{ 	c #295650",
"v{ 	c #295258",
"w{ 	c #245BA4",
"x{ 	c #369CBA",
"y{ 	c #4CA4B7",
"z{ 	c #4C5474",
"A{ 	c #3F4771",
"B{ 	c #3E80B7",
"C{ 	c #4CA2B8",
"D{ 	c #4DA4B6",
"E{ 	c #4DA8D5",
"F{ 	c #6AD5E9",
"G{ 	c #CF774E",
"H{ 	c #3C5151",
"I{ 	c #275452",
"J{ 	c #2B58AF",
"K{ 	c #CEE0E5",
"L{ 	c #DDDEE6",
"M{ 	c #DDDEE7",
"N{ 	c #DEDEE7",
"O{ 	c #DDDDDD",
"P{ 	c #D7C2B9",
"Q{ 	c #80A1B7",
"R{ 	c #4BA4B7",
"S{ 	c #4E989B",
"T{ 	c #597097",
"U{ 	c #676E99",
"V{ 	c #6970A9",
"W{ 	c #4FA4B2",
"X{ 	c #4F949A",
"Y{ 	c #5E6F97",
"Z{ 	c #6E6A6D",
"`{ 	c #483515",
" ] 	c #24141D",
".] 	c #0F0B10",
"+] 	c #14080A",
"@] 	c #070B16",
"#] 	c #04040E",
"$] 	c #0B0C1F",
"%] 	c #152B41",
"&] 	c #294947",
"*] 	c #284747",
"=] 	c #25495D",
"-] 	c #2B6B99",
";] 	c #3F8B9B",
">] 	c #458C9B",
",] 	c #448EA4",
"'] 	c #429AB7",
")] 	c #4F9E88",
"!] 	c #4D797F",
"~] 	c #3B767E",
"{] 	c #3C767E",
"]] 	c #3C7777",
"^] 	c #3C6D53",
"/] 	c #345753",
"(] 	c #2F545F",
"_] 	c #2D76B7",
":] 	c #79BCC6",
"<] 	c #AEBABE",
"[] 	c #B1B8BE",
"}] 	c #B1B8BF",
"|] 	c #B1BDD1",
"1] 	c #B3D4D8",
"2] 	c #C7DFD5",
"3] 	c #C6DFD5",
"4] 	c #C6DDD6",
"5] 	c #BCCED9",
"6] 	c #B6CBD6",
"7] 	c #B6CCD7",
"8] 	c #BBCCCF",
"9] 	c #B7B6B7",
"0] 	c #6AA3B8",
"a] 	c #4D8CA1",
"b] 	c #4989A0",
"c] 	c #4C8AA3",
"d] 	c #4B8AA1",
"e] 	c #4B8AA2",
"f] 	c #4D8BA8",
"g] 	c #4B97B6",
"h] 	c #4FA3AD",
"i] 	c #4F957D",
"j] 	c #45767F",
"k] 	c #397499",
"l] 	c #38A5D8",
"m] 	c #98CBD4",
"n] 	c #B5CCD6",
"o] 	c #B7CDDF",
"p] 	c #BCDAE7",
"q] 	c #DCE0E8",
"r] 	c #DEE0E7",
"s] 	c #E0E0CB",
"t] 	c #D4C3BC",
"u] 	c #B3B8BE",
"v] 	c #B1B9BC",
"w] 	c #B6BC97",
"x] 	c #AF884F",
"y] 	c #505653",
"z] 	c #2E577A",
"A] 	c #388B9D",
"B] 	c #7C9696",
"C] 	c #859395",
"D] 	c #849395",
"E] 	c #838F91",
"F] 	c #84898F",
"G] 	c #828A93",
"H] 	c #839295",
"I] 	c #849396",
"J] 	c #8494AB",
"K] 	c #83B7D8",
"L] 	c #A3C9D2",
"M] 	c #B5CBD6",
"N] 	c #C1CCC3",
"O] 	c #A7A8B6",
"P] 	c #54A2B8",
"Q] 	c #4FA0AF",
"R] 	c #5394AD",
"S] 	c #5A91AD",
"T] 	c #5A92AD",
"U] 	c #5A92B1",
"V] 	c #58A0B7",
"W] 	c #4F9EAF",
"X] 	c #5395AE",
"Y] 	c #5992AD",
"Z] 	c #5895AD",
"`] 	c #5A938A",
" ^ 	c #4C5B61",
".^ 	c #3A3A5A",
"+^ 	c #333B5B",
"@^ 	c #353A5B",
"#^ 	c #2B1E2A",
"$^ 	c #111927",
"%^ 	c #0B2346",
"&^ 	c #165053",
"*^ 	c #2F5952",
"=^ 	c #2F576E",
"-^ 	c #2E7CB5",
";^ 	c #48A4BB",
">^ 	c #4FA5B4",
",^ 	c #4F9C71",
"'^ 	c #485F51",
")^ 	c #2F5365",
"!^ 	c #2A81DB",
"~^ 	c #97DCEA",
"{^ 	c #DEE2EA",
"]^ 	c #E2E1EB",
"^^ 	c #E6FCE8",
"/^ 	c #F7FAE7",
"(^ 	c #E0E1E7",
"_^ 	c #E1DFDB",
":^ 	c #DABEB7",
"<^ 	c #77A3B8",
"[^ 	c #4FA4A9",
"}^ 	c #4E8D59",
"|^ 	c #3D5750",
"1^ 	c #2D5486",
"2^ 	c #28A4E4",
"3^ 	c #BAE0E8",
"4^ 	c #E1E2EB",
"5^ 	c #E2E1EA",
"6^ 	c #E3E2BA",
"7^ 	c #DA9751",
"8^ 	c #605453",
"9^ 	c #2E5144",
"0^ 	c #29363E",
"a^ 	c #283749",
"b^ 	c #2A4F50",
"c^ 	c #2A538A",
"d^ 	c #2CAAE5",
"e^ 	c #BEE0E8",
"f^ 	c #E2DCC8",
"g^ 	c #CBACB6",
"h^ 	c #55A2B8",
"i^ 	c #4FA3B9",
"j^ 	c #4FA299",
"k^ 	c #4D6772",
"l^ 	c #3F496F",
"m^ 	c #3E3E2E",
"n^ 	c #2F141B",
"o^ 	c #01030E",
"p^ 	c #0C2241",
"q^ 	c #155253",
"r^ 	c #2F576F",
"s^ 	c #43A1B8",
"t^ 	c #485E50",
"u^ 	c #305653",
"v^ 	c #2981DB",
"w^ 	c #94DDE9",
"x^ 	c #DDE3E7",
"y^ 	c #DEE0E8",
"z^ 	c #DFDEDC",
"A^ 	c #305751",
"B^ 	c #2D5485",
"C^ 	c #B6E2E7",
"D^ 	c #E1E0B8",
"E^ 	c #D89851",
"F^ 	c #5F5452",
"G^ 	c #2E5042",
"H^ 	c #26333E",
"I^ 	c #273448",
"J^ 	c #284E53",
"K^ 	c #2D548B",
"L^ 	c #29A9E5",
"M^ 	c #BAE3E7",
"N^ 	c #E1DBC9",
"O^ 	c #CCACB7",
"P^ 	c #3F4A6F",
"Q^ 	c #3E412F",
"R^ 	c #2A171D",
"S^ 	c #0F1A27",
"T^ 	c #165253",
"U^ 	c #46A4BB",
"V^ 	c #4FA6B7",
"W^ 	c #4F9C72",
"X^ 	c #2A5062",
"Y^ 	c #F4FAEA",
"Z^ 	c #ECE2E9",
"`^ 	c #E1DFDC",
" / 	c #DBBEB7",
"./ 	c #4AA2B6",
"+/ 	c #4EA3A9",
"@/ 	c #3D564F",
"#/ 	c #2A5284",
"$/ 	c #E3E2BB",
"%/ 	c #605452",
"&/ 	c #2E554F",
"*/ 	c #2D5042",
"=/ 	c #29343E",
"-/ 	c #283549",
";/ 	c #284D50",
">/ 	c #56A3B9",
",/ 	c #3C4231",
"'/ 	c #141721",
")/ 	c #0C1523",
"!/ 	c #111B28",
"~/ 	c #131E2B",
"{/ 	c #1A222B",
"]/ 	c #102642",
"^/ 	c #2E576B",
"// 	c #3078AF",
"(/ 	c #469BAF",
"_/ 	c #4C9CAF",
":/ 	c #4C9DAC",
"</ 	c #4E996F",
"[/ 	c #475E50",
"}/ 	c #2F575F",
"|/ 	c #336569",
"1/ 	c #496A66",
"2/ 	c #4A6A66",
"3/ 	c #4A6775",
"4/ 	c #4A91DB",
"5/ 	c #9DE0E7",
"6/ 	c #DEE4E7",
"7/ 	c #E2E2E8",
"8/ 	c #E2E3E8",
"9/ 	c #F4FFE6",
"0/ 	c #F6F8DC",
"a/ 	c #E5DAE0",
"b/ 	c #CED1DA",
"c/ 	c #CFD2DA",
"d/ 	c #CFD3D4",
"e/ 	c #C9BDBD",
"f/ 	c #7CA5BA",
"g/ 	c #5FAABC",
"h/ 	c #63ABBD",
"i/ 	c #67ABAD",
"j/ 	c #6B9D67",
"k/ 	c #586B66",
"l/ 	c #4A6A67",
"m/ 	c #49698F",
"n/ 	c #4CAEE2",
"o/ 	c #B9E3E7",
"p/ 	c #DFE2DD",
"q/ 	c #D8D9D7",
"r/ 	c #CFD2D8",
"s/ 	c #D4D6AB",
"t/ 	c #CB964E",
"u/ 	c #5B5553",
"v/ 	c #2F5659",
"w/ 	c #315E5F",
"x/ 	c #33605F",
"y/ 	c #335D55",
"z/ 	c #2D4451",
"A/ 	c #2D434E",
"B/ 	c #2C3B47",
"C/ 	c #2A3745",
"D/ 	c #2A3645",
"E/ 	c #2B3852",
"F/ 	c #2D545E",
"G/ 	c #336060",
"H/ 	c #2F5B93",
"I/ 	c #2BAAE5",
"J/ 	c #BBE3E7",
"K/ 	c #E1DBC7",
"L/ 	c #CBAAB4",
"M/ 	c #4D9CB1",
"N/ 	c #4AA0B5",
"O/ 	c #3F4133",
"P/ 	c #2B1E26",
"Q/ 	c #151A29",
"R/ 	c #101326",
"S/ 	c #101225",
"T/ 	c #0D0E1E",
"U/ 	c #020207",
"V/ 	c #0B1221",
"W/ 	c #19454A",
"X/ 	c #2F5754",
"Y/ 	c #2F595A",
"Z/ 	c #315D5B",
"`/ 	c #325D5B",
" ( 	c #325D53",
".( 	c #2B5AB1",
"+( 	c #4CC9E6",
"@( 	c #C7D9DD",
"#( 	c #D3D5DE",
"$( 	c #D6E1E4",
"%( 	c #E9FDE8",
"&( 	c #F3FCE7",
"*( 	c #F5FFEA",
"=( 	c #F4FFDB",
"-( 	c #F8E168",
";( 	c #BA6257",
">( 	c #40625F",
",( 	c #406360",
"'( 	c #3E6499",
")( 	c #45B7E3",
"!( 	c #B8DBDE",
"~( 	c #D4DCE4",
"{( 	c #D4DBE3",
"]( 	c #D5DCE4",
"^( 	c #D3D5DD",
"/( 	c #D3D6DF",
"(( 	c #D4DBE4",
"_( 	c #DCDEE7",
":( 	c #E3DC9C",
"<( 	c #D0805C",
"[( 	c #4E615F",
"}( 	c #3F635F",
"|( 	c #40635F",
"1( 	c #3F615B",
"2( 	c #3C5B53",
"3( 	c #315753",
"4( 	c #2E5992",
"5( 	c #348FB2",
"6( 	c #4C9DB1",
"7( 	c #4C9EB1",
"8( 	c #4C9EB0",
"9( 	c #4D9E9C",
"0( 	c #414870",
"a( 	c #3F4A96",
"b( 	c #398BB2",
"c( 	c #4C9EB2",
"d( 	c #4B9FBE",
"e( 	c #49C1E5",
"f( 	c #C1E2E9",
"g( 	c #DEE1E2",
"h( 	c #E3D98F",
"i( 	c #CA765B",
"j( 	c #385657",
"k( 	c #305F5D",
"l( 	c #2F64A9",
"m( 	c #389EBA",
"n( 	c #3F496E",
"o( 	c #3B456C",
"p( 	c #3B446B",
"q( 	c #37446D",
"r( 	c #384460",
"s( 	c #30362A",
"t( 	c #060A13",
"u( 	c #02142F",
"v( 	c #084652",
"w( 	c #2A5ABA",
"x( 	c #4ECAE9",
"y( 	c #D4E5E9",
"z( 	c #E1E1EB",
"A( 	c #E1E6E8",
"B( 	c #EBFFE8",
"C( 	c #F8E166",
"D( 	c #B85950",
"E( 	c #275250",
"F( 	c #295294",
"G( 	c #2CB1E6",
"H( 	c #C0E4E7",
"I( 	c #DEE1E1",
"J( 	c #CE774E",
"K( 	c #3C4F51",
"L( 	c #295450",
"M( 	c #2B5451",
"N( 	c #2B5753",
"O( 	c #3094BA",
"P( 	c #4DA4B9",
"Q( 	c #3E4A96",
"R( 	c #4091B9",
"S( 	c #4EA5C5",
"T( 	c #49C2E5",
"U( 	c #C86E50",
"V( 	c #365352",
"W( 	c #2C5556",
"X( 	c #2E62A8",
"Y( 	c #399EBB",
"Z( 	c #404976",
"`( 	c #3F4961",
" _ 	c #313528",
"._ 	c #070A11",
"+_ 	c #071431",
"@_ 	c #094550",
"#_ 	c #2B5653",
"$_ 	c #D1E5E7",
"%_ 	c #DEE5E8",
"&_ 	c #E9FEE8",
"*_ 	c #B85B50",
"=_ 	c #2A5653",
"-_ 	c #2C5495",
";_ 	c #2DB1E6",
">_ 	c #C0E3E7",
",_ 	c #CE7951",
"'_ 	c #4DA5C5",
")_ 	c #C86F50",
"!_ 	c #365453",
"~_ 	c #2C5759",
"{_ 	c #30362B",
"]_ 	c #060B14",
"^_ 	c #05080F",
"/_ 	c #070912",
"(_ 	c #101734",
"__ 	c #0B4651",
":_ 	c #2A5AB9",
"<_ 	c #D3E2E8",
"[_ 	c #E1E6EA",
"}_ 	c #E9FCE9",
"|_ 	c #F7FCEA",
"1_ 	c #F8FCEA",
"2_ 	c #F7FDE9",
"3_ 	c #F7FEE8",
"4_ 	c #F8E165",
"5_ 	c #B8594F",
"6_ 	c #295250",
"7_ 	c #2A5494",
"8_ 	c #30B2E6",
"9_ 	c #E3DB9B",
"0_ 	c #CE774F",
"a_ 	c #3D5051",
"b_ 	c #2B5550",
"c_ 	c #2B5353",
"d_ 	c #2D5992",
"e_ 	c #3194BA",
"f_ 	c #50A3A0",
"g_ 	c #4F7773",
"h_ 	c #424971",
"i_ 	c #3F90B9",
"j_ 	c #4CA4C2",
"k_ 	c #4DC2E5",
"l_ 	c #BFE0E7",
"m_ 	c #E0E2E5",
"n_ 	c #E2D88E",
"o_ 	c #C96F50",
"p_ 	c #3B4460",
"q_ 	c #323524",
"r_ 	c #14101E",
"s_ 	c #06060C",
"t_ 	c #04070D",
"u_ 	c #020308",
"v_ 	c #10172A",
"w_ 	c #192C3B",
"x_ 	c #233D41",
"y_ 	c #243D40",
"z_ 	c #263A41",
"A_ 	c #1F4D52",
"B_ 	c #2F5953",
"C_ 	c #306851",
"D_ 	c #346851",
"E_ 	c #346252",
"F_ 	c #2D5993",
"G_ 	c #42A9BF",
"H_ 	c #9EB4B5",
"I_ 	c #A7AFB5",
"J_ 	c #A7B0B5",
"K_ 	c #A6B2B6",
"L_ 	c #ADC0BA",
"M_ 	c #B7C1B5",
"N_ 	c #B7C1B6",
"O_ 	c #B7C4C6",
"P_ 	c #B7E9E7",
"Q_ 	c #E8FDE8",
"R_ 	c #F4FFE0",
"S_ 	c #F7EAA4",
"T_ 	c #D1A8A3",
"U_ 	c #9EACA1",
"V_ 	c #9EACA2",
"W_ 	c #9DAABA",
"X_ 	c #A0D3E5",
"Y_ 	c #D7EEE7",
"Z_ 	c #E9EDE8",
"`_ 	c #E8ECE8",
" : 	c #E9ECE8",
".: 	c #E7EBE8",
"+: 	c #E7EAE8",
"@: 	c #DEE0E6",
"#: 	c #E1DEBA",
"$: 	c #D2AD9E",
"%: 	c #959DA0",
"&: 	c #919EA1",
"*: 	c #919DA1",
"=: 	c #8FA5A6",
"-: 	c #9DACA2",
";: 	c #9EABA2",
">: 	c #9DB0B6",
",: 	c #9FC3CA",
"': 	c #A6CCCC",
"): 	c #A6CBCC",
"!: 	c #9FC1CF",
"~: 	c #9ABFCD",
"{: 	c #9DBEBF",
"]: 	c #9B9C95",
"^: 	c #597994",
"/: 	c #477792",
"(: 	c #4679AF",
"_: 	c #49ADCD",
":: 	c #8FBFCA",
"<: 	c #9BC0CD",
"[: 	c #9CC0CC",
"}: 	c #99C4D3",
"|: 	c #A1C5CD",
"1: 	c #ACC7D3",
"2: 	c #AFC8D1",
"3: 	c #B6C27F",
"4: 	c #9B6B52",
"5: 	c #355552",
"6: 	c #2D5759",
"7: 	c #3E4567",
"8: 	c #3D3D49",
"9: 	c #33314B",
"0: 	c #2B324C",
"a: 	c #292A41",
"b: 	c #1B1624",
"c: 	c #0B0C1E",
"d: 	c #050716",
"e: 	c #0F2B45",
"f: 	c #1D4F51",
"g: 	c #2F5B52",
"h: 	c #337A4E",
"i: 	c #3B7D4F",
"j: 	c #3B7C4F",
"k: 	c #3B6E51",
"l: 	c #2F5551",
"m: 	c #2A5550",
"n: 	c #2A554F",
"o: 	c #29544F",
"p: 	c #28544F",
"q: 	c #285351",
"r: 	c #25539B",
"s: 	c #2ECAE8",
"t: 	c #D8FBE9",
"u: 	c #F5FDE9",
"v: 	c #F5F9EB",
"w: 	c #F5FAE9",
"x: 	c #F5F9E9",
"y: 	c #F5FCE8",
"z: 	c #F3F9E7",
"A: 	c #ECE1E7",
"B: 	c #DFF0E9",
"C: 	c #EFFAE8",
"D: 	c #F5FAE6",
"E: 	c #F6FCE9",
"F: 	c #F5FCE6",
"G: 	c #F5FCE7",
"H: 	c #F4F9E6",
"I: 	c #E8E1E7",
"J: 	c #E0DFDB",
"K: 	c #D9C0B7",
"L: 	c #76A2B8",
"M: 	c #4DA5CF",
"N: 	c #54CEE7",
"O: 	c #CCE1E5",
"P: 	c #DFE0E7",
"Q: 	c #DFDFDC",
"R: 	c #D8C2B9",
"S: 	c #80A2B8",
"T: 	c #519E76",
"U: 	c #4C6251",
"V: 	c #325652",
"W: 	c #2F5658",
"X: 	c #414873",
"Y: 	c #404C73",
"Z: 	c #3E4355",
"`: 	c #33271E",
" < 	c #121423",
".< 	c #0B0D20",
"+< 	c #0B3049",
"@< 	c #205454",
"#< 	c #3B7E4F",
"$< 	c #2B539C",
"%< 	c #34CAE8",
"&< 	c #E0F4E8",
"*< 	c #F2FFE7",
"=< 	c #F4F9E7",
"-< 	c #E0DEDC",
";< 	c #DBBFB7",
">< 	c #79A3B8",
",< 	c #4CA5CF",
"'< 	c #54CDE6",
")< 	c #D0E3E9",
"!< 	c #4F9E78",
"~< 	c #496250",
"{< 	c #325552",
"]< 	c #404A75",
"^< 	c #3F4756",
"/< 	c #3A2A1B",
"(< 	c #130F20",
"_< 	c #030100",
":< 	c #060707",
"<< 	c #09020B",
"[< 	c #130214",
"}< 	c #152B39",
"|< 	c #1F4E4E",
"1< 	c #2D5751",
"2< 	c #2B5654",
"3< 	c #2A5755",
"4< 	c #2C549A",
"5< 	c #34C5E8",
"6< 	c #D3F5E9",
"7< 	c #F4F8E8",
"8< 	c #F3FFE8",
"9< 	c #EDE1E7",
"0< 	c #DFF3E8",
"a< 	c #DBBFB6",
"b< 	c #79A2B8",
"c< 	c #4CA6CE",
"d< 	c #5ACFE4",
"e< 	c #DFE0E5",
"f< 	c #DBC3B8",
"g< 	c #7DA3B8",
"h< 	c #4EA4B5",
"i< 	c #4F9E79",
"j< 	c #4B6253",
"k< 	c #2F5755",
"l< 	c #2D61A8",
"m< 	c #3F4971",
"n< 	c #3E4A73",
"o< 	c #404A74",
"p< 	c #3E4755",
"q< 	c #33291C",
"r< 	c #13111E",
"s< 	c #091018",
"t< 	c #030612",
"u< 	c #03040D",
"v< 	c #032EB0",
"w< 	c #1F468A",
"x< 	c #3C7989",
"y< 	c #3D7889",
"z< 	c #3B92BB",
"A< 	c #78B4BB",
"B< 	c #A8B3B7",
"C< 	c #ABB3B6",
"D< 	c #B0B792",
"E< 	c #A78351",
"F< 	c #4B5553",
"G< 	c #306751",
"H< 	c #346751",
"I< 	c #336751",
"J< 	c #2E5674",
"K< 	c #3188A3",
"L< 	c #86A4A4",
"M< 	c #9AA89D",
"N< 	c #99A79F",
"O< 	c #98ADD7",
"P< 	c #ABF3EA",
"Q< 	c #F1F2E7",
"R< 	c #ECF1E7",
"S< 	c #EBF1E7",
"T< 	c #ECF2E7",
"U< 	c #EDF2E7",
"V< 	c #ECEAE7",
"W< 	c #E1DFE8",
"X< 	c #DEE9E2",
"Y< 	c #E8F1E8",
"Z< 	c #ECF8E7",
"`< 	c #F3EFE7",
" [ 	c #E6E9E8",
".[ 	c #DFDFE4",
"+[ 	c #DDD4D7",
"@[ 	c #B9C7D4",
"#[ 	c #AFC8D4",
"$[ 	c #B0CAD3",
"%[ 	c #ABBFC8",
"&[ 	c #93BAC7",
"*[ 	c #97BECB",
"=[ 	c #98BDC6",
"-[ 	c #9DBB9F",
";[ 	c #949B9D",
">[ 	c #8D9A9D",
",[ 	c #909C99",
"'[ 	c #919087",
")[ 	c #537C86",
"![ 	c #3D7A84",
"~[ 	c #3D7B82",
"{[ 	c #3D7B90",
"][ 	c #418598",
"^[ 	c #438996",
"/[ 	c #438997",
"([ 	c #468BAF",
"_[ 	c #48A1B8",
":[ 	c #4FA3A2",
"<[ 	c #4F778B",
"[[ 	c #576188",
"}[ 	c #586289",
"|[ 	c #586288",
"1[ 	c #5B638B",
"2[ 	c #586189",
"3[ 	c #596285",
"4[ 	c #5C5673",
"5[ 	c #494973",
"6[ 	c #3E4867",
"7[ 	c #3E4057",
"8[ 	c #323958",
"9[ 	c #313A5A",
"0[ 	c #2F3859",
"a[ 	c #31362F",
"b[ 	c #1A111C",
"c[ 	c #050402",
"d[ 	c #0A3AAB",
"e[ 	c #3798BA",
"f[ 	c #52A6B9",
"g[ 	c #4AB2E2",
"h[ 	c #9EDDE7",
"i[ 	c #E2E2B6",
"j[ 	c #D99451",
"k[ 	c #5C5453",
"l[ 	c #2B554F",
"m[ 	c #2B5155",
"n[ 	c #2A6CCD",
"o[ 	c #79EDEC",
"p[ 	c #EEFEE8",
"q[ 	c #DEECE7",
"r[ 	c #EEFEE7",
"s[ 	c #F2E7E7",
"t[ 	c #E0DED4",
"u[ 	c #D4B5B7",
"v[ 	c #65A2B8",
"w[ 	c #50A4AF",
"x[ 	c #529964",
"y[ 	c #465B51",
"z[ 	c #2D5552",
"A[ 	c #2F5550",
"B[ 	c #2E5C9D",
"C[ 	c #3499BA",
"D[ 	c #4EA3A7",
"E[ 	c #507F98",
"F[ 	c #666F98",
"G[ 	c #686E90",
"H[ 	c #675D73",
"I[ 	c #4D4973",
"J[ 	c #3F4B70",
"K[ 	c #3F4232",
"L[ 	c #2B171B",
"M[ 	c #050508",
"N[ 	c #0737A3",
"O[ 	c #2A95B5",
"P[ 	c #4FA5BC",
"Q[ 	c #9FDEE8",
"R[ 	c #E2DFB5",
"S[ 	c #D79451",
"T[ 	c #5B5453",
"U[ 	c #2A6ACE",
"V[ 	c #DEECE8",
"W[ 	c #EEFFE7",
"X[ 	c #E0DED1",
"Y[ 	c #D6B5B7",
"Z[ 	c #4F9864",
"`[ 	c #455A50",
" } 	c #339ABB",
".} 	c #4EA2AA",
"+} 	c #636F99",
"@} 	c #686F8C",
"#} 	c #3F4A70",
"$} 	c #2D1418",
"%} 	c #2C96B6",
"&} 	c #4EB3E3",
"*} 	c #A3DFEA",
"=} 	c #DEE2EB",
"-} 	c #E3E2B7",
";} 	c #D7924F",
">} 	c #595050",
",} 	c #E2E0D0",
"'} 	c #65A3B9",
")} 	c #4EA5BB",
"!} 	c #4F9865",
"~} 	c #3F4233",
"{} 	c #1B161F",
"]} 	c #010000",
"^} 	c #0737A1",
"/} 	c #2B93B3",
"(} 	c #4D9DB0",
"_} 	c #4C9DB2",
":} 	c #4BB1E1",
"<} 	c #96D8E2",
"[} 	c #CFD5DC",
"}} 	c #D2D5DA",
"|} 	c #DAD9AD",
"1} 	c #CE9558",
"2} 	c #626360",
"3} 	c #436561",
"4} 	c #436662",
"5} 	c #456761",
"6} 	c #43645D",
"7} 	c #405C53",
"8} 	c #E6E2E8",
"9} 	c #F3FBE7",
"0} 	c #DEE2DA",
"a} 	c #D5D7DB",
"b} 	c #D2D4DC",
"c} 	c #D2D4DD",
"d} 	c #DAD7CC",
"e} 	c #CBB3B4",
"f} 	c #5B9EB3",
"g} 	c #4C9EAB",
"h} 	c #4E9664",
"i} 	c #445A50",
"j} 	c #305A5C",
"k} 	c #325E5C",
"l} 	c #325F5D",
"m} 	c #2F609E",
"n} 	c #349ABB",
"o} 	c #4FA4AE",
"p} 	c #686F8D",
"q} 	c #3F4235",
"r} 	c #2C1C22",
"s} 	c #131826",
"t} 	c #101626",
"u} 	c #191C28",
"v} 	c #141C29",
"w} 	c #090B1B",
"x} 	c #072A4E",
"y} 	c #1B565A",
"z} 	c #325F5E",
"A} 	c #326062",
"B} 	c #3C6563",
"C} 	c #476864",
"D} 	c #476765",
"E} 	c #4669A1",
"F} 	c #4FBCE2",
"G} 	c #BBD8DB",
"H} 	c #D0D3DB",
"I} 	c #D0D4DB",
"J} 	c #D2E8E2",
"K} 	c #E5EBDC",
"L} 	c #E4EBDB",
"M} 	c #E2E2B9",
"N} 	c #DA9C51",
"O} 	c #645552",
"P} 	c #ECE3E7",
"Q} 	c #F3FBE8",
"R} 	c #F3FDDB",
"S} 	c #F7E26C",
"T} 	c #BC665C",
"U} 	c #476664",
"V} 	c #46645E",
"W} 	c #435E57",
"X} 	c #335F5E",
"Y} 	c #335E53",
"Z} 	c #2F5777",
"`} 	c #317FB0",
" | 	c #489BB0",
".| 	c #4BA0B4",
"+| 	c #4FA365",
"@| 	c #54A64C",
"#| 	c #61A84B",
"$| 	c #62A96D",
"%| 	c #60A6B4",
"&| 	c #53A3B8",
"*| 	c #3B446A",
"=| 	c #3A446B",
"-| 	c #3B4461",
";| 	c #3D341D",
">| 	c #1F1623",
",| 	c #010204",
"'| 	c #072A49",
")| 	c #175353",
"!| 	c #2C5652",
"~| 	c #2B5350",
"{| 	c #29539D",
"]| 	c #32B8E7",
"^| 	c #C9E3E9",
"/| 	c #E2E3EB",
"(| 	c #E7FEE9",
"_| 	c #F8FFEB",
":| 	c #F7FBBA",
"<| 	c #EEAA50",
"[| 	c #6A5552",
"}| 	c #DEF3E8",
"|| 	c #F8E267",
"1| 	c #BA5A50",
"2| 	c #2F5778",
"3| 	c #2E83B7",
"4| 	c #48A3BA",
"5| 	c #4EA55A",
"6| 	c #53A856",
"7| 	c #5AA685",
"8| 	c #5AA783",
"9| 	c #63AB69",
"0| 	c #61A6B4",
"a| 	c #414C76",
"b| 	c #414B76",
"c| 	c #404A76",
"d| 	c #3F4963",
"e| 	c #3B341B",
"f| 	c #201B29",
"g| 	c #020305",
"h| 	c #185354",
"i| 	c #2C559E",
"j| 	c #33B8E7",
"k| 	c #C5E4E7",
"l| 	c #F7FABA",
"m| 	c #EDAA50",
"n| 	c #F4FFEA",
"o| 	c #BA5C50",
"p| 	c #46A1B7",
"q| 	c #4EA55B",
"r| 	c #50A76E",
"s| 	c #62AA6B",
"t| 	c #3D341A",
"u| 	c #24202E",
"v| 	c #020407",
"w| 	c #03050A",
"x| 	c #060306",
"y| 	c #040407",
"z| 	c #06091B",
"A| 	c #0B2B49",
"B| 	c #2A559D",
"C| 	c #35B9E7",
"D| 	c #685151",
"E| 	c #2B5452",
"F| 	c #E1F3E8",
"G| 	c #F1FEE7",
"H| 	c #F8FEEA",
"I| 	c #F4FEDC",
"J| 	c #F6E067",
"K| 	c #B95B50",
"L| 	c #2E83B6",
"M| 	c #4AA5BB",
"N| 	c #4FA4B1",
"O| 	c #50A3B5",
"P| 	c #62AA6A",
"Q| 	c #61A6B2",
"R| 	c #53A4B9",
"S| 	c #231F2D",
"T| 	c #081026",
"U| 	c #14333F",
"V| 	c #263536",
"W| 	c #233839",
"X| 	c #1B3745",
"Y| 	c #234047",
"Z| 	c #215453",
"`| 	c #2F555A",
" 1 	c #2E6A95",
".1 	c #61999F",
"+1 	c #879899",
"@1 	c #89969A",
"#1 	c #8899B9",
"$1 	c #8DC9E3",
"%1 	c #CEE2E7",
"&1 	c #F6FCC9",
"*1 	c #F0C599",
"=1 	c #9D9799",
"-1 	c #899799",
";1 	c #899995",
">1 	c #8F9462",
",1 	c #775F52",
"'1 	c #F4F2D8",
")1 	c #D8CDD6",
"!1 	c #B2C9D5",
"~1 	c #B3CAD5",
"{1 	c #B4CBD6",
"]1 	c #B0D1D8",
"^1 	c #C1DCD5",
"/1 	c #C3DDD4",
"(1 	c #C4DDD1",
"_1 	c #C3BF69",
":1 	c #965A51",
"<1 	c #2C5653",
"[1 	c #2F576D",
"}1 	c #31749A",
"|1 	c #418A99",
"11 	c #448A98",
"21 	c #448A97",
"31 	c #49A291",
"41 	c #56A694",
"51 	c #56A48D",
"61 	c #4FA47F",
"71 	c #50A68D",
"81 	c #5EA882",
"91 	c #63A98D",
"01 	c #59A793",
"a1 	c #56A592",
"b1 	c #56A5AF",
"c1 	c #54A3B7",
"d1 	c #518BA3",
"e1 	c #5E82A3",
"f1 	c #6283A5",
"g1 	c #6185A4",
"h1 	c #5D819B",
"i1 	c #627098",
"j1 	c #39351A",
"k1 	c #1B1725",
"l1 	c #030309",
"m1 	c #0F1A39",
"n1 	c #0C4952",
"o1 	c #2C5751",
"p1 	c #2D5652",
"q1 	c #2F5366",
"r1 	c #2A84DA",
"s1 	c #97DCE9",
"t1 	c #DBDFE7",
"u1 	c #F4EFE8",
"v1 	c #DEE2E0",
"w1 	c #E2D780",
"x1 	c #C16750",
"y1 	c #315453",
"z1 	c #F7E8B6",
"A1 	c #BAA5B7",
"B1 	c #4FA1AC",
"C1 	c #549962",
"D1 	c #455951",
"E1 	c #2E5B47",
"F1 	c #3BA03B",
"G1 	c #61AB3E",
"H1 	c #63AA35",
"I1 	c #51A4AF",
"J1 	c #53A4A9",
"K1 	c #62AA34",
"L1 	c #62A938",
"M1 	c #61A93B",
"N1 	c #61A938",
"O1 	c #63AA3B",
"P1 	c #61A93C",
"Q1 	c #62A840",
"R1 	c #62A9A3",
"S1 	c #5CA2B8",
"T1 	c #50A3B9",
"U1 	c #4FA6B4",
"V1 	c #4E9C9E",
"W1 	c #577298",
"X1 	c #3B341C",
"Y1 	c #1C1724",
"Z1 	c #091635",
"`1 	c #0B4851",
" 2 	c #295853",
".2 	c #2E5266",
"+2 	c #2983DC",
"@2 	c #97DDE9",
"#2 	c #F3EDE7",
"$2 	c #DFE3E1",
"%2 	c #E4D683",
"&2 	c #C2674F",
"*2 	c #305453",
"=2 	c #F7E9B7",
"-2 	c #BAA6B7",
";2 	c #4E9561",
">2 	c #435850",
",2 	c #2D5C45",
"'2 	c #3BA13E",
")2 	c #5AA976",
"!2 	c #51A4B0",
"~2 	c #4FA3B5",
"{2 	c #51A4AE",
"]2 	c #60AA67",
"^2 	c #51A3B1",
"/2 	c #5DA977",
"(2 	c #55A5A3",
"_2 	c #62AB47",
":2 	c #62AA41",
"<2 	c #37341F",
"[2 	c #140E1E",
"}2 	c #03020A",
"|2 	c #04050F",
"12 	c #080B15",
"22 	c #090C15",
"32 	c #0A1834",
"42 	c #0A4851",
"52 	c #2A5165",
"62 	c #2886DC",
"72 	c #98DCE9",
"82 	c #E0DFE9",
"92 	c #F3ECE7",
"02 	c #E2E0E8",
"a2 	c #DFE2E1",
"b2 	c #E3D582",
"c2 	c #C2654E",
"d2 	c #315251",
"e2 	c #F6FDE6",
"f2 	c #F6FCE5",
"g2 	c #F2E4B8",
"h2 	c #B7A6B7",
"i2 	c #4F9561",
"j2 	c #5AA97A",
"k2 	c #55A5A0",
"l2 	c #62AA3C",
"m2 	c #50A2B6",
"n2 	c #4E9C9D",
"o2 	c #587197",
"p2 	c #686E8D",
"q2 	c #675C73",
"r2 	c #37331C",
"s2 	c #1A0E1B",
"t2 	c #080D15",
"u2 	c #03050E",
"v2 	c #01020C",
"w2 	c #000208",
"x2 	c #0D293E",
"y2 	c #1F4042",
"z2 	c #264345",
"A2 	c #254146",
"B2 	c #225051",
"C2 	c #2F5557",
"D2 	c #2D65A3",
"E2 	c #5EAEBB",
"F2 	c #9FAFB1",
"G2 	c #A5AFAA",
"H2 	c #AFB0A6",
"I2 	c #95A4A7",
"J2 	c #94A2A4",
"K2 	c #95A1A5",
"L2 	c #95A3BF",
"M2 	c #99CBE3",
"N2 	c #D1E2E7",
"O2 	c #F3F6E7",
"P2 	c #EDF0E7",
"Q2 	c #ECF0E8",
"R2 	c #EBF1E5",
"S2 	c #EFE7A9",
"T2 	c #CF9696",
"U2 	c #408492",
"V2 	c #428592",
"W2 	c #428688",
"X2 	c #437854",
"Y2 	c #375752",
"Z2 	c #F3F4E7",
"`2 	c #EBEEE7",
" 3 	c #EAEDE8",
".3 	c #EAFEE7",
"+3 	c #F6FAD4",
"@3 	c #E7D5CD",
"#3 	c #ABCCCC",
"$3 	c #ABCECD",
"%3 	c #ABCECC",
"&3 	c #A7BDBB",
"*3 	c #86A3B8",
"=3 	c #62AA3D",
"-3 	c #4DA5C9",
";3 	c #57C0D5",
">3 	c #A0C6CF",
",3 	c #ABC7D3",
"'3 	c #AAC6D2",
")3 	c #AEC5C9",
"!3 	c #B6B2A8",
"~3 	c #8887A6",
"{3 	c #5E86A6",
"]3 	c #6087A7",
"^3 	c #5F8CB4",
"/3 	c #55A3B8",
"(3 	c #4FA0AC",
"_3 	c #538FA9",
":3 	c #5C8CA9",
"<3 	c #5D8CAA",
"[3 	c #5B8E9B",
"}3 	c #5A6F73",
"|3 	c #40496C",
"13 	c #3B4052",
"23 	c #333553",
"33 	c #2F3856",
"43 	c #2E3548",
"53 	c #2D221D",
"63 	c #0F0917",
"73 	c #00040D",
"83 	c #09354E",
"93 	c #205553",
"03 	c #2F5359",
"a3 	c #2A6ED1",
"b3 	c #7CD7EA",
"c3 	c #DBE2E9",
"d3 	c #E0E6D9",
"e3 	c #E1C561",
"f3 	c #9E524D",
"g3 	c #2C5350",
"h3 	c #29559D",
"i3 	c #36B9E6",
"j3 	c #F9F3C0",
"k3 	c #D7AEB7",
"l3 	c #51A2B9",
"m3 	c #4FA4AA",
"n3 	c #F8F5C3",
"o3 	c #DDB0B6",
"p3 	c #4BA6D4",
"q3 	c #5DD1E7",
"r3 	c #D2E2E7",
"s3 	c #DFE1E7",
"t3 	c #E1E5D7",
"u3 	c #E0BD99",
"v3 	c #A36E97",
"w3 	c #666E99",
"x3 	c #686F96",
"y3 	c #697AB3",
"z3 	c #5FA2B8",
"A3 	c #4E7C73",
"B3 	c #434A73",
"C3 	c #404C75",
"D3 	c #3F4759",
"E3 	c #372C1A",
"F3 	c #141423",
"G3 	c #01030C",
"H3 	c #0E344C",
"I3 	c #1F5554",
"J3 	c #2A6ED3",
"K3 	c #7AD8EA",
"L3 	c #DAE4E7",
"M3 	c #E0E3D8",
"N3 	c #E1C562",
"O3 	c #A05750",
"P3 	c #F8F4C0",
"Q3 	c #D7AEB6",
"R3 	c #4DA4BA",
"S3 	c #F8F5C4",
"T3 	c #DDB1B6",
"U3 	c #435950",
"V3 	c #5DD1E6",
"W3 	c #D5E3E9",
"X3 	c #DFDFDF",
"Y3 	c #A26F97",
"Z3 	c #60A2B8",
"`3 	c #4FA4A7",
" 4 	c #404859",
".4 	c #382D1A",
"+4 	c #030614",
"@4 	c #133446",
"#4 	c #7CD8EA",
"$4 	c #DCE4EA",
"%4 	c #E2E6DA",
"&4 	c #E2C563",
"*4 	c #A25750",
"=4 	c #2D5653",
"-4 	c #C8E3E8",
";4 	c #E0E2E9",
">4 	c #E6FEE8",
",4 	c #4EA3A6",
"'4 	c #4D8956",
")4 	c #3C5650",
"!4 	c #2B5154",
"~4 	c #2969CE",
"{4 	c #F6FFEA",
"]4 	c #F8FFEA",
"^4 	c #FAF6C4",
"/4 	c #54A2B9",
"(4 	c #42584F",
"_4 	c #55A59D",
":4 	c #58A68E",
"<4 	c #5AA77D",
"[4 	c #62A93D",
"}4 	c #5BA2B8",
"|4 	c #4AA5D3",
"14 	c #DFE2D3",
"24 	c #A26E97",
"34 	c #636E96",
"44 	c #656D95",
"54 	c #656E97",
"64 	c #382D1B",
"74 	c #141322",
"84 	c #111826",
"94 	c #1F1725",
"04 	c #0B324C",
"a4 	c #2B6ECA",
"b4 	c #76D5E7",
"c4 	c #CFD8DE",
"d4 	c #D5DBCE",
"e4 	c #DBC459",
"f4 	c #995851",
"g4 	c #2D5598",
"h4 	c #34B8E4",
"i4 	c #BDDADF",
"j4 	c #D4D6DF",
"k4 	c #D5DCE3",
"l4 	c #E5FDE8",
"m4 	c #D8AEB7",
"n4 	c #5AA4BA",
"o4 	c #58A8BB",
"p4 	c #5FA8A8",
"q4 	c #61935A",
"r4 	c #435B57",
"s4 	c #315C59",
"t4 	c #315B52",
"u4 	c #2F5757",
"v4 	c #305C5E",
"w4 	c #3B615D",
"x4 	c #3D625C",
"y4 	c #3D5E61",
"z4 	c #3978CE",
"A4 	c #7AEDEC",
"B4 	c #EFFEE8",
"C4 	c #E4E1E8",
"D4 	c #F4FCE7",
"E4 	c #F5FAE1",
"F4 	c #F0EBE5",
"G4 	c #E9EFDF",
"H4 	c #E8E4C4",
"I4 	c #CFADB6",
"J4 	c #55A0B6",
"K4 	c #509FB4",
"L4 	c #4F9662",
"M4 	c #465E5B",
"N4 	c #315C57",
"O4 	c #305A53",
"P4 	c #5DA87B",
"Q4 	c #63AB48",
"R4 	c #6CAF49",
"S4 	c #6AAC53",
"T4 	c #64A9A4",
"U4 	c #64A3B9",
"V4 	c #59A8BB",
"W4 	c #5AA8BB",
"X4 	c #5AA8BA",
"Y4 	c #59ABD2",
"Z4 	c #D4E3E9",
"`4 	c #DFDFDE",
" 5 	c #A3779B",
".5 	c #6E779C",
"+5 	c #6E779D",
"@5 	c #716E99",
"#5 	c #519FB5",
"$5 	c #51A0B5",
"%5 	c #4E7C74",
"&5 	c #464972",
"*5 	c #434873",
"=5 	c #382D1C",
"-5 	c #241822",
";5 	c #171B26",
">5 	c #121928",
",5 	c #0C1221",
"'5 	c #050614",
")5 	c #172837",
"!5 	c #205051",
"~5 	c #2C524F",
"{5 	c #2D534E",
"]5 	c #295352",
"^5 	c #2F5866",
"/5 	c #3A6B6C",
"(5 	c #4E6D69",
"_5 	c #4F6D67",
":5 	c #4D6353",
"<5 	c #3E5953",
"[5 	c #2F565C",
"}5 	c #30646B",
"|5 	c #4A6D69",
"15 	c #4E6C69",
"25 	c #4E696D",
"35 	c #4B81D0",
"45 	c #84EEEC",
"55 	c #EDE0E4",
"65 	c #CFD8E1",
"75 	c #D1D8DD",
"85 	c #D6C8B5",
"95 	c #879EB1",
"05 	c #4C9BAE",
"a5 	c #4B9CA2",
"b5 	c #4D8B57",
"c5 	c #3E5751",
"d5 	c #2D5493",
"e5 	c #32B6DF",
"f5 	c #C4E3E2",
"g5 	c #E1E8D9",
"h5 	c #E1E4E5",
"i5 	c #E6FDE9",
"j5 	c #F2FAE7",
"k5 	c #F0E5E7",
"l5 	c #E1E5DD",
"m5 	c #E2D09D",
"n5 	c #BA667C",
"o5 	c #5F6881",
"p5 	c #5E6682",
"q5 	c #5E6480",
"r5 	c #575777",
"s5 	c #43557B",
"t5 	c #42547B",
"u5 	c #42547A",
"v5 	c #4055A2",
"w5 	c #4299BA",
"x5 	c #4FA3AB",
"y5 	c #4C9C95",
"z5 	c #4C7A52",
"A5 	c #61A848",
"B5 	c #5EADAF",
"C5 	c #74D4DA",
"D5 	c #C5D9D7",
"E5 	c #D4D8D6",
"F5 	c #D1D9E0",
"G5 	c #D0D9E3",
"H5 	c #D1DCE5",
"I5 	c #DDDFE8",
"J5 	c #DEDDE5",
"K5 	c #D5D8E2",
"L5 	c #D0D7E0",
"M5 	c #D1D7DE",
"N5 	c #D9D6B9",
"O5 	c #D58F97",
"P5 	c #756C98",
"Q5 	c #4E9C9F",
"R5 	c #577599",
"S5 	c #66739C",
"T5 	c #68749D",
"U5 	c #68749B",
"V5 	c #656E94",
"W5 	c #636B92",
"X5 	c #666D96",
"Y5 	c #626B92",
"Z5 	c #676879",
"`5 	c #5C4B72",
" 6 	c #3F486B",
".6 	c #3A446A",
"+6 	c #3A4469",
"@6 	c #392732",
"#6 	c #121320",
"$6 	c #020209",
"%6 	c #082847",
"&6 	c #195353",
"*6 	c #2B5553",
"=6 	c #2A5054",
"-6 	c #296BCF",
";6 	c #7CEDEC",
">6 	c #F0E3E7",
",6 	c #E1E0E4",
"'6 	c #DECBB9",
")6 	c #96A4B8",
"!6 	c #4FA5BB",
"~6 	c #4FA5AC",
"{6 	c #2C539C",
"]6 	c #DCFCE9",
"^6 	c #FAFFEB",
"/6 	c #E3CD71",
"(6 	c #B35072",
"_6 	c #384771",
":6 	c #3C4770",
"<6 	c #3D4771",
"[6 	c #3E4DA0",
"}6 	c #4199BA",
"|6 	c #4FA39C",
"16 	c #4D7B52",
"26 	c #385652",
"36 	c #5FADBD",
"46 	c #77D8EC",
"56 	c #D7E4EA",
"66 	c #E3E2EC",
"76 	c #E2E3E9",
"86 	c #E2DEBF",
"96 	c #D89097",
"06 	c #766C98",
"a6 	c #587297",
"b6 	c #696A7A",
"c6 	c #5E4B72",
"d6 	c #424873",
"e6 	c #404C72",
"f6 	c #3F4338",
"g6 	c #23151C",
"h6 	c #060616",
"i6 	c #0A2747",
"j6 	c #1B5353",
"k6 	c #2F5357",
"l6 	c #2A6BCF",
"m6 	c #DEDEE4",
"n6 	c #4FA3A8",
"o6 	c #D8FBE8",
"p6 	c #DEE1E0",
"q6 	c #E3CD72",
"r6 	c #B35172",
"s6 	c #394873",
"t6 	c #62A939",
"u6 	c #60ADB9",
"v6 	c #D6E4E9",
"w6 	c #E1DDBD",
"x6 	c #3F4A71",
"y6 	c #3E4438",
"z6 	c #1C1D28",
"A6 	c #092847",
"B6 	c #1C5353",
"C6 	c #2A6CCF",
"D6 	c #DFDFE3",
"E6 	c #96A3B8",
"F6 	c #2B5351",
"G6 	c #2A539B",
"H6 	c #35CAE8",
"I6 	c #F8FDEB",
"J6 	c #EFE3E7",
"K6 	c #E2E1EC",
"L6 	c #E1E6DF",
"M6 	c #E3CE71",
"N6 	c #355652",
"O6 	c #4EA3B9",
"P6 	c #5EA865",
"Q6 	c #60A952",
"R6 	c #61A952",
"S6 	c #61A950",
"T6 	c #62A93B",
"U6 	c #60ADB8",
"V6 	c #78D8EC",
"W6 	c #E0DBC2",
"X6 	c #687095",
"Y6 	c #3D4439",
"Z6 	c #18212D",
"`6 	c #0A2646",
" 7 	c #1B4B4F",
".7 	c #2E4F4F",
"+7 	c #2D4D4F",
"@7 	c #2D4F52",
"#7 	c #2E566E",
"$7 	c #318197",
"%7 	c #749292",
"&7 	c #809091",
"*7 	c #808E93",
"=7 	c #809FD4",
"-7 	c #A3F2EB",
";7 	c #F1EBE7",
">7 	c #E8EEDD",
",7 	c #E5D7C8",
"'7 	c #B0B6C6",
")7 	c #8AB9C7",
"!7 	c #91B9BA",
"~7 	c #8BA39D",
"{7 	c #558C9C",
"]7 	c #468E9D",
"^7 	c #4491AF",
"/7 	c #45A0B7",
"(7 	c #2E5768",
"_7 	c #326C7C",
":7 	c #3A747B",
"<7 	c #3B747B",
"[7 	c #3A788D",
"}7 	c #428E99",
"|7 	c #819A96",
"17 	c #8B9B92",
"27 	c #8A9DB4",
"37 	c #88DBE7",
"47 	c #E0FCE8",
"57 	c #F5FEE3",
"67 	c #F3F0DA",
"77 	c #D0E0D6",
"87 	c #CAE1D6",
"97 	c #CAE1D7",
"07 	c #C8DECC",
"a7 	c #BCC0C3",
"b7 	c #B6B9C5",
"c7 	c #B6BDBB",
"d7 	c #C6B470",
"e7 	c #9E5072",
"f7 	c #3B4873",
"g7 	c #4FA398",
"h7 	c #4E8A4D",
"i7 	c #48774D",
"j7 	c #43784D",
"k7 	c #43784E",
"l7 	c #436053",
"m7 	c #2F5C4C",
"n7 	c #39784C",
"o7 	c #44784D",
"p7 	c #417844",
"q7 	c #47A444",
"r7 	c #58A885",
"s7 	c #55A4A2",
"t7 	c #60AC87",
"u7 	c #72BB8C",
"v7 	c #92BD8A",
"w7 	c #96BD89",
"x7 	c #95BB8A",
"y7 	c #93BEC7",
"z7 	c #9FE3EA",
"A7 	c #DFEBE8",
"B7 	c #E5E8E8",
"C7 	c #E4E6E8",
"D7 	c #5197AD",
"E7 	c #5792AD",
"F7 	c #5993AE",
"G7 	c #57909C",
"H7 	c #5C7198",
"I7 	c #18212E",
"J7 	c #010004",
"K7 	c #0A2245",
"L7 	c #193341",
"M7 	c #2D3843",
"N7 	c #293644",
"O7 	c #283F51",
"P7 	c #2C559C",
"Q7 	c #33B9E7",
"R7 	c #C5DFE5",
"S7 	c #DDE1E6",
"T7 	c #F4F4E8",
"U7 	c #E5E0E7",
"V7 	c #DEE0E9",
"W7 	c #DFDEC1",
"X7 	c #DBA250",
"Y7 	c #6C534F",
"Z7 	c #2E5C9F",
"`7 	c #2E5889",
" 8 	c #318DB7",
".8 	c #4DA3B8",
"+8 	c #4BA5D5",
"@8 	c #6FE3EB",
"#8 	c #E2F6E9",
"$8 	c #F4F8E7",
"%8 	c #F3F8E5",
"&8 	c #F3F9E6",
"*8 	c #F2FEE7",
"=8 	c #F6FCD9",
"-8 	c #F0CBB3",
";8 	c #7CA1B8",
">8 	c #499A85",
",8 	c #47536E",
"'8 	c #3C4772",
")8 	c #3E4B72",
"!8 	c #4FA496",
"~8 	c #4FA83D",
"{8 	c #60AB3A",
"]8 	c #63AA3A",
"^8 	c #63A847",
"/8 	c #5E7353",
"(8 	c #365653",
"_8 	c #2E6742",
":8 	c #46A63E",
"<8 	c #62AA3B",
"[8 	c #63AA39",
"}8 	c #56A795",
"|8 	c #56A59B",
"18 	c #63A83C",
"28 	c #5EB2D0",
"38 	c #8EDCE8",
"48 	c #D8E0E5",
"58 	c #E5FBE8",
"68 	c #E1DCBE",
"78 	c #4EA2A9",
"88 	c #507E97",
"98 	c #666E98",
"08 	c #010107",
"a8 	c #092245",
"b8 	c #13313F",
"c8 	c #C6E4E7",
"d8 	c #DFE1E8",
"e8 	c #F3F3E7",
"f8 	c #E1E1C1",
"g8 	c #DBA252",
"h8 	c #6D5552",
"i8 	c #2F5888",
"j8 	c #2F8EB9",
"k8 	c #4AA3B8",
"l8 	c #4AA6D5",
"m8 	c #77ECEB",
"n8 	c #F0CCB4",
"o8 	c #495271",
"p8 	c #4FA497",
"q8 	c #50A738",
"r8 	c #52A5A1",
"s8 	c #56A69C",
"t8 	c #64AA43",
"u8 	c #46A73B",
"v8 	c #58A88E",
"w8 	c #53A4AB",
"x8 	c #56A59A",
"y8 	c #63A841",
"z8 	c #5FB2D1",
"A8 	c #90DDED",
"B8 	c #DAE2E9",
"C8 	c #E1FBE8",
"D8 	c #646F99",
"E8 	c #121826",
"F8 	c #070917",
"G8 	c #0B2245",
"H8 	c #16313E",
"I8 	c #28363E",
"J8 	c #2B5552",
"K8 	c #2B549E",
"L8 	c #6C5351",
"M8 	c #2E5554",
"N8 	c #3D5650",
"O8 	c #2E5688",
"P8 	c #2E8EB9",
"Q8 	c #4CA4BA",
"R8 	c #49A5D5",
"S8 	c #F7FCD9",
"T8 	c #7DA3B9",
"U8 	c #4B5372",
"V8 	c #50A737",
"W8 	c #54A5A6",
"X8 	c #64AA42",
"Y8 	c #46A73A",
"Z8 	c #56A797",
"`8 	c #50A3B3",
" 9 	c #53A4A6",
".9 	c #58A68D",
"+9 	c #62A841",
"@9 	c #5FB2D0",
"#9 	c #DAE1E8",
"$9 	c #E0FAE8",
"%9 	c #E1DDBC",
"&9 	c #60A2B9",
"*9 	c #3D3F38",
"=9 	c #101624",
"-9 	c #020107",
";9 	c #080917",
">9 	c #180812",
",9 	c #160B14",
"'9 	c #0C1832",
")9 	c #0F2346",
"!9 	c #20313D",
"~9 	c #2A414F",
"{9 	c #2C5651",
"]9 	c #285651",
"^9 	c #285553",
"/9 	c #25579E",
"(9 	c #35BAE5",
"_9 	c #C7E3E8",
":9 	c #E7E0E8",
"<9 	c #E0E0C0",
"[9 	c #DBA14F",
"}9 	c #6B5351",
"|9 	c #285257",
"19 	c #27659F",
"29 	c #3199BA",
"39 	c #53A4A8",
"49 	c #569256",
"59 	c #3E5951",
"69 	c #2B5751",
"79 	c #2B5651",
"89 	c #285554",
"99 	c #275B88",
"09 	c #2A8FB7",
"a9 	c #74ECEB",
"b9 	c #F4FEE8",
"c9 	c #F2FAE5",
"d9 	c #F2F5D9",
"e9 	c #E7C6B7",
"f9 	c #77A3B7",
"g9 	c #4EA3B2",
"h9 	c #4F9D86",
"i9 	c #3E4BA0",
"j9 	c #64AA3C",
"k9 	c #5E7252",
"l9 	c #385653",
"m9 	c #2C6542",
"n9 	c #46A638",
"o9 	c #56A796",
"p9 	c #54A5A5",
"q9 	c #63AA2E",
"r9 	c #65AB36",
"s9 	c #65AC36",
"t9 	c #64AB36",
"u9 	c #64AB37",
"v9 	c #61A844",
"w9 	c #60B3CF",
"x9 	c #8EDDED",
"y9 	c #DAE2E8",
"z9 	c #E0FBE8",
"A9 	c #E1DCBF",
"B9 	c #697AB4",
"C9 	c #60A3B9",
"D9 	c #4FA2A8",
"E9 	c #508098",
"F9 	c #3C3734",
"G9 	c #27151D",
"H9 	c #101520",
"I9 	c #0E161F",
"J9 	c #070C18",
"K9 	c #050A17",
"L9 	c #081535",
"M9 	c #194249",
"N9 	c #2C4B48",
"O9 	c #2C4C48",
"P9 	c #284C4D",
"Q9 	c #2B493E",
"R9 	c #2D363A",
"S9 	c #2B373F",
"T9 	c #283758",
"U9 	c #2271C8",
"V9 	c #8FCCD4",
"W9 	c #CAD5CA",
"X9 	c #CDD6C8",
"Y9 	c #CDD3D4",
"Z9 	c #CBEAE7",
"`9 	c #EAF6E7",
" 0 	c #F0FCE7",
".0 	c #F0F6DD",
"+0 	c #E9E4C8",
"@0 	c #D1D6C8",
"#0 	c #CDD6C9",
"$0 	c #CDD8D0",
"%0 	c #CFE3D8",
"&0 	c #D1E6D9",
"*0 	c #D1E5D5",
"=0 	c #CDD8C7",
"-0 	c #BEC3C7",
";0 	c #BBC1C7",
">0 	c #BAD1D0",
",0 	c #CDD3D2",
"'0 	c #CEDFDA",
")0 	c #D1E5D9",
"!0 	c #D1E6DD",
"~0 	c #D4F9E8",
"{0 	c #F0E9E7",
"]0 	c #E4E7E8",
"^0 	c #E5E7E8",
"/0 	c #E4DEC7",
"(0 	c #C1BBC2",
"_0 	c #8BBBC3",
":0 	c #8BBDC4",
"<0 	c #8AB8AD",
"[0 	c #858E88",
"}0 	c #526988",
"|0 	c #446687",
"10 	c #446785",
"20 	c #45667B",
"30 	c #434C73",
"40 	c #3E4D9B",
"50 	c #3B88A6",
"60 	c #4C90A7",
"70 	c #4A90A5",
"80 	c #4A8FA5",
"90 	c #4D91AF",
"00 	c #4CA0B7",
"a0 	c #50A4B3",
"b0 	c #54A5A7",
"c0 	c #5C9B65",
"d0 	c #599945",
"e0 	c #589944",
"f0 	c #579B41",
"g0 	c #56A96E",
"h0 	c #5CA777",
"i0 	c #5EA988",
"j0 	c #63C1C4",
"k0 	c #A7D1C7",
"l0 	c #C4D1C4",
"m0 	c #CDDBC4",
"n0 	c #D2E7CB",
"o0 	c #D2E6CC",
"p0 	c #D2E8DD",
"q0 	c #D9F7E9",
"r0 	c #EEF6E7",
"s0 	c #F2EBE7",
"t0 	c #E6E8E8",
"u0 	c #E3E5E8",
"v0 	c #E1DCC1",
"w0 	c #6972A0",
"x0 	c #677DA3",
"y0 	c #647DA2",
"z0 	c #637CA1",
"A0 	c #627CA1",
"B0 	c #627C9E",
"C0 	c #647399",
"D0 	c #3E4766",
"E0 	c #3C4260",
"F0 	c #353E61",
"G0 	c #353F61",
"H0 	c #33395A",
"I0 	c #2A181C",
"J0 	c #120C1B",
"K0 	c #091637",
"L0 	c #0C4951",
"M0 	c #2E5143",
"N0 	c #28375D",
"O0 	c #2085DD",
"P0 	c #ACF5EB",
"Q0 	c #F6FEE9",
"R0 	c #F5FEEA",
"S0 	c #F8FEEB",
"T0 	c #F6FEEB",
"U0 	c #F9FEE8",
"V0 	c #F8FFE7",
"W0 	c #F7F6EA",
"X0 	c #E9E2E9",
"Y0 	c #E5FBE9",
"Z0 	c #F9FEE9",
"`0 	c #F6FEEA",
" a 	c #F7FFE9",
".a 	c #E0D4BC",
"+a 	c #B1A5B7",
"@a 	c #50A29E",
"#a 	c #4F7573",
"$a 	c #3E4EA4",
"%a 	c #419ABA",
"&a 	c #5EA978",
"*a 	c #61AA5D",
"=a 	c #60AA69",
"-a 	c #5FA859",
";a 	c #61A985",
">a 	c #63C8E8",
",a 	c #C2E2EA",
"'a 	c #E2FBE8",
")a 	c #F6FFEB",
"!a 	c #E1DDBB",
"~a 	c #414D77",
"{a 	c #3F4966",
"]a 	c #3D351B",
"^a 	c #211422",
"/a 	c #010206",
"(a 	c #0C4A51",
"_a 	c #2F5852",
":a 	c #2C383F",
"<a 	c #2086DD",
"[a 	c #ADF6EB",
"}a 	c #F6FDE8",
"|a 	c #E0E3E0",
"1a 	c #E0D5BC",
"2a 	c #4E7573",
"3a 	c #429BBA",
"4a 	c #56A599",
"5a 	c #57A595",
"6a 	c #56A596",
"7a 	c #60A84E",
"8a 	c #62A882",
"9a 	c #63C8E6",
"0a 	c #C3E2EA",
"aa 	c #E1DCC0",
"ba 	c #766C97",
"ca 	c #646E96",
"da 	c #666E95",
"ea 	c #687096",
"fa 	c #3E361B",
"ga 	c #221322",
"ha 	c #081737",
"ia 	c #0D4A52",
"ja 	c #2D3945",
"ka 	c #2D3841",
"la 	c #2A3960",
"ma 	c #E9E1E8",
"na 	c #F5FDE3",
"oa 	c #EAF3E1",
"pa 	c #EBEFE8",
"qa 	c #F0FEE8",
"ra 	c #F5FDE5",
"sa 	c #EDF5E1",
"ta 	c #EBF1E0",
"ua 	c #E3E0E7",
"va 	c #D7DDE5",
"wa 	c #D7DCE4",
"xa 	c #DFD4BC",
"ya 	c #A9A4B6",
"za 	c #404B75",
"Aa 	c #414C75",
"Ba 	c #414C74",
"Ca 	c #429ABA",
"Da 	c #4EA18E",
"Ea 	c #50A836",
"Fa 	c #61AA54",
"Ga 	c #65AB42",
"Ha 	c #6AAE43",
"Ia 	c #6AAD47",
"Ja 	c #66AB86",
"Ka 	c #66C9E6",
"La 	c #D89096",
"Ma 	c #77769C",
"Na 	c #6C749A",
"Oa 	c #6C749B",
"Pa 	c #6C749D",
"Qa 	c #6C6D98",
"Ra 	c #69709B",
"Sa 	c #686A7A",
"Ta 	c #414872",
"Ua 	c #210F20",
"Va 	c #0B1939",
"Wa 	c #2E5352",
"Xa 	c #2E534F",
"Ya 	c #2E516A",
"Za 	c #2893DF",
"`a 	c #F3FEE7",
" b 	c #F3EBE7",
".b 	c #E4E4E8",
"+b 	c #E2E5E4",
"@b 	c #E5DEA1",
"#b 	c #D18C6D",
"$b 	c #64746F",
"%b 	c #5B766F",
"&b 	c #5B737C",
"*b 	c #5A97DB",
"=b 	c #A1E1E7",
"-b 	c #DFE5E7",
";b 	c #E3E4E6",
">b 	c #DBA36C",
",b 	c #76756F",
"'b 	c #5C7374",
")b 	c #5987AB",
"!b 	c #5EA5BF",
"~b 	c #6CAEBF",
"{b 	c #6BAEBE",
"]b 	c #6EACBA",
"^b 	c #61A2B8",
"/b 	c #3F4A86",
"(b 	c #3A79AE",
"_b 	c #4898AD",
":b 	c #4C98AD",
"<b 	c #4B98AC",
"[b 	c #4F9AB2",
"}b 	c #4FA364",
"|b 	c #55A655",
"1b 	c #60A855",
"2b 	c #60A856",
"3b 	c #5BA679",
"4b 	c #56A597",
"5b 	c #61A857",
"6b 	c #5EB3C3",
"7b 	c #8CD7D8",
"8b 	c #CAD7D4",
"9b 	c #D1D7D3",
"0b 	c #D0D7D7",
"ab 	c #D3EBE6",
"bb 	c #ECFAE7",
"cb 	c #E8E4E8",
"db 	c #E3E4E8",
"eb 	c #D8D6D8",
"fb 	c #CDD3DD",
"gb 	c #CCD1DB",
"hb 	c #D0D5D7",
"ib 	c #DAC89F",
"jb 	c #B77397",
"kb 	c #6970A0",
"lb 	c #698BB5",
"mb 	c #599CB4",
"nb 	c #539CB2",
"ob 	c #519E99",
"pb 	c #506C76",
"qb 	c #484D76",
"rb 	c #45517A",
"sb 	c #474E78",
"tb 	c #47535B",
"ub 	c #425356",
"vb 	c #325656",
"wb 	c #305656",
"xb 	c #30555F",
"yb 	c #2E4F72",
"zb 	c #221422",
"Ab 	c #0A1A3A",
"Bb 	c #2E536B",
"Cb 	c #2994DF",
"Db 	c #CD744E",
"Eb 	c #3A4E50",
"Fb 	c #29544E",
"Gb 	c #E2E0B7",
"Hb 	c #D8944F",
"Ib 	c #5B4F50",
"Jb 	c #28544E",
"Kb 	c #2A5155",
"Lb 	c #2D5FA5",
"Mb 	c #4DA3BA",
"Nb 	c #4EA550",
"Ob 	c #55A856",
"Pb 	c #5CA776",
"Qb 	c #5CA775",
"Rb 	c #57A594",
"Sb 	c #63A846",
"Tb 	c #5FB4D8",
"Ub 	c #97DEED",
"Vb 	c #DDE3EB",
"Wb 	c #E2F1E8",
"Xb 	c #F3F2E7",
"Yb 	c #E2E5E3",
"Zb 	c #E1CEA0",
"`b 	c #BC7397",
" c 	c #676D99",
".c 	c #698DB7",
"+c 	c #55A4BA",
"@c 	c #4FA39D",
"#c 	c #4E6C72",
"$c 	c #404871",
"%c 	c #3D4B55",
"&c 	c #385A53",
"*c 	c #2F5859",
"=c 	c #2C5072",
"-c 	c #221423",
";c 	c #071B3B",
">c 	c #0D4B53",
",c 	c #2F5750",
"'c 	c #2F536B",
")c 	c #CD7851",
"!c 	c #2C5851",
"~c 	c #D89651",
"{c 	c #5D5453",
"]c 	c #50A77E",
"^c 	c #60B4D3",
"/c 	c #DEEFE8",
"(c 	c #F0FFE7",
"_c 	c #55A3B7",
":c 	c #414A73",
"<c 	c #060710",
"[c 	c #111F3D",
"}c 	c #0E4A52",
"|c 	c #2A534E",
"1c 	c #2A5169",
"2c 	c #2A95DF",
"3c 	c #3B4E51",
"4c 	c #2A82DB",
"5c 	c #DFE3EB",
"6c 	c #E3E2B9",
"7c 	c #DA9651",
"8c 	c #5E5453",
"9c 	c #3F4A87",
"0c 	c #4CA3BA",
"ac 	c #50A77D",
"bc 	c #F6F4E7",
"cc 	c #E6E1E8",
"dc 	c #E2E7DE",
"ec 	c #696D98",
"fc 	c #4FA29C",
"gc 	c #414975",
"hc 	c #395A53",
"ic 	c #3D361B",
"jc 	c #231624",
"kc 	c #030409",
"lc 	c #020205",
"mc 	c #15202C",
"nc 	c #1F3035",
"oc 	c #213135",
"pc 	c #242F36",
"qc 	c #203A70",
"rc 	c #24768C",
"sc 	c #6F8B8A",
"tc 	c #778989",
"uc 	c #778795",
"vc 	c #76B1DF",
"wc 	c #EFF7E7",
"xc 	c #F1FDE7",
"yc 	c #E7E8E8",
"zc 	c #E5E9E4",
"Ac 	c #E7E3AD",
"Bc 	c #D89F8D",
"Cc 	c #7C8889",
"Dc 	c #77898C",
"Ec 	c #7E9EC6",
"Fc 	c #93C5CC",
"Gc 	c #B7C1C6",
"Hc 	c #BAC0C5",
"Ic 	c #C0C49C",
"Jc 	c #B78B4F",
"Kc 	c #525553",
"Lc 	c #4F8389",
"Mc 	c #466888",
"Nc 	c #446887",
"Oc 	c #446886",
"Pc 	c #456579",
"Qc 	c #424A73",
"Rc 	c #404A82",
"Sc 	c #3A75A2",
"Tc 	c #4490A1",
"Uc 	c #4791A1",
"Vc 	c #4791A0",
"Wc 	c #4A92AD",
"Xc 	c #46A0B7",
"Yc 	c #99E4EC",
"Zc 	c #E1E9E8",
"`c 	c #E5F4E8",
" d 	c #EFF4DF",
".d 	c #E7EADC",
"+d 	c #CFE4D8",
"@d 	c #D0E5D8",
"#d 	c #CDDEDB",
"$d 	c #BECFDA",
"%d 	c #BED0DB",
"&d 	c #BFD5E4",
"*d 	c #D2DEE8",
"=d 	c #DCD6DE",
"-d 	c #C0CEDA",
";d 	c #C1CFD4",
">d 	c #CBC6A6",
",d 	c #AA7F9E",
"'d 	c #627BA0",
")d 	c #647EA2",
"!d 	c #637E9D",
"~d 	c #607399",
"{d 	c #6971A0",
"]d 	c #677EA3",
"^d 	c #647FA1",
"/d 	c #648BA7",
"(d 	c #4E92A2",
"_d 	c #48928B",
":d 	c #48656B",
"<d 	c #3B4467",
"[d 	c #3A4367",
"}d 	c #3A4565",
"|d 	c #3A4651",
"1d 	c #3A4D50",
"2d 	c #2C4E4F",
"3d 	c #2D4F4C",
"4d 	c #2E5156",
"5d 	c #2B4C72",
"6d 	c #3F4969",
"7d 	c #3B3B3B",
"8d 	c #2D263B",
"9d 	c #21273E",
"0d 	c #1F263E",
"ad 	c #242B37",
"bd 	c #151926",
"cd 	c #02050E",
"dd 	c #133748",
"ed 	c #265552",
"fd 	c #2B58A7",
"gd 	c #3FC3E9",
"hd 	c #CADFE4",
"id 	c #DEE7E6",
"jd 	c #F1E4E7",
"kd 	c #DFE7E8",
"ld 	c #EAFFE7",
"md 	c #F4FDE4",
"nd 	c #F2E7E8",
"od 	c #DCDCE6",
"pd 	c #DCE2D5",
"qd 	c #E2C75F",
"rd 	c #9D524B",
"sd 	c #4EA3B0",
"td 	c #4F977D",
"ud 	c #494C72",
"vd 	c #404A6B",
"wd 	c #40524E",
"xd 	c #335852",
"yd 	c #2D5A9A",
"zd 	c #60B7D3",
"Ad 	c #A2F7EB",
"Bd 	c #F2FEE8",
"Cd 	c #F2E5E7",
"Dd 	c #E1D9C2",
"Ed 	c #C2A6B6",
"Fd 	c #51A1B8",
"Gd 	c #4AA3BF",
"Hd 	c #50BCE4",
"Id 	c #B2E1EA",
"Jd 	c #E1DDD1",
"Kd 	c #D4B2B6",
"Ld 	c #61A1B8",
"Md 	c #4CA4B9",
"Nd 	c #4AA1B6",
"Od 	c #4EA4A8",
"Pd 	c #6978B3",
"Qd 	c #61A2B9",
"Rd 	c #4EA4A1",
"Sd 	c #4E8153",
"Td 	c #375853",
"Ud 	c #2F564F",
"Vd 	c #2C4143",
"Wd 	c #273540",
"Xd 	c #273440",
"Yd 	c #273441",
"Zd 	c #283441",
"`d 	c #29353F",
" e 	c #29354D",
".e 	c #283E72",
"+e 	c #394973",
"@e 	c #3E4970",
"#e 	c #3F454B",
"$e 	c #312321",
"%e 	c #070718",
"&e 	c #010511",
"*e 	c #08364D",
"=e 	c #245553",
"-e 	c #2B57AD",
";e 	c #3EC2E8",
">e 	c #CDE5E7",
",e 	c #F1E5E7",
"'e 	c #DEE6E8",
")e 	c #E0E4D9",
"!e 	c #E1C664",
"~e 	c #A2564F",
"{e 	c #3E4869",
"]e 	c #414E51",
"^e 	c #335652",
"/e 	c #2E5B9A",
"(e 	c #A1F6EB",
"_e 	c #E1D9C3",
":e 	c #C2A8B7",
"<e 	c #4CA4BF",
"[e 	c #48B9E4",
"}e 	c #B0E0E8",
"|e 	c #E0DDD1",
"1e 	c #D4B3B7",
"2e 	c #6978B2",
"3e 	c #4FA39F",
"4e 	c #4D8053",
"5e 	c #395651",
"6e 	c #2F554A",
"7e 	c #2D4140",
"8e 	c #29364D",
"9e 	c #283F72",
"0e 	c #40464A",
"ae 	c #3A231B",
"be 	c #080718",
"ce 	c #010510",
"de 	c #08364C",
"ee 	c #235553",
"fe 	c #CCE5E6",
"ge 	c #DEE7E8",
"he 	c #EBFFE7",
"ie 	c #F5FDE8",
"je 	c #E2C664",
"ke 	c #A35850",
"le 	c #494C71",
"me 	c #3F496B",
"ne 	c #404F51",
"oe 	c #52A4AA",
"pe 	c #58A68B",
"qe 	c #62A846",
"re 	c #F5FDE7",
"se 	c #4EA5BF",
"te 	c #62A2B9",
"ue 	c #3A5652",
"ve 	c #2F564B",
"we 	c #394974",
"xe 	c #40464B",
"ye 	c #2A2221",
"ze 	c #060615",
"Ae 	c #010612",
"Be 	c #07384F",
"Ce 	c #CBE4E6",
"De 	c #F0FAE6",
"Ee 	c #E9E3E3",
"Fe 	c #DDDDE7",
"Ge 	c #DDE3D6",
"He 	c #E0C75E",
"Ie 	c #A15851",
"Je 	c #4F967C",
"Ke 	c #4A4D74",
"Le 	c #3F5251",
"Me 	c #325753",
"Ne 	c #59A68C",
"Oe 	c #62A932",
"Pe 	c #65AB35",
"Qe 	c #64AB38",
"Re 	c #62A947",
"Se 	c #61B8D3",
"Te 	c #9FF6EB",
"Ue 	c #F6FEE7",
"Ve 	c #F4FCE9",
"We 	c #F3FBE9",
"Xe 	c #EDE6E8",
"Ye 	c #DCDFE7",
"Ze 	c #E2DAC2",
"`e 	c #BEA8B6",
" f 	c #51A2B8",
".f 	c #4FA5B6",
"+f 	c #4FA3BE",
"@f 	c #B0DFE8",
"#f 	c #6977B4",
"$f 	c #62A3B9",
"%f 	c #4EA2A0",
"&f 	c #2D413F",
"*f 	c #283F71",
"=f 	c #3A4874",
"-f 	c #3F474B",
";f 	c #262425",
">f 	c #2A55AD",
",f 	c #42D2E9",
"'f 	c #DAF6E8",
")f 	c #EEF2E7",
"!f 	c #F3F5E7",
"~f 	c #EAEAE8",
"{f 	c #E6E9E6",
"]f 	c #E7E7C0",
"^f 	c #DCB38E",
"/f 	c #94988F",
"(f 	c #889990",
"_f 	c #81928F",
":f 	c #7E8E8F",
"<f 	c #7E8E90",
"[f 	c #7E9088",
"}f 	c #828454",
"|f 	c #5E5953",
"1f 	c #2F5779",
"2f 	c #327D9F",
"3f 	c #448E9E",
"4f 	c #468E9E",
"5f 	c #468F9E",
"6f 	c #4493B1",
"7f 	c #4FA1A5",
"8f 	c #4C8DA3",
"9f 	c #498CA2",
"0f 	c #4D8EA5",
"af 	c #4A8E8F",
"bf 	c #4B7452",
"cf 	c #5DA772",
"df 	c #5DAA9A",
"ef 	c #69C7C1",
"ff 	c #AECFC0",
"gf 	c #C0CFBE",
"hf 	c #BFCEC0",
"if 	c #BED5DF",
"jf 	c #D6FCE9",
"kf 	c #F5FDD0",
"lf 	c #EFDF87",
"mf 	c #B4C589",
"nf 	c #9CC58B",
"of 	c #9BC58A",
"pf 	c #97C3AE",
"qf 	c #96B7C6",
"rf 	c #8AB8C7",
"sf 	c #91B8BD",
"tf 	c #7DA4B8",
"uf 	c #4FA377",
"vf 	c #55A66F",
"wf 	c #5DA76F",
"xf 	c #5EA686",
"yf 	c #5BC5E1",
"zf 	c #BCF3E9",
"Af 	c #ECF5E7",
"Bf 	c #EEF5E8",
"Cf 	c #F2F1CF",
"Df 	c #E3B9B6",
"Ef 	c #62A2B8",
"Ff 	c #5793AD",
"Gf 	c #5897AA",
"Hf 	c #579081",
"If 	c #50767E",
"Jf 	c #3A737A",
"Kf 	c #3B7470",
"Lf 	c #3A6752",
"Mf 	c #2E504D",
"Nf 	c #2D4D4E",
"Of 	c #2D4D4D",
"Pf 	c #2D4C43",
"Qf 	c #283544",
"Rf 	c #293953",
"Sf 	c #2D3B53",
"Tf 	c #303C53",
"Uf 	c #313D5F",
"Vf 	c #2F4473",
"Wf 	c #2A2120",
"Xf 	c #2A55AC",
"Yf 	c #43D7EA",
"Zf 	c #E0FDE8",
"`f 	c #E8E0E8",
" g 	c #E2DFB1",
".g 	c #D68D4F",
"+g 	c #534F51",
"@g 	c #2F5783",
"#g 	c #2E8BB8",
"$g 	c #4D7E52",
"%g 	c #395652",
"&g 	c #50A3B4",
"*g 	c #61A940",
"=g 	c #60ABAA",
"-g 	c #6CD3EA",
";g 	c #E0E4E8",
">g 	c #F5FFEB",
",g 	c #F6FCC7",
"'g 	c #EDD34A",
")g 	c #91A83C",
"!g 	c #62A995",
"~g 	c #4EA54E",
"{g 	c #57A947",
"]g 	c #61A943",
"^g 	c #63A767",
"/g 	c #61C9E0",
"(g 	c #C4FBEA",
"_g 	c #F8F9CE",
":g 	c #E8BCB6",
"<g 	c #4FA4BB",
"[g 	c #2E5344",
"}g 	c #293656",
"|g 	c #294273",
"1g 	c #2C211F",
"2g 	c #000612",
"3g 	c #225452",
"4g 	c #2C5551",
"5g 	c #2954AC",
"6g 	c #F4F7E8",
"7g 	c #EAE1E9",
"8g 	c #E0E1EA",
"9g 	c #E3E0B2",
"0g 	c #D78E51",
"ag 	c #555453",
"bg 	c #2E5782",
"cg 	c #4EA650",
"dg 	c #53A86B",
"eg 	c #61A941",
"fg 	c #60ABA6",
"gg 	c #F6FFE9",
"hg 	c #F7FFEB",
"ig 	c #94A93E",
"jg 	c #60AB3E",
"kg 	c #62AA3E",
"lg 	c #62AA96",
"mg 	c #5EA3B8",
"ng 	c #4FA64C",
"og 	c #50A686",
"pg 	c #5CA772",
"qg 	c #62A96A",
"rg 	c #61C9E2",
"sg 	c #C4FBEB",
"tg 	c #F9F9CE",
"ug 	c #445A4F",
"vg 	c #2E5244",
"wg 	c #28353F",
"xg 	c #283656",
"yg 	c #3A201A",
"zg 	c #050A1C",
"Ag 	c #073449",
"Bg 	c #325B56",
"Cg 	c #325A58",
"Dg 	c #2E5EAD",
"Eg 	c #3FD8EA",
"Fg 	c #F6F8E4",
"Gg 	c #E6DEE5",
"Hg 	c #D8DBE0",
"Ig 	c #DDDDAA",
"Jg 	c #D08F4F",
"Kg 	c #545453",
"Lg 	c #305955",
"Mg 	c #305956",
"Ng 	c #2F5B82",
"Og 	c #2E5C9A",
"Pg 	c #4FA456",
"Qg 	c #57A73D",
"Rg 	c #5EA76E",
"Sg 	c #60A84C",
"Tg 	c #58A592",
"Ug 	c #F6FDE3",
"Vg 	c #F3FCE4",
"Wg 	c #EDF8E6",
"Xg 	c #EEF8E6",
"Yg 	c #EEF2CB",
"Zg 	c #EED44A",
"`g 	c #93AA3A",
" h 	c #60AC3B",
".h 	c #50A685",
"+h 	c #5DA770",
"@h 	c #62A968",
"#h 	c #5FC3DB",
"$h 	c #C3EBE1",
"%h 	c #EDF3E3",
"&h 	c #EDECCD",
"*h 	c #DDB6B6",
"=h 	c #475D57",
"-h 	c #2F5955",
";h 	c #283641",
">h 	c #2A3857",
",h 	c #284273",
"'h 	c #080E39",
")h 	c #007ABB",
"!h 	c #92CFD8",
"~h 	c #C4CBD2",
"{h 	c #C6CAD2",
"]h 	c #C7CDDA",
"^h 	c #D2F3E7",
"/h 	c #DFE3E8",
"(h 	c #E4E5E8",
"_h 	c #E2F7E8",
":h 	c #F2E8E7",
"<h 	c #E2E6D8",
"[h 	c #E4C979",
"}h 	c #A87976",
"|h 	c #607776",
"1h 	c #5F7875",
"2h 	c #617666",
"3h 	c #5B6252",
"4h 	c #355753",
"5h 	c #2E5A92",
"6h 	c #358DAA",
"7h 	c #4A97A9",
"8h 	c #4999AE",
"9h 	c #4BA0B7",
"0h 	c #2F5764",
"ah 	c #2F6FA8",
"bh 	c #4295AA",
"ch 	c #4D98B0",
"dh 	c #49A1B6",
"eh 	c #50A4A4",
"fh 	c #51A5A4",
"gh 	c #51A6A8",
"hh 	c #50A189",
"ih 	c #50A755",
"jh 	c #50A4AA",
"kh 	c #F1E7E7",
"lh 	c #E2E6DF",
"mh 	c #E5D986",
"nh 	c #CABA64",
"oh 	c #85B86D",
"ph 	c #83B96C",
"qh 	c #84B765",
"rh 	c #86B13C",
"sh 	c #61A59C",
"th 	c #53A5A5",
"uh 	c #62AA3A",
"vh 	c #50A783",
"wh 	c #51A3B2",
"xh 	c #62AC55",
"yh 	c #65A374",
"zh 	c #669374",
"Ah 	c #6B9674",
"Bh 	c #6A9A94",
"Ch 	c #69A4B8",
"Dh 	c #51A3B7",
"Eh 	c #4FA2A7",
"Fh 	c #4C97A9",
"Gh 	c #4A9895",
"Hh 	c #4B7D53",
"Ih 	c #29364B",
"Jh 	c #283E6C",
"Kh 	c #36456C",
"Lh 	c #3C456C",
"Mh 	c #3C466E",
"Nh 	c #39201A",
"Oh 	c #0E154A",
"Ph 	c #0C83DE",
"Qh 	c #A2E0E8",
"Rh 	c #E0E3EB",
"Sh 	c #E3F8E9",
"Th 	c #DFF6E8",
"Uh 	c #DFE3D6",
"Vh 	c #E1C15F",
"Wh 	c #9A514D",
"Xh 	c #2A524F",
"Yh 	c #2A5451",
"Zh 	c #2A5753",
"`h 	c #2E5A97",
" i 	c #3197BA",
".i 	c #2F5765",
"+i 	c #2E73B2",
"@i 	c #42A2BB",
"#i 	c #50A4A8",
"$i 	c #DFE2DE",
"%i 	c #DED36B",
"&i 	c #C2AD3A",
"*i 	c #60A75B",
"=i 	c #5DA76D",
"-i 	c #5CA76E",
";i 	c #5BA76D",
">i 	c #52A5A9",
",i 	c #62AA39",
"'i 	c #62AB50",
")i 	c #619C4C",
"!i 	c #4B7D4D",
"~i 	c #357A4E",
"{i 	c #3A7B4B",
"]i 	c #3A7B8D",
"^i 	c #3698B9",
"/i 	c #4FA4A2",
"(i 	c #3B4975",
"_i 	c #292222",
":i 	c #10194B",
"<i 	c #DFE2E8",
"[i 	c #DFF7E8",
"}i 	c #9B5750",
"|i 	c #2F5766",
"1i 	c #40A0B9",
"2i 	c #50A837",
"3i 	c #C3AE39",
"4i 	c #5BA692",
"5i 	c #62AC51",
"6i 	c #639A4F",
"7i 	c #4D7D4F",
"8i 	c #3C7D4F",
"9i 	c #3B7C4D",
"0i 	c #3B7C8F",
"ai 	c #4098B9",
"bi 	c #4FA29E",
"ci 	c #40474B",
"di 	c #22282D",
"ei 	c #020101",
"fi 	c #050513",
"gi 	c #0E245E",
"hi 	c #E1E0EA",
"ii 	c #E0F7E9",
"ji 	c #F8FBEB",
"ki 	c #EDE2E8",
"li 	c #E3F7E9",
"mi 	c #2B524F",
"ni 	c #4D7E53",
"oi 	c #365650",
"pi 	c #2E5762",
"qi 	c #4FA73C",
"ri 	c #5CA85B",
"si 	c #62A83D",
"ti 	c #60AAA9",
"ui 	c #6CD3EB",
"vi 	c #D1E3E9",
"wi 	c #E3E5EB",
"xi 	c #E9FEE9",
"yi 	c #F9FFEC",
"zi 	c #F9FEEC",
"Ai 	c #5BA691",
"Bi 	c #62AA95",
"Ci 	c #639A4E",
"Di 	c #4C7D4F",
"Ei 	c #3A3949",
"Fi 	c #1B1C28",
"Gi 	c #000102",
"Hi 	c #162832",
"Ii 	c #27292C",
"Ji 	c #222C30",
"Ki 	c #173162",
"Li 	c #1486DE",
"Mi 	c #A3E0E8",
"Ni 	c #DFE1D7",
"Oi 	c #DDD7C7",
"Pi 	c #CED3C7",
"Qi 	c #CDD2C8",
"Ri 	c #C3C7C9",
"Si 	c #BFC2CA",
"Ti 	c #BFC3CB",
"Ui 	c #BFC4CB",
"Vi 	c #C0C6D5",
"Wi 	c #CBECE6",
"Xi 	c #EBF7E7",
"Yi 	c #F0F7E7",
"Zi 	c #DFE2D9",
"`i 	c #E0C982",
" j 	c #AA8380",
".j 	c #6E8182",
"+j 	c #6D8282",
"@j 	c #71837D",
"#j 	c #6D7976",
"$j 	c #3E6E73",
"%j 	c #376D71",
"&j 	c #376D9D",
"*j 	c #3799B9",
"=j 	c #4FA1A9",
"-j 	c #4C92A7",
";j 	c #4A92A7",
">j 	c #4C92AC",
",j 	c #4D9DB6",
"'j 	c #4FA3A1",
")j 	c #508771",
"!j 	c #3D6D71",
"~j 	c #386C71",
"{j 	c #376E79",
"]j 	c #367DB3",
"^j 	c #46A1B9",
"/j 	c #4FA39E",
"(j 	c #4EA465",
"_j 	c #5CA764",
":j 	c #5EA765",
"<j 	c #5CA999",
"[j 	c #67CACB",
"}j 	c #B5D3CA",
"|j 	c #C8D3C8",
"1j 	c #C9D4C8",
"2j 	c #D5E4CC",
"3j 	c #D6E9CF",
"4j 	c #D0DBC8",
"5j 	c #C8D2C8",
"6j 	c #C5D2C1",
"7j 	c #CECC62",
"8j 	c #B7AD46",
"9j 	c #59A599",
"0j 	c #56A69E",
"aj 	c #62A884",
"bj 	c #61A99F",
"cj 	c #53A59F",
"dj 	c #53A5A3",
"ej 	c #53A4B6",
"fj 	c #5FAA6D",
"gj 	c #5F9C6C",
"hj 	c #4F8859",
"ij 	c #46884B",
"jj 	c #448756",
"kj 	c #41848F",
"lj 	c #4D95A4",
"mj 	c #4A97A4",
"nj 	c #4997A4",
"oj 	c #489DB4",
"pj 	c #2E5347",
"qj 	c #2C3E44",
"rj 	c #2A3D47",
"sj 	c #2A3D4C",
"tj 	c #294169",
"uj 	c #35446A",
"vj 	c #3B4469",
"wj 	c #3B4569",
"xj 	c #3A4671",
"yj 	c #3F4753",
"zj 	c #2D2B38",
"Aj 	c #212A3F",
"Bj 	c #1B233A",
"Cj 	c #191A2A",
"Dj 	c #0C0D1C",
"Ej 	c #0B1A33",
"Fj 	c #185053",
"Gj 	c #2F5472",
"Hj 	c #2891E0",
"Ij 	c #A5E0E8",
"Jj 	c #E1DDA5",
"Kj 	c #D1783D",
"Lj 	c #403941",
"Mj 	c #263640",
"Nj 	c #283840",
"Oj 	c #293840",
"Pj 	c #283942",
"Qj 	c #1E4655",
"Rj 	c #275853",
"Sj 	c #2D5755",
"Tj 	c #295BA5",
"Uj 	c #3DBFE6",
"Vj 	c #C8E4E6",
"Wj 	c #E5FEE8",
"Xj 	c #DBDDE4",
"Yj 	c #DADBE4",
"Zj 	c #DFDCD3",
"`j 	c #D4B9B7",
" k 	c #65A1B7",
".k 	c #4FA5B1",
"+k 	c #4F9179",
"@k 	c #484C75",
"#k 	c #3F498E",
"$k 	c #3E89B8",
"%k 	c #4EA3B5",
"&k 	c #51A2B6",
"*k 	c #4EA4B4",
"=k 	c #4EA281",
"-k 	c #4FA53D",
";k 	c #66AC38",
">k 	c #65AC38",
",k 	c #65AB3A",
"'k 	c #64AB39",
")k 	c #64AB3C",
"!k 	c #65AB39",
"~k 	c #64AB3A",
"{k 	c #65AB38",
"]k 	c #64AB3B",
"^k 	c #65AB37",
"/k 	c #66AC39",
"(k 	c #64AC41",
"_k 	c #5BA596",
":k 	c #62AA47",
"<k 	c #63AA38",
"[k 	c #5EA870",
"}k 	c #5AA688",
"|k 	c #59A689",
"1k 	c #62A860",
"2k 	c #61A6B3",
"3k 	c #54A3B8",
"4k 	c #4EA3BA",
"5k 	c #5CA77C",
"6k 	c #60A95B",
"7k 	c #5EA674",
"8k 	c #5F8951",
"9k 	c #3E7B51",
"0k 	c #3B7B50",
"ak 	c #3B7B55",
"bk 	c #3A81AC",
"ck 	c #46A0BA",
"dk 	c #2F584F",
"ek 	c #2E4941",
"fk 	c #2A3741",
"gk 	c #273769",
"hk 	c #2E4774",
"ik 	c #3C496F",
"jk 	c #3A373A",
"kk 	c #251C23",
"lk 	c #070B19",
"mk 	c #061F3F",
"nk 	c #115053",
"ok 	c #2F5851",
"pk 	c #2E5371",
"qk 	c #DFDDA4",
"rk 	c #CF7338",
"sk 	c #46363E",
"tk 	c #24343F",
"uk 	c #25323D",
"vk 	c #2A55A5",
"wk 	c #38BDE8",
"xk 	c #C9E4E7",
"yk 	c #DEE1E8",
"zk 	c #E0E1E9",
"Ak 	c #E2E0D6",
"Bk 	c #D8B8B7",
"Ck 	c #6BA3B9",
"Dk 	c #494A71",
"Ek 	c #3F498F",
"Fk 	c #3F89B8",
"Gk 	c #4EA486",
"Hk 	c #50A83F",
"Ik 	c #54A5A0",
"Jk 	c #54A4A3",
"Kk 	c #58A78B",
"Lk 	c #58A787",
"Mk 	c #57A691",
"Nk 	c #5AA77F",
"Ok 	c #5EA85F",
"Pk 	c #5CA774",
"Qk 	c #53A5A4",
"Rk 	c #54A4A5",
"Sk 	c #5DA869",
"Tk 	c #62AA61",
"Uk 	c #53A5AB",
"Vk 	c #59A792",
"Wk 	c #5F884F",
"Xk 	c #3F7C4F",
"Yk 	c #3A7C4C",
"Zk 	c #3B7C56",
"`k 	c #3B82AC",
" l 	c #2F574E",
".l 	c #404B72",
"+l 	c #40443B",
"@l 	c #0A111F",
"#l 	c #052343",
"$l 	c #293643",
"%l 	c #2C5654",
"&l 	c #2B55A5",
"*l 	c #38BDE7",
"=l 	c #E1E0CD",
"-l 	c #494A72",
";l 	c #50A840",
">l 	c #4FA3B4",
",l 	c #52A4AE",
"'l 	c #5EA864",
")l 	c #63AB61",
"!l 	c #61A7B3",
"~l 	c #51A77D",
"{l 	c #52A4AF",
"]l 	c #57A79B",
"^l 	c #64AA44",
"/l 	c #3A7D4D",
"(l 	c #3F4A72",
"_l 	c #301C1D",
":l 	c #010002",
"<l 	c #062344",
"[l 	c #125053",
"}l 	c #2E5471",
"|l 	c #293442",
"1l 	c #2C55A3",
"2l 	c #38BEE8",
"3l 	c #C9E0E6",
"4l 	c #DEE2E6",
"5l 	c #E0DDD4",
"6l 	c #D5B9B7",
"7l 	c #67A2B8",
"8l 	c #4EA4AF",
"9l 	c #4F9279",
"0l 	c #484B73",
"al 	c #3F488E",
"bl 	c #4EA381",
"cl 	c #50A83B",
"dl 	c #63AA3E",
"el 	c #63AA5F",
"fl 	c #61A9B1",
"gl 	c #4EA64D",
"hl 	c #59AA3B",
"il 	c #63A748",
"jl 	c #082142",
"kl 	c #103D47",
"ll 	c #2A4348",
"ml 	c #2C4346",
"nl 	c #2A4269",
"ol 	c #2288DF",
"pl 	c #28394C",
"ql 	c #2A4B4B",
"rl 	c #2C4B4E",
"sl 	c #2C4E52",
"tl 	c #2E5675",
"ul 	c #33889E",
"vl 	c #7C9898",
"wl 	c #879597",
"xl 	c #87949A",
"yl 	c #87A5D7",
"zl 	c #ACE7E7",
"Al 	c #E3ECE7",
"Bl 	c #E8EBE8",
"Cl 	c #E8EFE8",
"Dl 	c #EDFFE7",
"El 	c #DFE2DC",
"Fl 	c #E0CE97",
"Gl 	c #B29796",
"Hl 	c #8C9891",
"Il 	c #858581",
"Jl 	c #457882",
"Kl 	c #3C777F",
"Ll 	c #3D777D",
"Ml 	c #396B79",
"Nl 	c #386978",
"Ol 	c #386877",
"Pl 	c #4374A0",
"Ql 	c #4487A1",
"Rl 	c #49889F",
"Sl 	c #4A88A7",
"Tl 	c #4B9AB7",
"Ul 	c #4EA476",
"Vl 	c #5AA676",
"Wl 	c #5BA776",
"Xl 	c #55A488",
"Yl 	c #4FA59C",
"Zl 	c #57A797",
"`l 	c #5EA57C",
" m 	c #5B8F4B",
".m 	c #4B8E49",
"+m 	c #4C8F53",
"@m 	c #4B8B7B",
"#m 	c #448880",
"$m 	c #42887E",
"%m 	c #42887D",
"&m 	c #408A9F",
"*m 	c #459DB8",
"=m 	c #4FA055",
"-m 	c #4D8D48",
";m 	c #4C8D4C",
">m 	c #4B804F",
",m 	c #3D7D4F",
"'m 	c #4F957E",
")m 	c #457780",
"!m 	c #3D7874",
"~m 	c #3C6953",
"{m 	c #335753",
"]m 	c #2F564D",
"^m 	c #2D4846",
"/m 	c #2B4249",
"(m 	c #2B4248",
"_m 	c #2C4248",
":m 	c #2A4350",
"<m 	c #28364E",
"[m 	c #293E65",
"}m 	c #354163",
"|m 	c #384263",
"1m 	c #394263",
"2m 	c #374470",
"3m 	c #04030D",
"4m 	c #081F41",
"5m 	c #0E3140",
"6m 	c #263540",
"7m 	c #28353C",
"8m 	c #273764",
"9m 	c #1F83DE",
"0m 	c #293543",
"am 	c #2A5552",
"bm 	c #2B5157",
"cm 	c #2B70D2",
"dm 	c #7BD8E9",
"em 	c #E9FFE8",
"fm 	c #9A524E",
"gm 	c #2D5350",
"hm 	c #2F5549",
"im 	c #2A3A41",
"jm 	c #26343E",
"km 	c #29374A",
"lm 	c #3A63B1",
"mm 	c #40A0BB",
"nm 	c #4FA73E",
"om 	c #5EA94B",
"pm 	c #60A94C",
"qm 	c #58A68F",
"rm 	c #5BA983",
"sm 	c #64A54B",
"tm 	c #5A814F",
"um 	c #3A7C4D",
"vm 	c #3B7C4E",
"wm 	c #3B7D94",
"xm 	c #409AB9",
"ym 	c #4F9D59",
"zm 	c #467C4E",
"Am 	c #3B7D4D",
"Bm 	c #28394F",
"Cm 	c #3D4975",
"Dm 	c #010001",
"Em 	c #071E40",
"Fm 	c #9A5650",
"Gm 	c #2E5547",
"Hm 	c #2C3C3F",
"Im 	c #283752",
"Jm 	c #3DA0B9",
"Km 	c #4FA4AC",
"Lm 	c #5BA984",
"Mm 	c #3C7C4F",
"Nm 	c #477C4E",
"Om 	c #4FA3A9",
"Pm 	c #070919",
"Qm 	c #04030F",
"Rm 	c #2B5056",
"Sm 	c #296ED3",
"Tm 	c #F4FEE9",
"Um 	c #F2E5E8",
"Vm 	c #E2C15F",
"Wm 	c #9D5650",
"Xm 	c #2E5648",
"Ym 	c #3EA1BB",
"Zm 	c #5CA884",
"`m 	c #60AB63",
" n 	c #64A54C",
".n 	c #46A0BB",
"+n 	c #2E1B1D",
"@n 	c #070D1B",
"#n 	c #DFDDA5",
"$n 	c #CF7439",
"%n 	c #46373F",
"&n 	c #263740",
"*n 	c #2A3743",
"=n 	c #283B50",
"-n 	c #2F565B",
";n 	c #306267",
">n 	c #466965",
",n 	c #496965",
"'n 	c #49656B",
")n 	c #4681D3",
"!n 	c #85DAE7",
"~n 	c #E9FCE8",
"{n 	c #F4FBDF",
"]n 	c #F0E1E3",
"^n 	c #D0D2DB",
"/n 	c #D1D7C8",
"(n 	c #D7BE55",
"_n 	c #905752",
":n 	c #2E5452",
"<n 	c #2C3D40",
"[n 	c #293744",
"}n 	c #2A3841",
"|n 	c #293951",
"1n 	c #2C5799",
"2n 	c #409AB0",
"3n 	c #4BA1B6",
"4n 	c #50A4AC",
"5n 	c #50A3B6",
"6n 	c #5CA46B",
"7n 	c #5FA53F",
"8n 	c #5FA540",
"9n 	c #60A04D",
"0n 	c #59804F",
"an 	c #3A7A50",
"bn 	c #3A7950",
"cn 	c #3A7A4E",
"dn 	c #3B7B56",
"en 	c #3A80A9",
"fn 	c #3F98B0",
"gn 	c #4C9DA4",
"hn 	c #4D8C58",
"in 	c #2D4941",
"jn 	c #2B3840",
"kn 	c #283757",
"ln 	c #2D1B1C",
"mn 	c #080F1C",
"nn 	c #E2DEA8",
"on 	c #D38551",
"pn 	c #4B5353",
"qn 	c #38BCE4",
"rn 	c #BFD9DD",
"sn 	c #D3D4DD",
"tn 	c #D3D9E3",
"un 	c #D7DDE6",
"vn 	c #E0F5E8",
"wn 	c #E9E2E8",
"xn 	c #E1E3E3",
"yn 	c #E4DA94",
"zn 	c #CC7B5E",
"An 	c #4A6260",
"Bn 	c #416460",
"Cn 	c #41645F",
"Dn 	c #3E5C53",
"En 	c #365953",
"Fn 	c #2F564A",
"Gn 	c #293743",
"Hn 	c #28364C",
"In 	c #285053",
"Jn 	c #2E5553",
"Kn 	c #2F575D",
"Ln 	c #325D5C",
"Mn 	c #316062",
"Nn 	c #2F6AAE",
"On 	c #3EA0BA",
"Pn 	c #4FA37E",
"Qn 	c #50A64B",
"Rn 	c #62A854",
"Sn 	c #61A8AE",
"Tn 	c #57A799",
"Un 	c #64A84A",
"Vn 	c #5E854F",
"Wn 	c #3F804D",
"Xn 	c #3F804E",
"Yn 	c #3E7C4F",
"Zn 	c #3A7C4F",
"`n 	c #3B6252",
" o 	c #2F5A52",
".o 	c #315D5C",
"+o 	c #325C52",
"@o 	c #2E555E",
"#o 	c #2B4C73",
"$o 	c #0A111E",
"%o 	c #E3DEA8",
"&o 	c #D38651",
"*o 	c #4B5453",
"=o 	c #2B55A6",
"-o 	c #CCE4E8",
";o 	c #DEF4E8",
">o 	c #C96F4E",
",o 	c #355051",
"'o 	c #285153",
")o 	c #2E565B",
"!o 	c #2E69AD",
"~o 	c #4EA57A",
"{o 	c #51A843",
"]o 	c #59A68A",
"^o 	c #5DA868",
"/o 	c #62A94B",
"(o 	c #62A8AD",
"_o 	c #64A846",
":o 	c #3A7B50",
"<o 	c #3B7C50",
"[o 	c #3B6153",
"}o 	c #2F5760",
"|o 	c #2B4D73",
"1o 	c #2E1C1D",
"2o 	c #080D1C",
"3o 	c #070613",
"4o 	c #092041",
"5o 	c #1E83DE",
"6o 	c #A8DFEA",
"7o 	c #E1E3EB",
"8o 	c #E2E4E8",
"9o 	c #E4E0AA",
"0o 	c #D3834E",
"ao 	c #484E50",
"bo 	c #28364B",
"co 	c #2F565D",
"do 	c #2E69AE",
"eo 	c #51A84A",
"fo 	c #59A688",
"go 	c #63AB4C",
"ho 	c #58A3BA",
"io 	c #4F9D5A",
"jo 	c #467C4C",
"ko 	c #347A4E",
"lo 	c #367B4D",
"mo 	c #356351",
"no 	c #2F585F",
"oo 	c #40443C",
"po 	c #351C1C",
"qo 	c #081025",
"ro 	c #14262F",
"so 	c #1C2B33",
"to 	c #182D44",
"uo 	c #153240",
"vo 	c #28353D",
"wo 	c #273760",
"xo 	c #217CD2",
"yo 	c #93CCD5",
"zo 	c #C2C8CF",
"Ao 	c #C4C8CC",
"Bo 	c #CFCCA0",
"Co 	c #BD9176",
"Do 	c #707F7C",
"Eo 	c #6B827A",
"Fo 	c #6A8079",
"Go 	c #667C7A",
"Ho 	c #647B7A",
"Io 	c #657C74",
"Jo 	c #657053",
"Ko 	c #495953",
"Lo 	c #DFE1DA",
"Mo 	c #D8D3CD",
"No 	c #C5C8CF",
"Oo 	c #C4CBCB",
"Po 	c #CECA80",
"Qo 	c #B26F51",
"Ro 	c #2F564C",
"So 	c #2D4443",
"To 	c #2A3B45",
"Uo 	c #2B3C43",
"Vo 	c #293B4D",
"Wo 	c #295253",
"Xo 	c #60AA63",
"Yo 	c #63A896",
"Zo 	c #5BA7A4",
"`o 	c #52A5A3",
" p 	c #52A3B7",
".p 	c #4FA4A4",
"+p 	c #50A4A3",
"@p 	c #52A6A6",
"#p 	c #50A188",
"$p 	c #50A759",
"%p 	c #3B7D50",
"&p 	c #3B7D8D",
"*p 	c #3891A8",
"=p 	c #4A99A7",
"-p 	c #4A9AA1",
";p 	c #4C966E",
">p 	c #44866B",
",p 	c #3F8269",
"'p 	c #3E816B",
")p 	c #3E8679",
"!p 	c #599279",
"~p 	c #6B9578",
"{p 	c #6A9477",
"]p 	c #6D9161",
"^p 	c #67684F",
"/p 	c #375553",
"(p 	c #2A3B46",
"_p 	c #2B3C45",
":p 	c #2B3C44",
"<p 	c #293D4E",
"[p 	c #2A5051",
"}p 	c #2D5150",
"|p 	c #2D5151",
"1p 	c #3F4446",
"2p 	c #312430",
"3p 	c #232134",
"4p 	c #161B32",
"5p 	c #130C1C",
"6p 	c #040611",
"7p 	c #08132B",
"8p 	c #13394C",
"9p 	c #2A5352",
"0p 	c #2B5249",
"ap 	c #2C393F",
"bp 	c #2C3741",
"cp 	c #2C3B43",
"dp 	c #293843",
"ep 	c #133BA3",
"fp 	c #47CDE7",
"gp 	c #D6F1E8",
"hp 	c #EFF4E4",
"ip 	c #ECEFE1",
"jp 	c #E0DDE1",
"kp 	c #D9DAE4",
"lp 	c #DADFD0",
"mp 	c #DDC157",
"np 	c #955651",
"op 	c #E2DEA9",
"pp 	c #D58852",
"qp 	c #4F5755",
"rp 	c #2F5A55",
"sp 	c #2B5554",
"tp 	c #2D5953",
"up 	c #62AA45",
"vp 	c #61A83A",
"wp 	c #61A841",
"xp 	c #62A979",
"yp 	c #61A5B6",
"zp 	c #4FA455",
"Ap 	c #57A73E",
"Bp 	c #62A93A",
"Cp 	c #5DA773",
"Dp 	c #4FA3BA",
"Ep 	c #3B7E4D",
"Fp 	c #3C7D52",
"Gp 	c #3B7B51",
"Hp 	c #3B7B58",
"Ip 	c #3982AE",
"Jp 	c #449FB5",
"Kp 	c #50A5B3",
"Lp 	c #4DA1BA",
"Mp 	c #49BAE6",
"Np 	c #A9DDE4",
"Op 	c #DADEE2",
"Pp 	c #D9DCE0",
"Qp 	c #DFDC9E",
"Rp 	c #CD8250",
"Sp 	c #475353",
"Tp 	c #293545",
"Up 	c #284552",
"Vp 	c #2D5754",
"Wp 	c #3D4670",
"Xp 	c #3B466F",
"Yp 	c #3A4871",
"Zp 	c #394568",
"`p 	c #382921",
" q 	c #18121D",
".q 	c #0F182D",
"+q 	c #1B4C50",
"@q 	c #2F523F",
"#q 	c #25333E",
"$q 	c #202DA7",
"%q 	c #42D5E9",
"&q 	c #E1FDE8",
"*q 	c #F6FAE9",
"=q 	c #E0E0EA",
"-q 	c #E1C05E",
";q 	c #E2DEAA",
">q 	c #D38650",
",q 	c #4C5152",
"'q 	c #295651",
")q 	c #55A59E",
"!q 	c #60A947",
"~q 	c #62AA79",
"{q 	c #60A4B6",
"]q 	c #53A86E",
"^q 	c #55A59F",
"/q 	c #3B7D4E",
"(q 	c #3C7E4E",
"_q 	c #3C7C59",
":q 	c #3B83AE",
"<q 	c #47A0BA",
"[q 	c #E0E2E6",
"}q 	c #E3DEA6",
"|q 	c #D38251",
"1q 	c #485453",
"2q 	c #414A76",
"3q 	c #3F4A68",
"4q 	c #3B3821",
"5q 	c #1A0914",
"6q 	c #111827",
"7q 	c #2E523F",
"8q 	c #E0E3D5",
"9q 	c #985550",
"0q 	c #DFE1E5",
"aq 	c #E3DEAA",
"bq 	c #D48751",
"cq 	c #4D5453",
"dq 	c #51A849",
"eq 	c #51A4B1",
"fq 	c #63AA7A",
"gq 	c #E3DDA5",
"hq 	c #D28251",
"iq 	c #475453",
"jq 	c #293646",
"kq 	c #3F4968",
"lq 	c #393821",
"mq 	c #140811",
"nq 	c #071837",
"oq 	c #174A50",
"pq 	c #2D5752",
"qq 	c #275040",
"rq 	c #2A383F",
"sq 	c #202EA7",
"tq 	c #41CFEA",
"uq 	c #DFF8E9",
"vq 	c #E7E0E5",
"wq 	c #DFE4D5",
"xq 	c #E1C05B",
"yq 	c #95504C",
"zq 	c #2353A3",
"Aq 	c #39BEE7",
"Bq 	c #CAE0E6",
"Cq 	c #DFF4E8",
"Dq 	c #F5F7E8",
"Eq 	c #E8E1E8",
"Fq 	c #E2DFA9",
"Gq 	c #D38850",
"Hq 	c #2F545E",
"Iq 	c #2D67AE",
"Jq 	c #3E9FB9",
"Kq 	c #4FA47A",
"Lq 	c #51A73E",
"Mq 	c #61A939",
"Nq 	c #3A83AE",
"Oq 	c #459FB9",
"Pq 	c #4EA3BD",
"Qq 	c #49BAE5",
"Rq 	c #ADDFE7",
"Sq 	c #E2DEA3",
"Tq 	c #D18251",
"Uq 	c #485353",
"Vq 	c #002293",
"Wq 	c #498BAD",
"Xq 	c #9EB5B6",
"Yq 	c #A9B3B1",
"Zq 	c #B1B069",
"`q 	c #9E4539",
" r 	c #26357B",
".r 	c #368DA7",
"+r 	c #8DA7A6",
"@r 	c #9CAA9F",
"#r 	c #9CAAA0",
"$r 	c #9BA99F",
"%r 	c #919F9E",
"&r 	c #8F9C9F",
"*r 	c #909D9C",
"=r 	c #97A3B1",
"-r 	c #96B6BA",
";r 	c #A7B2B6",
">r 	c #A9B2B4",
",r 	c #AEB3A1",
"'r 	c #B3BD9B",
")r 	c #9DC19A",
"!r 	c #A1C298",
"~r 	c #A0BF9B",
"{r 	c #9EC8D8",
"]r 	c #B5EFEA",
"^r 	c #E9F2E8",
"/r 	c #EBF0E7",
"(r 	c #F4FDDA",
"_r 	c #F5E09F",
":r 	c #BD9EA0",
"<r 	c #909C9F",
"[r 	c #8F9D9D",
"}r 	c #949E79",
"|r 	c #896F51",
"1r 	c #3C5653",
"2r 	c #2E5D4A",
"3r 	c #3C8D46",
"4r 	c #518E47",
"5r 	c #518E4C",
"6r 	c #51937C",
"7r 	c #56A37E",
"8r 	c #5AA67C",
"9r 	c #5BA67C",
"0r 	c #5CA790",
"ar 	c #5AA4B6",
"br 	c #4FA48E",
"cr 	c #57A68E",
"dr 	c #56A386",
"er 	c #4FA582",
"fr 	c #50A59B",
"gr 	c #3B7D53",
"hr 	c #3B7E82",
"ir 	c #3D8884",
"jr 	c #438A84",
"kr 	c #438A87",
"lr 	c #4395A4",
"mr 	c #74A0A2",
"nr 	c #8E9C9F",
"or 	c #959D76",
"pr 	c #876D52",
"qr 	c #3A5653",
"rr 	c #2F5758",
"sr 	c #2F6092",
"tr 	c #3A8596",
"ur 	c #438895",
"vr 	c #438894",
"wr 	c #448978",
"xr 	c #426752",
"yr 	c #325653",
"zr 	c #29364A",
"Ar 	c #284165",
"Br 	c #354F68",
"Cr 	c #384E65",
"Dr 	c #394E6B",
"Er 	c #394A73",
"Fr 	c #0021B4",
"Gr 	c #39C1E7",
"Hr 	c #CDE3E6",
"Ir 	c #E1E4E4",
"Jr 	c #DFD881",
"Kr 	c #C14D36",
"Lr 	c #28364A",
"Mr 	c #294F50",
"Nr 	c #2B516A",
"Or 	c #298ADD",
"Pr 	c #A1DDE9",
"Qr 	c #DEE1EA",
"Rr 	c #E0DFAD",
"Sr 	c #D9BA3D",
"Tr 	c #76A73D",
"Ur 	c #62A943",
"Vr 	c #61B5D0",
"Wr 	c #9BF5EB",
"Xr 	c #F5FED2",
"Yr 	c #F5D158",
"Zr 	c #9E5350",
"`r 	c #2D6144",
" s 	c #41A43E",
".s 	c #61AB44",
"+s 	c #63AB49",
"@s 	c #63AB4A",
"#s 	c #62AA49",
"$s 	c #61A93D",
"%s 	c #62A874",
"&s 	c #60A5B6",
"*s 	c #4FA64A",
"=s 	c #50A684",
"-s 	c #39714F",
";s 	c #305552",
">s 	c #2E67AC",
",s 	c #3DA0BB",
"'s 	c #4FA6B9",
")s 	c #4FA18F",
"!s 	c #4C6F51",
"~s 	c #0020B4",
"{s 	c #32C4EB",
"]s 	c #CFE5E8",
"^s 	c #E2E4E5",
"/s 	c #DED681",
"(s 	c #293440",
"_s 	c #288ADE",
":s 	c #9EDFE9",
"<s 	c #DFDDAC",
"[s 	c #D9BA3E",
"}s 	c #78AA3F",
"|s 	c #5FAB3D",
"1s 	c #60B4D0",
"2s 	c #F5D159",
"3s 	c #9F5651",
"4s 	c #41A43C",
"5s 	c #58A88A",
"6s 	c #5BA888",
"7s 	c #63AA75",
"8s 	c #4FA64B",
"9s 	c #3A7051",
"0s 	c #345853",
"as 	c #3A9FBA",
"bs 	c #4FA18C",
"cs 	c #130811",
"ds 	c #28354A",
"es 	c #A0DEEA",
"fs 	c #E0E3EA",
"gs 	c #78AA3E",
"hs 	c #5FAB39",
"is 	c #2E5453",
"js 	c #60A951",
"ks 	c #63AB76",
"ls 	c #51A4B9",
"ms 	c #2E67AD",
"ns 	c #3CA0BB",
"os 	c #325551",
"ps 	c #3C3820",
"qs 	c #1C080E",
"rs 	c #0022B4",
"ss 	c #32C4EA",
"ts 	c #C14D37",
"us 	c #273642",
"vs 	c #2B8AD6",
"ws 	c #97D8E3",
"xs 	c #D0D6DD",
"ys 	c #D7D7A3",
"zs 	c #D8B93E",
"As 	c #77A953",
"Bs 	c #57A68D",
"Cs 	c #63A843",
"Ds 	c #315B51",
"Es 	c #335E51",
"Fs 	c #2F6344",
"Gs 	c #41A43D",
"Hs 	c #58A88B",
"Is 	c #60A953",
"Js 	c #63AA6F",
"Ks 	c #62A8A9",
"Ls 	c #52A5AE",
"Ms 	c #4FA3AE",
"Ns 	c #4FA1A1",
"Os 	c #4FA64D",
"Ps 	c #4FA1A3",
"Qs 	c #4EA551",
"Rs 	c #3F814D",
"Ss 	c #3E7251",
"Ts 	c #345A53",
"Us 	c #2F66AB",
"Vs 	c #3E9AB2",
"Ws 	c #4D9DB1",
"Xs 	c #4F725D",
"Ys 	c #355A5A",
"Zs 	c #325D52",
"`s 	c #3F381F",
" t 	c #240C18",
".t 	c #0022B3",
"+t 	c #E2E4E4",
"@t 	c #E3D788",
"#t 	c #C4664C",
"$t 	c #325253",
"%t 	c #2C5452",
"&t 	c #2F5B65",
"*t 	c #3E6867",
"=t 	c #486965",
"-t 	c #456656",
";t 	c #43963E",
">t 	c #5CAA58",
",t 	c #63A842",
"'t 	c #2E564C",
")t 	c #328F3F",
"!t 	c #5BA440",
"~t 	c #5FA440",
"{t 	c #59A977",
"]t 	c #61A84D",
"^t 	c #62AA4E",
"/t 	c #62A855",
"(t 	c #5A865E",
"_t 	c #3C7D5C",
":t 	c #3D7D5D",
"<t 	c #3B83AB",
"[t 	c #469FBA",
"}t 	c #4FA380",
"|t 	c #50A54F",
"1t 	c #60A84F",
"2t 	c #4FA385",
"3t 	c #4FA54F",
"4t 	c #50A3B1",
"5t 	c #5EA555",
"6t 	c #5FA542",
"7t 	c #60964F",
"8t 	c #4A7B50",
"9t 	c #3A6152",
"0t 	c #2F585D",
"at 	c #325F5F",
"bt 	c #335F5F",
"ct 	c #32626B",
"dt 	c #2F75B2",
"et 	c #4D9EAE",
"ft 	c #4C9DAA",
"gt 	c #3F391D",
"ht 	c #240D1B",
"it 	c #E3D789",
"jt 	c #C46B50",
"kt 	c #335453",
"lt 	c #2B5648",
"mt 	c #34953F",
"nt 	c #5BAB58",
"ot 	c #55A59C",
"pt 	c #2D564A",
"qt 	c #32913F",
"rt 	c #5BAB46",
"st 	c #5CA883",
"tt 	c #5CA885",
"ut 	c #5AA781",
"vt 	c #5AA782",
"wt 	c #5AA683",
"xt 	c #5FAA66",
"yt 	c #5B824F",
"zt 	c #3C7C4D",
"At 	c #3B7C55",
"Bt 	c #3B81AB",
"Ct 	c #459FBA",
"Dt 	c #51A842",
"Et 	c #4EA480",
"Ft 	c #51A840",
"Gt 	c #5BA889",
"Ht 	c #62AB56",
"It 	c #63AC41",
"Jt 	c #3B6152",
"Kt 	c #2E5663",
"Lt 	c #4F9866",
"Mt 	c #E3E6E6",
"Nt 	c #E4D88A",
"Ot 	c #C86A50",
"Pt 	c #325453",
"Qt 	c #2D5749",
"Rt 	c #54A945",
"St 	c #5EA862",
"Tt 	c #61A443",
"Ut 	c #5FB4D5",
"Vt 	c #F3FFEA",
"Wt 	c #5AAB50",
"Xt 	c #5AA88B",
"Yt 	c #64A64A",
"Zt 	c #50A844",
"`t 	c #54A5A8",
" u 	c #62AC4D",
".u 	c #2B373E",
"+u 	c #001FAD",
"@u 	c #2EBCE1",
"#u 	c #BAD1D3",
"$u 	c #C9CFCD",
"%u 	c #D2CC79",
"&u 	c #B16A51",
"*u 	c #355453",
"=u 	c #30565C",
"-u 	c #369C64",
";u 	c #7CB667",
">u 	c #80B868",
",u 	c #7DB36E",
"'u 	c #81BECA",
")u 	c #A0EDDF",
"!u 	c #E0EED8",
"~u 	c #DEEED9",
"{u 	c #DEF2E2",
"]u 	c #5AAB4F",
"^u 	c #3B7C54",
"/u 	c #3A80A4",
"(u 	c #3E95AB",
"_u 	c #4B98AD",
":u 	c #4B9EB5",
"<u 	c #2F6FA9",
"[u 	c #4296AB",
"}u 	c #4A99A5",
"|u 	c #4C9363",
"1u 	c #435A50",
"2u 	c #2E5350",
"3u 	c #2E5251",
"4u 	c #295055",
"5u 	c #304153",
"6u 	c #354152",
"7u 	c #34435B",
"8u 	c #314272",
"9u 	c #3F476D",
"0u 	c #3E466C",
"au 	c #3D466D",
"bu 	c #22080D",
"cu 	c #051A37",
"du 	c #0E494F",
"eu 	c #345C57",
"fu 	c #345D57",
"gu 	c #305754",
"hu 	c #315953",
"iu 	c #2C54A0",
"ju 	c #3DD2E8",
"ku 	c #E0F2E2",
"lu 	c #EBF4DF",
"mu 	c #F8EA70",
"nu 	c #6AAC43",
"ou 	c #64A75C",
"pu 	c #65C1DB",
"qu 	c #B3F9EB",
"ru 	c #3D7C4F",
"su 	c #3C7955",
"tu 	c #3A5E59",
"uu 	c #305A57",
"vu 	c #2F5C78",
"wu 	c #2D84B7",
"xu 	c #49A2B8",
"yu 	c #315952",
"zu 	c #263D8B",
"Au 	c #416D99",
"Bu 	c #636E95",
"Cu 	c #656C90",
"Du 	c #645B74",
"Eu 	c #4F4973",
"Fu 	c #40474C",
"Gu 	c #3A363E",
"Hu 	c #2B384C",
"Iu 	c #273D71",
"Ju 	c #384973",
"Ku 	c #22070B",
"Lu 	c #07183B",
"Mu 	c #0D4B52",
"Nu 	c #295551",
"Ou 	c #2B54A6",
"Pu 	c #3CD2E9",
"Qu 	c #DFFDE9",
"Ru 	c #F5FFDF",
"Su 	c #F8EB71",
"Tu 	c #C2AD3C",
"Uu 	c #64A83B",
"Vu 	c #61A656",
"Wu 	c #60BFDB",
"Xu 	c #B4F9EB",
"Yu 	c #3A7750",
"Zu 	c #375952",
"`u 	c #2E5778",
" v 	c #2E84B7",
".v 	c #263D8A",
"+v 	c #426D9A",
"@v 	c #675F74",
"#v 	c #40474D",
"$v 	c #27343D",
"%v 	c #230B16",
"&v 	c #000103",
"*v 	c #2A5853",
"=v 	c #2B54A5",
"-v 	c #DDFCE8",
";v 	c #F4FFDF",
">v 	c #66A83C",
",v 	c #62A857",
"'v 	c #61BFDB",
")v 	c #5AA988",
"!v 	c #64A74A",
"~v 	c #375953",
"{v 	c #2A53A5",
"]v 	c #3BD2E9",
"^v 	c #F7FEE9",
"/v 	c #F4FFDE",
"(v 	c #F5D056",
"_v 	c #9E534F",
":v 	c #5CAA3F",
"<v 	c #63AB3F",
"[v 	c #63AB46",
"}v 	c #53A5A7",
"|v 	c #5BA881",
"1v 	c #63AB3E",
"2v 	c #2F83B6",
"3v 	c #4AA2B9",
"4v 	c #4EA477",
"5v 	c #51A848",
"6v 	c #62AC4F",
"7v 	c #639A4D",
"8v 	c #4C7E4E",
"9v 	c #3B7B4F",
"0v 	c #3C7E4F",
"av 	c #3A6053",
"bv 	c #2D4141",
"cv 	c #253D8A",
"dv 	c #416D9A",
"ev 	c #676F8D",
"fv 	c #685F74",
"gv 	c #3F3A1E",
"hv 	c #24101B",
"iv 	c #2F6948",
"jv 	c #448A48",
"kv 	c #4F8A48",
"lv 	c #4E894A",
"mv 	c #4C89A2",
"nv 	c #59D1E9",
"ov 	c #D5EFE9",
"pv 	c #EBEEE9",
"qv 	c #EAF0DF",
"rv 	c #EADE6D",
"sv 	c #C2AE3C",
"tv 	c #65A83C",
"uv 	c #F4FEDD",
"vv 	c #F5E5B1",
"wv 	c #C6AFB2",
"xv 	c #A2ABAF",
"yv 	c #A2ACAD",
"zv 	c #A8AE83",
"Av 	c #9B7651",
"Bv 	c #405553",
"Cv 	c #2E574F",
"Dv 	c #32784A",
"Ev 	c #49844A",
"Fv 	c #4B854A",
"Gv 	c #498642",
"Hv 	c #4EA750",
"Iv 	c #54A6A2",
"Jv 	c #5D926B",
"Kv 	c #50844B",
"Lv 	c #4B824F",
"Mv 	c #487050",
"Nv 	c #346951",
"Ov 	c #346A51",
"Pv 	c #2F5767",
"Qv 	c #316E8B",
"Rv 	c #3D7F8A",
"Sv 	c #3F7F8A",
"Tv 	c #3F808A",
"Uv 	c #3D82A9",
"Vv 	c #419EB9",
"Wv 	c #4FA383",
"Xv 	c #56A682",
"Yv 	c #59A682",
"Zv 	c #59A681",
"`v 	c #53A489",
" w 	c #50A592",
".w 	c #58A794",
"+w 	c #589F94",
"@w 	c #54956C",
"#w 	c #529646",
"$w 	c #529547",
"%w 	c #518B49",
"&w 	c #4E8A48",
"*w 	c #4F8350",
"=w 	c #455853",
"-w 	c #2E5767",
";w 	c #2F597C",
">w 	c #4A5A77",
",w 	c #505977",
"'w 	c #4F5978",
")w 	c #4C5482",
"!w 	c #515D86",
"~w 	c #515E85",
"{w 	c #535E85",
"]w 	c #545D82",
"^w 	c #575373",
"/w 	c #484973",
"(w 	c #240E1B",
"_w 	c #2F7540",
":w 	c #4FA83E",
"<w 	c #62AB43",
"[w 	c #63AA41",
"}w 	c #60AAA0",
"|w 	c #6AD1E9",
"1w 	c #CEE3E9",
"2w 	c #DFE3DF",
"3w 	c #DED369",
"4w 	c #64A93C",
"5w 	c #F4F5E6",
"6w 	c #E8E1E9",
"7w 	c #E0E2E7",
"8w 	c #E2E0AA",
"9w 	c #40A43C",
"0w 	c #64AB41",
"aw 	c #608052",
"bw 	c #3C5753",
"cw 	c #2E5C9E",
"dw 	c #4FA641",
"ew 	c #5CA940",
"fw 	c #61A93E",
"gw 	c #55A6A2",
"hw 	c #62AB51",
"iw 	c #63AB44",
"jw 	c #639F4E",
"kw 	c #515A54",
"lw 	c #2D5776",
"mw 	c #306799",
"nw 	c #606F98",
"ow 	c #67697A",
"pw 	c #2F7440",
"qw 	c #4FA939",
"rw 	c #61A944",
"sw 	c #61ABA0",
"tw 	c #CFE3E9",
"uw 	c #D38751",
"vw 	c #64AB42",
"ww 	c #608152",
"xw 	c #3B5653",
"yw 	c #2F5554",
"zw 	c #4FA4A1",
"Aw 	c #4FA73A",
"Bw 	c #50A59E",
"Cw 	c #5EA976",
"Dw 	c #5FAB6E",
"Ew 	c #2D5775",
"Fw 	c #306798",
"Gw 	c #616F99",
"Hw 	c #687094",
"Iw 	c #285550",
"Jw 	c #2B544D",
"Kw 	c #2E7440",
"Lw 	c #4EA93B",
"Mw 	c #59A784",
"Nw 	c #60AA9F",
"Ow 	c #D3864F",
"Pw 	c #4B5051",
"Qw 	c #295550",
"Rw 	c #2C5553",
"Sw 	c #50A59F",
"Tw 	c #5EAB6F",
"Uw 	c #104C53",
"Vw 	c #3B605B",
"Ww 	c #3B615C",
"Xw 	c #385B55",
"Yw 	c #365A53",
"Zw 	c #2F575B",
"`w 	c #345F5D",
" x 	c #38754C",
".x 	c #5DAB49",
"+x 	c #6CAE48",
"@x 	c #6BAD4C",
"#x 	c #67ADA2",
"$x 	c #6CD2E9",
"%x 	c #E0E4E0",
"&x 	c #F5FEE4",
"*x 	c #F4F0E6",
"=x 	c #EAEFE1",
"-x 	c #E8EEDE",
";x 	c #E9ECE7",
">x 	c #D58C58",
",x 	c #565E5B",
"'x 	c #385B56",
")x 	c #325C51",
"!x 	c #3796B3",
"~x 	c #4EA1B1",
"{x 	c #4EA198",
"]x 	c #4FA73B",
"^x 	c #525B54",
"/x 	c #335B52",
"(x 	c #325A52",
"_x 	c #2E5658",
":x 	c #315858",
"<x 	c #325758",
"[x 	c #2E5777",
"}x 	c #3A363F",
"|x 	c #283543",
"1x 	c #2C394D",
"2x 	c #283E71",
"3x 	c #0022AF",
"4x 	c #2FBFE5",
"5x 	c #BED5D7",
"6x 	c #CDD3D1",
"7x 	c #D7D07B",
"8x 	c #B56A51",
"9x 	c #2F6451",
"0x 	c #36784F",
"ax 	c #3A7850",
"bx 	c #397850",
"cx 	c #3A6252",
"dx 	c #2F535C",
"ex 	c #2C72C8",
"fx 	c #7BD1E1",
"gx 	c #C8D2D7",
"hx 	c #CDD0D8",
"ix 	c #CED2D7",
"jx 	c #D2D8D5",
"kx 	c #D1D8DC",
"lx 	c #D8F3E7",
"mx 	c #F0FAE7",
"nx 	c #F2FAE8",
"ox 	c #F3FDDD",
"px 	c #F7EA71",
"qx 	c #F7FAB7",
"rx 	c #ECA761",
"sx 	c #746F6A",
"tx 	c #54716A",
"ux 	c #546E6F",
"vx 	c #5182D0",
"wx 	c #85DAE8",
"xx 	c #DDE5E8",
"yx 	c #E1EDE8",
"zx 	c #F1E6E7",
"Ax 	c #E3E3E8",
"Bx 	c #DFE1DE",
"Cx 	c #D8D9D5",
"Dx 	c #D5D183",
"Ex 	c #CCAF3F",
"Fx 	c #64A23E",
"Gx 	c #5DA341",
"Hx 	c #5EA341",
"Ix 	c #5EA247",
"Jx 	c #5C7453",
"Kx 	c #2E575D",
"Lx 	c #326162",
"Mx 	c #346262",
"Nx 	c #346260",
"Ox 	c #358652",
"Px 	c #58A750",
"Qx 	c #60A852",
"Rx 	c #5FA969",
"Sx 	c #52A3AA",
"Tx 	c #5FA33D",
"Ux 	c #5EA342",
"Vx 	c #5E9050",
"Wx 	c #485753",
"Xx 	c #2E6394",
"Yx 	c #556D92",
"Zx 	c #626B90",
"`x 	c #626C94",
" y 	c #3F476E",
".y 	c #3E466E",
"+y 	c #3D466E",
"@y 	c #3C4873",
"#y 	c #240C19",
"$y 	c #E4E6E6",
"%y 	c #2F6551",
"&y 	c #377D4F",
"*y 	c #2A74D6",
"=y 	c #85D9EA",
"-y 	c #DEE4EA",
";y 	c #F7F9B4",
">y 	c #EBA250",
",y 	c #5E5051",
"'y 	c #2868CF",
")y 	c #71D6EA",
"!y 	c #D9E4E7",
"~y 	c #DEEAE8",
"{y 	c #E1E3E5",
"]y 	c #DED98C",
"^y 	c #D1B33D",
"/y 	c #6AAA3E",
"(y 	c #5EAA6A",
"_y 	c #5DA97C",
":y 	c #5EAA75",
"<y 	c #64AB45",
"[y 	c #5F7853",
"}y 	c #30853F",
"|y 	c #57AA3F",
"1y 	c #5DA97A",
"2y 	c #5CA87B",
"3y 	c #5CA77B",
"4y 	c #5DA87C",
"5y 	c #5BA887",
"6y 	c #5DA97B",
"7y 	c #63AC4A",
"8y 	c #629650",
"9y 	c #495754",
"0y 	c #2E576A",
"ay 	c #2E6397",
"by 	c #5C6F99",
"cy 	c #83DAE9",
"dy 	c #DBE4E7",
"ey 	c #605553",
"fy 	c #2969CF",
"gy 	c #69AA3B",
"hy 	c #55A798",
"iy 	c #52A4AD",
"jy 	c #2E564D",
"ky 	c #57AA40",
"ly 	c #61AB58",
"my 	c #5B6E99",
"ny 	c #E1E3E2",
"oy 	c #C5674D",
"py 	c #304F51",
"qy 	c #2C614E",
"ry 	c #377C4F",
"sy 	c #2F525C",
"ty 	c #2A74D5",
"uy 	c #DDE3EA",
"vy 	c #E4F6E9",
"wy 	c #F6FFDF",
"xy 	c #60BFDE",
"yy 	c #B3F7EA",
"zy 	c #F5FDEB",
"Ay 	c #F8FDEA",
"By 	c #F7F6B7",
"Cy 	c #EAA150",
"Dy 	c #73D5EA",
"Ey 	c #DBE3E9",
"Fy 	c #E2EBEA",
"Gy 	c #F1FEEA",
"Hy 	c #F9FEEA",
"Iy 	c #55A797",
"Jy 	c #62AB52",
"Ky 	c #62AB53",
"Ly 	c #63AA46",
"My 	c #5F7753",
"Ny 	c #40A43E",
"Oy 	c #60AB4B",
"Py 	c #2E564F",
"Qy 	c #62AB54",
"Ry 	c #61AA5B",
"Sy 	c #5FA970",
"Ty 	c #63AC44",
"Uy 	c #629550",
"Vy 	c #33C5EA",
"Wy 	c #D5ECE8",
"Xy 	c #E8EBE5",
"Yy 	c #E9E2A6",
"Zy 	c #D39D93",
"`y 	c #7F8D8F",
" z 	c #7D8E8F",
".z 	c #7F9085",
"+z 	c #808451",
"@z 	c #577151",
"#z 	c #387151",
"$z 	c #377251",
"%z 	c #387250",
"&z 	c #386751",
"*z 	c #326451",
"=z 	c #326258",
"-z 	c #3278B3",
";z 	c #74CACA",
">z 	c #BACFBF",
",z 	c #C0CFBF",
"'z 	c #C9D9C1",
")z 	c #CDE3C5",
"!z 	c #CDE3C6",
"~z 	c #D6EAC0",
"{z 	c #DDDD67",
"]z 	c #AFAC4F",
"^z 	c #60A772",
"/z 	c #62A95A",
"(z 	c #61B2B8",
"_z 	c #9DC7C3",
":z 	c #C7CFC2",
"<z 	c #C7D0C3",
"[z 	c #C6C7A3",
"}z 	c #BD8752",
"|z 	c #2F5456",
"1z 	c #2D64AF",
"2z 	c #60BCCE",
"3z 	c #B0BFC2",
"4z 	c #B6BCC2",
"5z 	c #B4C2C6",
"6z 	c #C0CFC7",
"7z 	c #C7D2CC",
"8z 	c #C9E9E4",
"9z 	c #E4F5E7",
"0z 	c #EFF4E7",
"az 	c #58A193",
"bz 	c #5B9542",
"cz 	c #569645",
"dz 	c #56954A",
"ez 	c #547552",
"fz 	c #386152",
"gz 	c #325953",
"hz 	c #2E5E48",
"iz 	c #3D9444",
"jz 	c #559940",
"kz 	c #55A872",
"lz 	c #50A4B1",
"mz 	c #2F594E",
"nz 	c #35754C",
"oz 	c #43774D",
"pz 	c #42774B",
"qz 	c #41903C",
"rz 	c #56A968",
"sz 	c #5AA081",
"tz 	c #5A9C42",
"uz 	c #589C44",
"vz 	c #569C47",
"wz 	c #4CA3A0",
"xz 	c #52A4AC",
"yz 	c #51A4B2",
"zz 	c #5D9D5F",
"Az 	c #57A044",
"Bz 	c #588A50",
"Cz 	c #445853",
"Dz 	c #3F486E",
"Ez 	c #3E4465",
"Fz 	c #3A4365",
"Gz 	c #394365",
"Hz 	c #384570",
"Iz 	c #3A4873",
"Jz 	c #36C5EA",
"Kz 	c #F1E5E8",
"Lz 	c #DCDDE7",
"Mz 	c #DDE2D0",
"Nz 	c #DEBC56",
"Oz 	c #8F5551",
"Pz 	c #30744E",
"Qz 	c #3B8441",
"Rz 	c #50A63A",
"Sz 	c #63AB35",
"Tz 	c #61AB32",
"Uz 	c #61A839",
"Vz 	c #5EA970",
"Wz 	c #4DA3BB",
"Xz 	c #60AB62",
"Yz 	c #669C52",
"Zz 	c #4E5752",
"`z 	c #275550",
" A 	c #255451",
".A 	c #255753",
"+A 	c #2B5650",
"@A 	c #275451",
"#A 	c #24548E",
"$A 	c #2BAEE4",
"%A 	c #BCE3E7",
"&A 	c #54A699",
"*A 	c #61AC5A",
"=A 	c #63984C",
"-A 	c #4C5754",
";A 	c #2F714F",
">A 	c #3A5F53",
",A 	c #2D6A41",
"'A 	c #49A836",
")A 	c #55A69E",
"!A 	c #3CA23E",
"~A 	c #61AA3D",
"{A 	c #5DA96E",
"]A 	c #639648",
"^A 	c #487E4F",
"/A 	c #398142",
"(A 	c #41A536",
"_A 	c #55A6A3",
":A 	c #64AA3E",
"<A 	c #5F884E",
"[A 	c #3F7D4F",
"}A 	c #3C7D4E",
"|A 	c #3B7251",
"1A 	c #3F4762",
"2A 	c #3E3C3E",
"3A 	c #2B3540",
"4A 	c #35C5EA",
"5A 	c #F3FCE8",
"6A 	c #F0E4E7",
"7A 	c #E0E3D3",
"8A 	c #E0BB5B",
"9A 	c #915551",
"0A 	c #30734F",
"aA 	c #3A8441",
"bA 	c #47A63A",
"cA 	c #58A78E",
"dA 	c #52A4AB",
"eA 	c #5AA57F",
"fA 	c #55A49D",
"gA 	c #54A59E",
"hA 	c #59A87E",
"iA 	c #5DAA5C",
"jA 	c #53A5A8",
"kA 	c #52A4A8",
"lA 	c #60AB61",
"mA 	c #639B4F",
"nA 	c #4D5753",
"oA 	c #2C538F",
"pA 	c #2BACE5",
"qA 	c #BDE3E7",
"rA 	c #61AB5C",
"sA 	c #63984F",
"tA 	c #4B5854",
"uA 	c #30714F",
"vA 	c #3A7E4F",
"wA 	c #2E6B41",
"xA 	c #49A839",
"yA 	c #55A69C",
"zA 	c #3CA13E",
"AA 	c #5BAA75",
"BA 	c #53A4AC",
"CA 	c #53A5AA",
"DA 	c #51A3B8",
"EA 	c #53A4AA",
"FA 	c #63964A",
"GA 	c #487D4F",
"HA 	c #3A8243",
"IA 	c #41A53C",
"JA 	c #58A889",
"KA 	c #3A7251",
"LA 	c #355853",
"MA 	c #3F4763",
"NA 	c #3E3D40",
"OA 	c #2C343F",
"PA 	c #DFE2D2",
"QA 	c #905551",
"RA 	c #56A798",
"SA 	c #52A3AC",
"TA 	c #62AA4B",
"UA 	c #63AB43",
"VA 	c #62AB41",
"WA 	c #629A4F",
"XA 	c #4D5854",
"YA 	c #2D548E",
"ZA 	c #2BADE5",
"`A 	c #BFE0E8",
" B 	c #DFDFE6",
".B 	c #DED88A",
"+B 	c #D2B23B",
"@B 	c #69A83D",
"#B 	c #62AA3F",
"$B 	c #61AC41",
"%B 	c #609652",
"&B 	c #2E704F",
"*B 	c #3C7B4F",
"=B 	c #376151",
"-B 	c #49A73E",
";B 	c #62AB42",
">B 	c #63AA45",
",B 	c #2D5C46",
"'B 	c #59A97C",
")B 	c #61AA56",
"!B 	c #62AC44",
"~B 	c #62AB44",
"{B 	c #60A964",
"]B 	c #5EA869",
"^B 	c #63AA77",
"/B 	c #61A5B4",
"(B 	c #51A5B8",
"_B 	c #4EA47E",
":B 	c #50A843",
"<B 	c #3A8242",
"[B 	c #61AB41",
"}B 	c #63AB42",
"|B 	c #5CA882",
"1B 	c #2D566A",
"2B 	c #2F6497",
"3B 	c #F2EFE7",
"4B 	c #EAEEE8",
"5B 	c #EAF0D2",
"6B 	c #EAC559",
"7B 	c #965651",
"8B 	c #5AA790",
"9B 	c #5E995F",
"0B 	c #529546",
"aB 	c #528C4F",
"bB 	c #466A52",
"cB 	c #356A51",
"dB 	c #355F53",
"eB 	c #2E5574",
"fB 	c #2F8EB2",
"gB 	c #8AADB0",
"hB 	c #9FA9AD",
"iB 	c #9FA9AE",
"jB 	c #9FAAAA",
"kB 	c #A7AEA5",
"lB 	c #A9C2A9",
"mB 	c #A3C5A4",
"nB 	c #AAC5A3",
"oB 	c #A9C5A3",
"pB 	c #A6BCA7",
"qB 	c #9DA5A8",
"rB 	c #9AA5A8",
"sB 	c #9AA4A8",
"tB 	c #99AAA7",
"uB 	c #9CAFA8",
"vB 	c #9CB1A5",
"wB 	c #A4B072",
"xB 	c #916D50",
"yB 	c #385553",
"zB 	c #2F6349",
"AB 	c #408948",
"BB 	c #4E8949",
"CB 	c #4E884B",
"DB 	c #4E6E52",
"EB 	c #365753",
"FB 	c #317449",
"GB 	c #488649",
"HB 	c #4C8649",
"IB 	c #4C864A",
"JB 	c #4A8643",
"KB 	c #4EA648",
"LB 	c #55A69D",
"MB 	c #5AA68F",
"NB 	c #5D8C54",
"OB 	c #4F8849",
"PB 	c #4F8E48",
"QB 	c #519547",
"RB 	c #4E9854",
"SB 	c #4DA58E",
"TB 	c #51A4AD",
"UB 	c #5EA886",
"VB 	c #63AA85",
"WB 	c #58A584",
"XB 	c #53A385",
"YB 	c #50A68B",
"ZB 	c #3B8049",
"`B 	c #409446",
" C 	c #519545",
".C 	c #4B9B68",
"+C 	c #51A68E",
"@C 	c #2E5877",
"#C 	c #3A627C",
"$C 	c #4D6378",
"%C 	c #4E6378",
"&C 	c #4D6281",
"*C 	c #4F6B97",
"=C 	c #626F98",
"-C 	c #686C8A",
";C 	c #625E85",
">C 	c #545D84",
",C 	c #545E85",
"'C 	c #545E83",
")C 	c #585473",
"!C 	c #F4FEEA",
"~C 	c #F5FED1",
"{C 	c #F5CF58",
"]C 	c #9C5651",
"^C 	c #64AA3F",
"/C 	c #608B4F",
"(C 	c #417D4F",
"_C 	c #3B6652",
":C 	c #2A5252",
"<C 	c #2760C0",
"[C 	c #58CFE9",
"}C 	c #D5E2E7",
"|C 	c #E3DC99",
"1C 	c #CE7851",
"2C 	c #31893F",
"3C 	c #59AA3F",
"4C 	c #63AB40",
"5C 	c #54A5A3",
"6C 	c #60A671",
"7C 	c #5B6653",
"8C 	c #325553",
"9C 	c #306750",
"0C 	c #397D4F",
"aC 	c #3B7C4C",
"bC 	c #398740",
"cC 	c #4BA836",
"dC 	c #61A93A",
"eC 	c #58A692",
"fC 	c #3B7B4D",
"gC 	c #378F3E",
"hC 	c #54AA3A",
"iC 	c #2E5656",
"jC 	c #2E5B8F",
"kC 	c #456D9A",
"lC 	c #686E99",
"mC 	c #417C4F",
"nC 	c #2F5453",
"oC 	c #295DC0",
"pC 	c #56CEE9",
"qC 	c #D4E5E7",
"rC 	c #DFE1E4",
"sC 	c #CD7751",
"tC 	c #58AA44",
"uC 	c #63A853",
"vC 	c #5B6753",
"wC 	c #315553",
"xC 	c #2F6850",
"yC 	c #387D4F",
"zC 	c #4BA839",
"AC 	c #55A5A1",
"BC 	c #58A796",
"CC 	c #37903F",
"DC 	c #54AA3C",
"EC 	c #2E5A8F",
"FC 	c #010100",
"GC 	c #031AA3",
"HC 	c #35C5E7",
"IC 	c #58A797",
"JC 	c #5AA88C",
"KC 	c #CD764F",
"LC 	c #3B5051",
"MC 	c #58AA45",
"NC 	c #53A5A9",
"OC 	c #60A66D",
"PC 	c #3D7C4E",
"QC 	c #54AA3D",
"RC 	c #58A792",
"SC 	c #0B0D1D",
"TC 	c #121A27",
"UC 	c #131B27",
"VC 	c #0F25A1",
"WC 	c #42C5E6",
"XC 	c #30744F",
"YC 	c #3A8541",
"ZC 	c #54A4A4",
"`C 	c #61A835",
" D 	c #61A83B",
".D 	c #61A83C",
"+D 	c #61A647",
"@D 	c #305851",
"#D 	c #315A51",
"$D 	c #315951",
"%D 	c #295FBF",
"&D 	c #55CEE9",
"*D 	c #E1E3E6",
"=D 	c #E3DB99",
"-D 	c #CE7A55",
";D 	c #445958",
">D 	c #345D58",
",D 	c #355D58",
"'D 	c #315854",
")D 	c #315853",
"!D 	c #305A4E",
"~D 	c #30893F",
"{D 	c #58AA43",
"]D 	c #58A58E",
"^D 	c #61A449",
"/D 	c #387B4F",
"(D 	c #3D7E4E",
"_D 	c #3D7F4D",
":D 	c #4BA835",
"<D 	c #487F4E",
"[D 	c #3D7E4C",
"}D 	c #55A73F",
"|D 	c #61A836",
"1D 	c #325855",
"2D 	c #2D5A8F",
"3D 	c #0C1228",
"4D 	c #0C2349",
"5D 	c #122546",
"6D 	c #162846",
"7D 	c #162741",
"8D 	c #1528AC",
"9D 	c #4AD9EA",
"0D 	c #2F5C52",
"aD 	c #305D52",
"bD 	c #305B51",
"cD 	c #2F6A42",
"dD 	c #47A73A",
"eD 	c #55A69A",
"fD 	c #5FAB67",
"gD 	c #629E5A",
"hD 	c #51844D",
"iD 	c #42844C",
"jD 	c #42844D",
"kD 	c #427E4F",
"lD 	c #385E53",
"mD 	c #2F7642",
"nD 	c #4FA141",
"oD 	c #5DA142",
"pD 	c #5CA142",
"qD 	c #5D9F41",
"rD 	c #5BA6BC",
"sD 	c #E9FAE8",
"tD 	c #F1F9E7",
"uD 	c #F4F9DB",
"vD 	c #E5E7D5",
"wD 	c #DCE3D4",
"xD 	c #DBE2D3",
"yD 	c #DCE4D5",
"zD 	c #DDE4D5",
"AD 	c #D4D8D2",
"BD 	c #CACED4",
"CD 	c #C9CDD5",
"DD 	c #C9D0CE",
"ED 	c #D3CD75",
"FD 	c #C4AA3E",
"GD 	c #60A13F",
"HD 	c #5CA141",
"ID 	c #5BA646",
"JD 	c #52A5A4",
"KD 	c #55A4A5",
"LD 	c #629753",
"MD 	c #4A844C",
"ND 	c #42814E",
"OD 	c #3E5F53",
"PD 	c #305C51",
"QD 	c #2F5D48",
"RD 	c #389B40",
"SD 	c #5CA741",
"TD 	c #5AA360",
"UD 	c #51A2B2",
"VD 	c #59A274",
"WD 	c #5DA342",
"XD 	c #5EA343",
"YD 	c #60974D",
"ZD 	c #4B844D",
"`D 	c #408445",
" E 	c #3CA050",
".E 	c #5AA974",
"+E 	c #316794",
"@E 	c #5A6C8F",
"#E 	c #616B8F",
"$E 	c #606B8F",
"%E 	c #606D98",
"&E 	c #0F182B",
"*E 	c #0E2A46",
"=E 	c #1C3440",
"-E 	c #2C3636",
";E 	c #1C2DAC",
">E 	c #4BDAEA",
",E 	c #61AB5B",
"'E 	c #639D4E",
")E 	c #507D4F",
"!E 	c #2F7840",
"~E 	c #50A93D",
"{E 	c #5EAA6E",
"]E 	c #5FAA6E",
"^E 	c #5FADBC",
"/E 	c #7AD9EC",
"(E 	c #D7E3E9",
"_E 	c #F6EEE9",
":E 	c #E5E2EB",
"<E 	c #DED67C",
"[E 	c #CCB03D",
"}E 	c #65AA3D",
"|E 	c #5DAB69",
"1E 	c #5EAA74",
"2E 	c #56A69D",
"3E 	c #63AC46",
"4E 	c #62954F",
"5E 	c #3A5E53",
"6E 	c #2D5947",
"7E 	c #389D3E",
"8E 	c #5EAB50",
"9E 	c #5EA975",
"0E 	c #5EA974",
"aE 	c #5EA979",
"bE 	c #63AC45",
"cE 	c #4A7D4F",
"dE 	c #3A7F46",
"eE 	c #399F3E",
"fE 	c #5BAA6B",
"gE 	c #2D5779",
"hE 	c #316899",
"iE 	c #626F99",
"jE 	c #10192D",
"kE 	c #283640",
"lE 	c #2130AF",
"mE 	c #55A69B",
"nE 	c #51A939",
"oE 	c #DEE2E1",
"pE 	c #66AA39",
"qE 	c #63AB47",
"rE 	c #5AAA6E",
"sE 	c #62AC4C",
"tE 	c #5BAA6C",
"uE 	c #54A6A4",
"vE 	c #0E172A",
"wE 	c #0A2845",
"xE 	c #283642",
"yE 	c #2B3842",
"zE 	c #2030AF",
"AE 	c #9B5350",
"BE 	c #2C534F",
"CE 	c #46A73E",
"DE 	c #60AB54",
"EE 	c #62A14E",
"FE 	c #57A693",
"GE 	c #5FA85A",
"HE 	c #60A958",
"IE 	c #D6E3E9",
"JE 	c #DED67D",
"KE 	c #CBB03C",
"LE 	c #64A73B",
"ME 	c #60A954",
"NE 	c #5EA65E",
"OE 	c #59A884",
"PE 	c #59A78F",
"QE 	c #54A5A4",
"RE 	c #61AB5A",
"SE 	c #5BAA6D",
"TE 	c #3B7A50",
"UE 	c #3A7E47",
"VE 	c #5FAB47",
"WE 	c #64A947",
"XE 	c #345751",
"YE 	c #3E3D3F",
"ZE 	c #2B343F",
"`E 	c #28363F",
" F 	c #2F4774",
".F 	c #0A0D1E",
"+F 	c #142038",
"@F 	c #1B2A3E",
"#F 	c #1F2D3A",
"$F 	c #1D2C3A",
"%F 	c #1427AD",
"&F 	c #4AD6E9",
"*F 	c #F5FED6",
"=F 	c #F5D886",
"-F 	c #B38C87",
";F 	c #7D9088",
">F 	c #7D8971",
",F 	c #746652",
"'F 	c #2E6446",
")F 	c #439843",
"!F 	c #589945",
"~F 	c #588F4F",
"{F 	c #497650",
"]F 	c #387350",
"^F 	c #387550",
"/F 	c #387251",
"(F 	c #2F5E52",
"_F 	c #316252",
":F 	c #326252",
"<F 	c #306151",
"[F 	c #32614F",
"}F 	c #317C40",
"|F 	c #5BA892",
"1F 	c #65B47F",
"2F 	c #86BA7F",
"3F 	c #8CB87F",
"4F 	c #8ABCC6",
"5F 	c #99E1EB",
"6F 	c #DEE9E8",
"7F 	c #E3E6E8",
"8F 	c #E5EDE8",
"9F 	c #ECFEE7",
"0F 	c #E8E8E8",
"aF 	c #E6E8E9",
"bF 	c #E7E09D",
"cF 	c #D6C47A",
"dF 	c #96C182",
"eF 	c #98C47F",
"fF 	c #9BBD4C",
"gF 	c #80A86F",
"hF 	c #5AA17D",
"iF 	c #5A9E42",
"jF 	c #599E43",
"kF 	c #599E41",
"lF 	c #4CA3A2",
"mF 	c #51A4AC",
"nF 	c #57A294",
"oF 	c #5C9E3F",
"pF 	c #599D46",
"qF 	c #5A8E4F",
"rF 	c #467D4F",
"sF 	c #3A6552",
"tF 	c #326052",
"uF 	c #5FAA70",
"vF 	c #609B64",
"wF 	c #50894A",
"xF 	c #478A4A",
"yF 	c #478A46",
"zF 	c #439A42",
"AF 	c #5A9C4A",
"BF 	c #59854F",
"CF 	c #397351",
"DF 	c #397354",
"EF 	c #376F6A",
"FF 	c #3B5D6A",
"GF 	c #415E69",
"HF 	c #415D69",
"IF 	c #3E5C81",
"JF 	c #406A99",
"KF 	c #3F4766",
"LF 	c #3E3F4D",
"MF 	c #303A4F",
"NF 	c #2E3A50",
"OF 	c #313C50",
"PF 	c #2F3C61",
"QF 	c #31436A",
"RF 	c #394367",
"SF 	c #394773",
"TF 	c #040411",
"UF 	c #070916",
"VF 	c #0D141F",
"WF 	c #0A0F1C",
"XF 	c #0E1824",
"YF 	c #0D1F99",
"ZF 	c #47C5E5",
"`F 	c #F5FAE7",
" G 	c #F3F5E8",
".G 	c #F0F6E4",
"+G 	c #F0EBAB",
"@G 	c #DF8C51",
"#G 	c #2F6F4F",
"$G 	c #397C4F",
"%G 	c #395B53",
"&G 	c #31784E",
"*G 	c #388C3F",
"=G 	c #52A5AA",
"-G 	c #5BA680",
";G 	c #60ABA4",
">G 	c #6CD2E5",
",G 	c #DFDFE5",
"'G 	c #E5FCE8",
")G 	c #F5FFE4",
"!G 	c #F5FEE6",
"~G 	c #F2FAE9",
"{G 	c #F5FFDD",
"]G 	c #F9E96B",
"^G 	c #BEAC3A",
"/G 	c #64AA34",
"(G 	c #55A4A4",
"_G 	c #629348",
":G 	c #457E4E",
"<G 	c #3A7F44",
"[G 	c #3CA238",
"}G 	c #5AA97B",
"|G 	c #62AC54",
"1G 	c #639C4B",
"2G 	c #4E7E4F",
"3G 	c #3B7451",
"4G 	c #57A696",
"5G 	c #63A934",
"6G 	c #64A847",
"7G 	c #5F864F",
"8G 	c #3E7E4E",
"9G 	c #3A7650",
"0G 	c #2E5851",
"aG 	c #30575E",
"bG 	c #2D5E95",
"cG 	c #516E99",
"dG 	c #666E97",
"eG 	c #676E97",
"fG 	c #666F99",
"gG 	c #3A363D",
"hG 	c #030200",
"iG 	c #021EAC",
"jG 	c #46C5E9",
"kG 	c #F8F7A7",
"lG 	c #E69151",
"mG 	c #4E5453",
"nG 	c #2F6E50",
"oG 	c #3A7D4F",
"pG 	c #3A7D4B",
"qG 	c #61A93F",
"rG 	c #60ABA7",
"sG 	c #F7E86A",
"tG 	c #BDAC3C",
"uG 	c #62934A",
"vG 	c #3A8043",
"wG 	c #5AA97C",
"xG 	c #61AC57",
"yG 	c #639C4E",
"zG 	c #4F7D4F",
"AG 	c #3A7351",
"BG 	c #5EA67B",
"CG 	c #2E565E",
"DG 	c #2D5F94",
"EG 	c #526E9A",
"FG 	c #020100",
"GG 	c #0321B5",
"HG 	c #36C5EB",
"IG 	c #F8F7A6",
"JG 	c #E69050",
"KG 	c #4C5051",
"LG 	c #3A7C4B",
"MG 	c #50A83E",
"NG 	c #62AB46",
"OG 	c #63AA40",
"PG 	c #60AAA5",
"QG 	c #F4FFDD",
"RG 	c #BCAC3A",
"SG 	c #64A93D",
"TG 	c #63A948",
"UG 	c #62944F",
"VG 	c #3A8044",
"WG 	c #60AB42",
"XG 	c #63AC42",
"YG 	c #62A04E",
"ZG 	c #4E7D4F",
"`G 	c #5DA584",
" H 	c #3E7D4F",
".H 	c #35C5EB",
"+H 	c #F2F2E7",
"@H 	c #ECF1E6",
"#H 	c #EEEFC1",
"$H 	c #E5BC9D",
"%H 	c #A5ACA1",
"&H 	c #9FACA2",
"*H 	c #9CAAA1",
"=H 	c #93A0A1",
"-H 	c #929EA1",
";H 	c #90A7A7",
">H 	c #9DAAA1",
",H 	c #93A0A0",
"'H 	c #929EA0",
")H 	c #96A082",
"!H 	c #8E7751",
"~H 	c #435653",
"{H 	c #2F6651",
"]H 	c #356D51",
"^H 	c #366D51",
"/H 	c #306D50",
"(H 	c #366E50",
"_H 	c #357B48",
":H 	c #468D47",
"<H 	c #508D48",
"[H 	c #508C49",
"}H 	c #4E8DA7",
"|H 	c #5DD4EA",
"1H 	c #D6EEE9",
"2H 	c #E9FBE8",
"3H 	c #EFF1E7",
"4H 	c #EBF9E7",
"5H 	c #F4FFE1",
"6H 	c #F6F1A4",
"7H 	c #D2C59F",
"8H 	c #A4C29B",
"9H 	c #A3C29A",
"0H 	c #A3C285",
"aH 	c #9E9E4D",
"bH 	c #566E51",
"cH 	c #36724A",
"dH 	c #398B47",
"eH 	c #518D48",
"fH 	c #518450",
"gH 	c #437050",
"hH 	c #366E51",
"iH 	c #377550",
"jH 	c #3A6F51",
"kH 	c #366A51",
"lH 	c #5DA781",
"mH 	c #5F9548",
"nH 	c #4F9144",
"oH 	c #4E9148",
"pH 	c #4E9149",
"qH 	c #4F894E",
"rH 	c #447D4F",
"sH 	c #676A7C",
"tH 	c #55657E",
"uH 	c #53657E",
"vH 	c #53667F",
"wH 	c #526484",
"xH 	c #565F86",
"yH 	c #576088",
"zH 	c #586185",
"AH 	c #5B5673",
"BH 	c #3E435F",
"CH 	c #374160",
"DH 	c #364160",
"EH 	c #37425F",
"FH 	c #374158",
"GH 	c #363E59",
"HH 	c #343F5A",
"IH 	c #333E59",
"JH 	c #333E5C",
"KH 	c #324372",
"LH 	c #E0F4E5",
"MH 	c #F1FAE8",
"NH 	c #F4FAE9",
"OH 	c #F3FAE6",
"PH 	c #F3F4E8",
"QH 	c #E5DFE6",
"RH 	c #DFF2E9",
"SH 	c #F4F6E8",
"TH 	c #E6E0E6",
"UH 	c #E1E1B4",
"VH 	c #D79450",
"WH 	c #2F5452",
"XH 	c #2954AB",
"YH 	c #41D6E9",
"ZH 	c #DFFDE8",
"`H 	c #F3FAE4",
" I 	c #DEDFBF",
".I 	c #DBA451",
"+I 	c #6F5452",
"@I 	c #306A4F",
"#I 	c #3A5D53",
"$I 	c #60AA59",
"%I 	c #58A690",
"&I 	c #63AB38",
"*I 	c #63AA3D",
"=I 	c #62994F",
"-I 	c #69707D",
";I 	c #655F51",
">I 	c #2E556C",
",I 	c #334773",
"'I 	c #3F4A74",
")I 	c #3E3C3F",
"!I 	c #F4F6E7",
"~I 	c #F4F7E7",
"{I 	c #EAE1E8",
"]I 	c #E2E0B6",
"^I 	c #2B55AB",
"/I 	c #E1E1C2",
"(I 	c #DBA453",
"_I 	c #6F5552",
":I 	c #2F6A50",
"<I 	c #50A4B2",
"[I 	c #62AC50",
"}I 	c #656052",
"|I 	c #2F566C",
"1I 	c #304874",
"2I 	c #E1F8E8",
"3I 	c #E9E1E7",
"4I 	c #D79350",
"5I 	c #5A5251",
"6I 	c #2954AA",
"7I 	c #F3FFE9",
"8I 	c #5CAB61",
"9I 	c #57A69D",
"0I 	c #3C7750",
"aI 	c #27376A",
"bI 	c #DDE1DF",
"cI 	c #D9DBE1",
"dI 	c #D9DAE3",
"eI 	c #D9DBE3",
"fI 	c #E0E1E6",
"gI 	c #E1DFB5",
"hI 	c #D89452",
"iI 	c #5C5755",
"jI 	c #305952",
"kI 	c #305951",
"lI 	c #2F5756",
"mI 	c #315955",
"nI 	c #2F5857",
"oI 	c #2B5CAB",
"pI 	c #3CD6E9",
"qI 	c #DEE0E4",
"rI 	c #E1EEE1",
"sI 	c #EBF4E3",
"tI 	c #EEF4E3",
"uI 	c #EEF3E3",
"vI 	c #EFF8E7",
"wI 	c #EFF9E7",
"xI 	c #EFF9E4",
"yI 	c #F0FFE8",
"zI 	c #DBA353",
"AI 	c #2E5852",
"BI 	c #2F6A4F",
"CI 	c #2D5946",
"DI 	c #60A83E",
"EI 	c #62A83A",
"FI 	c #60A84B",
"GI 	c #3C7850",
"HI 	c #676F96",
"II 	c #666F97",
"JI 	c #656E7F",
"KI 	c #616253",
"LI 	c #385755",
"MI 	c #315754",
"NI 	c #384873",
"OI 	c #273767",
"PI 	c #D1E8E7",
"QI 	c #E5E5E8",
"RI 	c #DFE2D5",
"SI 	c #E0C277",
"TI 	c #9F7976",
"UI 	c #637978",
"VI 	c #627879",
"WI 	c #607DB6",
"XI 	c #70CEE5",
"YI 	c #D1E8E6",
"ZI 	c #E4E8E8",
"`I 	c #F1F8E7",
" J 	c #F2F8DE",
".J 	c #E8E8D1",
"+J 	c #DAE0D2",
"@J 	c #D8E0D2",
"#J 	c #D6DDD0",
"$J 	c #D8CB78",
"%J 	c #B36250",
"&J 	c #328941",
"*J 	c #579E42",
"=J 	c #5B9F42",
"-J 	c #5C9A4D",
";J 	c #545F54",
">J 	c #2F546B",
",J 	c #2B8BCD",
"'J 	c #9CD6DE",
")J 	c #D5E0D3",
"!J 	c #D8DCDC",
"~J 	c #DAF5E9",
"{J 	c #E3EAE8",
"]J 	c #EAF9E7",
"^J 	c #F1F8E6",
"/J 	c #F6F4B9",
"(J 	c #E9A86F",
"_J 	c #7C7E77",
":J 	c #687F78",
"<J 	c #668872",
"[J 	c #70AE6C",
"}J 	c #85BA6F",
"|J 	c #85BA6C",
"1J 	c #83B76F",
"2J 	c #82BFCE",
"3J 	c #A0F5EB",
"4J 	c #DDAE51",
"5J 	c #747A4D",
"6J 	c #32764F",
"7J 	c #397650",
"8J 	c #2F7442",
"9J 	c #4D9F42",
"0J 	c #5B9E45",
"aJ 	c #5B8351",
"bJ 	c #3F5C53",
"cJ 	c #315E52",
"dJ 	c #327C4D",
"eJ 	c #44864C",
"fJ 	c #44864B",
"gJ 	c #3F8C40",
"hJ 	c #4DA848",
"iJ 	c #3B6552",
"jJ 	c #305854",
"kJ 	c #686F87",
"lJ 	c #66594F",
"mJ 	c #434253",
"nJ 	c #374355",
"oJ 	c #344471",
"pJ 	c #376192",
"qJ 	c #586B8D",
"rJ 	c #5F6A8D",
"sJ 	c #636878",
"tJ 	c #5A4B72",
"uJ 	c #293648",
"vJ 	c #2A384C",
"wJ 	c #2C384B",
"xJ 	c #2C3951",
"yJ 	c #2B3F72",
"zJ 	c #3F391E",
"AJ 	c #CFE5E6",
"BJ 	c #E0BA5A",
"CJ 	c #8F504E",
"DJ 	c #2B534F",
"EJ 	c #2A5250",
"FJ 	c #2855AC",
"GJ 	c #F7FDE3",
"HJ 	c #F9EB7A",
"IJ 	c #CD6650",
"JJ 	c #2E564B",
"KJ 	c #328E3F",
"LJ 	c #5AAB42",
"MJ 	c #61AC59",
"NJ 	c #64A64B",
"OJ 	c #586054",
"PJ 	c #2E5370",
"QJ 	c #289BE0",
"RJ 	c #B7F7EB",
"SJ 	c #F7F9AF",
"TJ 	c #EA9B50",
"UJ 	c #564F50",
"VJ 	c #29534E",
"WJ 	c #2C5946",
"XJ 	c #389E3E",
"YJ 	c #5EAB4D",
"ZJ 	c #5DA86C",
"`J 	c #5DA86A",
" K 	c #60A946",
".K 	c #5FA858",
"+K 	c #5EA861",
"@K 	c #5FA85C",
"#K 	c #5EA85D",
"$K 	c #5EA860",
"%K 	c #5FB2CB",
"&K 	c #DDB051",
"*K 	c #757E4D",
"=K 	c #2F7740",
"-K 	c #618951",
";K 	c #405653",
">K 	c #31764E",
",K 	c #686F85",
"'K 	c #66563F",
")K 	c #3A353E",
"!K 	c #27366C",
"~K 	c #2E6198",
"{K 	c #27353C",
"]K 	c #240F1B",
"^K 	c #E8E0E7",
"/K 	c #F9EC79",
"(K 	c #CD6750",
"_K 	c #59AB4C",
":K 	c #595453",
"<K 	c #2D5A46",
"[K 	c #5AAA70",
"}K 	c #56A598",
"|K 	c #53A4A7",
"1K 	c #54A5A1",
"2K 	c #63A83D",
"3K 	c #50A939",
"4K 	c #63AC47",
"5K 	c #31764F",
"6K 	c #62AC52",
"7K 	c #696A79",
"8K 	c #230A14",
"9K 	c #020000",
"0K 	c #0221B5",
"aK 	c #2B57AC",
"bK 	c #3FC2E8",
"cK 	c #E1E4E8",
"dK 	c #F4F8EA",
"eK 	c #EAE2E9",
"fK 	c #E3F7EA",
"gK 	c #F4FFEB",
"hK 	c #5AAB41",
"iK 	c #60AA65",
"jK 	c #62AC53",
"kK 	c #EAFEE9",
"lK 	c #F8F6B2",
"mK 	c #E99B50",
"nK 	c #5AAA6F",
"oK 	c #FAFFEC",
"pK 	c #F4FCEA",
"qK 	c #EEE2E9",
"rK 	c #E0E0C2",
"sK 	c #357B4E",
"tK 	c #3A5C53",
"uK 	c #52A5A8",
"vK 	c #405753",
"wK 	c #2B5453",
"xK 	c #3E391D",
"yK 	c #011FA7",
"zK 	c #2CB6DA",
"AK 	c #B4CACC",
"BK 	c #C1C5CC",
"CK 	c #C2CBDC",
"DK 	c #C7DEE6",
"EK 	c #E1E5E8",
"FK 	c #E5E6E8",
"GK 	c #E3E7D2",
"HK 	c #E3BF5A",
"IK 	c #925551",
"JK 	c #2D569A",
"KK 	c #3CB6D6",
"LK 	c #B2CACD",
"MK 	c #C1C5CD",
"NK 	c #C3D1E0",
"OK 	c #DAF8E8",
"PK 	c #F0F7E8",
"QK 	c #F0F7E4",
"RK 	c #F2EED0",
"SK 	c #D7CCD2",
"TK 	c #BED3D4",
"UK 	c #D2DBCE",
"VK 	c #D3DBCD",
"WK 	c #D3DBCF",
"XK 	c #D2DEE6",
"YK 	c #E3FDE9",
"ZK 	c #2E564E",
"`K 	c #328742",
" L 	c #569C43",
".L 	c #599C43",
"+L 	c #5A984D",
"@L 	c #535E54",
"#L 	c #E8E2CC",
"$L 	c #D4DBCD",
"%L 	c #D2D7DF",
"&L 	c #D3E3E9",
"*L 	c #E2E6E8",
"=L 	c #E5E6E5",
"-L 	c #E3E3CA",
";L 	c #DADBCD",
">L 	c #D2DACD",
",L 	c #D2D1A6",
"'L 	c #C68851",
")L 	c #505453",
"!L 	c #60A762",
"~L 	c #5EB0B6",
"{L 	c #8CE8D9",
"]L 	c #D9EAD0",
"^L 	c #D7E9D1",
"/L 	c #D7EDE0",
"(L 	c #E2FDE9",
"_L 	c #F1F7E7",
":L 	c #F4FFE5",
"<L 	c #F6F6D0",
"[L 	c #E3D8D2",
"}L 	c #C8D3C9",
"|L 	c #C9D3C9",
"1L 	c #C8D2A9",
"2L 	c #CDAF47",
"3L 	c #72864B",
"4L 	c #43864C",
"5L 	c #46854C",
"6L 	c #426E50",
"7L 	c #3D6E4E",
"8L 	c #3A813F",
"9L 	c #51A951",
"0L 	c #52A5AB",
"aL 	c #60AA66",
"bL 	c #608E5F",
"cL 	c #4A6C50",
"dL 	c #3D6E4F",
"eL 	c #3D6D50",
"fL 	c #3C5953",
"gL 	c #58A28E",
"hL 	c #5CA042",
"iL 	c #5BA042",
"jL 	c #5B9F44",
"kL 	c #5B914F",
"lL 	c #497850",
"mL 	c #397550",
"nL 	c #396053",
"oL 	c #686E8A",
"pL 	c #616689",
"qL 	c #5D6689",
"rL 	c #5E667E",
"sL 	c #5F5442",
"tL 	c #3A3D42",
"uL 	c #293B44",
"vL 	c #283D6E",
"wL 	c #2E5E92",
"xL 	c #58698F",
"yL 	c #5F688E",
"zL 	c #5E688F",
"AL 	c #636579",
"BL 	c #3E4669",
"CL 	c #3C4569",
"DL 	c #3C465B",
"EL 	c #3B3B3F",
"FL 	c #3F476B",
"GL 	c #3E4569",
"HL 	c #3C4762",
"IL 	c #373720",
"JL 	c #061C36",
"KL 	c #0D474C",
"LL 	c #2D5656",
"ML 	c #2869C6",
"NL 	c #67E9EC",
"OL 	c #EAFEE8",
"PL 	c #F5D058",
"QL 	c #9D5651",
"RL 	c #2D555E",
"SL 	c #2B7AD5",
"TL 	c #84DAE8",
"UL 	c #DBE4E9",
"VL 	c #DFE3D5",
"WL 	c #E0BF5A",
"XL 	c #995750",
"YL 	c #305853",
"ZL 	c #2A5752",
"`L 	c #2A5467",
" M 	c #2490DC",
".M 	c #A3F5EB",
"+M 	c #305752",
"@M 	c #E7904A",
"#M 	c #4F5353",
"$M 	c #2A5555",
"%M 	c #2663BF",
"&M 	c #59E5EB",
"*M 	c #F6FDE9",
"=M 	c #F6FCD7",
"-M 	c #F5D759",
";M 	c #A15752",
">M 	c #295553",
",M 	c #285853",
"'M 	c #60A95D",
")M 	c #63A937",
"!M 	c #65AB3E",
"~M 	c #62A84F",
"{M 	c #62BCD7",
"]M 	c #A9F8EB",
"^M 	c #F7E866",
"/M 	c #BCAC34",
"(M 	c #67AB3F",
"_M 	c #66AC3A",
":M 	c #63A939",
"<M 	c #60A956",
"[M 	c #53A5A6",
"}M 	c #62A936",
"|M 	c #62A64A",
"1M 	c #5C6753",
"2M 	c #63AC48",
"3M 	c #4A7E4F",
"4M 	c #3B7051",
"5M 	c #68684F",
"6M 	c #55363B",
"7M 	c #294951",
"8M 	c #2B4B72",
"9M 	c #3F4B73",
"0M 	c #3F4B75",
"aM 	c #3F4A66",
"bM 	c #3F403F",
"cM 	c #313741",
"dM 	c #40474F",
"eM 	c #3B363D",
"fM 	c #29363A",
"gM 	c #272A1E",
"hM 	c #150A11",
"iM 	c #041B3A",
"jM 	c #0C4C52",
"kM 	c #2D5253",
"lM 	c #2961C7",
"mM 	c #6AE9EC",
"nM 	c #ECFEE8",
"oM 	c #2D5650",
"pM 	c #2D515B",
"qM 	c #2A73D6",
"rM 	c #E0E3D6",
"sM 	c #98544F",
"tM 	c #2D5165",
"uM 	c #2A8CDC",
"vM 	c #A5F5EB",
"wM 	c #F8F8A8",
"xM 	c #E79351",
"yM 	c #4F5252",
"zM 	c #2A5353",
"AM 	c #295CC0",
"BM 	c #5EE5EB",
"CM 	c #F4FED5",
"DM 	c #F6D75C",
"EM 	c #A75650",
"FM 	c #53A4A5",
"GM 	c #61A934",
"HM 	c #62A84E",
"IM 	c #60BAD7",
"JM 	c #ABF8EB",
"KM 	c #BCAC3B",
"LM 	c #63A93A",
"MM 	c #55A59A",
"NM 	c #54A4A2",
"OM 	c #53A5A2",
"PM 	c #5BA987",
"QM 	c #686851",
"RM 	c #55383D",
"SM 	c #283546",
"TM 	c #284752",
"UM 	c #3F4041",
"VM 	c #2F343F",
"WM 	c #40484F",
"XM 	c #3B363E",
"YM 	c #273539",
"ZM 	c #282B1E",
"`M 	c #150911",
" N 	c #2A5852",
".N 	c #2962C7",
"+N 	c #83DAEA",
"@N 	c #DDE4EB",
"#N 	c #E0E4D6",
"$N 	c #995650",
"%N 	c #4F5352",
"&N 	c #2B5454",
"*N 	c #A85751",
"=N 	c #5AA682",
"-N 	c #60BBD7",
";N 	c #56A79B",
">N 	c #63A84F",
",N 	c #293647",
"'N 	c #272B1F",
")N 	c #140A12",
"!N 	c #041A39",
"~N 	c #0C4B52",
"{N 	c #2B74D3",
"]N 	c #84D9EA",
"^N 	c #D9E0E7",
"/N 	c #DEE4D4",
"(N 	c #E0C15A",
"_N 	c #985651",
":N 	c #2A89DA",
"<N 	c #A1EEEC",
"[N 	c #EFF9E8",
"}N 	c #E7914B",
"|N 	c #4D5151",
"1N 	c #2360C1",
"2N 	c #5EDFEB",
"3N 	c #F5F9E8",
"4N 	c #F1F4D9",
"5N 	c #F0D05D",
"6N 	c #A45751",
"7N 	c #62A937",
"8N 	c #62A935",
"9N 	c #AAF8EB",
"0N 	c #F3FEE8",
"aN 	c #F4EDE7",
"bN 	c #E3F7E5",
"cN 	c #F2F9E8",
"dN 	c #F0F8DD",
"eN 	c #F0E267",
"fN 	c #BEAD3B",
"gN 	c #62A93F",
"hN 	c #5CA879",
"iN 	c #63AA36",
"jN 	c #63AB39",
"kN 	c #62AC34",
"lN 	c #33764E",
"mN 	c #3B7D4C",
"nN 	c #39873C",
"oN 	c #4BA833",
"pN 	c #2D565F",
"qN 	c #536F99",
"rN 	c #294752",
"sN 	c #2E5754",
"tN 	c #2E5760",
"uN 	c #2F4C73",
"vN 	c #252C22",
"wN 	c #0E0F17",
"xN 	c #051736",
"yN 	c #0C4B51",
"zN 	c #2E6291",
"AN 	c #5798A1",
"BN 	c #869899",
"CN 	c #8A998F",
"DN 	c #8D8952",
"EN 	c #605853",
"FN 	c #306D94",
"GN 	c #669CA3",
"HN 	c #92A39B",
"IN 	c #93A198",
"JN 	c #94A2BB",
"KN 	c #95D3E5",
"LN 	c #D6EDE7",
"MN 	c #E7EDDF",
"NN 	c #EBDC7B",
"ON 	c #C26450",
"PN 	c #2D5553",
"QN 	c #F6FBCF",
"RN 	c #EFD0C1",
"SN 	c #B3B5BB",
"TN 	c #AEB7B7",
"UN 	c #BBBAA1",
"VN 	c #A59D9C",
"WN 	c #8EA29E",
"XN 	c #95A49A",
"YN 	c #93A096",
"ZN 	c #938D5E",
"`N 	c #675852",
" O 	c #5F965F",
".O 	c #4E8F49",
"+O 	c #4C8F49",
"@O 	c #4B8D4B",
"#O 	c #47A098",
"$O 	c #74D6C4",
"%O 	c #C7DBBB",
"&O 	c #C5DDBF",
"*O 	c #C5E1DE",
"=O 	c #D1EAE9",
"-O 	c #E7ECE8",
";O 	c #E6F0E8",
">O 	c #ECF3E7",
",O 	c #EDF4E3",
"'O 	c #F1EBA8",
")O 	c #D1B494",
"!O 	c #9AB199",
"~O 	c #96AF98",
"{O 	c #95A155",
"]O 	c #819047",
"^O 	c #4C8F48",
"/O 	c #4B8F47",
"(O 	c #489C3A",
"_O 	c #56A874",
":O 	c #57A692",
"<O 	c #5DA784",
"[O 	c #60B7B1",
"}O 	c #91CCBA",
"|O 	c #B7CCB7",
"1O 	c #B8CB9E",
"2O 	c #C0BC3F",
"3O 	c #81A870",
"4O 	c #59A885",
"5O 	c #60A66C",
"6O 	c #5C7B51",
"7O 	c #376E51",
"8O 	c #366F51",
"9O 	c #36704F",
"0O 	c #358146",
"aO 	c #4C9146",
"bO 	c #539146",
"cO 	c #539147",
"dO 	c #549744",
"eO 	c #559A45",
"fO 	c #559A48",
"gO 	c #489A9A",
"hO 	c #4EA59A",
"iO 	c #386652",
"jO 	c #336651",
"kO 	c #336252",
"lO 	c #2E5981",
"mO 	c #3F6686",
"nO 	c #556681",
"oO 	c #556584",
"pO 	c #556A97",
"qO 	c #283655",
"rO 	c #2B5384",
"sO 	c #4C6783",
"tO 	c #566682",
"uO 	c #58667C",
"vO 	c #595373",
"wO 	c #454973",
"xO 	c #293E64",
"yO 	c #344162",
"zO 	c #384361",
"AO 	c #3A4249",
"BO 	c #35353F",
"CO 	c #DFE2E0",
"DO 	c #E3D37C",
"EO 	c #BC634F",
"FO 	c #F4FEE6",
"GO 	c #E4DB93",
"HO 	c #C86E4D",
"IO 	c #365051",
"JO 	c #618E4F",
"KO 	c #437D4F",
"LO 	c #3982CA",
"MO 	c #F0FDE9",
"NO 	c #DEF2E8",
"OO 	c #F4FFE2",
"PO 	c #F9EF82",
"QO 	c #C68B4C",
"RO 	c #397D4E",
"SO 	c #367A4E",
"TO 	c #3A7D49",
"UO 	c #37943F",
"VO 	c #5BA778",
"WO 	c #62A962",
"XO 	c #60BDE1",
"YO 	c #AEE0EA",
"ZO 	c #DFE2E9",
"`O 	c #DEE0C5",
" P 	c #DCC340",
".P 	c #92A93E",
"+P 	c #5DAB5B",
"@P 	c #5D844F",
"#P 	c #58AA3F",
"$P 	c #62AB4D",
"%P 	c #62AB4E",
"&P 	c #3A7550",
"*P 	c #2E5B91",
"=P 	c #486D99",
"-P 	c #28365C",
";P 	c #2A5896",
">P 	c #5B6F99",
",P 	c #665673",
"'P 	c #474873",
")P 	c #041736",
"!P 	c #2F5354",
"~P 	c #6BE9EC",
"{P 	c #EDFEE9",
"]P 	c #F8FFEC",
"^P 	c #F5FDD3",
"/P 	c #C7E4E8",
"(P 	c #E0E4E1",
"_P 	c #E4D47C",
":P 	c #BC614E",
"<P 	c #2C5352",
"[P 	c #B5F7EB",
"}P 	c #F6FEE8",
"|P 	c #C9704F",
"1P 	c #375252",
"2P 	c #5BAA65",
"3P 	c #63A942",
"4P 	c #3A7FCC",
"5P 	c #F6FFE4",
"6P 	c #F9EF83",
"7P 	c #3E7C4E",
"8P 	c #3A7C4A",
"9P 	c #37953F",
"0P 	c #5DA76C",
"aP 	c #62A960",
"bP 	c #60BDE0",
"cP 	c #AFE1EC",
"dP 	c #DEE1E9",
"eP 	c #DFE1C6",
"fP 	c #91AA3E",
"gP 	c #55AA3D",
"hP 	c #486D9A",
"iP 	c #696E86",
"jP 	c #3C4974",
"kP 	c #384974",
"lP 	c #071735",
"mP 	c #0C4B4F",
"nP 	c #2E5854",
"oP 	c #2F5355",
"pP 	c #2862C2",
"qP 	c #6CE9ED",
"rP 	c #ECF9E6",
"sP 	c #F1F9E8",
"tP 	c #F6FCD5",
"uP 	c #EBC55A",
"vP 	c #995651",
"wP 	c #2C559B",
"xP 	c #33B9E6",
"yP 	c #C3DEE3",
"zP 	c #DADFDB",
"AP 	c #E4D478",
"BP 	c #B65E49",
"CP 	c #2C5854",
"DP 	c #2F536F",
"EP 	c #2995DC",
"FP 	c #AEECEB",
"GP 	c #EDF5E5",
"HP 	c #F0F5E5",
"IP 	c #EFF3E6",
"JP 	c #ECE6E8",
"KP 	c #DFE2E3",
"LP 	c #E3D990",
"MP 	c #CA7150",
"NP 	c #395553",
"OP 	c #2D5854",
"PP 	c #285453",
"QP 	c #28584A",
"RP 	c #3E9D3E",
"SP 	c #65AD3F",
"TP 	c #65AB46",
"UP 	c #5E904F",
"VP 	c #427D4F",
"WP 	c #E0EDE1",
"XP 	c #EBF5E4",
"YP 	c #EDF3E1",
"ZP 	c #EFE386",
"`P 	c #C7894C",
" Q 	c #3D7B4E",
".Q 	c #3B7D4B",
"+Q 	c #35943F",
"@Q 	c #58AA41",
"#Q 	c #5EA86E",
"$Q 	c #63AA37",
"%Q 	c #67AC39",
"&Q 	c #66AC3C",
"*Q 	c #62A963",
"=Q 	c #62BFE0",
"-Q 	c #A8DEE5",
";Q 	c #DADEE3",
">Q 	c #DADCC0",
",Q 	c #DEC441",
"'Q 	c #92AA39",
")Q 	c #5DAB58",
"!Q 	c #5EA57A",
"~Q 	c #3C7D4C",
"{Q 	c #379039",
"]Q 	c #55AA37",
"^Q 	c #61A955",
"/Q 	c #64AA4C",
"(Q 	c #2E5659",
"_Q 	c #2C5B90",
":Q 	c #25355F",
"<Q 	c #285897",
"[Q 	c #596F97",
"}Q 	c #676E87",
"|Q 	c #665773",
"1Q 	c #404A66",
"2Q 	c #283E70",
"3Q 	c #020200",
"4Q 	c #061E7D",
"5Q 	c #29548E",
"6Q 	c #586A8B",
"7Q 	c #5D698B",
"8Q 	c #616C7C",
"9Q 	c #66B67C",
"0Q 	c #8DBD78",
"aQ 	c #8CBD78",
"bQ 	c #90BF72",
"cQ 	c #89A151",
"dQ 	c #5C5452",
"eQ 	c #2F5666",
"fQ 	c #317383",
"gQ 	c #628180",
"hQ 	c #6B807F",
"iQ 	c #6B7F80",
"jQ 	c #708EC3",
"kQ 	c #82C9D5",
"lQ 	c #BBC9CC",
"mQ 	c #C1C6CC",
"nQ 	c #C4CAB3",
"oQ 	c #C5A64E",
"pQ 	c #715652",
"qQ 	c #2E657E",
"rQ 	c #578385",
"sQ 	c #718780",
"tQ 	c #738781",
"uQ 	c #7188B7",
"vQ 	c #74D9E9",
"wQ 	c #DFF8E8",
"xQ 	c #F0F7E6",
"yQ 	c #F2F6D5",
"zQ 	c #EBD7D6",
"AQ 	c #C2CABC",
"BQ 	c #C8B453",
"CQ 	c #865752",
"DQ 	c #2D5593",
"EQ 	c #36B0D5",
"FQ 	c #AFCBCD",
"GQ 	c #C0C5CC",
"HQ 	c #C6D0CA",
"IQ 	c #C9D3CA",
"JQ 	c #C9D29F",
"KQ 	c #CAA34A",
"LQ 	c #607E4D",
"MQ 	c #F3F7C3",
"NQ 	c #E5BA7B",
"OQ 	c #8B877F",
"PQ 	c #738880",
"QQ 	c #728680",
"RQ 	c #718D5B",
"SQ 	c #679E41",
"TQ 	c #5B9F43",
"UQ 	c #5CA63F",
"VQ 	c #54A69E",
"WQ 	c #5FA860",
"XQ 	c #5DADAE",
"YQ 	c #77D1CE",
"ZQ 	c #BDD3CB",
"`Q 	c #C5D2BB",
" R 	c #CFC974",
".R 	c #A9B773",
"+R 	c #87B775",
"@R 	c #87B769",
"#R 	c #8AB03B",
"$R 	c #64A599",
"%R 	c #52A3AF",
"&R 	c #5DA058",
"*R 	c #59A05B",
"=R 	c #4CA0AA",
"-R 	c #60A763",
";R 	c #5EB1B9",
">R 	c #84D2CF",
",R 	c #C1D3CA",
"'R 	c #C7D3C6",
")R 	c #CDCF80",
"!R 	c #C6B241",
"~R 	c #64A781",
"{R 	c #326690",
"]R 	c #586B8B",
"^R 	c #5D6C97",
"/R 	c #5D6587",
"(R 	c #605C7A",
"_R 	c #4E5079",
":R 	c #49547D",
"<R 	c #4A5379",
"[R 	c #4C4B73",
"}R 	c #424973",
"|R 	c #3F4752",
"1R 	c #3A3A4B",
"2R 	c #2F3B4E",
"3R 	c #2D394D",
"4R 	c #2E3A4A",
"5R 	c #2E363F",
"6R 	c #283545",
"7R 	c #29384E",
"8R 	c #2D3A4D",
"9R 	c #2E3842",
"0R 	c #29374D",
"aR 	c #2B394D",
"bR 	c #2E3A4D",
"cR 	c #2E3B64",
"dR 	c #2E4673",
"eR 	c #3E4974",
"fR 	c #404A71",
"gR 	c #0E0E17",
"hR 	c #040301",
"iR 	c #0E2283",
"jR 	c #31659C",
"kR 	c #697098",
"lR 	c #696D5F",
"mR 	c #6AA43C",
"nR 	c #60A94E",
"oR 	c #5FAB45",
"pR 	c #609151",
"qR 	c #DBE4EA",
"rR 	c #E2E6CE",
"sR 	c #DFB155",
"tR 	c #835551",
"uR 	c #2854AA",
"vR 	c #42D6E9",
"wR 	c #E2E7D9",
"xR 	c #2B55A3",
"yR 	c #36BCE7",
"zR 	c #CCE3E9",
"AR 	c #E3E3EA",
"BR 	c #DAA64F",
"CR 	c #647E4D",
"DR 	c #F7FABB",
"ER 	c #EEAC51",
"FR 	c #6A5051",
"GR 	c #29534F",
"HR 	c #2D5745",
"IR 	c #3EA33E",
"JR 	c #60AB52",
"KR 	c #60AA64",
"LR 	c #58A697",
"MR 	c #5FAEC5",
"NR 	c #7EDAEC",
"OR 	c #D9E4EA",
"PR 	c #DFE3D3",
"QR 	c #DDCA4B",
"RR 	c #A5A93B",
"SR 	c #5EA763",
"TR 	c #5CA863",
"UR 	c #59A790",
"VR 	c #5FB2D4",
"WR 	c #90DDEC",
"XR 	c #DCE3EA",
"YR 	c #DED990",
"ZR 	c #D2B33E",
"`R 	c #6AAA3D",
" S 	c #55A795",
".S 	c #2D577C",
"+S 	c #336999",
"@S 	c #39363E",
"#S 	c #283660",
"$S 	c #2A4573",
"%S 	c #3D4974",
"&S 	c #282B1F",
"*S 	c #030203",
"=S 	c #1D2B70",
"-S 	c #336698",
";S 	c #697097",
">S 	c #5CA981",
",S 	c #629450",
"'S 	c #485754",
")S 	c #E0E2CC",
"!S 	c #DEB156",
"~S 	c #815551",
"{S 	c #2B55A4",
"]S 	c #37BCE7",
"^S 	c #E2DFB7",
"/S 	c #DAA650",
"(S 	c #F6FBBB",
"_S 	c #EEAC50",
":S 	c #6C5552",
"<S 	c #2D5F44",
"[S 	c #3EA33D",
"}S 	c #58A884",
"|S 	c #5FAEC0",
"1S 	c #D8E3E8",
"2S 	c #A7AB3D",
"3S 	c #60AB47",
"4S 	c #60B2D0",
"5S 	c #6BAA3C",
"6S 	c #55A794",
"7S 	c #686F8B",
"8S 	c #040300",
"9S 	c #0F2281",
"0S 	c #646F9A",
"aS 	c #5CA980",
"bS 	c #64934F",
"cS 	c #495551",
"dS 	c #DEB055",
"eS 	c #804F4F",
"fS 	c #FBFFEC",
"gS 	c #2854A3",
"hS 	c #C8E4E7",
"iS 	c #E0DFB5",
"jS 	c #D8A54A",
"kS 	c #357B4D",
"lS 	c #7BEDEC",
"mS 	c #F1FFEA",
"nS 	c #F7F8BF",
"oS 	c #2D5E44",
"pS 	c #59A883",
"qS 	c #DFE3D4",
"rS 	c #59A685",
"sS 	c #5DA86B",
"tS 	c #61A83F",
"uS 	c #5FAA6C",
"vS 	c #686F90",
"wS 	c #404750",
"xS 	c #040302",
"yS 	c #081F80",
"zS 	c #2A5490",
"AS 	c #5A6B8D",
"BS 	c #5F6A8E",
"CS 	c #636A5D",
"DS 	c #5DA43F",
"ES 	c #55A5A7",
"FS 	c #669F75",
"GS 	c #657E78",
"HS 	c #688078",
"IS 	c #677968",
"JS 	c #616153",
"KS 	c #E0E1CF",
"LS 	c #DFBA75",
"MS 	c #977F77",
"NS 	c #698078",
"OS 	c #67755D",
"PS 	c #5A5C53",
"QS 	c #2C569B",
"RS 	c #3CB9DA",
"SS 	c #C2DCDA",
"TS 	c #D9E0D1",
"US 	c #D7DCE0",
"VS 	c #D8E0E8",
"WS 	c #DFE2D8",
"XS 	c #E1C779",
"YS 	c #AA8077",
"ZS 	c #697F78",
"`S 	c #697F7A",
" T 	c #6782AF",
".T 	c #6ECAE4",
"+T 	c #CEE8E6",
"@T 	c #E1E3E8",
"#T 	c #E5E6EA",
"$T 	c #E4E3BD",
"%T 	c #DDB171",
"&T 	c #819275",
"*T 	c #679376",
"=T 	c #689372",
"-T 	c #6AA3AE",
";T 	c #85D2DB",
">T 	c #CFE0D6",
",T 	c #D9E2D1",
"'T 	c #D8E1D1",
")T 	c #D8E0D1",
"!T 	c #D8DFD1",
"~T 	c #D6D7B5",
"{T 	c #CF9853",
"]T 	c #615552",
"^T 	c #60A858",
"/T 	c #5DADB1",
"(T 	c #78D2D3",
"_T 	c #C1D5CF",
":T 	c #CBD5D4",
"<T 	c #C9D4BD",
"[T 	c #D3C749",
"}T 	c #A0AA4E",
"|T 	c #5EAA5F",
"1T 	c #5EA980",
"2T 	c #67B26E",
"3T 	c #7EB66D",
"4T 	c #7FB271",
"5T 	c #7EBCD3",
"6T 	c #9BDDEC",
"7T 	c #DEE0E2",
"8T 	c #DBDCCD",
"9T 	c #CFD5CE",
"0T 	c #CDD5CE",
"aT 	c #CBD5CA",
"bT 	c #D0D183",
"cT 	c #C9B240",
"dT 	c #67A959",
"eT 	c #56A792",
"fT 	c #5EA145",
"gT 	c #5CA144",
"hT 	c #5D924F",
"iT 	c #497D4F",
"jT 	c #29374B",
"kT 	c #2B384B",
"lT 	c #2C394A",
"mT 	c #2C395C",
"nT 	c #2D446E",
"oT 	c #3A456B",
"pT 	c #3C476A",
"qT 	c #3E464D",
"rT 	c #39363F",
"sT 	c #071836",
"tT 	c #0E4C51",
"uT 	c #2D5E46",
"vT 	c #59A982",
"wT 	c #63A962",
"xT 	c #5FC2DB",
"yT 	c #BFECE2",
"zT 	c #EDF3E2",
"AT 	c #EDE8AA",
"BT 	c #DC8A51",
"CT 	c #E0E9E0",
"DT 	c #E8F2E2",
"ET 	c #ECF1E0",
"FT 	c #EEE084",
"GT 	c #C96950",
"HT 	c #305856",
"IT 	c #315A54",
"JT 	c #2A66C0",
"KT 	c #5BD0E7",
"LT 	c #E0E6E0",
"MT 	c #E8F4E2",
"NT 	c #EEF6E3",
"OT 	c #ECFDE7",
"PT 	c #F4FDE5",
"QT 	c #F4ECE6",
"RT 	c #DBDBE3",
"ST 	c #D8DEDA",
"TT 	c #E4D57A",
"UT 	c #C28648",
"VT 	c #427F53",
"WT 	c #397F53",
"XT 	c #3B7B53",
"YT 	c #395855",
"ZT 	c #2E5A55",
"`T 	c #2F5A57",
" U 	c #2D5A56",
".U 	c #5EA86F",
"+U 	c #68AD3C",
"@U 	c #67AD3C",
"#U 	c #67AD3D",
"$U 	c #67AB37",
"%U 	c #5AA693",
"&U 	c #63A933",
"*U 	c #5EAEBC",
"=U 	c #7BD8E5",
"-U 	c #CFDEE1",
";U 	c #DCDEE2",
">U 	c #DADEE5",
",U 	c #E0E1C7",
"'U 	c #DFC343",
")U 	c #94AB3E",
"!U 	c #68AD3D",
"~U 	c #67AB3C",
"{U 	c #65AA4D",
"]U 	c #64A548",
"^U 	c #59814F",
"/U 	c #404957",
"(U 	c #2B3743",
"_U 	c #2A3640",
":U 	c #0D4C52",
"<U 	c #2D5D44",
"[U 	c #3DA23E",
"}U 	c #62A965",
"|U 	c #60C7E1",
"1U 	c #C1FBEB",
"2U 	c #F9F7A8",
"3U 	c #E79151",
"4U 	c #DFEDE9",
"5U 	c #EEFFE9",
"6U 	c #F6FFE3",
"7U 	c #FAEE81",
"8U 	c #D36C50",
"9U 	c #2D5251",
"0U 	c #285CC0",
"aU 	c #EBFFE9",
"bU 	c #E0E4E2",
"cU 	c #E4D57E",
"dU 	c #C1874C",
"eU 	c #3C7C4E",
"fU 	c #377C4E",
"gU 	c #37754F",
"hU 	c #335751",
"iU 	c #54A49D",
"jU 	c #5FAEC1",
"kU 	c #7DDAEC",
"lU 	c #D8E4E9",
"mU 	c #DFE1C7",
"nU 	c #DCC440",
"oU 	c #92A93D",
"pU 	c #57A599",
"qU 	c #54A69F",
"rU 	c #3D393F",
"sU 	c #61C7DF",
"tU 	c #C1FAEB",
"uU 	c #F9EE81",
"vU 	c #2D5453",
"wU 	c #E3D57E",
"xU 	c #3E7D4E",
"yU 	c #5FAEBF",
"zU 	c #7CDAEC",
"AU 	c #D8E3E9",
"BU 	c #DCC441",
"CU 	c #93AA3F",
"DU 	c #51A3B3",
"EU 	c #F8F8A7",
"FU 	c #F9EE7F",
"GU 	c #D2694D",
"HU 	c #295051",
"IU 	c #27544F",
"JU 	c #295656",
"KU 	c #2A5DBE",
"LU 	c #56CEEA",
"MU 	c #D4E1E7",
"NU 	c #DFE5E9",
"OU 	c #E8FAE9",
"PU 	c #F6FBEA",
"QU 	c #F6FCEA",
"RU 	c #F1EBE5",
"SU 	c #E2E1E8",
"TU 	c #DEE1DE",
"UU 	c #E2D47A",
"VU 	c #C1864C",
"WU 	c #3B7650",
"XU 	c #59A983",
"YU 	c #62AA36",
"ZU 	c #DDDEE5",
"`U 	c #DCDFC4",
" V 	c #DDC441",
".V 	c #93AA3C",
"+V 	c #2C577C",
"@V 	c #326999",
"#V 	c #28353A",
"$V 	c #2A2A1E",
"%V 	c #19090F",
"&V 	c #61C2DF",
"*V 	c #B8ECEB",
"=V 	c #E7EDE8",
"-V 	c #E9EDE4",
";V 	c #ECE9A8",
">V 	c #DB8A51",
",V 	c #4C5453",
"'V 	c #F7F6BE",
")V 	c #DDC3B3",
"!V 	c #B6C1B5",
"~V 	c #B4BCAC",
"{V 	c #B39A5A",
"]V 	c #715552",
"^V 	c #2E5989",
"/V 	c #4299AA",
"(V 	c #8BA1A1",
"_V 	c #91A1A3",
":V 	c #97ABA5",
"<V 	c #9CA99F",
"[V 	c #9DAAA0",
"}V 	c #9DABA1",
"|V 	c #9EABA1",
"1V 	c #9EB69D",
"2V 	c #A6CA9D",
"3V 	c #ACCFA0",
"4V 	c #ACCD9F",
"5V 	c #A9C99B",
"6V 	c #A4C39A",
"7V 	c #A3C29B",
"8V 	c #A1C296",
"9V 	c #A7BE58",
"0V 	c #979B45",
"aV 	c #539746",
"bV 	c #549746",
"cV 	c #548F4F",
"dV 	c #497051",
"eV 	c #366F4E",
"fV 	c #358347",
"gV 	c #4D8D47",
"hV 	c #4F8E42",
"iV 	c #51A750",
"jV 	c #5DA886",
"kV 	c #63A988",
"lV 	c #5AA78E",
"mV 	c #57A58C",
"nV 	c #51A384",
"oV 	c #50A687",
"pV 	c #E0E2E2",
"qV 	c #E2DAA8",
"rV 	c #CBC297",
"sV 	c #A2C188",
"tV 	c #A8B73A",
"uV 	c #75A785",
"vV 	c #3A6B51",
"wV 	c #346652",
"xV 	c #325853",
"yV 	c #2E575C",
"zV 	c #2E5C81",
"AV 	c #466581",
"BV 	c #53647F",
"CV 	c #52658D",
"DV 	c #536D99",
"EV 	c #3F4868",
"FV 	c #343E59",
"GV 	c #333F58",
"HV 	c #353E44",
"IV 	c #30353F",
"JV 	c #2B4063",
"KV 	c #354060",
"LV 	c #384259",
"MV 	c #39331E",
"NV 	c #240D16",
"OV 	c #61BEE0",
"PV 	c #B2E1EB",
"QV 	c #F3FCEA",
"RV 	c #F5FCEA",
"SV 	c #F2FACF",
"TV 	c #F1C856",
"UV 	c #945551",
"VV 	c #306C43",
"WV 	c #4EA93F",
"XV 	c #62AA46",
"YV 	c #60AC48",
"ZV 	c #61AB48",
"`V 	c #62AB49",
" W 	c #63A04E",
".W 	c #547E4F",
"+W 	c #37973E",
"@W 	c #5AAA3F",
"#W 	c #62AB4B",
"$W 	c #5CA771",
"%W 	c #63AB68",
"&W 	c #4EA472",
"*W 	c #51A84F",
"=W 	c #E1E4E0",
"-W 	c #DFD36C",
";W 	c #C3AD3B",
">W 	c #64A843",
",W 	c #5BA882",
"'W 	c #2E5661",
")W 	c #2D6095",
"!W 	c #546E99",
"~W 	c #3F495E",
"{W 	c #3E3B3F",
"]W 	c #2D4774",
"^W 	c #3C391E",
"/W 	c #1F111F",
"(W 	c #07193B",
"_W 	c #114C52",
":W 	c #5BA977",
"<W 	c #5DA86D",
"[W 	c #61BEE1",
"}W 	c #E3DEA9",
"|W 	c #D38550",
"1W 	c #4A5252",
"2W 	c #2A5652",
"3W 	c #F5FDCF",
"4W 	c #F4CA56",
"5W 	c #955451",
"6W 	c #2E6F41",
"7W 	c #4CA83A",
"8W 	c #57A794",
"9W 	c #63A156",
"0W 	c #3A7D48",
"aW 	c #37973F",
"bW 	c #59AA4A",
"cW 	c #5FA85E",
"dW 	c #4EA574",
"eW 	c #51A850",
"fW 	c #D9E4EB",
"gW 	c #E1E4E1",
"hW 	c #556E9A",
"iW 	c #686E91",
"jW 	c #3F495D",
"kW 	c #273768",
"lW 	c #3D391D",
"mW 	c #231020",
"nW 	c #08142E",
"oW 	c #153D4D",
"pW 	c #2D5A49",
"qW 	c #3DA23C",
"rW 	c #61AB3F",
"sW 	c #62AA63",
"tW 	c #5FBFDE",
"uW 	c #ACDFE6",
"vW 	c #DCDFE4",
"wW 	c #E2DEA5",
"xW 	c #CF8249",
"yW 	c #495251",
"zW 	c #275651",
"AW 	c #2A5953",
"BW 	c #F5FDCE",
"CW 	c #F4C950",
"DW 	c #94514F",
"EW 	c #245352",
"FW 	c #285953",
"GW 	c #2E7040",
"HW 	c #4CA83E",
"IW 	c #5CA877",
"JW 	c #63A057",
"KW 	c #3B7E49",
"LW 	c #36963B",
"MW 	c #59AB45",
"NW 	c #63AA65",
"OW 	c #62A7AE",
"PW 	c #53A5B5",
"QW 	c #4EA4B2",
"RW 	c #4EA46E",
"SW 	c #51A84C",
"TW 	c #63A931",
"UW 	c #5EAEBF",
"VW 	c #7BD9E7",
"WW 	c #D2DFE4",
"XW 	c #DBDFDA",
"YW 	c #DED36A",
"ZW 	c #C4AE37",
"`W 	c #5CA690",
" X 	c #2D5662",
".X 	c #2B6095",
"+X 	c #687097",
"@X 	c #676E8F",
"#X 	c #685D73",
"$X 	c #273E71",
"%X 	c #374872",
"&X 	c #283766",
"*X 	c #344670",
"=X 	c #3D4767",
"-X 	c #3D3A1F",
";X 	c #22111E",
">X 	c #060714",
",X 	c #08132A",
"'X 	c #152C34",
")X 	c #1A3140",
"!X 	c #233E7B",
"~X 	c #3A798B",
"{X 	c #627E86",
"]X 	c #667E85",
"^X 	c #677F86",
"/X 	c #658A81",
"(X 	c #6B9E87",
"_X 	c #799D85",
":X 	c #789C84",
"<X 	c #7CA497",
"[X 	c #7AC0CB",
"}X 	c #BBD3D1",
"|X 	c #CED6C8",
"1X 	c #CDBD69",
"2X 	c #A05B50",
"3X 	c #2F5461",
"4X 	c #2D7BC1",
"5X 	c #81C5D0",
"6X 	c #B9C3C8",
"7X 	c #BCC2C6",
"8X 	c #C2C69B",
"9X 	c #B88A4F",
"0X 	c #515553",
"aX 	c #F4FEE1",
"bX 	c #F6F2C8",
"cX 	c #DCDBC8",
"dX 	c #CED6C9",
"eX 	c #CCD4C8",
"fX 	c #CEC682",
"gX 	c #B36851",
"hX 	c #335553",
"iX 	c #2F6E45",
"jX 	c #4A9943",
"kX 	c #58974C",
"lX 	c #556553",
"mX 	c #2F5E4D",
"nX 	c #3A724E",
"oX 	c #40724E",
"pX 	c #3E7149",
"qX 	c #3F973D",
"rX 	c #58A96E",
"sX 	c #5D9E43",
"tX 	c #599E3F",
"uX 	c #51A5A7",
"vX 	c #63A965",
"wX 	c #5EA769",
"xX 	c #5DA769",
"yX 	c #5EA766",
"zX 	c #54A495",
"AX 	c #5EAA87",
"BX 	c #69B680",
"CX 	c #89BA7E",
"DX 	c #8CBA7A",
"EX 	c #90B74C",
"FX 	c #83A966",
"GX 	c #2E5B88",
"HX 	c #44698C",
"IX 	c #5A6988",
"JX 	c #5B688A",
"KX 	c #5A6C98",
"LX 	c #67645C",
"MX 	c #4F475B",
"NX 	c #3E485E",
"OX 	c #3D4B60",
"PX 	c #3B4876",
"QX 	c #41537C",
"RX 	c #4B567E",
"SX 	c #4C557C",
"TX 	c #4E4D73",
"UX 	c #28375F",
"VX 	c #2D436B",
"WX 	c #3B4662",
"XX 	c #3B404E",
"YX 	c #343C50",
"ZX 	c #2F3A50",
"`X 	c #303C47",
" Y 	c #28333B",
".Y 	c #382637",
"+Y 	c #32273A",
"@Y 	c #232C42",
"#Y 	c #1F263D",
"$Y 	c #202227",
"%Y 	c #100B16",
"&Y 	c #080C0A",
"*Y 	c #0B2997",
"=Y 	c #3A689A",
"-Y 	c #68708E",
";Y 	c #667456",
">Y 	c #4C7F4D",
",Y 	c #3B77A9",
"'Y 	c #47D8E9",
")Y 	c #E4FCE9",
"!Y 	c #FAFEEC",
"~Y 	c #F6FCE0",
"{Y 	c #F8E46C",
"]Y 	c #BF5E50",
"^Y 	c #99DCEA",
"/Y 	c #F9EF8A",
"(Y 	c #D77250",
"_Y 	c #2F7340",
":Y 	c #51A93E",
"<Y 	c #62AB58",
"[Y 	c #64A849",
"}Y 	c #5C6A53",
"|Y 	c #2E574C",
"1Y 	c #57A69B",
"2Y 	c #5FA85B",
"3Y 	c #61A942",
"4Y 	c #5BA77D",
"5Y 	c #59A97D",
"6Y 	c #2E5C92",
"7Y 	c #4B6E9A",
"8Y 	c #676044",
"9Y 	c #47353E",
"0Y 	c #273869",
"aY 	c #314874",
"bY 	c #3F4141",
"cY 	c #283226",
"dY 	c #2D191C",
"eY 	c #0B0E1B",
"fY 	c #070600",
"gY 	c #092798",
"hY 	c #396297",
"iY 	c #667455",
"jY 	c #3A76AA",
"kY 	c #46D9E9",
"lY 	c #F8E56C",
"mY 	c #C05E50",
"nY 	c #96DDE9",
"oY 	c #F4FFE4",
"pY 	c #F9F188",
"qY 	c #D87250",
"rY 	c #4EA938",
"sY 	c #56A79C",
"tY 	c #64A943",
"uY 	c #5AA78D",
"vY 	c #48373D",
"wY 	c #27386D",
"xY 	c #3F4142",
"yY 	c #2E1A1B",
"zY 	c #040616",
"AY 	c #386096",
"BY 	c #666F9A",
"CY 	c #4D7E4F",
"DY 	c #584F50",
"EY 	c #2869CF",
"FY 	c #D77150",
"GY 	c #2E4F50",
"HY 	c #4EA93D",
"IY 	c #5EAA6C",
"JY 	c #5FAA72",
"KY 	c #5FA673",
"LY 	c #69709A",
"MY 	c #68708F",
"NY 	c #48353D",
"OY 	c #2B191C",
"PY 	c #080D1B",
"QY 	c #072792",
"RY 	c #376E94",
"SY 	c #62758E",
"TY 	c #68768D",
"UY 	c #687689",
"VY 	c #667855",
"WY 	c #47D7E9",
"XY 	c #DEFAE8",
"YY 	c #F2FCDC",
"ZY 	c #F6E36C",
"`Y 	c #E1DFBA",
" Z 	c #D9A06D",
".Z 	c #737270",
"+Z 	c #597371",
"@Z 	c #597175",
"#Z 	c #5785D0",
"$Z 	c #85D9E7",
"%Z 	c #DEEBE8",
"&Z 	c #F9F293",
"*Z 	c #D98468",
"=Z 	c #617771",
"-Z 	c #5E7871",
";Z 	c #5B7571",
">Z 	c #597470",
",Z 	c #5A6F5C",
"'Z 	c #515D53",
")Z 	c #2F7142",
"!Z 	c #4DA141",
"~Z 	c #5CA140",
"{Z 	c #5BA84C",
"]Z 	c #55A6A1",
"^Z 	c #62A85D",
"/Z 	c #5C7154",
"(Z 	c #3D6551",
"_Z 	c #386650",
":Z 	c #37654B",
"<Z 	c #38933E",
"[Z 	c #59AA5D",
"}Z 	c #61A465",
"|Z 	c #5A854D",
"1Z 	c #43814E",
"2Z 	c #3C7D5A",
"3Z 	c #3B625C",
"4Z 	c #395B5F",
"5Z 	c #3A5B5F",
"6Z 	c #375964",
"7Z 	c #355E93",
"8Z 	c #4E6E9A",
"9Z 	c #62698E",
"0Z 	c #60698E",
"aZ 	c #60698A",
"bZ 	c #645E45",
"cZ 	c #463A40",
"dZ 	c #293A44",
"eZ 	c #293945",
"fZ 	c #2B3A42",
"gZ 	c #2A363F",
"hZ 	c #283866",
"iZ 	c #2F466F",
"jZ 	c #3D466C",
"kZ 	c #3E485B",
"lZ 	c #3C3B3F",
"mZ 	c #2C191C",
"nZ 	c #080E1C",
"oZ 	c #030208",
"pZ 	c #062643",
"qZ 	c #259A40",
"rZ 	c #63A945",
"sZ 	c #3A77AA",
"tZ 	c #4EC6E6",
"uZ 	c #E0E3DE",
"vZ 	c #E2CE6F",
"wZ 	c #B05C4F",
"xZ 	c #DCDFDF",
"yZ 	c #D7D9E1",
"zZ 	c #D7D8E1",
"AZ 	c #D9DEE6",
"BZ 	c #EAF2E2",
"CZ 	c #E3E2DF",
"DZ 	c #D7DBDC",
"EZ 	c #C37251",
"FZ 	c #395453",
"GZ 	c #315A52",
"HZ 	c #2F5A4B",
"IZ 	c #33943F",
"JZ 	c #5BAB54",
"KZ 	c #5FA756",
"LZ 	c #5DA966",
"MZ 	c #61A742",
"NZ 	c #61964F",
"OZ 	c #4B7D4F",
"PZ 	c #3C7681",
"QZ 	c #3F7196",
"RZ 	c #606E95",
"SZ 	c #687093",
"TZ 	c #68674C",
"UZ 	c #52373E",
"VZ 	c #2B3844",
"WZ 	c #2A444F",
"XZ 	c #2E554A",
"YZ 	c #2C3F40",
"ZZ 	c #293641",
"`Z 	c #2B181C",
" ` 	c #122032",
".` 	c #259A3F",
"+` 	c #5CAA6C",
"@` 	c #58A698",
"#` 	c #639B4E",
"$` 	c #41C4E8",
"%` 	c #DFE3DC",
"&` 	c #E3CE6F",
"*` 	c #E4DA93",
"=` 	c #CB7150",
"-` 	c #2D574B",
";` 	c #5BAB56",
">` 	c #58A798",
",` 	c #3D7583",
"'` 	c #68674D",
")` 	c #52363D",
"!` 	c #284052",
"~` 	c #0A243F",
"{` 	c #5AA97E",
"]` 	c #CCE5E7",
"^` 	c #DFE3DD",
"/` 	c #385353",
"(` 	c #2D564B",
"_` 	c #34943F",
":` 	c #5AAA55",
"<` 	c #3D7582",
"[` 	c #151E2E",
"}` 	c #249A3F",
"|` 	c #5FAC3F",
"1` 	c #629E4D",
"2` 	c #4D7D50",
"3` 	c #3A7C4E",
"4` 	c #46C5E8",
"5` 	c #CEE1E7",
"6` 	c #DFE5DD",
"7` 	c #E3CE6D",
"8` 	c #AD564B",
"9` 	c #275453",
"0` 	c #2F5465",
"a` 	c #2983DA",
"b` 	c #98DBEA",
"c` 	c #DDE1E8",
"d` 	c #E3D991",
"e` 	c #2A554A",
"f` 	c #35933E",
"g` 	c #57A93C",
"h` 	c #61AA3E",
"i` 	c #3F7197",
"j` 	c #636F98",
"k` 	c #677094",
"l` 	c #2E574A",
"m` 	c #2E191C",
"n` 	c #080F1D",
"o` 	c #092145",
"p` 	c #1B7A4A",
"q` 	c #478748",
"r` 	c #4C8452",
"s` 	c #4C7E79",
"t` 	c #4F767B",
"u` 	c #55767A",
"v` 	c #557478",
"w` 	c #537294",
"x` 	c #5AA0AF",
"y` 	c #8FA8A9",
"z` 	c #9AA6A3",
"A` 	c #A6ACAE",
"B` 	c #97AFB5",
"C` 	c #A9B9B2",
"D` 	c #ACB6A9",
"E` 	c #AC9A59",
"F` 	c #765752",
"G` 	c #2E5E49",
"H` 	c #3D8848",
"I` 	c #4D8951",
"J` 	c #4D949F",
"K` 	c #7CC3AB",
"L` 	c #A6C5A3",
"M` 	c #A9C4A3",
"N` 	c #A7C4BE",
"O` 	c #A6D5E6",
"P` 	c #D4E1E9",
"Q` 	c #EBFEE7",
"R` 	c #ECF0E7",
"S` 	c #EBF0E5",
"T` 	c #EDECBF",
"U` 	c #D9C0AE",
"V` 	c #B0BAAE",
"W` 	c #AEBAAE",
"X` 	c #ACBAAC",
"Y` 	c #B0CCAC",
"Z` 	c #B8D6AF",
"`` 	c #B9D7AF",
"  .	c #B8D3AC",
". .	c #B5CEA8",
"+ .	c #AEC7A8",
"@ .	c #AEC7A9",
"# .	c #AEC7A7",
"$ .	c #AEC587",
"% .	c #B2B53D",
"& .	c #6CA784",
"* .	c #55A698",
"= .	c #3C7A6B",
"- .	c #3D7878",
"; .	c #4F7678",
"> .	c #557778",
", .	c #547778",
"' .	c #547678",
") .	c #537177",
"! .	c #4F6377",
"~ .	c #4E6277",
"{ .	c #4D5873",
"] .	c #4D5672",
"^ .	c #4F564D",
"/ .	c #424849",
"( .	c #2C484B",
"_ .	c #2C474A",
": .	c #2B4749",
"< .	c #2B464A",
"[ .	c #2B464B",
"} .	c #2C4645",
"| .	c #2B3B40",
"1 .	c #293D5F",
"2 .	c #323F5D",
"3 .	c #35405E",
"4 .	c #37425D",
"5 .	c #364059",
"6 .	c #343F5C",
"7 .	c #333E5B",
"8 .	c #343F5B",
"9 .	c #354057",
"0 .	c #363C40",
"a .	c #283651",
"b .	c #2A3E60",
"c .	c #343F5D",
"d .	c #36415C",
"e .	c #363D33",
"f .	c #35191E",
"g .	c #0D1623",
"h .	c #092045",
"i .	c #2F565F",
"j .	c #2E5F95",
"k .	c #536E99",
"l .	c #686F78",
"m .	c #636053",
"n .	c #2B515B",
"o .	c #2B7AD6",
"p .	c #91EEEB",
"q .	c #F1FBEA",
"r .	c #F3F7D8",
"s .	c #F2D25C",
"t .	c #A35751",
"u .	c #2E6442",
"v .	c #44A63E",
"w .	c #63AA44",
"x .	c #62A941",
"y .	c #61AB96",
"z .	c #67CFE8",
"A .	c #F5FEE9",
"B .	c #F2FCE9",
"C .	c #F3FCE9",
"D .	c #F6FDE7",
"E .	c #F7FCE9",
"F .	c #F0E6E5",
"G .	c #DDDDB3",
"H .	c #DBBD3E",
"I .	c #7EAA3D",
"J .	c #5AAA72",
"K .	c #3A7052",
"L .	c #2C3E41",
"M .	c #27333E",
"N .	c #283C50",
"O .	c #2E4D41",
"P .	c #3D4875",
"Q .	c #351B1F",
"R .	c #111A27",
"S .	c #135154",
"T .	c #2E565F",
"U .	c #2D5F95",
"V .	c #536E9A",
"W .	c #696F78",
"X .	c #645E52",
"Y .	c #355553",
"Z .	c #2E5751",
"` .	c #2B79D6",
" ..	c #90F1EC",
"...	c #F3FFEB",
"+..	c #F5FED5",
"@..	c #F6D55B",
"#..	c #A55751",
"$..	c #44A63B",
"%..	c #57A791",
"&..	c #61A949",
"*..	c #61AA98",
"=..	c #DFDFB4",
"-..	c #DABC3D",
";..	c #7EAA3F",
">..	c #2E5549",
",..	c #2C3E3F",
"'..	c #283B51",
")..	c #2D4D41",
"!..	c #351A1C",
"~..	c #13161F",
"{..	c #0C1C39",
"]..	c #135153",
"^..	c #2E5761",
"/..	c #546E9A",
"(..	c #365553",
"_..	c #91F2EC",
":..	c #F4FFEC",
"<..	c #F6FDD7",
"[..	c #F6D65B",
"}..	c #A65751",
"|..	c #44A63C",
"1..	c #5CAA77",
"2..	c #60A94A",
"3..	c #61AA9A",
"4..	c #67CFEA",
"5..	c #CCE3EA",
"6..	c #F7FEEA",
"7..	c #F3E6E8",
"8..	c #E1E2E9",
"9..	c #E0E0B6",
"0..	c #7FA93F",
"a..	c #2A4574",
"b..	c #3F4A75",
"c..	c #351A1D",
"d..	c #121823",
"e..	c #080C1B",
"f..	c #10394E",
"g..	c #265351",
"h..	c #2D535B",
"i..	c #506E97",
"j..	c #676F94",
"k..	c #666E94",
"l..	c #696F79",
"m..	c #2C75CE",
"n..	c #88E1EA",
"o..	c #E4F4E5",
"p..	c #E9EFD8",
"q..	c #E8C65D",
"r..	c #9F5650",
"s..	c #2E6443",
"t..	c #44A43E",
"u..	c #60A73E",
"v..	c #61A73C",
"w..	c #60A849",
"x..	c #60AA94",
"y..	c #67CEDF",
"z..	c #C0DCDF",
"A..	c #DADCDE",
"B..	c #D7DDE4",
"C..	c #D8E2E9",
"D..	c #DBDFDC",
"E..	c #D6D8DF",
"F..	c #D7EDE6",
"G..	c #EBF0E0",
"H..	c #EAF0E0",
"I..	c #EAEEE2",
"J..	c #EAF6E9",
"K..	c #F2FDE7",
"L..	c #F5FCE2",
"M..	c #E9F1E0",
"N..	c #EBF5E3",
"O..	c #ECF6E4",
"P..	c #ECF7E4",
"Q..	c #EBF3E2",
"R..	c #E5E5DC",
"S..	c #D9DCDE",
"T..	c #D7DCE2",
"U..	c #D9DAAD",
"V..	c #7FA93E",
"W..	c #27365E",
"X..	c #34436D",
"Y..	c #3C456D",
"Z..	c #3E443C",
"`..	c #2A1A20",
" +.	c #0B0F1E",
".+.	c #0D1225",
"++.	c #111E2B",
"@+.	c #121E2A",
"#+.	c #1B2330",
"$+.	c #114952",
"%+.	c #31785B",
"&+.	c #407B5D",
"*+.	c #3F7B5D",
"=+.	c #417C57",
"-+.	c #3F6352",
";+.	c #2E5657",
">+.	c #2D5D94",
",+.	c #527BA2",
"'+.	c #7E86A4",
")+.	c #7F85A1",
"!+.	c #757258",
"~+.	c #565652",
"{+.	c #316151",
"]+.	c #376450",
"^+.	c #337541",
"/+.	c #4DA842",
"(+.	c #50A3B2",
"_+.	c #58A699",
":+.	c #63AD5C",
"<+.	c #74B25E",
"[+.	c #78B25E",
"}+.	c #75AF63",
"|+.	c #74B8CE",
"1+.	c #92DDEC",
"2+.	c #DBE3E8",
"3+.	c #E1E0BE",
"4+.	c #DBA468",
"5+.	c #756E6B",
"6+.	c #536F6C",
"7+.	c #53726E",
"8+.	c #57736C",
"9+.	c #57726D",
"0+.	c #55729A",
"a+.	c #59B8E3",
"b+.	c #C2E5E6",
"c+.	c #E3E5E6",
"d+.	c #E5DC99",
"e+.	c #CE856A",
"f+.	c #5D716C",
"g+.	c #557868",
"h+.	c #5DA15E",
"i+.	c #78B460",
"j+.	c #7AB560",
"k+.	c #7AB45F",
"l+.	c #79B35E",
"m+.	c #77B25F",
"n+.	c #78B253",
"o+.	c #79AC3C",
"p+.	c #56A4AB",
"q+.	c #33242A",
"r+.	c #241E2D",
"s+.	c #1C2537",
"t+.	c #1C2531",
"u+.	c #0E0E1F",
"v+.	c #0B1326",
"w+.	c #07464B",
"x+.	c #2E794E",
"y+.	c #2E5B90",
"z+.	c #456D98",
"A+.	c #636D94",
"B+.	c #656D90",
"C+.	c #686957",
"D+.	c #4E5652",
"E+.	c #2F7041",
"F+.	c #4DA938",
"G+.	c #5BA77A",
"H+.	c #5BA77B",
"I+.	c #5FB1CC",
"J+.	c #8BDDED",
"K+.	c #E1E0BB",
"L+.	c #D99A50",
"M+.	c #624F50",
"N+.	c #29528E",
"O+.	c #2AACE5",
"P+.	c #C96E4D",
"Q+.	c #354F50",
"R+.	c #33933F",
"S+.	c #5BA779",
"T+.	c #5EA95C",
"U+.	c #60A839",
"V+.	c #5CA76F",
"W+.	c #60A932",
"X+.	c #5CA76D",
"Y+.	c #5EA857",
"Z+.	c #59A77A",
"`+.	c #27332C",
" @.	c #371F1B",
".@.	c #0D1020",
"+@.	c #02020B",
"@@.	c #070C21",
"#@.	c #06474B",
"$@.	c #2E7A50",
"%@.	c #476D9A",
"&@.	c #68709B",
"*@.	c #687090",
"=@.	c #4CA83C",
"-@.	c #5EAA71",
";@.	c #5DA97E",
">@.	c #5FAA6F",
",@.	c #2A5450",
"'@.	c #2D548F",
")@.	c #C0E2E9",
"!@.	c #E3E3EB",
"~@.	c #55A49B",
"{@.	c #55A598",
"]@.	c #55A59B",
"^@.	c #2F5649",
"/@.	c #2F5951",
"(@.	c #26343F",
"_@.	c #331F1B",
":@.	c #0C0C1E",
"<@.	c #26764F",
"[@.	c #387850",
"}@.	c #3A7A57",
"|@.	c #3B635A",
"1@.	c #375A5D",
"2@.	c #385A5D",
"3@.	c #355861",
"4@.	c #335C8D",
"5@.	c #4A6F93",
"6@.	c #606C90",
"7@.	c #616B8E",
"8@.	c #5F6860",
"9@.	c #4B5C5B",
"0@.	c #385959",
"a@.	c #2F6F42",
"b@.	c #4BA240",
"c@.	c #5EA045",
"d@.	c #5BACBE",
"e@.	c #82D4DB",
"f@.	c #C6D3D7",
"g@.	c #CDD0D7",
"h@.	c #CDD0D9",
"i@.	c #CEDCE5",
"j@.	c #D9E2E8",
"k@.	c #E2E3E7",
"l@.	c #E2E2BE",
"m@.	c #DCA567",
"n@.	c #77706A",
"o@.	c #55716B",
"p@.	c #54706B",
"q@.	c #526F6B",
"r@.	c #516E6B",
"s@.	c #516E67",
"t@.	c #4F6353",
"u@.	c #3B5853",
"v@.	c #2E5487",
"w@.	c #2DA9DC",
"x@.	c #AFD4DA",
"y@.	c #CCD0D7",
"z@.	c #CDD2D2",
"A@.	c #D6D184",
"B@.	c #B97151",
"C@.	c #5DA357",
"D@.	c #5EA440",
"E@.	c #5F944F",
"F@.	c #3B7050",
"G@.	c #335552",
"H@.	c #2E5351",
"I@.	c #2E5349",
"J@.	c #2C3F41",
"K@.	c #293844",
"L@.	c #2E534E",
"M@.	c #2D4C42",
"N@.	c #2A3843",
"O@.	c #2B3942",
"P@.	c #2A3747",
"Q@.	c #2A3755",
"R@.	c #2A426F",
"S@.	c #39466E",
"T@.	c #3E486C",
"U@.	c #3F464C",
"V@.	c #2B3846",
"W@.	c #2B3530",
"X@.	c #2E1D1B",
"Y@.	c #0D1221",
"Z@.	c #08354C",
"`@.	c #305953",
" #.	c #30587A",
".#.	c #326899",
"+#.	c #5E6E94",
"@#.	c #646D93",
"##.	c #636B62",
"$#.	c #535C55",
"%#.	c #2F5661",
"&#.	c #305F93",
"*#.	c #506F95",
"=#.	c #646D94",
"-#.	c #676E7C",
";#.	c #655F52",
">#.	c #325B51",
",#.	c #315C58",
"'#.	c #335E5D",
")#.	c #3B605C",
"!#.	c #3A5F82",
"~#.	c #31B1E3",
"{#.	c #C2F9EA",
"]#.	c #F4FCE5",
"^#.	c #EDF4E0",
"/#.	c #E9F0E0",
"(#.	c #E9F0DF",
"_#.	c #E7ECDE",
":#.	c #DCDBDD",
"<#.	c #D5D7DF",
"[#.	c #D6DCC7",
"}#.	c #D8B650",
"|#.	c #845552",
"1#.	c #2F5A5D",
"2#.	c #52A5AC",
"3#.	c #62A461",
"4#.	c #3E804D",
"5#.	c #3E804E",
"6#.	c #3B6B47",
"7#.	c #313341",
"8#.	c #284F53",
"9#.	c #2B3740",
"0#.	c #29364C",
"a#.	c #283F70",
"b#.	c #3F4960",
"c#.	c #3E3C40",
"d#.	c #2C3642",
"e#.	c #283E6F",
"f#.	c #374771",
"g#.	c #3E4770",
"h#.	c #40474A",
"i#.	c #38201B",
"j#.	c #0E1322",
"k#.	c #2D577B",
"l#.	c #696C5E",
"m#.	c #575752",
"n#.	c #2E565D",
"o#.	c #2D5E94",
"p#.	c #516E9A",
"q#.	c #69707C",
"r#.	c #2B527C",
"s#.	c #28ACE4",
"t#.	c #C1F9EA",
"u#.	c #F7FDEA",
"v#.	c #F1E4E8",
"w#.	c #E2E5D2",
"x#.	c #5BA982",
"y#.	c #31323E",
"z#.	c #0F1424",
"A#.	c #686C5E",
"B#.	c #3A7D4C",
"C#.	c #09344C",
"D#.	c #686F9A",
"E#.	c #676C5E",
"F#.	c #565852",
"G#.	c #2E5E94",
"H#.	c #686F7C",
"I#.	c #E0E2CF",
"J#.	c #DFB657",
"K#.	c #89514F",
"L#.	c #61AA58",
"M#.	c #63AB41",
"N#.	c #63A44C",
"O#.	c #3B6E41",
"P#.	c #31323F",
"Q#.	c #2E574B",
"R#.	c #394875",
"S#.	c #0F1423",
"T#.	c #09354C",
"U#.	c #2E576C",
"V#.	c #306081",
"W#.	c #4D657C",
"X#.	c #51647C",
"Y#.	c #50637D",
"Z#.	c #4E647A",
"`#.	c #4E6778",
" $.	c #4C6377",
".$.	c #4C617A",
"+$.	c #4B647E",
"@$.	c #4D677C",
"#$.	c #53646D",
"$$.	c #535B53",
"%$.	c #E9EEDA",
"&$.	c #E7D7A6",
"*$.	c #BCB2A7",
"=$.	c #A6B2A7",
"-$.	c #A0ADA6",
";$.	c #98A4A6",
">$.	c #98A3A7",
",$.	c #98A5A3",
"'$.	c #9FA26A",
")$.	c #876352",
"!$.	c #59A592",
"~$.	c #5E9753",
"{$.	c #53934D",
"]$.	c #4E7F4F",
"^$.	c #3B7950",
"/$.	c #386C51",
"($.	c #356C51",
"_$.	c #36624C",
":$.	c #30454A",
"<$.	c #2A484B",
"[$.	c #2C484C",
"}$.	c #2D4649",
"|$.	c #2C4649",
"1$.	c #2B484B",
"2$.	c #2C4846",
"3$.	c #2B3A3F",
"4$.	c #283646",
"5$.	c #283A5E",
"6$.	c #313F5F",
"7$.	c #36415D",
"8$.	c #373F3F",
"9$.	c #2D5B90",
"0$.	c #476E99",
"a$.	c #667099",
"b$.	c #676F90",
"c$.	c #666958",
"d$.	c #4D5752",
"e$.	c #F4FDE9",
"f$.	c #F4FBE9",
"g$.	c #F6FBE9",
"h$.	c #F1EDE6",
"i$.	c #DFE3E3",
"j$.	c #E3D989",
"k$.	c #C66C50",
"l$.	c #345453",
"m$.	c #57A798",
"n$.	c #64A844",
"o$.	c #5E844F",
"p$.	c #2E5649",
"q$.	c #28332C",
"r$.	c #301E1B",
"s$.	c #F4EEE7",
"t$.	c #DFE2E2",
"u$.	c #E4D88B",
"v$.	c #2D1D1B",
"w$.	c #205653",
"x$.	c #DEE2E2",
"y$.	c #E3D88B",
"z$.	c #C56A4E",
"A$.	c #315151",
"B$.	c #2F5850",
"C$.	c #28342D",
"D$.	c #2F1E1B",
"E$.	c #02050C",
"F$.	c #163745",
"G$.	c #255351",
"H$.	c #456D99",
"I$.	c #646E95",
"J$.	c #656E90",
"K$.	c #686A57",
"L$.	c #C76F54",
"M$.	c #3A5957",
"N$.	c #325C57",
"O$.	c #335C57",
"P$.	c #315956",
"Q$.	c #5AA57A",
"R$.	c #5DA86F",
"S$.	c #5EA472",
"T$.	c #2E5650",
"U$.	c #2B3541",
"V$.	c #23333E",
"W$.	c #24333E",
"X$.	c #2A2A2D",
"Y$.	c #261D23",
"Z$.	c #0D1523",
"`$.	c #13222D",
" %.	c #15222D",
".%.	c #1E2832",
"+%.	c #1F263B",
"@%.	c #124B51",
"#%.	c #325961",
"$%.	c #3A5B60",
"%%.	c #3B5753",
"&%.	c #F4F8D9",
"*%.	c #E3E5D4",
"=%.	c #D8DED3",
"-%.	c #CBCED3",
";%.	c #C8CCD4",
">%.	c #C8CDD1",
",%.	c #D0D099",
"'%.	c #C08450",
")%.	c #495453",
"!%.	c #5DA47F",
"~%.	c #5D874F",
"{%.	c #42854C",
"]%.	c #43844C",
"^%.	c #428454",
"/%.	c #3A6352",
"(%.	c #293A45",
"_%.	c #2A3A45",
":%.	c #2A3A44",
"<%.	c #2B393F",
"[%.	c #293749",
"}%.	c #2A3849",
"|%.	c #2C3849",
"1%.	c #2E3A56",
"2%.	c #2B416E",
"3%.	c #39456C",
"4%.	c #3D4763",
"5%.	c #3C3621",
"6%.	c #2B1923",
"7%.	c #141A29",
"8%.	c #131827",
"9%.	c #0C0D1D",
"0%.	c #0B1739",
"a%.	c #0B4951",
"b%.	c #F7F7EA",
"c%.	c #E9E2EA",
"d%.	c #E4E0AC",
"e%.	c #D68751",
"f%.	c #5FA577",
"g%.	c #5D834F",
"h%.	c #3D7B4F",
"i%.	c #221624",
"j%.	c #27ACE4",
"k%.	c #C5F9EA",
"l%.	c #D3854F",
"m%.	c #4A4F50",
"n%.	c #5CA984",
"o%.	c #62A660",
"p%.	c #3B6053",
"q%.	c #221524",
"r%.	c #31585B",
"s%.	c #355A5B",
"t%.	c #36595B",
"u%.	c #315D5F",
"v%.	c #33605E",
"w%.	c #335F5D",
"x%.	c #35595B",
"y%.	c #2E5479",
"z%.	c #299EDA",
"A%.	c #B1E2E5",
"B%.	c #E2EADC",
"C%.	c #E4EDDD",
"D%.	c #E2F9E6",
"E%.	c #E9E3E8",
"F%.	c #E3DFAC",
"G%.	c #D69162",
"H%.	c #616965",
"I%.	c #4B6B65",
"J%.	c #4A6A65",
"K%.	c #496963",
"L%.	c #476053",
"M%.	c #3A5953",
"N%.	c #59A488",
"O%.	c #5FA53E",
"P%.	c #5FA14B",
"Q%.	c #5C834F",
"R%.	c #2E5448",
"S%.	c #283654",
"T%.	c #294270",
"U%.	c #3A466F",
"V%.	c #3E476F",
"W%.	c #3F4964",
"X%.	c #221625",
"Y%.	c #446D97",
"Z%.	c #626D93",
"`%.	c #646D8F",
" &.	c #676957",
".&.	c #328BB2",
"+&.	c #4B9DB1",
"@&.	c #4C9EAC",
"#&.	c #4E9B9D",
"$&.	c #567295",
"%&.	c #646C93",
"&&.	c #646D90",
"*&.	c #676A59",
"=&.	c #505752",
"-&.	c #2F5B61",
";&.	c #3D6461",
">&.	c #426561",
",&.	c #41659B",
"'&.	c #3DC8E7",
")&.	c #D5FBE9",
"!&.	c #EAF1DD",
"~&.	c #E7EDDD",
"{&.	c #E5EADC",
"]&.	c #DBDBDA",
"^&.	c #D2D5DD",
"/&.	c #D3DACB",
"(&.	c #D9C055",
"_&.	c #925752",
":&.	c #47814E",
"<&.	c #335A52",
"[&.	c #2D4B41",
"}&.	c #2A3642",
"|&.	c #2B373C",
"1&.	c #30291B",
"2&.	c #2F5889",
"3&.	c #2F8FB9",
"4&.	c #577398",
"5&.	c #687091",
"6&.	c #686A59",
"7&.	c #515752",
"8&.	c #295196",
"9&.	c #30C5E7",
"0&.	c #63AB45",
"a&.	c #62934F",
"b&.	c #477D4F",
"c&.	c #273438",
"d&.	c #2F291B",
"e&.	c #221523",
"f&.	c #49A2B6",
"g&.	c #4E9D9E",
"h&.	c #567398",
"i&.	c #2C5396",
"j&.	c #273538",
"k&.	c #020106",
"l&.	c #081634",
"m&.	c #0E4951",
"n&.	c #295752",
"o&.	c #2F5759",
"p&.	c #466D9A",
"q&.	c #67709A",
"r&.	c #2F8EB8",
"s&.	c #587298",
"t&.	c #687092",
"u&.	c #676A5A",
"v&.	c #30C2E7",
"w&.	c #D7F9E9",
"x&.	c #F8FCEB",
"y&.	c #F7FCE8",
"z&.	c #F6FCE8",
"A&.	c #F7FDE7",
"B&.	c #E1C15E",
"C&.	c #2C594A",
"D&.	c #369540",
"E&.	c #5EAC41",
"F&.	c #62AA48",
"G&.	c #61A749",
"H&.	c #5FAA55",
"I&.	c #2A363C",
"J&.	c #2C281C",
"K&.	c #1C1221",
"L&.	c #070816",
"M&.	c #153B41",
"N&.	c #244342",
"O&.	c #274646",
"P&.	c #24454B",
"Q&.	c #254C79",
"R&.	c #386583",
"S&.	c #54657D",
"T&.	c #586256",
"U&.	c #445652",
"V&.	c #327A96",
"W&.	c #428795",
"X&.	c #438795",
"Y&.	c #438991",
"Z&.	c #458788",
"`&.	c #4B6982",
" *.	c #54657F",
".*.	c #536480",
"+*.	c #516576",
"@*.	c #4D6574",
"#*.	c #4A6174",
"$*.	c #4B6174",
"%*.	c #4C616A",
"&*.	c #4C5A53",
"**.	c #2E567C",
"=*.	c #3098BC",
"-*.	c #9DBEC0",
";*.	c #B8C3B7",
">*.	c #B8C2B7",
",*.	c #B7C2DB",
"'*.	c #C3F6EA",
")*.	c #F5FDE1",
"!*.	c #F2E6D2",
"~*.	c #D0C4C8",
"{*.	c #C1CDC9",
"]*.	c #C1C9C7",
"^*.	c #C2CAC8",
"/*.	c #C2CDC9",
"(*.	c #C2CBC8",
"_*.	c #BFCDDA",
":*.	c #C7F8E9",
"<*.	c #F2EEE7",
"[*.	c #EAEDEA",
"}*.	c #E8EDDD",
"|*.	c #E8D9A0",
"1*.	c #BEAA9F",
"2*.	c #9AAB9D",
"3*.	c #9CBC97",
"4*.	c #A1C299",
"5*.	c #9FC19B",
"6*.	c #A4C068",
"7*.	c #A1AE47",
"8*.	c #5CA696",
"9*.	c #57A39B",
"0*.	c #559786",
"a*.	c #549843",
"b*.	c #549845",
"c*.	c #549748",
"d*.	c #558A4F",
"e*.	c #366652",
"f*.	c #2E544D",
"g*.	c #2D4A4C",
"h*.	c #2D4A48",
"i*.	c #293C5A",
"j*.	c #313D58",
"k*.	c #333D58",
"l*.	c #333E57",
"m*.	c #353E43",
"n*.	c #2F353F",
"o*.	c #283649",
"p*.	c #293B59",
"q*.	c #303D58",
"r*.	c #333E58",
"s*.	c #343C3D",
"t*.	c #292B34",
"u*.	c #1D2A36",
"v*.	c #1C2936",
"w*.	c #1E2734",
"x*.	c #231721",
"y*.	c #0B0D1B",
"z*.	c #0B0A13",
"A*.	c #0C101D",
"B*.	c #141F35",
"C*.	c #112B47",
"D*.	c #195453",
"E*.	c #2D565B",
"F*.	c #2D5D93",
"G*.	c #4E6F99",
"H*.	c #676E98",
"I*.	c #686F80",
"J*.	c #666052",
"K*.	c #275154",
"L*.	c #2568CA",
"M*.	c #6FEBEC",
"N*.	c #EDFEE8",
"O*.	c #F6FAD8",
"P*.	c #F0D2A9",
"Q*.	c #9F6E97",
"R*.	c #666D95",
"S*.	c #6379D1",
"T*.	c #84EFEB",
"U*.	c #F4FDE8",
"V*.	c #F3FAE8",
"W*.	c #F5FAE8",
"X*.	c #F0EAE5",
"Y*.	c #DEE1E5",
"Z*.	c #DED992",
"`*.	c #D5B43E",
" =.	c #6CAA38",
".=.	c #56A790",
"+=.	c #62A25A",
"@=.	c #567F4D",
"#=.	c #2E4F42",
"$=.	c #28365B",
"%=.	c #294473",
"&=.	c #3E4874",
"*=.	c #404649",
"==.	c #38353E",
"-=.	c #3D4874",
";=.	c #404337",
">=.	c #0C121E",
",=.	c #050812",
"'=.	c #050813",
")=.	c #0C1320",
"!=.	c #2E5D93",
"~=.	c #68707F",
"{=.	c #2966CA",
"]=.	c #72EBEC",
"^=.	c #F0D2AA",
"/=.	c #A06D97",
"(=.	c #656E98",
"_=.	c #667AD1",
":=.	c #86EFEB",
"<=.	c #EFFFE9",
"[=.	c #DEDA94",
"}=.	c #D4B43E",
"|=.	c #6CAA3C",
"1=.	c #56A791",
"2=.	c #62A25C",
"3=.	c #567F4F",
"4=.	c #3F4337",
"5=.	c #2F1B1D",
"6=.	c #0B111F",
"7=.	c #162E45",
"8=.	c #185353",
"9=.	c #687098",
"0=.	c #69707F",
"a=.	c #3A5553",
"b=.	c #F8FFE9",
"c=.	c #F7FBD8",
"d=.	c #F0D3AB",
"e=.	c #696F97",
"f=.	c #667BD1",
"g=.	c #86F0EB",
"h=.	c #6BA93B",
"i=.	c #56A6A1",
"j=.	c #63A258",
"k=.	c #3F4970",
"l=.	c #3F4336",
"m=.	c #2D1A1D",
"n=.	c #20343E",
"o=.	c #2E5D94",
"p=.	c #4C6E99",
"q=.	c #656E96",
"r=.	c #656E81",
"s=.	c #626253",
"t=.	c #305855",
"u=.	c #2B65C5",
"v=.	c #6CDEEC",
"w=.	c #E2F3E6",
"x=.	c #EBEED6",
"y=.	c #E8C59E",
"z=.	c #A17299",
"A=.	c #697199",
"B=.	c #6B739A",
"C=.	c #6A6F9A",
"D=.	c #667BD2",
"E=.	c #85E2E4",
"F=.	c #EAF6E2",
"G=.	c #EEF6E2",
"H=.	c #EFF8E4",
"I=.	c #EEF5E2",
"J=.	c #EFFDE7",
"K=.	c #E0E2E4",
"L=.	c #E1DA96",
"M=.	c #D4B339",
"N=.	c #70AB41",
"O=.	c #65AC4C",
"P=.	c #59A59E",
"Q=.	c #55A497",
"R=.	c #61A846",
"S=.	c #62A04D",
"T=.	c #577F4F",
"U=.	c #29375A",
"V=.	c #3C4771",
"W=.	c #294272",
"X=.	c #3B4771",
"Y=.	c #404437",
"Z=.	c #2B191D",
"`=.	c #060C19",
" -.	c #142C46",
".-.	c #305960",
"+-.	c #375C64",
"@-.	c #3C5C63",
"#-.	c #3D5C63",
"$-.	c #3B5B75",
"%-.	c #3E698F",
"&-.	c #586C8D",
"*-.	c #5F6A8C",
"=-.	c #5E6A8D",
"--.	c #636A62",
";-.	c #575852",
">-.	c #2F5970",
",-.	c #3E797F",
"'-.	c #67817C",
")-.	c #697E8D",
"!-.	c #69A5D7",
"~-.	c #ACD8DF",
"{-.	c #D8E6DA",
"]-.	c #D9DCC8",
"^-.	c #D4A598",
"/-.	c #886E98",
"(-.	c #6972A4",
"_-.	c #738AA9",
":-.	c #8B92A9",
"<-.	c #8B93AA",
"[-.	c #8B91A9",
"}-.	c #8691C6",
"|-.	c #88E3E9",
"1-.	c #E0E0CC",
"2-.	c #CCD4CD",
"3-.	c #CAD5D2",
"4-.	c #C8D4C1",
"5-.	c #D2C951",
"6-.	c #AAAB4C",
"7-.	c #5FAA5D",
"8-.	c #56A4A0",
"9-.	c #609254",
"0-.	c #48864C",
"a-.	c #44854D",
"b-.	c #3B6D51",
"c-.	c #335F52",
"d-.	c #315F52",
"e-.	c #2C3D43",
"f-.	c #295153",
"g-.	c #283B69",
"h-.	c #33456C",
"i-.	c #3B456B",
"j-.	c #3C466A",
"k-.	c #3D475B",
"l-.	c #3B3C49",
"m-.	c #303B4D",
"n-.	c #2D394B",
"o-.	c #2F3A41",
"p-.	c #29384C",
"q-.	c #2C394B",
"r-.	c #2E3A49",
"s-.	c #2D3528",
"t-.	c #2E1A1D",
"u-.	c #060918",
"v-.	c #2E5773",
"w-.	c #306698",
"x-.	c #606F99",
"y-.	c #696E63",
"z-.	c #5B5852",
"A-.	c #2A5174",
"B-.	c #28A3E2",
"C-.	c #BAF8EA",
"D-.	c #F9FCDA",
"E-.	c #E9BCA3",
"F-.	c #8C6D98",
"G-.	c #6772C0",
"H-.	c #70DFEA",
"I-.	c #E5FEE9",
"J-.	c #F2E6E8",
"K-.	c #E0E3D9",
"L-.	c #DDCE54",
"M-.	c #B2AC3C",
"N-.	c #61AB40",
"O-.	c #57A49C",
"P-.	c #618F4B",
"Q-.	c #437C4F",
"R-.	c #3B6B52",
"S-.	c #315652",
"T-.	c #2B383F",
"U-.	c #28354B",
"V-.	c #283C70",
"W-.	c #374875",
"X-.	c #40495B",
"Y-.	c #283124",
"Z-.	c #1A3043",
"`-.	c #2E5476",
" ;.	c #F7F9D2",
".;.	c #E9BCA4",
"+;.	c #DFE3D8",
"@;.	c #57A49D",
"#;.	c #3B6A52",
"$;.	c #283C71",
"%;.	c #364873",
"&;.	c #2C181D",
"*;.	c #0A0C1D",
"=;.	c #152D46",
"-;.	c #2E5774",
";;.	c #27A3E2",
">;.	c #BEF8EB",
",;.	c #F9FBDA",
"';.	c #6773C0",
");.	c #70DFE9",
"!;.	c #E5FDE9",
"~;.	c #FAFFE8",
"{;.	c #57A699",
"];.	c #61A95F",
"^;.	c #618F4E",
"/;.	c #40485F",
"(;.	c #293124",
"_;.	c #32191B",
":;.	c #020513",
"<;.	c #0B2946",
"[;.	c #1C4B4C",
"};.	c #264C4C",
"|;.	c #2A5150",
"1;.	c #2F5B6D",
"2;.	c #356A6F",
"3;.	c #376B6E",
"4;.	c #356B7F",
"5;.	c #366C98",
"6;.	c #696E6C",
"7;.	c #5D5D60",
"8;.	c #3D5C65",
"9;.	c #3E5C65",
"0;.	c #3E5C62",
"a;.	c #3F5650",
"b;.	c #335150",
"c;.	c #2D5050",
"d;.	c #2D5051",
"e;.	c #2E546F",
"f;.	c #2B90CC",
"g;.	c #9FD4DA",
"h;.	c #D2DCCF",
"i;.	c #D2D4BE",
"j;.	c #CFA290",
"k;.	c #836B90",
"l;.	c #5A6B8B",
"m;.	c #5E698B",
"n;.	c #5D6B95",
"o;.	c #5F6F98",
"p;.	c #6773BB",
"q;.	c #6EC0D7",
"r;.	c #D4DFD4",
"s;.	c #D8E3D6",
"t;.	c #D8E3DC",
"u;.	c #DBFBE9",
"v;.	c #F2E9E7",
"w;.	c #E6E6EA",
"x;.	c #E3E8D9",
"y;.	c #E1D156",
"z;.	c #55A3A1",
"A;.	c #5DA043",
"B;.	c #5B9F47",
"C;.	c #5C8B4F",
"D;.	c #396852",
"E;.	c #293846",
"F;.	c #2A3C46",
"G;.	c #293C4B",
"H;.	c #294D50",
"I;.	c #2D504E",
"J;.	c #2A394D",
"K;.	c #2D394C",
"L;.	c #303C50",
"M;.	c #2C3D68",
"N;.	c #34446B",
"O;.	c #3B456A",
"P;.	c #3D4658",
"Q;.	c #3B3A3F",
"R;.	c #2E3A46",
"S;.	c #28323A",
"T;.	c #222F3A",
"U;.	c #212F3C",
"V;.	c #1F2F3B",
"W;.	c #2C2025",
"X;.	c #171D2A",
"Y;.	c #090917",
"Z;.	c #121825",
"`;.	c #161929",
" >.	c #08314B",
".>.	c #2F6DB0",
"+>.	c #419EB6",
"@>.	c #4EA1B4",
"#>.	c #4EA2A6",
"$>.	c #508498",
"%>.	c #666E8B",
"&>.	c #675B40",
"*>.	c #41353D",
"=>.	c #293447",
"->.	c #284952",
";>.	c #2C5955",
">>.	c #2A5955",
",>.	c #2C5887",
"'>.	c #3E6E98",
")>.	c #6B7098",
"!>.	c #6B739B",
"~>.	c #6B7298",
"{>.	c #6376CE",
"]>.	c #7CECEB",
"^>.	c #F5FFD8",
"/>.	c #F6E35E",
"(>.	c #B1AA3C",
"_>.	c #62AB40",
":>.	c #639F51",
"<>.	c #527E4F",
"[>.	c #3C7F4E",
"}>.	c #293544",
"|>.	c #284452",
"1>.	c #2E5548",
"2>.	c #27396C",
"3>.	c #314873",
"4>.	c #3F4A6A",
"5>.	c #404342",
"6>.	c #33353F",
"7>.	c #384872",
"8>.	c #40485A",
"9>.	c #382B19",
"0>.	c #1E1F2B",
"a>.	c #121925",
"b>.	c #0E1421",
"c>.	c #09101D",
"d>.	c #030410",
"e>.	c #080E21",
"f>.	c #08344E",
"g>.	c #1F5553",
"h>.	c #2F5660",
"i>.	c #2E6EB0",
"j>.	c #508398",
"k>.	c #686F8A",
"l>.	c #665A41",
"m>.	c #40373E",
"n>.	c #293548",
"o>.	c #284A52",
"p>.	c #2D5887",
"q>.	c #3A6B9A",
"r>.	c #6678CE",
"s>.	c #7FECEB",
"t>.	c #F4FFD8",
"u>.	c #F5E35E",
"v>.	c #63A053",
"w>.	c #537E4F",
"x>.	c #27396E",
"y>.	c #324874",
"z>.	c #3F4975",
"A>.	c #3F4343",
"B>.	c #33343E",
"C>.	c #3B2B19",
"D>.	c #191A29",
"E>.	c #070B1F",
"F>.	c #09354F",
"G>.	c #2E6DB0",
"H>.	c #4EA2AC",
"I>.	c #40353F",
"J>.	c #284A53",
"K>.	c #3A6B99",
"L>.	c #6678CD",
"M>.	c #7FEAEA",
"N>.	c #ECFDE9",
"O>.	c #F8FDE9",
"P>.	c #F8FDE7",
"Q>.	c #B0AA3B",
"R>.	c #63A93D",
"S>.	c #61A94D",
"T>.	c #60A655",
"U>.	c #52A4B0",
"V>.	c #5DA979",
"W>.	c #62AB4F",
"X>.	c #3C7957",
"Y>.	c #2E5345",
"Z>.	c #2C3C40",
"`>.	c #27396D",
" ,.	c #334874",
".,.	c #3E486D",
"+,.	c #293F71",
"@,.	c #3B4874",
"#,.	c #362C1B",
"$,.	c #161726",
"%,.	c #102C45",
"&,.	c #184447",
"*,.	c #254547",
"=,.	c #274546",
"-,.	c #25474D",
";,.	c #264A4D",
">,.	c #2D4C4E",
",,.	c #2C4C51",
"',.	c #2F575C",
"),.	c #2F6598",
"!,.	c #3D899A",
"~,.	c #458B99",
"{,.	c #458D8F",
"],.	c #477385",
"^,.	c #545F7F",
"/,.	c #555F7F",
"(,.	c #555E7F",
"_,.	c #546193",
":,.	c #5A6E99",
"<,.	c #666265",
"[,.	c #4F4F67",
"},.	c #454F68",
"|,.	c #454F6A",
"1,.	c #455970",
"2,.	c #486070",
"3,.	c #486071",
"4,.	c #4A5E5B",
"5,.	c #455753",
"6,.	c #2E587A",
"7,.	c #366588",
"8,.	c #546782",
"9,.	c #576682",
"0,.	c #566685",
"a,.	c #556A98",
"b,.	c #6775BF",
"c,.	c #7ABCCC",
"d,.	c #C8D0CB",
"e,.	c #C7D0CB",
"f,.	c #C8D3CD",
"g,.	c #C7CFCA",
"h,.	c #C7D1CB",
"i,.	c #C8D3CC",
"j,.	c #C8D1CC",
"k,.	c #C8D2CC",
"l,.	c #C6D1D8",
"m,.	c #CAF6E9",
"n,.	c #F5ED95",
"o,.	c #CACB90",
"p,.	c #A4CA95",
"q,.	c #A3CA95",
"r,.	c #A1C692",
"s,.	c #9CBF90",
"t,.	c #9BBF90",
"u,.	c #99BF8C",
"v,.	c #9FBC55",
"w,.	c #93AA59",
"x,.	c #54A4AB",
"y,.	c #569F9E",
"z,.	c #559969",
"A,.	c #569A45",
"B,.	c #56934E",
"C,.	c #397051",
"D,.	c #377051",
"E,.	c #355953",
"F,.	c #2F554E",
"G,.	c #2D4C4D",
"H,.	c #2C5052",
"I,.	c #2D4D4C",
"J,.	c #2D4C4C",
"K,.	c #2B4347",
"L,.	c #2A464D",
"M,.	c #2B4B4D",
"N,.	c #2C4B4F",
"O,.	c #2D4058",
"P,.	c #303C55",
"Q,.	c #313C55",
"R,.	c #323D54",
"S,.	c #333C41",
"T,.	c #2D343F",
"U,.	c #293B57",
"V,.	c #343F55",
"W,.	c #313E60",
"X,.	c #334265",
"Y,.	c #374263",
"Z,.	c #39445F",
"`,.	c #393E42",
" '.	c #283751",
".'.	c #2B3C57",
"+'.	c #343F56",
"@'.	c #353A59",
"#'.	c #3A3A58",
"$'.	c #333A5A",
"%'.	c #333B4E",
"&'.	c #2E2821",
"*'.	c #131423",
"='.	c #060511",
"-'.	c #0B0F1A",
";'.	c #111526",
">'.	c #112242",
",'.	c #162D41",
"''.	c #263541",
")'.	c #2C3841",
"!'.	c #2E554D",
"~'.	c #2C4141",
"{'.	c #243B89",
"]'.	c #406C9A",
"^'.	c #696E67",
"/'.	c #5E5952",
"('.	c #2C5F95",
"_'.	c #686E96",
":'.	c #676E96",
"<'.	c #676F97",
"['.	c #6373CA",
"}'.	c #77E9EA",
"|'.	c #F5FFE6",
"1'.	c #F4FCE8",
"2'.	c #F0ECE5",
"3'.	c #DEE3DF",
"4'.	c #DFD574",
"5'.	c #C9AF39",
"6'.	c #5EA689",
"7'.	c #53A3AC",
"8'.	c #639747",
"9'.	c #4A7D4E",
"0'.	c #2E5243",
"a'.	c #293444",
"b'.	c #2C3A3F",
"c'.	c #28374F",
"d'.	c #295453",
"e'.	c #2D4A40",
"f'.	c #2A3540",
"g'.	c #2B4574",
"h'.	c #404546",
"i'.	c #36353E",
"j'.	c #28365D",
"k'.	c #404646",
"l'.	c #37353E",
"m'.	c #27386A",
"n'.	c #304774",
"o'.	c #3C3419",
"p'.	c #2A171F",
"q'.	c #12121F",
"r'.	c #080F19",
"s'.	c #040915",
"t'.	c #04060E",
"u'.	c #0D1D39",
"v'.	c #1B2E40",
"w'.	c #273542",
"x'.	c #2D4240",
"y'.	c #263C89",
"z'.	c #5D5952",
"A'.	c #6675C9",
"B'.	c #7AE9EA",
"C'.	c #EBFEE9",
"D'.	c #F4ECE7",
"E'.	c #DFE3E0",
"F'.	c #DED574",
"G'.	c #C8AF3A",
"H'.	c #5DA68A",
"I'.	c #63984B",
"J'.	c #2C3B3F",
"K'.	c #28384F",
"L'.	c #2D4A41",
"M'.	c #283661",
"N'.	c #2B4573",
"O'.	c #35353E",
"P'.	c #28365E",
"Q'.	c #2A4473",
"R'.	c #3F4A6D",
"S'.	c #404547",
"T'.	c #27386B",
"U'.	c #3D351C",
"V'.	c #1F1322",
"W'.	c #0F1D3A",
"X'.	c #092E42",
"Y'.	c #233540",
"Z'.	c #293A51",
"`'.	c #6676CA",
" ).	c #7AE9EB",
".).	c #C7AF3B",
"+).	c #5EA67C",
"@).	c #53A4A3",
"#).	c #52A5A6",
"$).	c #57A69A",
"%).	c #3C351B",
"&).	c #1D1624",
"*).	c #020309",
"=).	c #121C31",
"-).	c #0E2843",
";).	c #22333F",
">).	c #243340",
",).	c #26384A",
"').	c #3E6597",
")).	c #646F97",
"!).	c #696E65",
"~).	c #5D5950",
"{).	c #305755",
"]).	c #2E5F96",
"^).	c #516E98",
"/).	c #79DEE5",
"().	c #E8F5E2",
"_).	c #F0F8E4",
":).	c #F0F6E3",
"<).	c #EFF5E2",
"[).	c #F0F8E3",
"}).	c #F0F7E3",
"|).	c #F0F6E2",
"1).	c #ECE9E7",
"2).	c #D9DFDC",
"3).	c #DED56E",
"4).	c #C9AE34",
"5).	c #67AA3B",
"6).	c #64AA3A",
"7).	c #62A95D",
"8).	c #51A3AF",
"9).	c #5EA767",
"0).	c #62A93E",
"a).	c #62964F",
"b).	c #2E5343",
"c).	c #293445",
"d).	c #284553",
"e).	c #28374E",
"f).	c #27365F",
"g).	c #3E4873",
"h).	c #404545",
"i).	c #27365D",
"j).	c #404647",
"k).	c #27376B",
"l).	c #201625",
"m).	c #060915",
"n).	c #0D1229",
"o).	c #151E2D",
"p).	c #20202A",
"q).	c #18233D",
"r).	c #152946",
"s).	c #243A43",
"t).	c #2B3E45",
"u).	c #2A3D46",
"v).	c #294251",
"w).	c #283755",
"x).	c #30425A",
"y).	c #3B475A",
"z).	c #3C465A",
"A).	c #384569",
"B).	c #395996",
"C).	c #666C89",
"D).	c #5D698A",
"E).	c #5D6986",
"F).	c #616455",
"G).	c #455652",
"H).	c #2E5868",
"I).	c #385C67",
"J).	c #3F5D66",
"K).	c #3E5C67",
"L).	c #3B5C89",
"M).	c #486F97",
"N).	c #6871A5",
"O).	c #728EAC",
"P).	c #9297AC",
"Q).	c #9299AD",
"R).	c #9298AD",
"S).	c #9198AC",
"T).	c #9197AC",
"U).	c #9095AF",
"V).	c #8991AE",
"W).	c #8990AD",
"X).	c #8990A9",
"Y).	c #8694C9",
"Z).	c #9DD7CE",
"`).	c #D8E9CF",
" !.	c #D6E7CE",
".!.	c #CDD8C8",
"+!.	c #C5D2C3",
"@!.	c #CDCE70",
"#!.	c #BFAF44",
"$!.	c #5DA68E",
"%!.	c #609F67",
"&!.	c #54884A",
"*!.	c #46834E",
"=!.	c #376052",
"-!.	c #316052",
";!.	c #2C4043",
">!.	c #293E4E",
",!.	c #2D504C",
"'!.	c #2C4844",
")!.	c #293D4C",
"!!.	c #2E5167",
"~!.	c #2E4A6E",
"{!.	c #3C4A6B",
"]!.	c #3C4A6A",
"^!.	c #3C4869",
"/!.	c #3B4568",
"(!.	c #3C4658",
"_!.	c #3A3B4C",
":!.	c #2D394E",
"<!.	c #313C4F",
"[!.	c #2D3C65",
"}!.	c #33446B",
"|!.	c #3C4659",
"1!.	c #3A3C4C",
"2!.	c #303C4F",
"3!.	c #2E3841",
"4!.	c #29416B",
"5!.	c #384469",
"6!.	c #201726",
"7!.	c #0E1324",
"8!.	c #0C2446",
"9!.	c #22323E",
"0!.	c #283E51",
"a!.	c #27343C",
"b!.	c #295395",
"c!.	c #586F99",
"d!.	c #68708D",
"e!.	c #676755",
"f!.	c #495652",
"g!.	c #2D5884",
"h!.	c #386B99",
"i!.	c #646F98",
"j!.	c #6581D6",
"k!.	c #92F3EB",
"l!.	c #53A6A1",
"m!.	c #639E4E",
"n!.	c #517E4F",
"o!.	c #2E5446",
"p!.	c #2F4874",
"q!.	c #404857",
"r!.	c #273A6F",
"s!.	c #404959",
"t!.	c #283659",
"u!.	c #294373",
"v!.	c #3E4975",
"w!.	c #24202D",
"x!.	c #070717",
"y!.	c #0A2749",
"z!.	c #6681D7",
"A!.	c #53A6A2",
"B!.	c #60AB5F",
"C!.	c #28364D",
"D!.	c #3F4857",
"E!.	c #251E2A",
"F!.	c #21323E",
"G!.	c #2F574C",
"H!.	c #28375B",
"I!.	c #F8FBE8",
"J!.	c #ECE2E7",
"K!.	c #65AA3E",
"L!.	c #5FAA64",
"M!.	c #62AC49",
"N!.	c #28343E",
"O!.	c #404856",
"P!.	c #3A341B",
"Q!.	c #221F2C",
"R!.	c #233742",
"S!.	c #2B3B43",
"T!.	c #294050",
"U!.	c #2B5150",
"V!.	c #2E514E",
"W!.	c #2E524E",
"X!.	c #2D514A",
"Y!.	c #2C4342",
"Z!.	c #2A3A46",
"`!.	c #2C3B40",
" ~.	c #27478C",
".~.	c #4F658C",
"+~.	c #5F688C",
"@~.	c #5F6991",
"#~.	c #5F6D99",
"$~.	c #68685E",
"%~.	c #4D5B5F",
"&~.	c #3B5B61",
"*~.	c #3C5B61",
"=~.	c #3B5B62",
"-~.	c #3C5957",
";~.	c #2D5880",
">~.	c #366993",
",~.	c #5C6B8D",
"'~.	c #5F6D98",
")~.	c #667ED0",
"!~.	c #8DD5D9",
"~~.	c #DDE6D8",
"{~.	c #DDEADA",
"]~.	c #DBE1D8",
"^~.	c #D1D2DD",
"/~.	c #C9CFDA",
"(~.	c #CAD1DC",
"_~.	c #C8CCD6",
":~.	c #C9D1D2",
"<~.	c #D2CB7B",
"[~.	c #C3AA4D",
"}~.	c #68A251",
"|~.	c #62A355",
"1~.	c #62A354",
"2~.	c #5DA16E",
"3~.	c #5DA15C",
"4~.	c #5CA241",
"5~.	c #5CA242",
"6~.	c #5D974F",
"7~.	c #4F7E4F",
"8~.	c #397251",
"9~.	c #335A63",
"0~.	c #3B5C61",
"a~.	c #3D5B5E",
"b~.	c #3C5551",
"c~.	c #315250",
"d~.	c #2E5151",
"e~.	c #2E524F",
"f~.	c #2D5147",
"g~.	c #2B3D42",
"h~.	c #2B405E",
"i~.	c #325A63",
"j~.	c #3B5B5E",
"k~.	c #384B4B",
"l~.	c #2F394B",
"m~.	c #2C384A",
"n~.	c #2C5057",
"o~.	c #31555A",
"p~.	c #325469",
"q~.	c #3A456A",
"r~.	c #3C466B",
"s~.	c #3D4758",
"t~.	c #3B3A48",
"u~.	c #2F3B4C",
"v~.	c #2B3B68",
"w~.	c #33456E",
"x~.	c #3C456B",
"y~.	c #3E4756",
"z~.	c #3B393F",
"A~.	c #3A4064",
"B~.	c #354066",
"C~.	c #324066",
"D~.	c #323C5E",
"E~.	c #2C191A",
"F~.	c #161523",
"G~.	c #072A4A",
"H~.	c #175254",
"I~.	c #2B3640",
"J~.	c #293549",
"K~.	c #284B53",
"L~.	c #2A3742",
"M~.	c #253567",
"N~.	c #2B5C97",
"O~.	c #5F6F99",
"P~.	c #676E95",
"Q~.	c #656E95",
"R~.	c #696E6B",
"S~.	c #5F5A52",
"T~.	c #2F5655",
"U~.	c #315856",
"V~.	c #315755",
"W~.	c #2C5E94",
"X~.	c #506E9A",
"Y~.	c #6B729A",
"Z~.	c #6C739A",
"`~.	c #6C749C",
" {.	c #6B7399",
".{.	c #6A7299",
"+{.	c #6A729A",
"@{.	c #686E95",
"#{.	c #6A7E43",
"${.	c #68AA31",
"%{.	c #5EA57B",
"&{.	c #3D7F4E",
"*{.	c #446D99",
"={.	c #696F85",
"-{.	c #66553F",
";{.	c #2E5655",
">{.	c #2D5A8E",
",{.	c #426D99",
"'{.	c #666D90",
"){.	c #4C4871",
"!{.	c #273661",
"~{.	c #373640",
"{{.	c #3F4231",
"]{.	c #321619",
"^{.	c #14101C",
"/{.	c #080E1A",
"({.	c #080D1A",
"_{.	c #175354",
":{.	c #2E4E3D",
"<{.	c #293649",
"[{.	c #283664",
"}{.	c #2C5D97",
"|{.	c #696E6A",
"1{.	c #2E565C",
"2{.	c #6A7E44",
"3{.	c #67AA36",
"4{.	c #5EA57D",
"5{.	c #686F84",
"6{.	c #3A373E",
"7{.	c #436D9A",
"8{.	c #675E73",
"9{.	c #4E4973",
"0{.	c #31181C",
"a{.	c #020412",
"b{.	c #0D2749",
"c{.	c #1F5151",
"d{.	c #2E4E3C",
"e{.	c #5E6F99",
"f{.	c #305654",
"g{.	c #506E99",
"h{.	c #697E44",
"i{.	c #67AA3C",
"j{.	c #62AB55",
"k{.	c #61AB56",
"l{.	c #63A751",
"m{.	c #39353F",
"n{.	c #686E92",
"o{.	c #2A4372",
"p{.	c #3E4875",
"q{.	c #2B171D",
"r{.	c #131C2A",
"s{.	c #0F2D42",
"t{.	c #224747",
"u{.	c #1E4749",
"v{.	c #1C464E",
"w{.	c #274047",
"x{.	c #2A4048",
"y{.	c #2A404C",
"z{.	c #294E53",
"A{.	c #2C4146",
"B{.	c #2B4046",
"C{.	c #2C5989",
"D{.	c #516886",
"E{.	c #596785",
"F{.	c #586A9B",
"G{.	c #5B7CA0",
"H{.	c #6380A3",
"I{.	c #637FA3",
"J{.	c #637FA2",
"K{.	c #627A98",
"L{.	c #696F77",
"M{.	c #616169",
"N{.	c #445F6D",
"O{.	c #455F6D",
"P{.	c #455F6B",
"Q{.	c #475B54",
"R{.	c #2E565A",
"S{.	c #2E5C86",
"T{.	c #466889",
"U{.	c #586785",
"V{.	c #58688E",
"W{.	c #586D99",
"X{.	c #686F92",
"Y{.	c #677383",
"Z{.	c #607484",
"`{.	c #5E7384",
" ].	c #5D7385",
".].	c #5A7185",
"+].	c #5E7380",
"@].	c #5D7E48",
"#].	c #579D44",
"$].	c #589A4B",
"%].	c #56824F",
"&].	c #2E5A70",
"*].	c #405F6D",
"=].	c #435D6F",
"-].	c #426192",
";].	c #665D5F",
">].	c #494C62",
",].	c #424C63",
"'].	c #404962",
")].	c #41525D",
"!].	c #34545D",
"~].	c #345260",
"{].	c #335688",
"]].	c #406590",
"^].	c #5A658B",
"/].	c #5B658B",
"(].	c #5C6588",
"_].	c #5F5973",
":].	c #4B4973",
"<].	c #3F486A",
"[].	c #3D4364",
"}].	c #394464",
"|].	c #3B4349",
"1].	c #293853",
"2].	c #303B53",
"3].	c #303C52",
"4].	c #304267",
"5].	c #3A4562",
"6].	c #3B4144",
"7].	c #32353F",
"8].	c #293750",
"9].	c #2B3B54",
"0].	c #2F3B52",
"a].	c #303B52",
"b].	c #303B56",
"c].	c #373B5C",
"d].	c #323C61",
"e].	c #333C5D",
"f].	c #323B5D",
"g].	c #353A30",
"h].	c #2C161D",
"i].	c #030511",
"j].	c #060613",
"k].	c #060715",
"l].	c #0D121F",
"m].	c #0C2D41",
"n].	c #1D5554",
"o].	c #2A4A52",
"p].	c #2C5EA3",
"q].	c #379AB8",
"r].	c #4E929A",
"s].	c #686956",
"t].	c #4C5652",
"u].	c #2C5676",
"v].	c #2F6798",
"w].	c #647950",
"x].	c #448050",
"y].	c #3A7C50",
"z].	c #3A7E4D",
"A].	c #2E576E",
"B].	c #2F6599",
"C].	c #5C6F98",
"D].	c #666A81",
"E].	c #624E73",
"F].	c #3E4A74",
"G].	c #3F4755",
"H].	c #3C373E",
"I].	c #394874",
"J].	c #3D383D",
"K].	c #3C2816",
"L].	c #121A33",
"M].	c #0A111A",
"N].	c #102A35",
"O].	c #2D4940",
"P].	c #2E5EA3",
"Q].	c #4F919A",
"R].	c #5D7098",
"S].	c #686856",
"T].	c #686F86",
"U].	c #647952",
"V].	c #467E4F",
"W].	c #3B7E4E",
"X].	c #2E6598",
"Y].	c #696C7E",
"Z].	c #624E72",
"`].	c #3C383F",
" ^.	c #404756",
".^.	c #382A1B",
"+^.	c #121021",
"@^.	c #000207",
"#^.	c #0B314E",
"$^.	c #1D5553",
"%^.	c #283648",
"&^.	c #696C7F",
"*^.	c #404855",
"=^.	c #352A1A",
"-^.	c #131625",
";^.	c #000105",
">^.	c #0C2642",
",^.	c #1E4C52",
"'^.	c #273546",
")^.	c #274953",
"!^.	c #2E5EA4",
"~^.	c #389BB8",
"{^.	c #4EA3B1",
"]^.	c #4F929B",
"^^.	c #606F97",
"/^.	c #676E90",
"(^.	c #696956",
"_^.	c #686E97",
":^.	c #696E97",
"<^.	c #696F87",
"[^.	c #657952",
"}^.	c #3B5F53",
"|^.	c #2C566F",
"1^.	c #2D6498",
"2^.	c #696C80",
"3^.	c #404954",
"4^.	c #3C383D",
"5^.	c #3C4055",
"6^.	c #2F251F",
"7^.	c #0F1120",
"8^.	c #0A0C21",
"9^.	c #172636",
"0^.	c #1F333B",
"a^.	c #1B2D35",
"b^.	c #1E313E",
"c^.	c #184A50",
"d^.	c #2D4F69",
"e^.	c #344368",
"f^.	c #3A4467",
"g^.	c #3A465E",
"h^.	c #385352",
"i^.	c #305D6E",
"j^.	c #355F6D",
"k^.	c #35606A",
"l^.	c #365E6C",
"m^.	c #3F5E6A",
"n^.	c #425E6A",
"o^.	c #425E68",
"p^.	c #425D53",
"q^.	c #395653",
"r^.	c #686C6A",
"s^.	c #575E67",
"t^.	c #425D69",
"u^.	c #425C66",
"v^.	c #448A5E",
"w^.	c #609D5F",
"x^.	c #639D60",
"y^.	c #649C60",
"z^.	c #649B93",
"A^.	c #657099",
"B^.	c #68706C",
"C^.	c #5A7C65",
"D^.	c #497969",
"E^.	c #487969",
"F^.	c #4B795F",
"G^.	c #3A6452",
"H^.	c #325A53",
"I^.	c #2D4444",
"J^.	c #2A3E47",
"K^.	c #2B3F46",
"L^.	c #2A3F4E",
"M^.	c #294885",
"N^.	c #42698C",
"O^.	c #5A6987",
"P^.	c #5B6888",
"Q^.	c #5A688D",
"R^.	c #5A6D99",
"S^.	c #686A80",
"T^.	c #5E547C",
"U^.	c #4B557D",
"V^.	c #4D537C",
"W^.	c #4B577F",
"X^.	c #4B577E",
"Y^.	c #4C5477",
"Z^.	c #4C4A73",
"`^.	c #3F4754",
" /.	c #3A3A4E",
"./.	c #303C5D",
"+/.	c #304369",
"@/.	c #384366",
"#/.	c #3B4661",
"$/.	c #3B404F",
"%/.	c #323A50",
"&/.	c #2F3B50",
"*/.	c #313C47",
"=/.	c #2F363F",
"-/.	c #29364E",
";/.	c #2B3A52",
">/.	c #323C4C",
",/.	c #34323F",
"'/.	c #222C4D",
")/.	c #252A40",
"!/.	c #222336",
"~/.	c #131221",
"{/.	c #080B1B",
"]/.	c #0E1936",
"^/.	c #0A4550",
"//.	c #285753",
"(/.	c #2D5072",
"_/.	c #405051",
":/.	c #263440",
"</.	c #284252",
"[/.	c #686B59",
"}/.	c #33913F",
"|/.	c #5BAB42",
"1/.	c #62AB3B",
"2/.	c #63A691",
"3/.	c #647099",
"4/.	c #68705D",
"5/.	c #56804F",
"6/.	c #2C3D3F",
"7/.	c #27438F",
"8/.	c #496E9A",
"9/.	c #686979",
"0/.	c #5C4A72",
"a/.	c #283763",
"b/.	c #2B4673",
"c/.	c #3F4A67",
"d/.	c #2C373D",
"e/.	c #352A2A",
"f/.	c #1D1727",
"g/.	c #090A1B",
"h/.	c #050613",
"i/.	c #0B1434",
"j/.	c #2D5071",
"k/.	c #293645",
"l/.	c #60A963",
"m/.	c #63A692",
"n/.	c #686978",
"o/.	c #5B4A72",
"p/.	c #39353E",
"q/.	c #283663",
"r/.	c #27353B",
"s/.	c #2D282E",
"t/.	c #150C1B",
"u/.	c #0C1534",
"v/.	c #3A4875",
"w/.	c #2E5445",
"x/.	c #5BAB44",
"y/.	c #60AA5C",
"z/.	c #56814E",
"A/.	c #26343C",
"B/.	c #414974",
"C/.	c #283537",
"D/.	c #322820",
"E/.	c #1B1421",
"F/.	c #091434",
"G/.	c #17434D",
"H/.	c #2A514E",
"I/.	c #2C524E",
"J/.	c #2A514D",
"K/.	c #275151",
"L/.	c #2D506F",
"M/.	c #38466E",
"N/.	c #3C4764",
"O/.	c #3F4E50",
"P/.	c #2E5146",
"Q/.	c #2B3B42",
"R/.	c #293946",
"S/.	c #284351",
"T/.	c #2C5251",
"U/.	c #686B60",
"V/.	c #535A5B",
"W/.	c #395A5F",
"X/.	c #395B5C",
"Y/.	c #3A8E4E",
"Z/.	c #5EA450",
"`/.	c #62A551",
" (.	c #63A351",
".(.	c #64A292",
"+(.	c #67718E",
"@(.	c #63708F",
"#(.	c #64708E",
"$(.	c #65715C",
"%(.	c #547D4F",
"&(.	c #397750",
"*(.	c #2D5352",
"=(.	c #375A5F",
"-(.	c #375A5A",
";(.	c #354551",
">(.	c #343F50",
",(.	c #343F4F",
"'(.	c #313E56",
")(.	c #2F4890",
"!(.	c #4C6E9A",
"~(.	c #636B91",
"{(.	c #656C95",
"](.	c #646B93",
"^(.	c #616A91",
"/(.	c #666775",
"((.	c #58496E",
"_(.	c #3D486A",
":(.	c #3E454D",
"<(.	c #393846",
"[(.	c #2C3949",
"}(.	c #2B3748",
"|(.	c #2D3948",
"1(.	c #2B3965",
"2(.	c #2D4673",
"3(.	c #3E466D",
"4(.	c #3E4865",
"5(.	c #3E4041",
"6(.	c #2A3749",
"7(.	c #2B3847",
"8(.	c #2D383F",
"9(.	c #28343D",
"0(.	c #29343D",
"a(.	c #21303C",
"b(.	c #242C36",
"c(.	c #0A0E1E",
"d(.	c #141B29",
"e(.	c #151B27",
"f(.	c #0F1A34",
"g(.	c #0E2848",
"h(.	c #2E4A42",
"i(.	c #2A3643",
"j(.	c #2A3641",
"k(.	c #295353",
"l(.	c #293547",
"m(.	c #284852",
"n(.	c #676E94",
"o(.	c #686F94",
"p(.	c #696F67",
"q(.	c #5B8050",
"r(.	c #3B7D55",
"s(.	c #3D7950",
"t(.	c #375A53",
"u(.	c #283D51",
"v(.	c #2E5772",
"w(.	c #2F6698",
"x(.	c #5C6E95",
"y(.	c #675A73",
"z(.	c #4A4873",
"A(.	c #404D76",
"B(.	c #424A74",
"C(.	c #424C75",
"D(.	c #424A72",
"E(.	c #404548",
"F(.	c #37353F",
"G(.	c #2F4773",
"H(.	c #3A373F",
"I(.	c #27396B",
"J(.	c #324773",
"K(.	c #27302B",
"L(.	c #27181F",
"M(.	c #101422",
"N(.	c #0A0C1C",
"O(.	c #020002",
"P(.	c #062748",
"Q(.	c #293546",
"R(.	c #5B804F",
"S(.	c #4A4973",
"T(.	c #404648",
"U(.	c #27386C",
"V(.	c #27302E",
"W(.	c #2B161E",
"X(.	c #030411",
"Y(.	c #293022",
"Z(.	c #2A161D",
"`(.	c #040614",
" _.	c #0C2242",
"._.	c #1D4C50",
"+_.	c #2E584F",
"@_.	c #2E4940",
"#_.	c #3A7D50",
"$_.	c #3A7751",
"%_.	c #283D52",
"&_.	c #2D5772",
"*_.	c #2E6698",
"=_.	c #606E98",
"-_.	c #686E8E",
";_.	c #494872",
">_.	c #323130",
",_.	c #2D171D",
"'_.	c #0A0F1F",
")_.	c #0E253D",
"!_.	c #1F3D41",
"~_.	c #1E3E43",
"{_.	c #283C3D",
"]_.	c #253C42",
"^_.	c #2F554B",
"/_.	c #2D4849",
"(_.	c #2D4749",
"__.	c #2C474C",
":_.	c #2B4B52",
"<_.	c #2E5771",
"[_.	c #35627F",
"}_.	c #50637A",
"|_.	c #4E6388",
"1_.	c #4F6B99",
"2_.	c #686F7F",
"3_.	c #627877",
"4_.	c #567679",
"5_.	c #557579",
"6_.	c #516479",
"7_.	c #50637B",
"8_.	c #4F6163",
"9_.	c #4D5853",
"0_.	c #2E4F49",
"a_.	c #2B4750",
"b_.	c #2F5A7B",
"c_.	c #41647D",
"d_.	c #4F637A",
"e_.	c #4F6378",
"f_.	c #4E5975",
"g_.	c #4E5875",
"h_.	c #4E5A79",
"i_.	c #50627F",
"j_.	c #515F87",
"k_.	c #545F86",
"l_.	c #545F85",
"m_.	c #536196",
"n_.	c #5A7098",
"o_.	c #66565D",
"p_.	c #3F415D",
"q_.	c #353F5C",
"r_.	c #354168",
"s_.	c #344673",
"t_.	c #3F475E",
"u_.	c #3B3F5B",
"v_.	c #353F5D",
"w_.	c #35405D",
"x_.	c #34416F",
"y_.	c #374873",
"z_.	c #3F496C",
"A_.	c #3E435B",
"B_.	c #373F5C",
"C_.	c #35405B",
"D_.	c #374046",
"E_.	c #283650",
"F_.	c #2A3E5F",
"G_.	c #333F5C",
"H_.	c #35415B",
"I_.	c #35405A",
"J_.	c #354159",
"K_.	c #363D41",
"L_.	c #2E343F",
"M_.	c #2C363C",
"N_.	c #2C2C32",
"O_.	c #1D2938",
"P_.	c #142137",
"Q_.	c #1A2633",
"R_.	c #251923",
"S_.	c #241420",
"T_.	c #010207",
"U_.	c #050811",
"V_.	c #070B13",
"W_.	c #14172B",
"X_.	c #0C2945",
"Y_.	c #1E3440",
"Z_.	c #676E6C",
"`_.	c #605A52",
" :.	c #2D4740",
".:.	c #4F6E99",
"+:.	c #686E8C",
"@:.	c #665872",
"#:.	c #484A74",
"$:.	c #3E5293",
"%:.	c #4E7197",
"&:.	c #686F81",
"*:.	c #65523E",
"=:.	c #363640",
"-:.	c #3F4A65",
";:.	c #3F4040",
">:.	c #3F4875",
",:.	c #283431",
"':.	c #351F1B",
"):.	c #10101F",
"!:.	c #03050D",
"~:.	c #02040C",
"{:.	c #081127",
"]:.	c #092C48",
"^:.	c #696F6B",
"/:.	c #305553",
"(:.	c #2E5E93",
"_:.	c #4F6E9A",
"::.	c #686F88",
"<:.	c #665873",
"[:.	c #494873",
"}:.	c #65523F",
"|:.	c #37373E",
"1:.	c #28342F",
"2:.	c #202326",
"3:.	c #091025",
"4:.	c #162A44",
"5:.	c #213240",
"6:.	c #2D4B40",
"7:.	c #293446",
"8:.	c #284853",
"9:.	c #2E5546",
"0:.	c #2D5885",
"a:.	c #386B9A",
"b:.	c #636F97",
"c:.	c #696F6A",
"d:.	c #5F5A50",
"e:.	c #2C4843",
"f:.	c #295252",
"g:.	c #4E6E99",
"h:.	c #686E89",
"i:.	c #675973",
"j:.	c #676E82",
"k:.	c #66523D",
"l:.	c #29375C",
"m:.	c #26333F",
"n:.	c #2A3031",
"o:.	c #202126",
"p:.	c #040510",
"q:.	c #10182C",
"r:.	c #152031",
"s:.	c #17212E",
"t:.	c #1C2637",
"u:.	c #173A5F",
"v:.	c #344265",
"w:.	c #3A434E",
"x:.	c #374145",
"y:.	c #2B4147",
"z:.	c #2B4048",
"A:.	c #29454D",
"B:.	c #2E4D4D",
"C:.	c #2D4D4B",
"D:.	c #2C4646",
"E:.	c #2C4142",
"F:.	c #2D4646",
"G:.	c #2B4364",
"H:.	c #315C70",
"I:.	c #425867",
"J:.	c #424C64",
"K:.	c #414C69",
"L:.	c #425B6D",
"M:.	c #425967",
"N:.	c #414D6B",
"O:.	c #435D6E",
"P:.	c #435A68",
"Q:.	c #424C66",
"R:.	c #42576D",
"S:.	c #445E6E",
"T:.	c #42608E",
"U:.	c #4A6D99",
"V:.	c #686F89",
"W:.	c #656A83",
"X:.	c #586784",
"Y:.	c #586483",
"Z:.	c #586182",
"`:.	c #565B75",
" <.	c #574F6B",
".<.	c #3E4D6A",
"+<.	c #3A4C68",
"@<.	c #3A4C6B",
"#<.	c #3B507F",
"$<.	c #445781",
"%<.	c #4D5980",
"&<.	c #4F557D",
"*<.	c #4D5780",
"=<.	c #4C567F",
"-<.	c #4D5880",
";<.	c #4D557B",
"><.	c #4F4D73",
",<.	c #3F4C7F",
"'<.	c #455880",
")<.	c #4C5681",
"!<.	c #505478",
"~<.	c #4D4B65",
"{<.	c #3D4365",
"]<.	c #39446C",
"^<.	c #3F475C",
"/<.	c #3C3C50",
"(<.	c #313D4F",
"_<.	c #31393F",
":<.	c #283961",
"<<.	c #304367",
"[<.	c #384265",
"}<.	c #394364",
"|<.	c #3A445A",
"1<.	c #383D52",
"2<.	c #2F3B53",
"3<.	c #323C42",
"4<.	c #28343B",
"5<.	c #292E29",
"6<.	c #282029",
"7<.	c #1A212F",
"8<.	c #16202E",
"9<.	c #1A1C2A",
"0<.	c #131321",
"a<.	c #09142E",
"b<.	c #063A67",
"c<.	c #2F584E",
"d<.	c #2E4E42",
"e<.	c #2E4F43",
"f<.	c #2A5454",
"g<.	c #2E5043",
"h<.	c #2D5989",
"i<.	c #3D6C9A",
"j<.	c #686C80",
"k<.	c #624F72",
"l<.	c #273A6E",
"m<.	c #334873",
"n<.	c #3F485B",
"o<.	c #28353B",
"p<.	c #34302E",
"q<.	c #28111E",
"r<.	c #04040D",
"s<.	c #071229",
"t<.	c #073A67",
"u<.	c #40474E",
"v<.	c #2E4E41",
"w<.	c #696D81",
"x<.	c #404958",
"y<.	c #322F2A",
"z<.	c #25111D",
"A<.	c #1B233E",
"B<.	c #1A416E",
"C<.	c #2F574A",
"D<.	c #66709A",
"E<.	c #404752",
"F<.	c #283643",
"G<.	c #40485C",
"H<.	c #293740",
"I<.	c #27353A",
"J<.	c #2A2C1C",
"K<.	c #211722",
"L<.	c #02040A",
"M<.	c #0D1733",
"N<.	c #283A62",
"O<.	c #34426A",
"P<.	c #394269",
"Q<.	c #39436A",
"R<.	c #3D454D",
"S<.	c #303537",
"T<.	c #274151",
"U<.	c #2E534C",
"V<.	c #293747",
"W<.	c #2A3746",
"X<.	c #294151",
"Y<.	c #2C4041",
"Z<.	c #2C3940",
"`<.	c #2B3941",
" [.	c #29384D",
".[.	c #295052",
"+[.	c #2A3842",
"@[.	c #283A4F",
"#[.	c #2D4F43",
"$[.	c #2B3940",
"%[.	c #293848",
"&[.	c #2D5886",
"*[.	c #3B6A96",
"=[.	c #5F6C90",
"-[.	c #626B91",
";[.	c #626D98",
">[.	c #666D94",
",[.	c #666A80",
"'[.	c #614F72",
")[.	c #3F4751",
"![.	c #293B6F",
"~[.	c #344874",
"{[.	c #3E476D",
"][.	c #3F4858",
"^[.	c #3C383E",
"/[.	c #21313C",
"([.	c #22313D",
"_[.	c #311E1F",
":[.	c #131422",
"<[.	c #0C1020",
"[[.	c #0E1423",
"}[.	c #0C1321",
"|[.	c #121A28",
"1[.	c #1F1929",
"2[.	c #23343F",
"3[.	c #3F4A69",
"4[.	c #323541",
"5[.	c #284C53",
"6[.	c #2E5447",
"7[.	c #284B52",
"8[.	c #283C51",
"9[.	c #2D3B45",
"0[.	c #2C3945",
"a[.	c #2A384B",
"b[.	c #27418E",
"c[.	c #4C4973",
"d[.	c #424B75",
"e[.	c #424C76",
"f[.	c #3F4242",
"g[.	c #333743",
"h[.	c #293430",
"i[.	c #301F1B",
"j[.	c #201723",
"k[.	c #0D1423",
"l[.	c #0C1220",
"m[.	c #0A1327",
"n[.	c #132C48",
"o[.	c #22343F",
"p[.	c #283767",
"q[.	c #32343E",
"r[.	c #29354A",
"s[.	c #27333D",
"t[.	c #27418D",
"u[.	c #31343E",
"v[.	c #27332E",
"w[.	c #37201B",
"x[.	c #0B0A1C",
"y[.	c #070E24",
"z[.	c #132B48",
"A[.	c #33363E",
"B[.	c #0E2449",
"C[.	c #1C2F44",
"D[.	c #3F486D",
"E[.	c #284D53",
"F[.	c #2C333D",
"G[.	c #2A3230",
"H[.	c #341E1B",
"I[.	c #090819",
"J[.	c #0C152C",
"K[.	c #0E1E3C",
"L[.	c #1A2736",
"M[.	c #1D2A39",
"N[.	c #1D3041",
"O[.	c #2B4061",
"P[.	c #36405F",
"Q[.	c #37425B",
"R[.	c #373E41",
"S[.	c #28444B",
"T[.	c #2C484A",
"U[.	c #28444D",
"V[.	c #2D4944",
"W[.	c #29394A",
"X[.	c #2A454B",
"Y[.	c #2B454B",
"Z[.	c #2D4648",
"`[.	c #2B454A",
" }.	c #2A474B",
".}.	c #2B4849",
"+}.	c #2A4549",
"@}.	c #2C454A",
"#}.	c #2B4851",
"$}.	c #2E4E4A",
"%}.	c #2C494C",
"&}.	c #2D494A",
"*}.	c #2A4649",
"=}.	c #2B464F",
"-}.	c #2A4B7A",
";}.	c #3C6481",
">}.	c #51657C",
",}.	c #52647D",
"'}.	c #53647A",
")}.	c #565772",
"!}.	c #3F4765",
"~}.	c #3D415D",
"{}.	c #364062",
"]}.	c #354472",
"^}.	c #3F4867",
"/}.	c #3E415D",
"(}.	c #384044",
"_}.	c #31353F",
":}.	c #283645",
"<}.	c #283A5A",
"[}.	c #2F3E5B",
"}}.	c #333E5A",
"|}.	c #343E5A",
"1}.	c #333F69",
"2}.	c #344773",
"3}.	c #3F465F",
"4}.	c #3A405E",
"5}.	c #374258",
"6}.	c #363933",
"7}.	c #31292E",
"8}.	c #222A35",
"9}.	c #1B2835",
"0}.	c #211F2B",
"a}.	c #1E1421",
"b}.	c #050511",
"c}.	c #050711",
"d}.	c #0B0F1D",
"e}.	c #12233E",
"f}.	c #213341",
"g}.	c #2D423F",
"h}.	c #2E575B",
"i}.	c #2E4E72",
"j}.	c #273E72",
"k}.	c #283539",
"l}.	c #2B2A1B",
"m}.	c #2B1E28",
"n}.	c #0F0F16",
"o}.	c #04060F",
"p}.	c #040710",
"q}.	c #040813",
"r}.	c #12213D",
"s}.	c #2C4E72",
"t}.	c #3A4973",
"u}.	c #36363E",
"v}.	c #2B2A1C",
"w}.	c #24202C",
"x}.	c #030C21",
"y}.	c #162843",
"z}.	c #213340",
"A}.	c #2D4340",
"B}.	c #2F574D",
"C}.	c #2C4F73",
"D}.	c #35363E",
"E}.	c #25333A",
"F}.	c #2F241A",
"G}.	c #251D29",
"H}.	c #03060B",
"I}.	c #03040B",
"J}.	c #09122A",
"K}.	c #152131",
"L}.	c #202A37",
"M}.	c #1D2A3E",
"N}.	c #203141",
"O}.	c #183340",
"P}.	c #2B4348",
"Q}.	c #2D4343",
"R}.	c #29424A",
"S}.	c #2B3B3F",
"T}.	c #294149",
"U}.	c #2B424D",
"V}.	c #2A4058",
"W}.	c #2F3C56",
"X}.	c #313C56",
"Y}.	c #313D56",
"Z}.	c #333F5D",
"`}.	c #304372",
" |.	c #3F4768",
".|.	c #3D4262",
"+|.	c #374573",
"@|.	c #3F4761",
"#|.	c #3D3E53",
"$|.	c #313D55",
"%|.	c #333E4A",
"&|.	c #31363F",
"*|.	c #283658",
"=|.	c #2B4166",
"-|.	c #364162",
";|.	c #39435B",
">|.	c #383C40",
",|.	c #283657",
"'|.	c #2A4166",
")|.	c #3A4248",
"!|.	c #34353F",
"~|.	c #293956",
"{|.	c #2E3C56",
"]|.	c #333F52",
"^|.	c #373A3A",
"/|.	c #2E232B",
"(|.	c #1F2530",
"_|.	c #1E2530",
":|.	c #211522",
"<|.	c #140B16",
"[|.	c #04060A",
"}|.	c #0C2141",
"||.	c #29364F",
"1|.	c #3D383F",
"2|.	c #283765",
"3|.	c #2D4674",
"4|.	c #24333D",
"5|.	c #262F38",
"6|.	c #211420",
"7|.	c #080813",
"8|.	c #040408",
"9|.	c #070714",
"0|.	c #0D3140",
"a|.	c #2C4674",
"b|.	c #31322E",
"c|.	c #2C141E",
"d|.	c #030510",
"e|.	c #050510",
"f|.	c #092144",
"g|.	c #19313F",
"h|.	c #28364F",
"i|.	c #2A373E",
"j|.	c #2C241D",
"k|.	c #231621",
"l|.	c #030610",
"m|.	c #03030F",
"n|.	c #0E182D",
"o|.	c #132544",
"p|.	c #253448",
"q|.	c #2A3C4A",
"r|.	c #2F3638",
"s|.	c #27363F",
"t|.	c #2D3950",
"u|.	c #293F6F",
"v|.	c #38466F",
"w|.	c #3E486E",
"x|.	c #3F4856",
"y|.	c #2C3845",
"z|.	c #2A3866",
"A|.	c #3F4965",
"B|.	c #28365F",
"C|.	c #2B4572",
"D|.	c #22303E",
"E|.	c #1B2B43",
"F|.	c #1C2C42",
"G|.	c #172846",
"H|.	c #172946",
"I|.	c #142746",
"J|.	c #1E1C28",
"K|.	c #101122",
"L|.	c #0C1322",
"M|.	c #0F1625",
"N|.	c #0F1525",
"O|.	c #0E1931",
"P|.	c #092347",
"Q|.	c #0D2546",
"R|.	c #351A1E",
"S|.	c #2A2630",
"T|.	c #0A3140",
"U|.	c #273969",
"V|.	c #314772",
"W|.	c #3C4767",
"X|.	c #3F4042",
"Y|.	c #2F3643",
"Z|.	c #2B3741",
"`|.	c #304772",
" 1.	c #393741",
".1.	c #2B3745",
"+1.	c #2A363B",
"@1.	c #2C291C",
"#1.	c #231C25",
"$1.	c #0E1523",
"%1.	c #0C1222",
"&1.	c #0C0D20",
"*1.	c #070715",
"=1.	c #161323",
"-1.	c #252334",
";1.	c #0E3041",
">1.	c #3F3F41",
",1.	c #31291B",
"'1.	c #22131F",
")1.	c #050713",
"!1.	c #111F3B",
"~1.	c #0B2F42",
"{1.	c #2E291C",
"]1.	c #1F1220",
"^1.	c #192536",
"/1.	c #133140",
"(1.	c #233440",
"_1.	c #2C271B",
":1.	c #1C1522",
"<1.	c #051530",
"[1.	c #1A2839",
"}1.	c #1B2937",
"|1.	c #1B2936",
"11.	c #1D2C39",
"21.	c #1E2D3A",
"31.	c #202F44",
"41.	c #21334B",
"51.	c #2A3C59",
"61.	c #323D57",
"71.	c #343F4E",
"81.	c #33383F",
"91.	c #313D57",
"01.	c #343D41",
"a1.	c #28385D",
"b1.	c #2E4164",
"c1.	c #364161",
"d1.	c #374161",
"e1.	c #38435A",
"f1.	c #3E4460",
"g1.	c #384161",
"h1.	c #384261",
"i1.	c #36436E",
"j1.	c #283337",
"k1.	c #2C2B33",
"l1.	c #1D2D3F",
"m1.	c #1C2B37",
"n1.	c #1F2A37",
"o1.	c #241520",
"p1.	c #0F0A18",
"q1.	c #050712",
"r1.	c #050913",
"s1.	c #090F18",
"t1.	c #0B111A",
"u1.	c #090E18",
"v1.	c #090B12",
"w1.	c #0C1932",
"x1.	c #0A2D55",
"y1.	c #2C4774",
"z1.	c #40495D",
"A1.	c #2B4674",
"B1.	c #3F4A6C",
"C1.	c #3E4767",
"D1.	c #3F3F3F",
"E1.	c #2D353F",
"F1.	c #27332A",
"G1.	c #361C1C",
"H1.	c #0B182E",
"I1.	c #070B15",
"J1.	c #060914",
"K1.	c #0A1019",
"L1.	c #040712",
"M1.	c #0D1023",
"N1.	c #0F2F55",
"O1.	c #2C4775",
"P1.	c #283662",
"Q1.	c #404445",
"R1.	c #3F4767",
"S1.	c #3F3F40",
"T1.	c #2E1B1B",
"U1.	c #0B0E21",
"V1.	c #0D2E55",
"W1.	c #40495F",
"X1.	c #404A6E",
"Y1.	c #331A1B",
"Z1.	c #0D1322",
"`1.	c #080A1C",
" 2.	c #112846",
".2.	c #293E68",
"+2.	c #3A4670",
"@2.	c #3D466F",
"#2.	c #3A4A61",
"$2.	c #373E3E",
"%2.	c #2F3B5F",
"&2.	c #32456F",
"*2.	c #39466F",
"=2.	c #323B40",
"-2.	c #33373B",
";2.	c #314774",
">2.	c #404967",
",2.	c #283764",
"'2.	c #34456F",
")2.	c #3E453F",
"!2.	c #2D343E",
"~2.	c #25343E",
"{2.	c #253340",
"]2.	c #25333F",
"^2.	c #2C2B2A",
"/2.	c #301B1C",
"(2.	c #050A16",
"_2.	c #11172E",
":2.	c #182036",
"<2.	c #1B2137",
"[2.	c #192434",
"}2.	c #18212C",
"|2.	c #141D2C",
"12.	c #131C2B",
"22.	c #182033",
"32.	c #192138",
"42.	c #182137",
"52.	c #1F2539",
"62.	c #152A45",
"72.	c #1C343F",
"82.	c #283652",
"92.	c #29416C",
"02.	c #38446A",
"a2.	c #3C456A",
"b2.	c #3C4669",
"c2.	c #3D454B",
"d2.	c #37363E",
"e2.	c #2C394C",
"f2.	c #2E373F",
"g2.	c #273640",
"h2.	c #293436",
"i2.	c #352334",
"j2.	c #1A2847",
"k2.	c #1D2337",
"l2.	c #1A2028",
"m2.	c #121B29",
"n2.	c #141C2B",
"o2.	c #121B2A",
"p2.	c #151524",
"q2.	c #161021",
"r2.	c #092547",
"s2.	c #29332C",
"t2.	c #33181C",
"u2.	c #070A1B",
"v2.	c #07081A",
"w2.	c #14263E",
"x2.	c #1D333F",
"y2.	c #424974",
"z2.	c #2F3737",
"A2.	c #2F191E",
"B2.	c #040615",
"C2.	c #070819",
"D2.	c #131B2F",
"E2.	c #182946",
"F2.	c #192946",
"G2.	c #243356",
"H2.	c #32436D",
"I2.	c #3A446C",
"J2.	c #3C446B",
"K2.	c #3B446C",
"L2.	c #3E443D",
"M2.	c #383D33",
"N2.	c #1D2D43",
"O2.	c #24323D",
"P2.	c #23323E",
"Q2.	c #23323D",
"R2.	c #22323D",
"S2.	c #2C262B",
"T2.	c #241B25",
"U2.	c #040515",
"V2.	c #0A0C20",
"W2.	c #0C0F22",
"X2.	c #0E1225",
"Y2.	c #101728",
"Z2.	c #12192A",
"`2.	c #111824",
" 3.	c #111723",
".3.	c #0E1626",
"+3.	c #201824",
"@3.	c #122745",
"#3.	c #173340",
"$3.	c #284170",
"%3.	c #3F4750",
"&3.	c #38261C",
"*3.	c #321B1F",
"=3.	c #0E1524",
"-3.	c #101726",
";3.	c #0E1122",
">3.	c #101524",
",3.	c #080919",
"'3.	c #082546",
")3.	c #163340",
"!3.	c #3C4975",
"~3.	c #33251B",
"{3.	c #0E1121",
"]3.	c #0A0B1D",
"^3.	c #092346",
"/3.	c #38251A",
"(3.	c #111323",
"_3.	c #060718",
":3.	c #092344",
"<3.	c #153241",
"[3.	c #273442",
"}3.	c #2A4172",
"|3.	c #3D4971",
"13.	c #3E444F",
"23.	c #38231B",
"33.	c #101322",
"43.	c #0E1529",
"53.	c #0E1F40",
"63.	c #112240",
"73.	c #1C2937",
"83.	c #1D2A37",
"93.	c #1D2B37",
"03.	c #1D2936",
"a3.	c #14233D",
"b3.	c #202B35",
"c3.	c #2B3230",
"d3.	c #10203F",
"e3.	c #11203F",
"f3.	c #1B2949",
"g3.	c #2C385C",
"h3.	c #1A424B",
"i3.	c #133E46",
"j3.	c #221730",
"k3.	c #060614",
"l3.	c #060913",
"m3.	c #050512",
"n3.	c #050914",
"o3.	c #050612",
"p3.	c #050412",
"q3.	c #040412",
"r3.	c #05020F",
"s3.	c #040613",
".  .  .  .  .  .  .  .  .  .  .  .  .  .  .  .  .  .  .  .  .  .  .  .  .  .  .  .  .  .  .  .  .  .  .  .  .  .  .  .  .  .  .  .  .  .  .  .  .  .  .  .  .  .  .  .  .  .  .  .  .  .  .  .  .  .  .  .  .  .  .  .  .  .  .  .  .  .  .  .  .  .  .  .  .  .  .  .  .  .  .  .  .  .  .  .  .  .  .  .  .  .  .  .  .  .  .  .  .  .  .  .  .  .  .  .  .  .  .  .  .  .  .  .  .  .  .  .  .  .  .  .  .  .  .  .  .  .  .  .  .  .  .  .  .  .  .  .  .  .  .  .  .  .  .  .  .  .  .  .  .  .  .  .  .  .  .  .  .  .  .  .  .  .  .  .  .  .  .  .  .  .  .  .  .  .  .  .  .  .  .  .  .  .  .  .  .  .  .  .  .  .  .  .  .  .  .  .  .  .  .  .  .  .  .  .  .  .  .  .  .  .  .  .  .  .  .  .  .  .  .  .  .  .  .  .  .  .  .  .  .  .  .  .  .  .  .  .  .  .  .  .  .  .  .  .  .  .  .  .  .  .  .  .  .  .  .  .  .  .  .  .  .  .  .  .  .  .  .  .  .  .  .  .  .  .  .  .  .  .  .  .  .  .  .  .  .  .  .  .  .  .  .  .  .  .  .  .  .  .  .  .  .  .  .  .  .  .  .                                                                                                                                                                                                                                                                                                     ",
".  .  .  .  .  .  .  .  .  .  .  .  .  .  .  .  .  .  .  .  .  .  .  .  .  .  .  .  .  .  .  .  .  .  .  .  .  .  .  .  .  .  .  .  .  .  .  .  .  .  .  .  .  .  .  .  .  .  .  .  .  .  .  .  .  .  .  .  .  .  .  .  .  .  .  .  .  .  .  .  .  .  .  .  .  .  .  .  .  .  .  .  .  .  .  .  .  .  .  .  .  .  .  .  .  .  .  .  .  .  .  .  .  .  .  .  .  .  .  .  .  .  .  .  .  .  .  .  .  .  .  .  .  .  .  .  .  .  .  .  .  .  .  .  .  .  .  .  .  .  .  .  .  .  .  .  .  .  .  .  .  .  .  .  .  .  .  .  .  .  .  .  .  .  .  .  .  .  .  .  .  .  .  .  .  .  .  .  .  .  .  .  .  .  .  .  .  .  .  .  .  .  .  .  .  .  .  .  .  .  .  .  .  .  .  .  .  .  .  .  .  .  .  .  .  .  .  .  .  .  .  .  .  .  .  .  .  .  .  .  .  .  .  .  .  .  .  .  .  .  .  .  .  .  .  .  .  .  .  .  .  .  .  .  .  .  .  .  .  .  .  .  .  .  .  .  .  .  .  .  .  .  .  .  .  .  .  .  .  .  .  .  .  .  .  .  .  .  .  .  .  .  .  .  .  .  .  .  .  .  .  .  .  .  .  .  .  .  .                                                                                                                                                                                                                                                                                                     ",
".  .  .  .  .  .  .  .  .  .  .  .  .  .  .  .  .  .  .  .  .  .  .  .  .  .  .  .  .  .  .  .  .  .  .  .  .  .  .  .  .  .  .  .  .  .  .  .  .  .  .  .  .  .  .  .  .  .  .  .  .  .  .  .  .  .  .  .  .  .  .  .  .  .  .  .  .  .  .  .  .  .  .  .  .  .  .  .  .  .  .  .  .  .  .  .  .  .  .  .  .  .  .  .  .  .  .  .  .  .  .  .  .  .  .  .  .  .  .  .  .  .  .  .  .  .  .  .  .  .  .  .  .  .  .  .  .  .  .  .  .  .  .  .  .  .  .  .  .  .  .  .  .  .  .  .  .  .  .  .  .  .  .  .  .  .  .  .  .  .  .  .  .  .  .  .  .  .  .  .  .  .  .  .  .  .  .  .  .  .  .  .  .  .  .  .  .  .  .  .  .  .  .  .  .  .  .  .  .  .  .  .  .  .  .  .  .  .  .  .  .  .  .  .  .  .  .  .  .  .  .  .  .  .  .  .  .  .  .  .  .  .  .  .  .  .  .  .  .  .  .  .  .  .  .  .  .  .  .  .  .  .  .  .  .  .  .  .  .  .  .  .  .  .  .  .  .  .  .  .  .  .  .  .  .  .  .  .  .  .  .  .  .  .  .  .  .  .  .  .  .  .  .  .  .  .  .  .  .  .  .  .  .  .  .  .  .  .  .                                                                                                                                                                                                                                                                                                     ",
".  .  .  .  .  .  .  .  .  .  .  .  .  .  .  .  .  .  .  .  .  .  .  .  .  .  .  .  .  .  .  .  .  .  .  .  .  .  .  .  .  .  .  .  .  .  .  .  .  .  .  .  .  .  .  .  .  .  .  .  .  .  .  .  .  .  .  .  .  .  .  .  .  .  .  .  .  .  .  .  .  .  .  .  .  .  .  .  .  .  .  .  .  .  .  .  .  .  .  .  .  .  .  .  .  .  .  .  .  .  .  .  .  .  .  .  .  .  .  .  .  .  .  .  .  .  .  .  .  .  .  .  .  .  .  .  .  .  .  .  .  .  .  .  .  .  .  .  .  .  .  .  .  .  .  .  .  +  @  #  $  %  &  *  =  .  .  .  .  .  .  .  .  .  .  .  .  .  .  .  .  .  .  .  .  .  .  .  .  .  .  .  .  .  .  .  .  .  .  .  .  .  .  .  .  .  .  .  .  .  .  .  .  .  .  .  .  .  .  .  .  .  .  .  .  .  .  .  .  .  .  .  .  .  .  .  .  .  .  .  .  .  .  .  .  .  .  .  .  .  .  .  .  .  .  .  .  .  .  .  .  .  .  .  .  .  .  .  .  .  .  .  .  .  .  .  .  .  .  .  .  .  .  .  .  .  .  .  .  .  .  .  .  .  .  .  .  .  .  .  .  .  .  .  .  .  .  .  .  .  .  .  .  .  .  .  .  .  .                                                                                                                                                                                                                                                                                                     ",
".  .  .  .  .  .  .  .  .  .  .  .  .  .  .  .  .  .  .  .  .  .  .  .  .  .  .  .  .  .  .  .  .  .  .  .  .  .  .  .  .  .  .  .  .  .  .  .  .  .  .  .  .  .  .  .  .  .  .  .  .  .  .  .  .  .  .  .  .  .  .  .  .  .  .  .  .  .  .  .  .  .  .  .  .  .  .  .  .  .  .  .  .  .  .  .  .  .  .  .  .  .  .  .  .  .  .  .  .  .  .  .  .  .  .  .  .  .  .  .  .  .  .  .  .  .  .  .  .  .  .  .  .  .  .  .  .  .  .  .  .  .  .  .  .  .  .  .  .  .  .  .  .  .  .  .  -  ;  >  ,  '  )  !  ~  {  .  .  .  .  .  .  .  .  .  .  .  .  .  .  .  .  .  .  .  .  .  .  .  .  .  .  .  .  .  .  .  .  .  .  .  .  .  .  .  .  .  .  .  .  .  .  .  .  .  .  .  .  .  .  .  .  .  .  .  .  .  .  .  .  .  .  .  .  .  .  .  .  .  .  .  .  .  .  .  .  .  .  .  .  .  .  .  .  .  .  .  .  .  .  .  .  .  .  .  .  .  .  .  .  .  .  .  .  .  .  .  .  .  .  .  .  .  .  .  .  .  .  .  .  .  .  .  .  .  .  .  .  .  .  .  .  .  .  .  .  .  .  .  .  .  .  .  .  .  .  .  .  .  .                                                                                                                                                                                                                                                                                                     ",
".  .  .  .  .  .  .  .  .  .  .  .  .  .  .  .  .  .  .  .  .  .  .  .  .  .  .  .  .  .  .  .  .  .  .  .  .  .  .  .  .  .  .  .  .  .  .  .  .  .  .  .  .  .  .  .  .  .  .  .  .  .  .  .  .  .  .  .  .  .  .  .  .  .  .  .  .  .  .  .  .  .  .  .  .  .  .  .  .  .  .  .  .  .  .  .  .  .  .  .  .  .  .  .  .  .  .  .  .  .  .  .  .  .  .  .  .  .  .  .  .  .  .  .  .  .  .  .  .  .  .  .  .  .  .  .  .  .  .  .  .  .  .  .  .  .  .  .  .  .  .  .  .  .  .  .  ]  ^  /  (  _  :  <  [  }  .  .  .  .  .  .  .  .  .  .  .  .  .  .  .  .  .  .  .  .  .  .  .  .  .  .  .  .  .  .  .  .  .  .  .  .  .  .  .  .  .  .  .  .  .  .  .  .  .  .  .  .  .  .  .  .  .  .  .  .  .  .  .  .  .  .  .  .  .  .  .  .  .  .  .  .  .  .  .  .  .  .  .  .  .  .  .  .  .  .  .  .  .  .  .  .  .  .  .  .  .  .  .  .  .  .  .  .  .  .  .  .  .  .  .  .  .  .  .  .  .  .  .  .  .  .  .  .  .  .  .  .  .  .  .  .  .  .  .  .  .  .  .  .  .  .  .  .  .  .  .  .  .  .                                                                                                                                                                                                                                                                                                     ",
".  .  .  .  .  .  .  .  .  .  .  .  .  .  .  .  .  .  .  .  .  .  .  .  .  .  .  .  .  .  .  .  .  .  .  .  .  .  .  .  .  .  .  .  .  .  .  .  .  .  .  .  .  .  .  .  .  .  .  .  .  .  .  .  .  .  .  .  .  .  .  .  .  .  .  .  .  .  .  .  .  .  .  .  .  .  .  .  .  .  .  .  .  .  .  .  .  .  .  .  .  .  .  .  .  .  .  .  .  .  .  .  .  .  .  .  .  .  .  .  .  .  .  .  .  .  .  .  .  .  .  .  .  .  .  .  .  .  .  .  .  .  .  .  .  .  .  .  .  .  .  .  .  .  .  .  |  1  2  3  4  5  6  7  8  .  .  .  .  .  .  .  .  .  .  .  .  .  .  .  .  .  .  .  .  .  .  .  .  .  .  .  .  .  .  .  .  .  .  .  .  .  .  .  .  .  .  .  .  .  9  0  a  9  .  .  .  .  .  .  .  .  .  .  .  .  .  .  .  .  .  .  .  .  .  .  .  .  .  .  .  .  .  .  .  .  .  .  .  .  .  .  .  .  .  .  .  .  .  .  .  .  .  .  .  .  .  .  .  .  .  .  .  .  .  .  .  .  .  .  .  .  .  .  .  .  .  .  .  .  .  .  .  .  .  .  .  .  .  .  .  .  .  .  .  .  .  .  .  .  .  .  .  .  .  .  .  .  .                                                                                                                                                                                                                                                                                                     ",
".  .  .  .  .  .  .  .  .  .  .  .  .  .  .  .  .  .  .  .  .  .  .  .  .  .  .  .  .  .  .  .  .  .  .  .  .  .  .  .  .  .  .  .  .  .  .  .  .  .  .  .  .  .  .  .  .  .  .  .  .  .  .  .  .  .  .  .  .  .  .  .  .  .  .  .  .  .  .  .  .  .  .  .  .  .  .  .  .  .  .  .  .  .  .  .  .  .  .  .  .  .  .  .  .  .  .  .  .  .  .  .  .  .  .  .  .  .  .  .  .  .  .  .  .  .  .  .  .  .  .  .  .  .  .  .  .  .  .  .  .  .  .  .  .  .  .  .  .  .  .  .  .  .  .  .  b  c  2  3  d  5  6  e  f  .  .  .  .  .  .  .  .  .  .  .  .  .  .  .  .  .  .  .  .  .  .  .  .  .  .  .  .  .  .  .  .  .  .  .  .  .  .  .  .  .  .  .  .  9  g  h  i  j  k  .  .  .  .  .  .  .  .  .  .  .  .  .  .  .  .  .  .  .  .  .  .  .  .  .  .  .  .  .  .  .  .  .  .  .  .  .  .  .  .  .  .  .  .  .  .  .  .  .  .  .  .  .  .  .  .  .  .  .  .  .  .  .  .  .  .  .  .  .  .  .  .  .  .  .  .  .  .  .  .  .  .  .  .  .  .  .  .  .  .  .  .  .  .  .  .  .  .  .  .  .  .  .  .                                                                                                                                                                                                                                                                                                     ",
".  .  .  .  .  .  .  .  .  .  .  .  .  .  .  .  .  .  .  .  .  .  .  .  .  .  .  .  .  .  .  .  .  .  .  .  .  .  .  .  .  .  .  .  .  .  .  .  .  .  .  .  .  .  .  .  .  .  .  .  .  .  .  .  .  .  .  .  .  .  .  .  .  .  .  .  .  .  .  .  .  .  .  .  .  .  .  .  .  .  .  .  .  .  .  .  .  .  .  .  .  .  .  .  .  .  .  .  .  .  .  .  .  .  .  .  .  .  .  .  .  .  l  m  n  o  o  o  o  o  o  o  o  o  o  o  o  o  o  o  o  o  o  o  o  o  o  o  o  o  p  q  r  s  t  u  v  w  x  y  z  A  B  C  D  E  E  E  F  o  o  o  o  o  o  o  p  G  H  E  E  H  E  I  J  K  L  M  M  M  N  O  K  P  Q  R  S  T  =  .  .  .  .  .  .  .  .  .  .  U  V  W  X  Y  Z  .  .  .  .  .  .  .  .  .  .  .  .  .  .  .  .  .  .  .  .  .  .  .  .  .  .  .  .  .  .  .  .  .  .  .  .  .  .  .  .  .  .  .  .  .  .  .  .  .  .  .  .  .  .  .  .  .  .  .  .  .  .  .  .  .  .  .  .  .  .  .  .  .  .  .  .  .  .  .  .  .  .  .  .  .  .  .  .  .  .  .  .  .  .  .  .  .  .  .  .  .  .  .  .                                                                                                                                                                                                                                                                                                     ",
".  .  .  .  .  .  .  .  .  .  .  .  .  .  .  .  .  .  .  .  .  .  .  .  .  .  .  .  .  .  .  .  .  .  .  .  .  .  .  .  .  .  .  .  .  .  .  .  .  .  .  .  .  .  .  .  .  .  .  .  .  .  .  .  .  .  .  .  .  .  .  .  .  .  .  .  .  .  .  .  .  .  .  .  .  .  .  .  .  .  .  .  .  .  .  .  .  .  .  .  .  .  .  .  .  .  .  .  .  .  .  .  .  .  .  .  .  .  .  .  .  `   . .. +. @. @. @. @. @. @. @. @. @. @. @. @. @. @. @. @. @. @. @. @. @. @. @. @. @. @. #. $. %. &. $. +. *. =. -. ;. >. ,. '. $. #. #. #. @. @. @. @. @. @. @. @. @. $. $. #. #. $. ). !. ~. {. ]. ^. /. (. _. {. :. <. [. }. |. 1. 2. .  .  .  .  .  .  .  .  .  .  3. 4. 5. 6. 7. =  .  .  .  .  .  .  .  .  .  .  .  .  .  .  .  .  .  .  .  .  .  .  .  .  .  .  .  .  .  .  .  .  .  .  .  .  .  .  .  .  .  .  .  .  .  .  .  .  .  .  .  .  .  .  .  .  .  .  .  .  .  .  .  .  .  .  .  .  .  .  .  .  .  .  .  .  .  .  .  .  .  .  .  .  .  .  .  .  .  .  .  .  .  .  .  .  .  .  .  .  .  .  .  .                                                                                                                                                                                                                                                                                                     ",
".  .  .  .  .  .  .  .  .  .  .  .  .  .  .  .  .  .  .  .  .  .  .  .  .  .  .  .  .  .  .  .  .  .  .  .  .  .  .  .  .  .  .  .  .  .  .  .  .  .  .  .  .  .  .  .  .  .  .  .  .  .  .  .  .  .  .  .  .  .  .  .  .  .  .  .  .  .  .  .  .  .  .  .  .  .  .  .  .  .  .  .  .  .  .  .  .  .  .  .  .  .  .  .  .  .  .  .  .  .  .  .  .  .  .  .  .  .  .  .  .  8. 9. 0. a. b. b. b. b. b. b. b. c. c. b. c. b. b. b. b. b. b. b. c. c. c. c. b. c. d. e. b. a. c. c. b. e. f. g. h. h. h. i. j. b. b. k. a. b. c. c. c. c. b. c. c. b. b. b. a. a. b. l. m. n. o. p. p. p. p. p. p. q. r. s. t. u. v. w. .  .  .  .  .  .  .  .  .  .  .  x. y. z. .  .  .  .  .  .  .  .  .  .  .  .  .  .  .  .  .  .  .  .  .  .  .  .  .  .  .  .  .  .  .  .  .  .  .  .  .  .  .  .  .  .  .  .  .  .  .  .  .  .  .  .  .  .  .  .  .  .  .  .  .  .  .  .  .  .  .  .  .  .  .  .  .  .  .  .  .  .  .  .  .  .  .  .  .  .  .  .  .  .  .  .  .  .  .  .  .  .  .  .  .  .  .  .  .  .                                                                                                                                                                                                                                                                                                     ",
".  .  .  .  .  .  .  .  .  .  .  .  .  .  .  .  .  .  .  .  .  .  .  .  .  .  .  .  .  .  .  .  .  .  .  .  .  .  .  .  .  .  .  .  .  .  .  .  .  .  .  .  .  .  .  .  .  .  .  .  .  .  .  .  .  .  .  .  .  .  .  .  .  .  .  .  .  .  .  .  .  .  .  .  .  .  .  .  .  .  .  .  .  .  .  .  .  .  .  .  .  .  .  .  .  .  .  .  .  .  .  .  .  .  .  .  .  .  .  .  .  A. 9. B. C. g. g. g. g. g. g. g. g. D. g. E. g. g. g. g. g. g. g. F. g. g. D. g. E. F. F. g. g. g. g. g. g. g. g. g. g. g. g. g. g. g. g. g. g. F. F. g. E. g. E. g. g. g. g. g. g. g. G. H. n. I. J. J. J. J. J. K. L. M. N. O. P. Q. R. .  .  .  .  .  .  .  .  .  .  .  .  S. .  .  .  .  .  .  .  .  .  .  .  .  .  .  .  .  .  .  .  .  .  .  .  .  .  .  .  .  .  .  .  .  .  .  .  .  .  .  .  .  .  .  .  .  .  .  .  .  .  .  .  .  .  .  .  .  .  .  .  .  .  .  .  .  .  .  .  .  .  .  .  .  .  .  .  .  .  .  .  .  .  .  .  .  .  .  .  .  .  .  .  .  .  .  .  .  .  .  .  .  .  .  .  .  .  .  .                                                                                                                                                                                                                                                                                                     ",
".  .  .  .  .  .  .  .  .  .  .  .  .  .  .  .  .  .  .  .  .  .  .  .  .  .  .  .  .  .  .  .  .  .  .  .  .  .  .  .  .  .  .  .  .  .  .  .  .  .  .  .  .  .  .  .  .  .  .  .  .  .  .  .  .  .  .  .  .  .  .  .  .  .  .  .  .  .  .  .  .  .  .  .  .  .  .  .  .  .  .  .  .  .  .  .  .  .  .  .  .  .  .  .  .  .  .  .  T. U. V. W. X. Y. Z. `.  +  + .+ ++ @+ #+ $+ %+ C. g. g. g. g. g. g. g. g. g. g. g. g. g. g. g. g. g. g. g. g. g. g. g. g. g. g. g. g. g. g. g. g. g. g. g. g. g. g. g. g. g. g. g. g. g. g. g. g. g. g. g. g. g. g. g. g. g. &+ H. *+ =+ -+ -+ -+ -+ -+ ;+ >+ ,+ '+ )+ !+ ~+ {+ ]+ ^+ ^+ /+ (+ (+ /+ _+ :+ :+ <+ [+ }+ |+ .  .  .  .  .  .  .  .  .  .  .  .  .  .  .  .  .  .  .  .  .  .  .  .  .  .  .  .  .  .  .  .  .  .  .  .  .  .  .  .  .  .  .  .  .  .  .  .  .  .  .  .  .  .  .  .  .  .  .  .  .  .  .  .  .  .  .  .  .  .  .  .  .  .  .  .  .  .  .  .  .  .  .  .  .  .  .  .  .  .  .  .  .  .  .  .  .  .  .  .  .  .  .  .  .  .                                                                                                                                                                                                                                                                                                     ",
".  .  .  .  .  .  .  .  .  .  .  .  .  .  .  .  .  .  .  .  .  .  .  .  .  .  .  .  .  .  .  .  .  .  .  .  .  .  .  .  .  .  .  .  .  .  .  .  .  .  .  .  .  .  .  .  .  .  .  .  .  .  .  .  .  .  .  .  .  .  .  .  .  .  .  .  .  .  .  .  .  .  .  .  .  .  .  .  .  .  .  .  .  .  .  .  .  .  .  .  .  .  .  .  .  .  .  .  1+ 2+ 3+ 4+ 5+ 4+ 4+ 4+ 4+ 4+ 4+ 4+ 4+ 4+ 6+ 7+ g. g. g. g. g. g. g. g. g. g. g. g. g. g. g. g. g. g. g. g. g. g. g. g. g. g. g. g. g. g. g. g. g. g. g. g. g. g. g. g. g. g. g. g. g. g. g. g. g. g. g. g. g. g. g. g. g. g. g. 8+ 9+ 0+ 0+ 0+ 0+ 0+ 0+ a+ b+ c+ d+ e+ f+ g+ h+ i+ i+ N. j+ k+ l+ m+ n+ o+ p+ n+ q+ r+ s+ .  .  .  .  .  .  .  .  .  .  .  .  .  .  .  .  .  .  .  .  .  .  .  .  .  .  .  .  .  .  .  .  .  .  .  .  .  .  .  .  .  .  .  .  .  .  .  .  .  .  .  .  .  .  .  .  .  .  .  .  .  .  .  .  .  .  .  .  .  .  .  .  .  .  .  .  .  .  .  .  .  .  .  .  .  .  .  .  .  .  .  .  .  .  .  .  .  .  .  .  .  .  .  .  .  .                                                                                                                                                                                                                                                                                                     ",
".  .  .  .  .  .  .  .  .  .  .  .  .  .  .  .  .  .  .  .  .  .  .  .  .  .  .  .  .  .  .  .  .  .  .  .  .  .  .  .  .  .  .  .  .  .  .  .  .  .  .  .  .  .  .  .  .  .  .  .  .  .  .  .  .  .  .  .  .  .  .  .  .  .  .  .  .  .  .  .  .  .  .  .  .  .  .  .  .  .  .  .  .  .  .  .  .  .  .  .  .  .  .  .  .  .  .  .  t+ u+ v+ w+ a. w+ w+ w+ w+ w+ w+ d. x+ a. g. g. g. g. g. g. g. g. g. g. g. g. g. g. g. g. g. g. g. g. g. g. g. g. g. g. g. g. g. g. g. g. g. g. g. g. g. g. g. g. g. g. g. g. g. g. g. g. g. g. g. g. g. g. g. g. g. g. g. g. g. E. y+ y+ y+ y+ y+ y+ y+ z+ A+ B+ C+ D+ E+ F+ G+ H+ I+ J+ s. K+ s. L+ M+ N+ J+ O+ P+ Q+ R+ .  .  .  .  .  .  .  .  .  .  .  .  .  .  .  .  .  .  .  .  .  .  .  .  .  .  .  .  .  .  .  .  .  .  .  .  .  .  .  .  .  .  .  .  .  .  .  .  .  .  .  .  .  .  .  .  .  .  .  .  .  .  .  .  .  .  .  .  .  .  .  .  .  .  .  .  .  .  .  .  .  .  .  .  .  .  .  .  .  .  .  .  .  .  .  .  .  .  .  .  .  .  .  .  .  .                                                                                                                                                                                                                                                                                                     ",
".  .  .  .  .  .  .  .  .  .  .  .  .  .  .  .  .  .  .  .  .  .  .  .  .  .  .  .  .  .  .  .  .  .  .  .  .  .  .  .  .  .  .  .  .  .  .  .  .  .  .  .  .  .  .  .  .  .  .  .  .  .  .  .  .  .  .  .  .  .  .  .  .  .  .  .  .  .  .  .  .  .  .  .  .  .  .  .  .  .  .  .  .  .  .  .  .  .  .  .  .  .  .  .  .  .  .  .  S+ u+ T+ C. g. g. g. g. g. g. g. g. g. g. g. g. g. g. g. g. g. g. g. g. g. g. g. g. g. g. g. g. g. g. g. g. g. g. g. g. g. g. g. g. g. g. g. g. g. g. g. g. g. g. g. g. g. g. g. g. g. g. g. g. g. g. g. g. g. g. g. g. g. g. g. g. g. g. g. g. g. g. g. U+ A+ B+ C+ D+ E+ F+ V+ W+ X+ Y+ N. N. N. N. N. N. N. j+ Z+ `+  @ .  .  .  .  .  .  .  .  .  .  .  .  .  .  .  .  .  .  .  .  .  .  .  .  .  .  .  .  .  .  .  .  .  .  .  .  .  .  .  .  .  .  .  .  .  .  .  .  .  .  .  .  .  .  .  .  .  .  .  .  .  .  .  .  .  .  .  .  .  .  .  .  .  .  .  .  .  .  .  .  .  .  .  .  .  .  .  .  .  .  .  .  .  .  .  .  .  .  .  .  .  .  .  .  .  .                                                                                                                                                                                                                                                                                                     ",
".  .  .  .  .  .  .  .  .  .  .  .  .  .  .  .  .  .  .  .  .  .  .  .  .  .  .  .  .  .  .  .  .  .  .  .  .  .  .  .  .  .  .  .  .  .  .  .  .  .  .  .  .  .  .  .  .  .  .  .  .  .  .  .  .  .  .  .  .  .  .  .  .  .  .  .  .  .  .  .  .  .  .  .  .  .  .  .  .  .  .  .  .  .  .  9  .@ +@ @@ #@ $@ @@ @@ %@ {  +@ &@ *@ =@ u+ T+ C. g. g. g. g. g. g. g. g. g. g. g. g. g. g. g. g. g. g. g. g. g. g. g. g. C. i. i. i. i. i. i. i. i. i. i. i. i. i. i. i. i. i. i. i. i. i. i. i. i. i. i. i. i. i. -@ i. i. i. -@ y+ y+ y+ y+ y+ y+ y+ y+ y+ y+ y+ y+ y+ y+ y+ y+ y+ y+ y+ y+ ;@ >@ B+ C+ D+ E+ F+ ,@ '@ '@ X+ '@ '@ '@ '@ '@ '@ X+ j+ Z+ )@ !@ ~@ {@ ]@ ]@ ]@ ]@ ]@ ]@ @@ ^@ #@ k  .  .  .  .  .  .  .  .  .  .  .  .  .  .  .  .  .  .  .  .  .  .  .  .  .  .  .  .  .  .  .  .  .  .  .  .  .  .  .  .  .  .  .  .  .  .  .  .  .  .  .  .  .  .  .  .  .  .  .  .  .  .  .  .  .  .  .  .  .  .  .  .  .  .  .  .  .  .  .  .  .  .  .  .  .  .  .  .  .  .  .  .  .  .                                                                                                                                                                                                                                                                                                     ",
".  .  .  .  .  .  .  .  .  .  .  .  .  .  .  .  .  .  .  .  .  .  .  .  .  .  .  .  .  .  .  .  .  .  .  .  .  .  .  .  .  .  .  .  .  .  .  .  .  .  .  .  .  .  .  .  .  .  .  .  .  .  .  .  .  .  .  .  .  .  .  .  .  .  .  .  .  .  .  .  .  .  .  .  .  .  .  .  .  .  .  .  .  .  .  /@ (@ _@ :@ <@ [@ :@ }@ |@ 1@ 2@ 3@ 4@ 5@ 6@ 7@ C. g. g. g. g. g. g. g. g. g. g. g. g. g. g. g. g. g. g. g. g. g. g. F. 8@ 9@ 0@ a@ a@ a@ a@ a@ b@ a@ c@ d@ d@ d@ d@ d@ d@ d@ d@ d@ d@ d@ d@ d@ d@ d@ d@ d@ d@ d@ e@ f@ g@ a@ b@ h@ i@ j@ k@ k@ k@ k@ k@ k@ k@ k@ k@ k@ k@ k@ k@ k@ k@ k@ k@ k@ l@ m@ n@ o@ D+ p@ q@ r@ s@ s@ s@ t@ t@ s@ s@ s@ s@ u@ v@ w@ x@ y@ z@ A@ B@ B@ B@ C@ D@ E@ F@ G@ H@ I@ J@ .  .  .  .  .  .  .  .  .  .  .  .  .  .  .  .  .  .  .  .  .  .  .  .  .  .  .  .  .  .  .  .  .  .  .  .  .  .  .  .  .  .  .  .  .  .  .  .  .  .  .  .  .  .  .  .  .  .  .  .  .  .  .  .  .  .  .  .  .  .  .  .  .  .  .  .  .  .  .  .  .  .  .  .  .  .  .  .  .  .  .  .  .                                                                                                                                                                                                                                                                                                     ",
".  .  .  .  .  .  .  .  .  .  .  .  .  .  .  .  .  .  .  .  .  .  .  .  .  .  .  .  .  .  .  .  .  .  .  .  .  .  .  .  .  .  .  .  .  .  .  .  .  .  .  .  .  .  .  .  .  .  .  .  .  .  .  .  .  .  .  .  .  .  .  .  .  .  .  .  .  .  .  .  .  .  .  .  .  .  .  .  .  .  .  .  .  .  .  K@ L@ M@ N@ N@ O@ P@ P@ P@ P@ P@ Q@ Q@ N@ R@ C. g. g. g. g. g. g. g. g. g. g. g. g. g. g. g. g. g. g. g. g. g. g. g. D. S@ T@ U@ V@ V@ V@ V@ V@ V@ W@ X@ Y@ Z@ `@  # Z@  # .# +# `@ `@ +# Z@ @# Z@ +# `@ `@ +# Z@ Z@ ## $# %# &# *# =# -# ;# ># ># ># ># ># ># ># ># ># ># ># ># ># ># ># ># ># ># ,# D+ '# '# D+ )# !# ~# ~# ~# '# '# {# ,# ,# {# !# ]# ^# /# (# (# _# :# <# <# [# }# ,@ J+ |# 1# Q+ 2# .  .  .  .  .  .  .  .  .  .  .  .  .  .  .  .  .  .  .  .  .  .  .  .  .  .  .  .  .  .  .  .  .  .  .  .  .  .  .  .  .  .  .  .  .  .  .  .  .  .  .  .  .  .  .  .  .  .  .  .  .  .  .  .  .  .  .  .  .  .  .  .  .  .  .  .  .  .  .  .  .  .  .  .  .  .  .  .  .  .  .  .  .                                                                                                                                                                                                                                                                                                     ",
".  .  .  .  .  .  .  .  .  .  .  .  .  .  .  .  .  .  .  .  .  .  .  .  .  .  .  .  .  .  .  .  .  .  .  .  .  .  .  .  .  .  .  .  .  .  .  .  .  .  .  .  .  .  .  .  .  .  .  .  .  .  .  .  .  .  .  .  .  .  .  .  .  .  .  .  .  .  .  .  .  .  .  .  .  .  .  .  .  .  .  .  .  .  .  3# 4# 5# 6# D. 7# D. D. D. D. D. D. 7# D. g. g. g. g. g. g. g. g. g. g. g. g. g. g. g. g. g. g. g. g. g. g. g. g. g. E. 8# 9# 0# a# b# b# b# b# b# b# c# d# d# d# e# d# e# d# d# d# d# e# d# e# d# e# d# d# d# d# d# f# g# b# h# i# j# k# l# D+ '# m# D+ '# m# D+ '# m# D+ '# m# D+ '# m# '# '# m# '# '# '# '# '# '# '# '# '# '# '# '# '# '# '# '# D+ n# o# /# W+ )+ p# q# p. <# r# s# ,@ W+ t# u# v# w# .  .  .  .  .  .  .  .  .  .  .  .  .  .  .  .  .  .  .  .  .  .  .  .  .  .  .  .  .  .  .  .  .  .  .  .  .  .  .  .  .  .  .  .  .  .  .  .  .  .  .  .  .  .  .  .  .  .  .  .  .  .  .  .  .  .  .  .  .  .  .  .  .  .  .  .  .  .  .  .  .  .  .  .  .  .  .  .  .  .  .  .  .                                                                                                                                                                                                                                                                                                     ",
".  .  .  .  .  .  .  .  .  .  .  .  .  .  .  .  .  .  .  .  .  .  .  .  .  .  .  .  .  .  .  .  .  .  .  .  .  .  .  .  .  .  .  .  .  .  .  .  .  .  .  .  .  .  .  .  .  .  .  .  .  .  .  .  .  .  .  .  .  .  .  .  .  .  .  .  .  .  .  .  .  .  .  .  .  .  .  .  .  .  .  .  .  .  .  x# y# z# C. g. g. g. g. g. g. g. g. g. g. g. g. g. g. g. g. g. g. g. g. A# C. C. C. C. C. C. C. C. C. C. C. C. C. N@ B# C# 9# 0# D# D# D# D# D# D# D# E# F# F# F# F# F# F# F# F# F# F# F# F# F# F# F# F# F# F# F# G# H# I# D# J# K# j# k# L# M# M# M# M# M# M# N# D+ D+ D+ D+ D+ D+ D+ D+ D+ D+ D+ D+ '# '# '# '# '# '# '# '# '# '# '# '# '# '# '# D+ O# P# /# X+ M+ p# Q# <# <# r# s# ,@ W+ j+ R# S# |+ .  .  .  .  .  .  .  .  .  .  .  .  .  .  .  .  .  .  .  .  .  .  .  .  .  .  .  .  .  .  .  .  .  .  .  .  .  .  .  .  .  .  .  .  .  .  .  .  .  .  .  .  .  .  .  .  .  .  .  .  .  .  .  .  .  .  .  .  .  .  .  .  .  .  .  .  .  .  .  .  .  .  .  .  .  .  .  .  .  .  .  .  .                                                                                                                                                                                                                                                                                                     ",
".  .  .  .  .  .  .  .  .  .  .  .  .  .  .  .  .  .  .  .  .  .  .  .  .  .  .  .  .  .  .  .  .  .  .  .  .  .  .  .  .  .  .  .  .  .  .  .  .  .  .  .  .  .  .  .  .  .  .  .  .  .  .  .  .  .  .  .  .  .  .  .  .  .  .  .  .  .  .  .  .  .  .  .  .  .  .  T# U# V# W# X# Y# Z# `#  $ .$ +$ C. g. g. g. g. g. g. g. g. g. g. g. g. g. g. g. g. g. g. g. D. @$ 6# #$ #$ #$ #$ #$ #$ #$ #$ #$ #$ #$ #$ R@ $$ %$ &$ *$ =$ D# b# a# D# b# a# E# F# F# F# F# F# F# F# F# F# F# F# F# F# F# F# F# F# F# F# G# H# -$ =$ ;$ >$ ,$ '$ )$ !$ !$ ~$ {$ ]$ N# ^$ N# /$ /$ /$ /$ /$ /$ /$ /$ /$ /$ N# N# '# '# '# '# '# '# '# '# '# '# '# '# '# '# D+ N# ($ _$ W+ t# :$ <$ [$ [$ }$ s# |$ 1$ s. 2$ 3$ 4$ 5$ 6$ 7$ 8$ 8$ 9$ 0$ a$ .  .  .  .  .  .  .  .  .  .  .  .  .  .  .  .  .  .  .  .  .  .  .  .  .  .  .  .  .  .  .  .  .  .  .  .  .  .  .  .  .  .  .  .  .  .  .  .  .  .  .  .  .  .  .  .  .  .  .  .  .  .  .  .  .  .  .  .  .  .  .  .  .  .  .  .  .  .  .  .  .  .  .  .  .                                                                                                                                                                                                                                                                                                     ",
".  .  .  .  .  .  .  .  .  .  .  .  .  .  .  .  .  .  .  .  .  .  .  .  .  .  .  .  .  .  .  .  .  .  .  .  .  .  .  .  .  .  .  .  .  .  .  .  .  .  .  .  .  .  .  .  .  .  .  .  .  .  .  .  .  .  .  .  .  .  .  .  .  .  .  .  .  .  .  .  .  .  .  .  .  .  J@ b$ c$ d$ e$ f$ g$ h$ i$ j$ k$ l$ g. g. g. g. g. g. g. g. g. g. g. g. g. g. g. g. g. g. g. U+ m$ n$ o$ p$ q$ q$ q$ q$ q$ q$ q$ q$ q$ q$ q$ q$ q$ r$ s$ t$ u$ t$ t$ t$ t$ t$ t$ v$ F# F# F# F# F# F# F# F# F# F# F# F# F# F# F# F# F# F# F# F# w$ x$ u$ y$ z$ A$ B$ C$ C$ D$ E$ F$ G$ H$ I$ J$ K$ K$ K$ K$ K$ K$ K$ K$ K$ K$ L$ M$ N$ '# '# '# '# '# '# '# '# '# '# '# '# '# '# '# O$ P$ Q$ Q$ R$ S$ T$ U$ V$ W$ X$ Y$ Z$ `$  % .% +% @% #% $% %% &% *% =% 9  .  .  .  .  .  .  .  .  .  .  .  .  .  .  .  .  .  .  .  .  .  .  .  .  .  .  .  .  .  .  .  .  .  .  .  .  .  .  .  .  .  .  .  .  .  .  .  .  .  .  .  .  .  .  .  .  .  .  .  .  .  .  .  .  .  .  .  .  .  .  .  .  .  .  .  .  .  .  .  .  .  .  .  .                                                                                                                                                                                                                                                                                                     ",
".  .  .  .  .  .  .  .  .  .  .  .  .  .  .  .  .  .  .  .  .  .  .  .  .  .  .  .  .  .  .  .  .  .  .  .  .  .  .  .  .  .  .  .  .  .  .  .  .  .  .  .  .  .  .  .  .  .  .  .  .  .  .  .  .  .  .  .  .  .  .  .  .  .  .  .  .  .  .  .  .  .  .  .  .  .  -% ;% >% ,% '% )% !% ~% b. w+ E. g. g. g. g. g. g. g. g. g. g. g. g. g. g. g. g. g. g. g. g. D. {% ]% ^% /% (% _% _% (% _% _% (% /% _% :% /% :% :% <% [% F# F# F# F# F# F# F# F# F# F# F# F# F# F# F# F# F# F# F# F# F# F# F# F# F# F# F# F# F# F# F# F# F# }% |% 1% 1% 1% 2% 3% 4% 5% 6% 7% 8% 9% 0% '@ '@ '@ '@ '@ '@ '@ a% b% c% d% '# '# '# '# '# '# '# '# '# '# '# '# '# '# '# e% e% e% e% '# '# '# e% f% g% h% <# i% j% k% l% m% n% o% p% p. q% r% s% t% .  .  .  .  .  .  .  .  .  .  .  .  .  .  .  .  .  .  .  .  .  .  .  .  .  .  .  .  .  .  .  .  .  .  .  .  .  .  .  .  .  .  .  .  .  .  .  .  .  .  .  .  .  .  .  .  .  .  .  .  .  .  .  .  .  .  .  .  .  .  .  .  .  .  .  .  .  .  .  .  .  .  .  .                                                                                                                                                                                                                                                                                                     ",
".  .  .  .  .  .  .  .  .  .  .  .  .  .  .  .  .  .  .  .  .  .  .  .  .  .  .  .  .  .  .  .  .  .  .  .  .  .  .  .  .  .  .  .  .  .  .  .  .  .  .  .  .  .  .  .  .  .  .  .  .  .  .  .  .  .  .  .  .  .  .  .  .  .  .  .  .  .  .  .  .  .  .  .  .  .  u% v% w% x% y% z% A% B% g. g. g. g. g. g. g. g. g. g. g. g. g. g. g. g. g. g. g. g. g. g. g. C% {% ]% ^% d# F# F# F# F# F# F# F# F# F# F# F# F# F# F# F# F# F# F# F# F# F# F# F# F# F# F# F# F# F# F# F# F# F# F# F# F# F# F# F# F# F# F# F# F# F# F# F# F# F# F# F# F# F# D% E% D# F% G% H% 8% 9% W+ W+ W+ W+ W+ W+ W+ W+ '@ I% c% d% '# '# '# '# '# '# '# '# '# '# '# '# '# '# '# '# '# '# '# '# '# '# '# J% K% L% <# i% j% M% N% O% P% o% p% <# Q% R% S% 9  .  .  .  .  .  .  .  .  .  .  .  .  .  .  .  .  .  .  .  .  .  .  .  .  .  .  .  .  .  .  .  .  .  .  .  .  .  .  .  .  .  .  .  .  .  .  .  .  .  .  .  .  .  .  .  .  .  .  .  .  .  .  .  .  .  .  .  .  .  .  .  .  .  .  .  .  .  .  .  .  .  .  .  .                                                                                                                                                                                                                                                                                                     ",
".  .  .  .  .  .  .  .  .  .  .  .  .  .  .  .  .  .  .  .  .  .  .  .  .  .  .  .  .  .  .  .  .  .  .  .  .  .  .  .  .  .  .  .  .  .  .  .  .  .  .  .  .  .  .  .  .  .  .  .  .  .  .  .  .  .  .  .  .  .  .  .  .  .  .  .  .  .  .  .  .  .  .  .  .  =  T% U% V% ,% y% z% W% X% y+ y+ g. Y% h. h. h. h. h. h. h. h. h. h. h. h. h. h. h. h. h. h. Z% `%  & ]% ^% .& F# F# F# F# F# F# F# F# F# F# F# F# F# F# F# F# F# F# F# F# F# F# F# F# F# F# F# F# F# F# F# F# F# F# F# F# F# F# F# F# F# F# F# F# F# F# F# F# F# F# F# F# F# D% +& @& #& G% H% 8% 9% j+ $& $& $& $& $& $& $& %& && *& =& -& -& -& -& -& -& -& -& -& -& -& -& -& -& -& L# !$ '# '# '# '# '# '# ;& >& ,& <# '& j% M% )& O% P% !& ~& K. Q% {& ]& k  .  .  .  .  .  .  .  .  .  .  .  .  .  .  .  .  .  .  .  .  .  .  .  .  .  .  .  .  .  .  .  .  .  .  .  .  .  .  .  .  .  .  .  .  .  .  .  .  .  .  .  .  .  .  .  .  .  .  .  .  .  .  .  .  .  .  .  .  .  .  .  .  .  .  .  .  .  .  .  .  .  .  .  .                                                                                                                                                                                                                                                                                                     ",
".  .  .  .  .  .  .  .  .  .  .  .  .  .  .  .  .  .  .  .  .  .  .  .  .  .  .  .  .  .  .  .  .  .  .  .  .  .  .  .  .  .  .  .  .  .  .  .  .  .  .  .  .  .  .  .  .  .  .  .  .  .  .  .  .  .  .  .  .  .  .  .  .  .  .  .  .  .  ^& /& (& (& (& (& (& (& _& :& <& [& '& }& |& 1& 1& 2& 3& 4& 5& 6& 6& 6& 6& 6& 6& 6& 6& 6& 6& 7& 8& 9& 9& 9& 9& 9& 0& a& b& c& d& d# F# F# F# F# F# F# F# F# F# F# F# F# F# F# F# F# F# F# F# F# F# F# F# F# F# F# F# F# F# F# F# F# F# F# F# F# F# F# F# F# F# F# F# F# F# F# F# F# F# e& f& f& f& g& h& i& j& k& l& m& n& o& p& q& r& r& s& t& u& u& v& w& x& y& y& y& y& y& y& y& y& y& y& y& y& y& y& z& A& B& '# '# '# '# '# '# f% C& D& E& F& G& H& )& I& J& K& L& M& N& O& P& Q& R& R& R& R& R& S& T& U& .  .  .  .  .  .  .  .  .  .  .  .  .  .  .  .  .  .  .  .  .  .  .  .  .  .  .  .  .  .  .  .  .  .  .  .  .  .  .  .  .  .  .  .  .  .  .  .  .  .  .  .  .  .  .  .  .  .  .  .  .  .  .  .  .  .  .  .  .  .  .  .  .  .  .  .                                                                                                                                                                                                                                                                                                     ",
".  .  .  .  .  .  .  .  .  .  .  .  .  .  .  .  .  .  .  .  .  .  .  .  .  .  .  .  .  .  .  .  .  .  .  .  .  .  .  .  .  .  .  .  .  .  .  .  .  .  .  .  .  .  .  .  .  .  .  .  .  .  .  .  .  .  .  .  .  .  .  .  .  .  .  .  .  V& W& X& Y& Z& Z& Z& Z& `& Z&  * <# p. <# y% .* .* .* +* @* #* $* %* %* %* %* %* %* %* %* %* %* &* ** =* -* -* -* -* -* -* ;* >* F# F# F# F# F# F# F# F# F# F# F# F# F# F# F# F# F# F# F# F# F# F# F# F# F# F# F# F# F# F# F# F# F# F# F# F# F# F# F# F# F# F# F# F# F# F# F# F# F# F# ,* '* @& )* !* ~* {* ]* ^* /* (* _* O. :* <* [* }* |* 1* 2* 3* 4* 4* 5* 6* 7* 7* 7* 7* 7* 7* 7* 7* 7* 7* 7* 7* 7* 7* 8* 9* 0* ~$ N# '# '# '# '# '# '# ># a* b* c* d* g. g. e* f* f* g* h* i* j* k* l* l* m* l* n* Y& o* p* .  .  .  .  .  .  .  .  .  .  .  .  .  .  .  .  .  .  .  .  .  .  .  .  .  .  .  .  .  .  .  .  .  .  .  .  .  .  .  .  .  .  .  .  .  .  .  .  .  .  .  .  .  .  .  .  .  .  .  .  .  .  .  .  .  .  .  .  .  .  .  .  .  .  .  .                                                                                                                                                                                                                                                                                                     ",
".  .  .  .  .  .  .  .  .  .  .  .  .  .  .  .  .  .  .  .  .  .  .  .  .  .  .  .  .  .  .  .  .  .  .  .  .  .  .  .  .  .  .  .  .  .  .  .  .  .  .  .  .  .  .  .  .  .  .  .  .  .  .  .  .  .  .  .  .  .  .  .  .  .  .  .  .  q* r* s* t* p. p. u* u* u* p. <# <# <# <# v* '& '& w* x* y* z* A* [% [% [% [% [% B* B* .& .& .& C* D* a# =$ =$ =$ =$ =$ =$ )* E* F# F# F# F# F# F# F# F# F# F# F# F# F# F# F# F# F# F# F# F# F# F# F# F# F# F# F# F# F# F# F# F# F# F# F# F# F# F# F# F# F# F# F# F# F# F# F# F# F# F# ,* '* D# D# F* G* H* I* J* K* L* M* O. N* O* P* Q* R* S* T* U* U* U* U* V* U* U* U* U* U* U* U* U* U* U* U* U* U* U* W* X* Y* Z* N# '# '# '# '# '# '# '# '# '# c* d* g. g. D. E. E. j. `* i*  = .= += @= #= .= $= %= &= *= .  .  .  .  .  .  .  .  .  .  .  .  .  .  .  .  .  .  .  .  .  .  .  .  .  .  .  .  .  .  .  .  .  .  .  .  .  .  .  .  .  .  .  .  .  .  .  .  .  .  .  .  .  .  .  .  .  .  .  .  .  .  .  .  .  .  .  .  .  .  .  .  .  .  .  .                                                                                                                                                                                                                                                                                                     ",
".  .  .  .  .  .  .  .  .  .  .  .  .  .  .  .  .  .  .  .  .  .  .  .  .  .  .  .  .  .  .  .  .  .  .  .  .  .  .  .  .  .  .  .  .  .  .  .  .  .  .  .  .  .  .  .  .  .  .  .  .  .  .  .  .  .  .  .  .  .  .  .  .  =  9  2. == -= ;= >= ,= '= )= )= )= )= )= )= )= )= )= )= )= )= != ~= {= z* ]= F# F# F# F# F# V* ^= 1% 1% 1% /= 3% (= (= (= (= (= (= 4% _= := F# F# F# F# F# F# F# F# F# F# F# F# F# F# F# F# F# F# F# F# F# F# F# F# F# F# F# F# F# F# F# F# F# F# F# F# F# F# F# <= <= <= <= <= <= <= <= <= <= <= <= '* @& @& !* G* H* I* z+ [= }= |= O. N* O* 1= @& D# 2= := F# F# F# F# F# F# F# F# F# F# F# F# F# F# F# F# F# 3= 4= 5= 6= 7= 8= 9= 0= 0= 0= 0= 0= 0= 0= 0= ># c* d* g. g. g. g. g. y+ a= i* b= `& `& J. `& c= c= ~& d= e= f= 2. t% g= .  .  .  .  .  .  .  .  .  .  .  .  .  .  .  .  .  .  .  .  .  .  .  .  .  .  .  .  .  .  .  .  .  .  .  .  .  .  .  .  .  .  .  .  .  .  .  .  .  .  .  .  .  .  .  .  .  .  .  .  .  .  .  .  .  .  .  .  .  .  .  .                                                                                                                                                                                                                                                                                                     ",
".  .  .  .  .  .  .  .  .  .  .  .  .  .  .  .  .  .  .  .  .  .  .  .  .  .  .  .  .  .  .  .  .  .  .  .  .  .  .  .  .  .  .  .  .  .  .  .  .  .  .  .  .  .  .  .  .  .  .  .  .  .  .  .  .  .  .  .  .  .  .  .  .  u% h= i= j= k= l= m= n= o= o= p= q= r= s= s= s= s= s= s= s= s= s= t= u= v= ]= F# F# w= x= y= z= A= B= C= C= D= E= F= G= G= G= G= G= F= H= I= J= x= t$ K= F# F# F# F# F# F# F# F# F# F# F# F# F# F# F# F# F# F# F# F# F# F# F# F# F# F# F# F# F# e& L= x= x= M= N= O= P= P= P= P= P= P= P= P= P= P= P= Q= R= R= R= S= T= U= z+ V= W= X= Y= Z= `= 1= @& D#  - .- x= x= x= +- @- F# F# D% x= x= x= x= x= x= x= #- $- %- P= &- *- =- -- ;- >- >- >- >- >- >- >- >- >- ,- '- g. g. g. g. g. g. )- !- ~- {- ]- ^- /- (- _- :- <- [- }- |- 1- 2- a$ .  .  .  .  .  .  .  .  .  .  .  .  .  .  .  .  .  .  .  .  .  .  .  .  .  .  .  .  .  .  .  .  .  .  .  .  .  .  .  .  .  .  .  .  .  .  .  .  .  .  .  .  .  .  .  .  .  .  .  .  .  .  .  .  .  .  .  .  .  .  .                                                                                                                                                                                                                                                                                                     ",
".  .  .  .  .  .  .  .  .  .  .  .  .  .  .  .  .  .  .  .  .  .  .  .  .  .  .  .  .  .  .  .  .  .  .  .  .  .  .  .  .  .  .  .  .  .  .  .  .  .  .  .  .  .  .  .  .  .  .  .  .  .  .  .  .  .  .  .  .  .  .  .  .  3- 4- n* 5- ~& 6- 7- 8- 9- 0- a- b- c- d- e- f- d- f- e- g- g- e- d- h- e# F# F# G# i- j- k- l- m- n- o- p- p- q- q- q- q- q- q- q- r- s- t- u- =$ v- := F# F# F# F# F# F# F# F# F# F# F# F# F# F# F# F# F# F# F# F# F# F# F# F# F# F# F# F# G# w- I# a# h# x- y- z- A- #$ #$ #$ #$ #$ #$ #$ #$ #$ #$ #$ B- B- C- #$ @$ g. z+ D- E- F- G- H- I- 1= @& D# D# J- b# a# K- L- K= F# ,* M- =$ b# b# a# a# a# a# N- O- P- #$ #$ Q- R- U= U= U= U= U= U= U= U= U= U= S- T- g. g. g. g. g. g. g. U- V- W- X- Y- Z- `- Y-  ; .; `- +; +; @; #; $; #@ .  .  .  .  .  .  .  .  .  .  .  .  .  .  .  .  .  .  .  .  .  .  .  .  .  .  .  .  .  .  .  .  .  .  .  .  .  .  .  .  .  .  .  .  .  .  .  .  .  .  .  .  .  .  .  .  .  .  .  .  .  .  .  .  .  .  .  .  .  .  .                                                                                                                                                                                                                                                                                                     ",
".  .  .  .  .  .  .  .  .  .  .  .  .  .  .  .  .  .  .  .  .  .  .  .  .  .  .  .  .  .  .  .  .  .  .  .  .  .  .  .  .  .  .  .  .  .  .  .  .  .  .  .  .  .  .  .  .  .  .  .  .  .  .  .  .  .  .  .  .  .  .  .  .  %; &; *; <# =; -; ;; >; d  h# ,; '; ]= d# ]= ]= d# ]= ]= ]= ]= ]= d# d# d# F# F# G# i- b# ); !; ~; {; ]; ^; ^; ^; ^; ^; ^; ^; ^; /; (; _; :; <; a# 2= [; F# F# F# F# F# F# F# F# F# F# F# F# F# F# F# F# F# F# F# F# F# F# F# F# F# F# F# F# G# w- }; D# |; 1; 2; 3; B% C. C. C. C. C. C. C. C. C. C. C. C. C. C. C. C. g. z+ D- 4; 5; G- H- I- 1= @& D# D# D# D# D# D# 6; K= F# 7; M- b# D# D# D# D# D# F* 8; 9; 0; h. C. C. F. F. F. F. F. F. F. F. F. F. F. F. g. g. g. g. g. g. g. g. a; b; c; d;  ;  ;  ; d;  ; d;  ;  ; e; f; g; h; i; .  .  .  .  .  .  .  .  .  .  .  .  .  .  .  .  .  .  .  .  .  .  .  .  .  .  .  .  .  .  .  .  .  .  .  .  .  .  .  .  .  .  .  .  .  .  .  .  .  .  .  .  .  .  .  .  .  .  .  .  .  .  .  .  .  .  .  .  .  .  .                                                                                                                                                                                                                                                                                                     ",
".  .  .  .  .  .  .  .  .  .  .  .  .  .  .  .  .  .  .  .  .  .  .  .  .  .  .  .  .  .  .  .  .  .  .  .  .  .  .  .  .  .  .  .  .  .  .  .  .  .  .  .  .  .  .  .  .  .  .  .  .  .  .  .  .  .  .  .  .  .  .  .  .  j; k; l; v* =; -; ;; m; a# D# n; o; F# F# F# F# F# F# e# e# ]= ]= ]= ]= ]= ]= ]= p; q; r; s; t; u; v; w; <# <# <# <# <# <# <# <# v* x; _; y; z; 4  A; [; ]= ]= ]= ]= ]= ]= ]= ]= ]= ]= ]= ]= ]= ]= ]= ]= ]= ]= ]= ]= ]= ]= ]= ]= ]= d# F# F# G# w- }; D# B; C; 2; 3; Y% g. g. g. g. g. g. g. g. g. g. g. g. g. g. g. g. g. z+ D- 4; D; G- H- I- E; d  a# a# a# a# a# b# F; K= d# G; H; =$ a# a# a# a# a# a# I; J; K; B% g. g. g. g. g. g. g. g. g. g. g. g. g. g. g. g. g. g. g. g. g. g. 8+ L; M; d; d; d; d; d; d; d; d; d;  ; N; O; P; Q; .  .  .  .  .  .  .  .  .  .  .  .  .  .  .  .  .  .  .  .  .  .  .  .  .  .  .  .  .  .  .  .  .  .  .  .  .  .  .  .  .  .  .  .  .  .  .  .  .  .  .  .  .  .  .  .  .  .  .  .  .  .  .  .  .  .  .  .  .  .  .                                                                                                                                                                                                                                                                                                     ",
".  .  .  .  .  .  .  .  .  .  .  .  .  .  .  .  .  .  .  .  .  .  .  .  .  .  .  .  .  .  .  .  .  .  .  .  .  .  .  .  .  .  .  .  .  .  .  .  .  .  .  .  .  .  .  .  .  .  .  .  .  .  .  .  .  R; .  .  .  .  S; T; U; V; W; X; v* =; -; Y; Z; D# a# n; `; F# F# F# G# G# G# G;  > w= w= w= w= w= w= w= w= .> 9- +> @> #> v; w; <# <# <# <# <# <# <# <# v* x; $> %> &> 9- *> => -> w= w= w= w= w= w= w= w= w= w= w= w= w= w= w= w= w= w= w= w= w= w= w= D% ;> e# F# G# w- I# a# h# 1; >> 3; Y% g. g. g. g. g. g. g. g. g. g. g. g. g. g. g. g. g. z+ ,> '> )> !> ~> {> ]> ^> /> /> /> /> /> /> (> _> .# .# :> V@ /> /> /> /> /> /> <> [> }> B% g. g. g. g. g. g. g. g. g. g. g. g. g. g. g. g. g. g. g. g. g. g. |> L; M; d; d; d; d; d; d; d; d; d; 1> N; 2> 3> 4> 5> 5> 6> 6> 6> 6> 7> 8> .  .  .  .  .  .  .  .  .  .  .  .  .  .  .  .  .  .  .  .  .  .  .  .  .  .  .  .  .  .  .  .  .  .  .  .  .  .  .  .  .  .  .  .  .  .  .  .  .  .  .  .  .  .  .  .  .  .  .  .  .  .  .                                                                                                                                                                                                                                                                                                     ",
".  .  .  .  .  .  .  .  .  .  .  .  .  .  .  .  .  .  .  .  .  .  .  .  .  .  .  .  .  .  .  .  .  .  .  .  .  .  .  .  .  .  .  .  .  .  .  .  .  .  .  .  .  .  .  .  .  .  .  .  .  .  .  .  9> 0> a> b> c> d> e> f> g> h> i> [& v* =; j> k> l> m> x= n> @- F# F# G# o> p> q> r> s> t> u> v> v> v> v> v> v> w> x> y> z> A> B> [& <# <# <# <# <# <# <# <# <# y% C> D> E> F> G> H> v> v> v> v> v> v> v> v> v> v> v> v> v> v> v> v> v> v> v> v> v> v> v> v> I> J> K> ]= F# e& L= x= L> M> N> O> Y% g. g. g. g. g. g. g. g. g. g. g. g. g. g. g. g. g. F. P> Q> R> S> T> U> V> W> W> W> W> W> W> W> X> Y> Z> `>  , W> W> W> W> W> W> ., +, @, #, C. g. g. g. g. g. g. g. g. g. g. g. g. g. g. g. g. g. g. g. g. g. g. $, b; M; d; d; d; d; d; d; d; d; d; d; %, &, *, =, -, -, -, -, ;, ;, >, ,, ', .  .  .  .  .  .  .  .  .  .  .  .  .  .  .  .  .  .  .  .  .  .  .  .  .  .  .  .  .  .  .  .  .  .  .  .  .  .  .  .  .  .  .  .  .  .  .  .  .  .  .  .  .  .  .  .  .  .  .  .  .  .                                                                                                                                                                                                                                                                                                     ",
".  .  .  .  .  .  .  .  .  .  .  .  .  .  .  .  .  .  .  .  .  .  .  .  .  .  .  .  .  .  .  .  .  .  .  .  .  .  .  .  .  .  .  .  .  .  .  .  .  .  .  .  .  .  .  .  .  .  .  .  .  .  .  .  ), !, ~, {, ], ^, /, (, [& u* u* <# v* =; j> _, :, .& F# F# F# F# F# 7; H; b# k- <, [, }, |, )= )= )= )= )= )= )= )= )= 1, 2, 3, <# <# <# <# <# <# <# <# <# <# <# v* 4, )= )= )= )= )= )= )= )= )= )= )= )= )= )= )= )= )= )= )= )= )= )= )= )= )= )= )= != 5, 6, 7, A* F# F# F# F# e# 8, 9, O> Y% g. g. g. g. g. g. g. g. g. g. g. g. g. g. g. g. g. g. D. y+ y+ y+ D. g. -@ -@ -@ -@ -@ -@ -@ -@ -@ -@ -@ -@ -@ -@ -@ -@ -@ -@ -@ -@ -@ B% C. g. g. g. g. g. g. g. g. g. g. g. g. g. g. g. g. g. g. g. g. g. g. g. 0, L; M; d; d; d; d; d; d; d; d; d; a, b, c, d, e% e% D+ e% e, f, g, h, i, j, .  .  .  .  .  .  .  .  .  .  .  .  .  .  .  .  .  .  .  .  .  .  .  .  .  .  .  .  .  .  .  .  .  .  .  .  .  .  .  .  .  .  .  .  .  .  .  .  .  .  .  .  .  .  .  .  .  .  .  .  .  .                                                                                                                                                                                                                                                                                                     ",
".  .  .  .  .  .  .  .  .  .  .  .  .  .  .  .  .  .  .  .  .  .  .  .  .  .  .  .  .  .  .  .  .  .  .  .  .  .  .  .  .  .  .  .  .  .  .  .  .  .  .  .  .  .  .  .  .  .  .  .  .  .  .  .  k, l, m, n, a# o, p, q, [& <# <# <# v* =; j> _, :, .& F# F# F# F# F# ,* M- b# B; <, r, s, w; <# <# <# <# <# <# <# <# <# <# <# <# <# <# <# <# <# <# <# <# <# <# <# <# <# <# <# <# <# <# <# <# <# <# <# <# <# <# <# <# <# <# <# <# <# <# <# <# <# <# <# <# t, u, v, 7, A* F# F# F# F# e# 8, 9, O> Z% g. g. g. g. g. g. g. g. g. g. g. g. g. g. g. g. g. g. g. g. g. g. g. g. g. g. g. g. g. g. g. g. g. g. g. g. g. g. g. g. g. g. g. g. g. g. g. g. g. g. g. g. g. g. g. g. g. g. g. g. g. g. g. g. g. g. g. g. g. g. $, b; M; d; d; d; d; d; d; d; d; d;  ; b, c, w, x, '# m# '# '# D+ y, h, z, A, .  .  .  .  .  .  .  .  .  .  .  .  .  .  .  .  .  .  .  .  .  .  .  .  .  .  .  .  .  .  .  .  .  .  .  .  .  .  .  .  .  .  .  .  .  .  .  .  .  .  .  .  .  .  .  .  .  .  .  .  .  .                                                                                                                                                                                                                                                                                                     ",
".  .  .  .  .  .  .  .  .  .  .  .  .  .  .  .  .  .  .  .  .  .  .  .  .  .  .  .  .  .  .  .  .  .  .  .  .  .  .  .  .  .  .  .  .  .  .  .  .  .  .  .  .  .  .  .  .  .  .  .  .  B, C, D, E, l, m, F, ], o, /, (, G, 4, 4, 4, 4, H, j> _, :, (% <% /% /% /% /% /% I, ], J, K, L, s, M, <# <# <# <# <# <# <# <# <# <# <# <# <# <# <# <# <# <# <# <# <# <# <# t, 4, 4, 4, 4, 4, 4, 4, 4, 4, 4, 4, 4, 4, 4, 4, 4, 4, 4, 4, 4, J. N, <# <# <# t, 4, O, P, Q, R, 7, A* <% /% /% /% /% S, 9, T, X% y+ y+ y+ y+ E. g. P@ h. h. h. h. h. h. h. h. Y% g. g. F. y+ y+ y+ y+ y+ y+ y+ y+ g. g. g. g. g. g. g. g. g. g. g. g. g. g. g. g. g. g. g. g. g. g. g. g. g. g. g. g. g. g. g. g. g. g. g. g. g. g. g. g. g. g. g. $, b; M; d; d; d; d; d; d; d; d; d;  ; b, c, w, N# '# l# '# '# D+ U, V, W, X, Y, .  .  .  .  .  .  .  .  .  .  .  .  .  .  .  .  .  .  .  .  .  .  .  .  .  .  .  .  .  .  .  .  .  .  .  .  .  .  .  .  .  .  .  .  .  .  .  .  .  .  .  .  .  .  .  .  .  .  .  .  .                                                                                                                                                                                                                                                                                                     ",
".  .  .  .  .  .  .  .  .  .  .  .  .  .  .  .  .  .  .  .  .  .  .  .  .  .  .  .  .  .  .  .  .  .  .  .  .  .  .  .  .  .  .  .  .  .  .  .  .  .  .  .  .  .  .  .  .  .  .  .  Z, `,  ' .' +' @' #' $' %' &' *' =' -' ;' ;' ;' >' ,' '' )' !' ~' {' ]' ^' /' ^' ^' (' _' :' <' [' s, M, <# <# <# <# <# <# <# <# <# <# <# <# <# <# <# <# <# <# <# <# <# <# <# }' |' ;' ;' ;' ;' ;' ;' ;' ;' ;' ;' ;' ;' ;' ;' ;' ;' ;' ;' ;' 1' 2' 3' 4' 5' 6' 7' 8' 9' 0' a' b' c' {' d' ^' ^' e' f' g' h' i' i' i' i' i' j' k' l' m' m' m' m' m' m' m' n' o' g. g. $, p' i' i' i' i' i' i' q' r' C. g. g. g. g. g. g. g. g. g. g. g. g. g. g. g. g. g. g. g. g. g. g. g. g. g. g. g. g. g. g. g. g. g. g. g. g. g. g. g. g. g. 0, L; M; d; d; d; d; d; d; d; d; d; d; s' t' u' v' w' x' y' '# '# z' A' B' C' D' E' F' .  .  .  .  .  .  .  .  .  .  .  .  .  .  .  .  .  .  .  .  .  .  .  .  .  .  .  .  .  .  .  .  .  .  .  .  .  .  .  .  .  .  .  .  .  .  .  .  .  .  .  .  .  .  .  .  .  .  .                                                                                                                                                                                                                                                                                                     ",
".  .  .  .  .  .  .  .  .  .  .  .  .  .  .  .  .  .  .  .  .  .  .  .  .  .  .  .  .  .  .  .  .  .  .  .  .  .  .  .  .  .  .  .  .  .  .  .  .  .  .  .  .  .  .  .  .  .  .  =  G' H' I' J. J' K' L' M' N' O' P' Q' R' R' R' R' R' S' T' U' N' N' V' W' X' Y' Y' Y' Z' Z' Z' `'  ) <# <# <# <# <# <# <# <# <# <# <# <# <# <# <# <# <# <# <# <# <# <# <# v* y% .) +) R' R' @) R' @) S' @) @) S' @) R' @) R' @) @) S' @) R' S' #) $) %) &) ;& *) =) -) ;) >) ,) ') )) !) ~) {) Y' Y' Y' ]) ^) /) /) /) /) () _) :) <) [) }) }) }) }) }) |) 1) 2) U= z+ D- 3) 4) /) /) /) /) /) 5) 6) 7) g. g. g. g. g. g. g. g. g. g. g. g. g. g. g. g. g. g. g. g. g. g. g. g. g. g. g. g. g. g. g. g. g. g. g. g. g. g. g. g. g. $, b; M; d; d; d; d; d; d; d; d; d; d; d; d; 8) 9) 0) a) b) c) '# d) e) f) c= g) h) i) =  .  .  .  .  .  .  .  .  .  .  .  .  .  .  .  .  .  .  .  .  .  .  .  .  .  .  .  .  .  .  .  .  .  .  .  .  .  .  .  .  .  .  .  .  .  .  .  .  .  .  .  .  .  .  .  .  .  .                                                                                                                                                                                                                                                                                                     ",
".  .  .  .  .  .  .  .  .  .  .  .  .  .  .  .  .  .  .  .  .  .  .  .  .  .  .  .  .  .  .  .  .  .  .  .  .  .  .  .  .  .  .  .  .  .  .  .  .  .  .  .  .  .  .  .  .  .  .  t% j) k) l) ^; m) n) o) Z% B% B% Y% D. E. E. E. E. E. E. g. g. B% )& p) q) r) s) t) s) J. t) t) u) M, 3, <# <# <# <# <# <# <# <# <# <# <# <# <# <# <# <# <# <# <# <# <# <# v* v) .) w) x) E. g. E. F. E. D. D. E. F. E. F. E. D. D. E. F. E. D. y) z) o@ m# A) *) B) C) (= D) E) F) F. G) H) I) s) J) J) u) K) K) K) K) K) w* L) M) N) O) =$ =$ =$ =$ =$ P) G* H* I* z+ D- 4; Q) /; K) K) K) w* R) 6) B. C. g. g. g. g. g. g. g. g. g. g. g. g. g. g. g. g. g. g. g. g. g. g. g. g. g. g. g. g. g. g. g. g. g. g. g. g. g. g. g. g. |> L; M; d; d; d; d; d; d; d; d; d; d; d; d;  ; a, d; S) b) c) '# T) U) V) p. W) X) Y) Z) .  .  .  .  .  .  .  .  .  .  .  .  .  .  .  .  .  .  .  .  .  .  .  .  .  .  .  .  .  .  .  .  .  .  .  .  .  .  .  .  .  .  .  .  .  .  .  .  .  .  .  .  .  .  .  .  .  .                                                                                                                                                                                                                                                                                                     ",
".  .  .  .  .  .  .  .  .  .  .  .  .  .  .  .  .  .  .  .  .  .  .  .  .  .  .  .  .  .  .  .  .  .  .  .  .  .  .  .  .  .  .  .  .  .  .  .  .  .  .  .  .  .  .  .  .  g= `)  ! .! +! @! #! $! %! &! *! g. g. =! y+ y+ y+ y+ y+ y+ y+ y+ y+ y+ -! ;! >! ,! 3, <# <# <# <# <# <# <# <# <# <# <# <# <# <# <# <# <# <# <# <# <# <# <# <# <# <# <# <# <# <# v* v) .) w) Z% g. g. g. g. g. g. g. g. g. g. g. y+ y+ y+ y+ y+ y+ y+ y) z) '! 0= &) *) B) )! @& !! E) ~! {! ]! ^! /! 4, 4, 4, 4, O, O, O, O, O, O, (! :) _! :! D# D# (= 4% 4% @& G* H* <! b. [! 4; F- 3, v* 4, |, P, }! 6) B. h. h. h. h. h. h. h. h. h. h. h. h. h. h. h. h. h. C. g. g. g. g. g. g. g. g. g. g. g. g. g. g. g. g. g. g. g. g. g. g. g. 0, L; |! d; d; d; d; d; d; d; d; d; d; d; d; d; d; 1! 2! b) c) ># 3! 4! 5! K. 6! 7! 8! 9! g= `) g= .  .  .  .  .  .  .  .  .  .  .  .  .  .  .  .  .  .  .  .  .  .  .  .  .  .  .  .  .  .  .  .  .  .  .  .  .  .  .  .  .  .  .  .  .  .  .  .  .  .  .  .  .  .  .                                                                                                                                                                                                                                                                                                     ",
".  .  .  .  .  .  .  .  .  .  .  .  .  .  .  .  .  .  .  .  .  .  .  .  .  .  .  .  .  .  .  .  .  .  .  .  .  .  .  .  .  .  .  .  .  .  .  .  .  .  .  .  .  .  .  .  0! a! b! c! d! e! f! g! h! i! j! g. F. a; k! l! m! m! m! m! m! m! m! m! m! m! n! o! p! 3, <# <# <# <# <# <# <# <# <# <# <# <# <# <# <# <# <# <# <# <# <# <# <# <# <# <# <# <# <# <# v* v) .) w) Z% g. g. g. g. g. g. g. g. g. g. q! r! s! s! s! s! s! s! t! u! v! w! x! y! z! A! B! C! D! E! {! a= F! G! H! H! I! J! K! L! L! L! L! L! M! N! O! )* F* P! Q! R! S! T! U! V! W! m! X! Y! L% 3, Z! `!  ~ .~ +~ @~ #~ $~ %~ %~ %~ %~ %~ %~ %~ %~ %~ %~ %~ %~ %~ %~ &~ *~ =~ C. g. g. g. g. g. g. g. g. g. g. g. g. g. g. g. g. g. g. g. g. g. g. 8+ -~ ;~ >~ >~ >~ >~ >~ >~ >~ ,~ '~ d; d; d; d; d; )~ !~ ~~ {~ w! w! ]~ ^~ H! /~ (~ _~ :~ <~ [~ }~ |~ .  .  .  .  .  .  .  .  .  .  .  .  .  .  .  .  .  .  .  .  .  .  .  .  .  .  .  .  .  .  .  .  .  .  .  .  .  .  .  .  .  .  .  .  .  .  .  .  .  .  .  .  .  .                                                                                                                                                                                                                                                                                                     ",
".  .  .  .  .  .  .  .  .  .  .  .  .  .  .  .  .  .  .  .  .  .  .  .  .  .  .  .  .  .  .  .  .  .  .  .  .  .  .  .  .  .  .  .  .  .  .  .  .  .  .  .  .  .  .  .  1~ 2~ 3~ ^; 4~ 5~ 7+ 6~ 6~ Y% g. g. y+ 7~ 8~ 9~ <# <# <# <# <# <# <# <# <# <# <# v* 3, <# <# <# <# <# <# <# <# <# <# <# <# <# <# <# <# <# <# <# <# <# <# <# <# <# <# <# <# <# <# <# v* v) .) w) Z% g. g. g. g. g. g. g. g. g. e* 0~ a~ {# {# {# {# {# m# b~ c~ d~ 6~ S- e~ F. f~ g~ g~ D. @$ g. C% h~ 6~ 6~ i~ j~ k~ l~ m~ m~ m~ m~ m~ m~ n~ F* D# ); !; o~ p~ q~ r~ s~ t~ <# <# .= 3, <# u~ v~ w~ x~ m~ m~ y~ z~ z~ z~ z~ z~ z~ z~ z~ z~ z~ z~ z~ z~ z~ z~ z~ A~ [> B~ B% g. g. g. g. g. g. g. g. g. g. g. g. g. g. g. g. g. g. g. g. g. g. g. C~ D~ E~ F~ @$ F~ F~ @$ G~ H~ I~ Z- d; d; d; d; d; J~ K~ L~ M~ 6~ 6~ 6~ 6~ N~ O~ P~ Q~ R~ S~ T~ U~ .  .  .  .  .  .  .  .  .  .  .  .  .  .  .  .  .  .  .  .  .  .  .  .  .  .  .  .  .  .  .  .  .  .  .  .  .  .  .  .  .  .  .  .  .  .  .  .  .  .  .  .  .  .                                                                                                                                                                                                                                                                                                     ",
".  .  .  .  .  .  .  .  .  .  .  .  .  .  .  .  .  .  .  .  .  .  .  .  .  .  .  .  .  .  .  .  .  .  .  .  .  .  .  .  .  .  .  .  .  .  .  .  .  .  .  .  .  .  .  .  V~ W~ X~ ^; Y~ Z~ B# D. D. g. g. g. y+ 7~ `~  { ^; '& '& '& '& '& '& '& '& '& '& i% <# <# <# <# <# <# <# <# <# <# <# <# <# <# <# <# <# <# <# <# <# <# <# <# <# <# <# <# <# <# <# <# v* v) .) w) Z% g. g. g. g. g. g. g. g. g. e* .{ +{ M# M# M# M# M# {# @{ #{ ${ D. D. g. g. C. C. C. C. C. g. g. D. D. D. D. %{ &{ *{ d  4  4  4  4  4  a# D# D# ); ={ -{ ;{ >{ ,{ ,{ ^; '& '& '& <# <# G- H- I- E; '{ 4  a# a# a# a# a# a# a# a# a# a# a# a# a# a# a# a# a# ){ J; K; B% g. g. g. g. g. g. g. g. g. g. g. g. g. g. g. g. g. g. g. g. g. g. g. g. g. F. g. F. g. g. E. !{ H~ I~ Z- d; d; d; d; d; J~ ~{ f. D. D. D. D. D. O% {{ ]{ ^{ /{ ({ _{ :{ .  .  .  .  .  .  .  .  .  .  .  .  .  .  .  .  .  .  .  .  .  .  .  .  .  .  .  .  .  .  .  .  .  .  .  .  .  .  .  .  .  .  .  .  .  .  .  .  .  .  .  .  .  .                                                                                                                                                                                                                                                                                                     ",
".  .  .  .  .  .  .  .  .  .  .  .  .  .  .  .  .  .  .  .  .  .  .  .  .  .  .  .  .  .  .  .  .  .  .  .  .  .  .  .  .  .  .  .  .  .  .  .  .  .  .  .  .  .  .  .  <{ [{ }{ `& |{ Z~ 1{ g. g. g. F. g. =! 2{ `~ 3{ 3, <# <# <# <# <# <# <# <# <# <# <# <# <# <# <# <# <# <# <# <# <# <# <# <# <# <# <# <# <# <# <# <# <# <# <# <# <# '& ^; ^; ^; ^; ^; /; 4{ .) w) Z% C. C. C. C. C. C. C. g. g. e* .{ +{ N# m# m# m# m# '# @{ #{ 5{ g. g. g. g. g. g. g. F. F. F. g. g. C. C. C. j~ &{ *{ =$ D# D# D# D# D# D# D# D# ); ={ -{ 6{ 7{ ^; ^; ^; ^; ^; N, 3, <# G- H- I- E; @& _  h# h# h# h# h# h# h# h# h# h# h# h# h# h# h# h# a# 8{ 9; K; h. C. C. C. g. g. g. g. g. g. g. g. g. g. g. g. g. g. g. g. g. g. g. g. g. g. g. g. g. g. g. g. 9{ H~ I~ Z- d; d; d; d; d; J~ ~{ *! g. g. g. g. g. 0{ {{ c; d; a{ ({ b{ c{ .  .  .  .  .  .  .  .  .  .  .  .  .  .  .  .  .  .  .  .  .  .  .  .  .  .  .  .  .  .  .  .  .  .  .  .  .  .  .  .  .  .  .  .  .  .  .  .  .  .  .  .  .  .                                                                                                                                                                                                                                                                                                     ",
".  .  .  .  .  .  .  .  .  .  .  .  .  .  .  .  .  .  .  .  .  .  .  .  .  .  .  .  .  .  .  .  .  .  .  .  .  .  .  .  .  .  .  .  .  .  .  .  .  .  .  .  d{ e{ f{ g{ h{ i{ j{ k{ l{ m{ n{ g. g. o{ p{ q{ q{ p) r{ 3{ 3, <# <# <# <# <# <# <# <# <# <# <# <# <# <# <# <# <# <# <# <# <# <# <# <# <# <# <# <# <# <# <# <# <# <# <# <# '& s{ t{ u{ u{ u{ u{ u{ v{ w{ x{ y{ i. i. J* J* J* J* p{ g. g. e* 0~ z{ A{ ># ># ># ># ># @{ B{ C{ g. g. g. g. g. g. g. o{ q{ q{ C. C% D. J* D{ E{ F{ *{ =$ D# D# D# D# D# D# D# D# ); !; G{ H{ u{ u{ u{ u{ u{ u{ I{ X~ 3, u~ J{ w~ K{ L{ M{ N{ N{ N{ N{ N{ N{ N{ N{ N{ N{ N{ N{ N{ N{ N{ N{ N{ O{ P{ Q{ R{ J* A- S- g. g. g. g. g. g. g. g. g. g. g. g. g. g. g. g. g. g. g. g. g. g. g. g. g. g. g. g. 9{ S{ T{ U{ a, a, a, a, a, V{ ~{ *! g. g. g. g. E. W{ X{ Y{  ; a, Z{ `{  ] .] +] @] #] .  .  .  .  .  .  .  .  .  .  .  .  .  .  .  .  .  .  .  .  .  .  .  .  .  .  .  .  .  .  .  .  .  .  .  .  .  .  .  .  .  .  .  .  .  .  .  .  .  .                                                                                                                                                                                                                                                                                                     ",
".  .  .  .  .  .  .  .  .  .  .  .  .  .  .  .  .  .  .  .  .  .  .  .  .  .  .  .  .  .  .  .  .  .  .  .  .  .  .  .  .  .  .  .  .  .  .  .  .  .  .  .  $] %] &] *] =] -] ;] >] ,] '] 7+ F. &+ )] !] ~] {] ]] ^] /] <# <# <# <# <# <# <# <# <# <# <# <# <# <# <# <# <# <# <# <# <# <# <# <# <# <# <# <# <# <# <# <# <# <# <# v* (] _] :] <] [] [] [] [] [] }] |] 1] 2] 3] 4] 5] 6] 7] 8] 9] 0] I* o{ 7~ a] b] c] b] d] e] b] f] g] C. g. g. g. g. g. E. h] i] j] {] k] l] m] n] 6] o] p] q] b# D# D# D# D# D# D# D# D# r] s] t] u] [] [] [] [] [] v] w] x] y] M, z] A] B] C] D] E] F] F] F] F] F] F] F] G] H] D] D] D] D] D] D] I] J] K] L] M] 7] N] O] P] C. g. g. g. g. g. g. g. g. g. g. g. g. g. g. g. g. g. g. g. g. g. g. g. g. g. g. &+ Q] R] S] T] S] S] T] S] U] V] g. g. g. g. g. g. g. W] X] Y] Z] `]  ^ .^ +^ @^ #^ $^ .  .  .  .  .  .  .  .  .  .  .  .  .  .  .  .  .  .  .  .  .  .  .  .  .  .  .  .  .  .  .  .  .  .  .  .  .  .  .  .  .  .  .  .  .  .  .  .  .  .                                                                                                                                                                                                                                                                                                     ",
".  .  .  .  .  .  .  .  .  .  .  .  .  .  .  .  .  .  .  .  .  .  .  .  .  .  .  .  .  .  .  .  .  .  .  .  .  .  .  .  .  .  .  .  .  .  .  .  .  .  .  .  %^ &^ t* *^ =^ -^ ;^ y+ E. g. g. F. >^ ,^ '^ J. J. J. ^; 3, <# <# <# <# <# <# <# <# <# <# <# <# <# <# <# <# <# <# <# <# <# <# <# <# <# <# <# <# <# <# <# <# <# <# <# t, )^ !^ ~^ {^ ]^ ]^ ]^ ]^ ]^ ]^ _= ^^ G; <= /^ D* (^ (= _^ :^ <^ h. g. g. y+ y+ y+ y+ y+ y+ y+ E. g. g. g. g. g. g. g. y+ [^ }^ |^ J. 1^ 2^ 3^ 4^ (^ )* )* D# D# D# D# D# D# D# D# D# D# D# F* 5^ ]^ ]^ ]^ ]^ ]^ ]^ #& 6^ 7^ 8^ 2, v* /; )= )= )= 9^ 0^ j+ j+ j+ j+ j+ j+ a^ b^ )= )= )= )= )= )= s) c^ d^ e^ 4^ )* f^ g^ h^ Y% g. g. g. g. g. g. g. g. g. g. g. g. g. g. g. g. g. g. g. g. g. g. g. g. g. g. g. g. g. E. 7+ E. E. 7+ E. i^ F. g. g. g. g. g. g. g. g. g. y+ z+ j^ k^ e% e% l^ m^ n^ o^ .  .  .  .  .  .  .  .  .  .  .  .  .  .  .  .  .  .  .  .  .  .  .  .  .  .  .  .  .  .  .  .  .  .  .  .  .  .  .  .  .  .  .  .  .  .  .  .  .                                                                                                                                                                                                                                                                                                     ",
".  .  .  .  .  .  .  .  .  .  .  .  .  .  .  .  .  .  .  .  .  .  .  .  .  .  .  .  .  .  .  .  .  .  .  .  .  .  .  .  .  .  .  .  .  .  .  .  .  .  .  .  p^ q^ w; t, r^ -^ s^ g. g. g. g. F. >^ ,^ t^ u^ 3, <# <# <# <# <# <# <# <# <# <# <# <# <# <# <# <# <# <# <# <# <# <# <# <# <# <# <# <# <# <# <# <# <# <# <# <# <# <# t, )^ v^ w^ x^ D# D# D# D# D# D# y^ E* F# F# w= D* D# D# z^ :^ <^ h. g. g. g. g. g. g. g. g. g. g. g. g. g. g. g. g. g. y+ [^ >! ,! A^ B^ 2^ C^ :! D# D# D# D# D# D# D# D# D# D# D# D# D# D# D# D# D# D# D# D# D# D# F% D^ E^ F^ 2, <# <# <# <# t, G^ G+ W+ H^ H^ H^ H^ $& I^ J^ p. <# <# <# <# <# t, K^ L^ M^ _= |; N^ O^ h^ Y% g. g. g. g. g. g. g. g. g. g. g. g. g. g. g. g. g. g. g. g. g. g. g. g. g. g. g. g. g. g. g. g. g. g. g. g. g. g. g. g. g. g. g. g. g. g. g. o{ j^ k^ x, D+ P^ Q^ R^ 8> .  .  .  .  .  .  .  .  .  .  .  .  .  .  .  .  .  .  .  .  .  .  .  .  .  .  .  .  .  .  .  .  .  .  .  .  .  .  .  .  .  .  .  .  .  .  .  .  .                                                                                                                                                                                                                                                                                                     ",
".  .  .  .  .  .  .  .  .  .  .  .  .  .  .  .  .  .  .  .  .  .  .  .  .  .  .  .  .  .  .  .  .  .  .  .  .  .  .  .  .  .  .  .  .  .  .  .  .  .  .  .  S^ T^ w; t, r^ -^ U^ y+ y+ y+ y+ =! V^ W^ t^ u^ 3, <# <# <# <# <# <# <# <# <# <# <# <# <# <# <# <# <# <# <# <# <# <# <# <# <# <# <# <# <# <# <# <# <# <# <# v* 4, |, P, X^ v^ w^ x^ D# D# D# D# D# D# y^ E* F# F# Y^ Z^ (= (= `^  / <^ ./ B% B% B% B% B% B% B% B% B% B% B% B% B% B% B% B% B% )& +/ >! @/ )= #/ 2^ C^ :! D# D# D# D# D# D# D# D# D# D# D# D# D# D# D# )* (= (= (= (= (= (= Q* $/ 7^ %/ 2, v* J. 4, 4, &/ */ =/ $& $& H^ '@ W+ X+ -/ ;/ J. 4, 4, 4, 4, 4, 4, K^ L^ M^ _= |; N^ O^ >/ x) g. g. g. g. g. g. g. g. g. g. g. g. g. g. g. g. g. g. g. g. g. g. g. g. g. g. g. g. g. g. g. g. g. g. g. g. g. g. g. g. g. g. g. g. g. g. g. o{ j^ k^ x, D+ P^ ,/ '/ .  .  .  .  .  .  .  .  .  .  .  .  .  .  .  .  .  .  .  .  .  .  .  .  .  .  .  .  .  .  .  .  .  .  .  .  .  .  .  .  .  .  .  .  .  .  .  .  .  .                                                                                                                                                                                                                                                                                                     ",
".  .  .  .  .  .  .  .  .  .  .  .  .  .  .  .  .  .  .  .  .  .  .  .  .  .  .  .  .  .  .  .  .  .  .  .  .  .  .  .  .  .  .  .  .  .  .  U  )/ !/ ~/ {/ ]/ T^ t* t, ^/ // (/ _/ _/ _/ _/ _/ :/ </ [/ u^ 3, <# <# <# <# <# <# <# <# <# <# <# <# <# <# <# <# <# <# <# <# <# <# <# <# <# <# <# <# <# <# <# <# <# <# <# }/ |/ 1/ 2/ 3/ 4/ 5/ 6/ 7/ )* )* 7/ )* )* 8/ >* F# 9/ 0/ a/ b/ c/ d/ e/ f/ g/ h/ h/ h/ h/ h/ h/ h/ h/ h/ h/ h/ h/ h/ h/ h/ h/ h/ h/ i/ j/ k/ l/ m/ n/ o/ :! D# D# D# D# D# D# D# D# D# D# D# D# D# D# p/ q/ c/ c/ c/ c/ c/ c/ r/ s/ t/ u/ 2, v/ w/ x/ x/ x/ y/ z/ z/ z/ A/ B/ C/ D/ E/ F/ x/ x/ x/ x/ x/ x/ G/ H/ I/ J/ _= |; K/ L/ M/ 0+ N/ C. g. g. g. g. g. g. g. g. g. g. g. g. g. g. g. g. g. g. g. g. g. g. g. g. g. g. g. g. g. g. g. g. g. g. g. g. g. g. g. g. g. g. g. g. g. o{ j^ k^ x, '# y, O/ P/ Q/ R/ S/ T/ U/ .  .  .  .  .  .  .  .  .  .  .  .  .  .  .  .  .  .  .  .  .  .  .  .  .  .  .  .  .  .  .  .  .  .  .  .  .  .  .  .  .  .  .  .  .                                                                                                                                                                                                                                                                                                     ",
".  .  .  .  .  .  .  .  .  .  .  .  .  .  .  .  .  .  .  .  .  .  .  .  .  .  .  .  .  .  .  .  .  .  .  .  .  .  .  .  .  .  .  .  .  .  .  V/ W/ t) c= c= K. <# <# <# X/ Y/ Z/ `/ `/ `/ `/ `/ `/  ( <# <# <# <# <# <# <# <# <# <# <# <# <# <# <# <# <# <# <# <# <# <# <# <# <# <# <# <# <# <# <# <# <# <# <# <# <# u~ .( +( @( #( #( $( %( &( &( &( &( &( &( &( &( F# *( =( -( ;( >( ,( '( )( !( ~( {( {( {( {( {( {( {( {( {( {( {( {( {( {( {( {( {( {( ]( ^( ^( ^( /( (( _( D# D# D# D# D# D# D# D# D# D# D# D# D# D# ); :( <( [( }( |( |( |( |( |( 1( 2( 3( <# 4( 5( 6( 7( 7( 7( 6( 6( 8( 9( B+ 0( 9= a( b( c( 7( 7( 7( 7( 7( 7( d( e( f( _= g( h( i( j( k( l( m( C. g. g. g. g. g. g. g. g. g. g. g. g. g. g. g. g. g. g. g. g. g. g. g. g. g. g. g. g. g. g. g. g. g. g. g. g. g. g. g. g. g. g. g. g. o{ j^ k^ x, '# '# n( o( p( q( r( s( t( .  .  .  .  .  .  .  .  .  .  .  .  .  .  .  .  .  .  .  .  .  .  .  .  .  .  .  .  .  .  .  .  .  .  .  .  .  .  .  .  .  .  .  .  .                                                                                                                                                                                                                                                                                                     ",
".  .  .  .  .  .  .  .  .  .  .  .  .  .  .  .  .  .  .  .  .  .  .  .  .  .  .  .  .  .  .  .  .  .  .  .  .  .  .  .  .  .  .  .  .  .  .  u( v( w; p. p. p. <# <# <# <# K) J. J. J. J. J. J. J. K. 3, <# <# <# <# <# <# <# <# <# <# <# <# <# <# <# <# <# <# <# <# <# <# <# <# <# <# <# <# <# <# <# <# <# <# <# <# G- w( x( y( ], z( A( B( F# F# F# F# F# F# F# F# F# *( =( C( D( E( s) F( G( H( 7/ )* )* )* )* )* )* )* )* )* )* )* )* )* )* )* )* )* )* )* z( z( z( R* )* b# D# D# D# D# D# D# D# D# D# I( D# D# D# D# ); :( J( K( L( s) s) s) s) s) M( N( <# <# 4( O( P( E. E. E. E. E. E. A+ B+ C+ '# Q( R( =! E. E. E. E. E. E. S( T( f( _= g( h( U( V( W( X( Y( *! g. g. g. g. g. g. g. g. g. g. g. g. g. g. g. g. g. g. g. g. g. g. g. g. g. g. g. g. g. g. g. g. g. g. g. g. g. g. g. g. g. g. g. g. o{ j^ k^ x, m# m# e% D+ D+ Z( `(  _ ._ .  .  .  .  .  .  .  .  .  .  .  .  .  .  .  .  .  .  .  .  .  .  .  .  .  .  .  .  .  .  .  .  .  .  .  .  .  .  .  .  .  .  .  .  .                                                                                                                                                                                                                                                                                                     ",
".  .  .  .  .  .  .  .  .  .  .  .  .  .  .  .  .  .  .  .  .  .  .  .  .  .  .  .  .  .  .  .  .  .  .  .  .  .  .  .  .  .  .  .  .  .  t% +_ @_ #_ <# <# <# <# <# <# <# <# <# <# <# <# <# <# <# <# <# <# <# <# <# <# <# <# <# <# <# <# <# <# <# <# <# <# <# <# <# <# <# <# <# <# <# <# <# <# <# <# <# <# <# <# <# G- w( x( $_ =$ D# %_ &_ F# F# F# F# F# F# F# F# F# *( =( C( *_ =_ v* -_ ;_ >_ @& D# D# D# D# D# D# D# D# D# D# D# D# D# D# D# D# D# D# D# D# D# D# D# D# D# D# D# D# D# D# D# p/ D# D# J# D# D# D# D# ); ={ ,_ p~ w; <# <# <# <# <# <# <# <# <# 4( O( h. g. g. g. g. g. g. A+ B+ C+ '# Q( R( C. g. g. g. g. g. g. '_ T( f( _= g( h( )_ !_ ~_ X( Y( g. g. g. g. g. g. g. g. g. g. g. g. g. g. g. g. g. g. g. g. g. g. g. g. g. g. g. g. g. g. g. g. g. g. g. g. g. g. g. g. g. g. g. g. g. o{ j^ k^ x, '# '# '# '# '# '# `( {_ ]_ .  .  .  .  .  .  .  .  .  .  .  .  .  .  .  .  .  .  .  .  .  .  .  .  .  .  .  .  .  .  .  .  .  .  .  .  .  .  .  .  .  .  .  .  .                                                                                                                                                                                                                                                                                                     ",
".  .  .  .  .  .  .  .  .  .  .  .  .  .  .  .  .  .  .  .  .  .  .  .  .  .  .  .  .  .  .  .  .  .  .  .  .  .  .  .  .  .  .  Z) -% ^_ /_ (_ __ #_ <# <# <# K. K. K. K. ^; <# <# <# <# <# <# <# <# <# <# <# <# <# <# <# <# <# <# <# <# <# <# <# <# <# <# <# <# <# <# <# <# <# <# <# <# <# <# <# <# <# <# <# <# <# u~ :_ x( <_ R* R* [_ }_ |_ 1_ 2_ 3_ F# F# F# F# F# *( =( 4_ 5_ 6_ M( 7_ 8_ >_ @& D# D# D# D# D# D# D# D# D# D# D# D# D# D# D# D# D# D# D# D# D# D# D# D# D# D# D# D# D# D# D# F* D# D# D# D# D# D# D# ); 9_ 0_ a_ b_ b_ b_ b_ b_ b_ b_ b_ b_ c_ d_ e_ i. Y% i. Y% Y% Y% Z% f_ g_ h_ ># a( i_ i. Y% Y% Y% Y% Y% Y% j_ k_ l_ 4^ m_ n_ o_ !_ ~_ X( Y( g. g. g. g. g. g. g. g. g. g. g. g. g. g. g. g. g. g. g. g. g. g. g. g. g. g. g. g. g. g. g. g. g. g. g. g. g. g. g. g. g. g. g. g. g. o{ j^ k^ x, M# M# a* '# '# '# p_ q_ r_ s_ t_ u_ a$ .  .  .  .  .  .  .  .  .  .  .  .  .  .  .  .  .  .  .  .  .  .  .  .  .  .  .  .  .  .  .  .  .  .  .  .  .  .  .  .  .                                                                                                                                                                                                                                                                                                     ",
".  .  .  .  .  .  .  .  .  .  .  .  .  .  .  .  .  .  .  .  .  .  .  .  .  .  .  .  .  .  .  .  .  .  .  .  .  .  .  .  .  .  z. v_ w_ x_ y_ z_ A_ [& <# <# B_ C_ D_ D_ D_ E_ 3( <# <# <# <# <# <# <# <# <# <# <# <# <# <# <# <# <# <# <# <# <# <# <# <# <# <# <# <# <# <# <# <# <# <# <# <# <# <# <# <# <# <# <# <# i% F_ G_ H_ I_ J_ K_ L_ M_ N_ O_ P_ Q_ .& F# F# F# }% R_ S_ T_ U_ V_ W_ X_ Y_ Z_ `_  : .: `_  : +: I# D# D# D# D# D# D# D# D# D# D# D# D# D# D# D# D# D# D# D# D# B; F* D# D# D# D# D# D# D# D# D# D# @: #: $: %: &: &: &: &: &: &: *: =: -: ;: >: ,: ': ': ': ): !: ~: ~: {: ]: ^: /: (: _: :: <: ~: ~: ~: ~: <: [: }: |: 1: 2: 3: 4: 5: 6: X( Y( g. g. g. g. g. g. g. g. g. g. g. g. g. g. g. g. g. g. g. g. g. g. g. g. g. g. g. g. g. g. g. g. g. g. g. g. g. g. g. g. g. g. g. g. g. o{ j^ k^ x, '# M# '# m# m# '# 7: 8: 9: 0: a: b: c: .  .  .  .  .  .  .  .  .  .  .  .  .  .  .  .  .  .  .  .  .  .  .  .  .  .  .  .  .  .  .  .  .  .  .  .  .  .  .  .  .                                                                                                                                                                                                                                                                                                     ",
".  .  .  .  .  .  .  .  .  .  .  .  .  .  .  .  .  .  .  .  .  .  .  .  .  .  .  .  .  .  .  .  .  .  .  .  .  .  .  .  .  .  d: e: f: 3, <# u* u* <# <# <# g: h: i: i: j: k: ,& <# <# <# <# <# <# <# <# <# <# <# <# <# <# <# <# <# <# <# <# <# <# <# <# <# <# <# <# <# <# <# <# <# <# <# <# <# <# <# <# <# <# <# <# <# t, l: b_ m: m: n: o: p: q: r: s: t: <% F# F# F# F# F# u: v: w: w: x: y: G# G# G# G# G# G# G# z: A: D# D# D# D# D# D# D# D# D# D# D# D# D# D# D# D# D# D# D# D# J# D# D# D# D# D# D# D# D# D# D# D# D# @: )* _  _  _  _  _  _  _  _  B: C: w: D: E: F: y: G: H: I: r] r] J: K: L: T' M: N: O: P: r] r] r] r] r] Q: R: S: N% I& T: U: V: W: X( Y( g. g. g. g. g. g. g. g. g. g. g. g. g. g. g. g. g. g. g. g. g. g. g. g. g. g. g. g. g. g. g. g. g. g. g. g. g. g. g. g. g. g. g. g. g. o{ j^ k^ x, '# m# '# '# '# '# X: N# )# Y: Z: `:  < .  .  .  .  .  .  .  .  .  .  .  .  .  .  .  .  .  .  .  .  .  .  .  .  .  .  .  .  .  .  .  .  .  .  .  .  .  .  .  .  .                                                                                                                                                                                                                                                                                                     ",
".  .  .  .  .  .  .  .  .  .  .  .  .  .  .  .  .  .  .  .  .  .  .  .  .  .  .  .  .  .  .  .  .  .  .  .  .  .  .  .  .  .  .< +< @< <# <# <# <# <# <# v* g: h: #< i: i: k: ,& <# <# <# <# <# <# <# <# <# <# <# <# <# <# <# <# <# <# <# <# <# <# <# <# <# <# <# <# <# <# <# <# <# <# <# <# <# <# <# <# <# <# <# <# <# <# <# <# <# <# <# <# <# '& $< %< t: (% ]= d# F# F# F# F# F# d# d# d# F# F# F# F# F# F# F# F# z: A: D# D# D# D# D# D# D# D# D# D# D# D# D# D# D# D# D# D# D# D# D# D# D# D# D# D# D# D# D# D# D# D# D# D# D# D# D# D# D# D# D# D# =$ &< *< d# F# d# F# F# F# =< D* D# D# -< ;< >< N% ,< '< )< b# a# a# a# a# a# I; J; K; i. e* !< ~< {< W: X( Y( g. g. g. g. g. g. g. g. g. g. g. g. g. g. g. g. g. g. g. g. g. g. g. g. g. g. g. g. g. g. g. g. g. g. g. g. g. g. g. g. g. g. g. g. g. o{ j^ k^ '# '# ># m# ># ># m# '# '# '# ]< ^< /< (< .  .  .  .  .  .  .  .  .  .  .  .  .  .  .  .  .  .  .  .  .  .  .  .  .  .  .  .  .  .  .  .  .  .  .  .  .  .  .  .  .                                                                                                                                                                                                                                                                                                     ",
".  .  .  .  .  .  .  .  .  .  .  .  .  .  .  .  .  .  .  .  .  .  .  .  .  .  .  .  .  .  .  .  .  .  .  .  .  .  .  _< :< << [< }< |< J) 1< 2< 3< 3, <# <# g: h: i: i: j: k: ,& <# <# <# <# <# <# <# <# <# <# <# <# <# <# <# <# <# <# <# <# <# <# <# <# <# <# <# <# <# <# <# <# <# <# <# <# <# <# <# <# <# <# <# <# <# <# <# <# <# <# <# <# <# '& 4< 5< 6< w: w: 7< 8< F# F# F# F# F# F# F# F# F# F# F# F# F# F# F# z: 9< D# D# b# D# D# b# D# D# b# D# D# b# D# D# b# D# D# D# D# D# D# D# D# D# D# D# D# D# D# D# D# b# D# D# D# b# D# D# b# D# D# b# J- 0< *< F# F# G# G# G# G# z: A: D# D# z^ a< b< N% c< d< O: r] r] e< b# b# b# z^ f< g< F. h< i< j< /; k< l< Y( *! g. g. g. g. g. g. g. g. g. g. g. g. g. g. g. g. g. g. g. g. g. g. g. g. g. g. g. g. g. g. g. g. g. g. g. g. g. g. g. g. g. g. g. g. o{ j^ k^ ># m< n< n# N# n# 8= o< X: '# D+ p< q< r< s< ]_ t< u< .  .  .  .  .  .  .  .  .  .  .  .  .  .  .  .  .  .  .  .  .  .  .  .  .  .  .  .  .  .  .  .  .  .  .  .  .                                                                                                                                                                                                                                                                                                     ",
".  .  .  .  .  .  .  .  .  .  .  .  .  .  .  .  .  .  .  .  .  .  .  .  .  .  .  .  .  .  .  .  .  .  .  .  .  .  .  v< w< x< y< z< A< B< C< D< E< F< 3, <# B_ G< H< I< I< E_ 3( <# <# <# <# <# <# <# <# <# <# <# <# <# <# <# <# <# <# <# <# <# <# <# <# <# <# <# <# <# <# <# <# <# <# <# <# <# <# <# <# <# <# <# <# <# <# <# <# <# <# <# <# <# <# J< K< L< M< N< O< P< ^% d# F# F# F# F# F# F# F# F# F# F# F# F# F# 7; Q< R< S< T< R< R< T< R< R< U< R< R< U< R< R< T< R< V< W< D# D# D# D# D# D# D# D# D# D# F% X< Y< U< R< R< S< T< R< R< T< R< R< U< R< Z< @- F# G# `<  :  :  :  [ }; D# D# .[ +[ @[ #[ $[ %[ &[ *[ =[ -[ ;[ >[ >[ ,[ '[ )[ ![ ~[ {[ ][ ^[ /[ ([ _[ g. g. g. g. g. g. g. g. g. g. g. g. g. g. g. g. g. g. g. g. g. g. g. g. g. g. g. g. g. g. g. g. g. g. g. g. g. g. g. g. g. g. g. g. g. o{ :[ <[ [[ }[ }[ }[ |[ 1[ 2[ 3[ 4[ 5[ '# 6[ 7[ 8[ 9[ 0[ a[ b[ .  .  .  .  .  .  .  .  .  .  .  .  .  .  .  .  .  .  .  .  .  .  .  .  .  .  .  .  .  .  .  .  .  .  .  .  .                                                                                                                                                                                                                                                                                                     ",
".  .  .  .  .  .  .  .  .  .  .  .  .  .  .  .  .  .  .  .  .  .  .  .  .  .  .  .  .  .  .  .  .  .  .  .  .  .  c[ d[ e[ f[ w+ g[ h[ {^ _= i[ j[ k[ 2, <# <# <# <# <# <# <# <# <# <# <# <# <# <# <# <# <# <# <# <# <# <# <# <# <# <# <# <# <# <# <# <# <# <# <# <# <# <# <# <# <# <# <# <# <# <# <# <# <# <# <# <# <# <# <# <# <# <# <# <# <# <# <# '& J) l[ m[ n[ o[ p[ .& F# F# F# F# F# F# F# F# F# F# F# F# F# F# F# F# F# F# F# F# F# F# F# F# F# F# F# F# F# F# G# w- }; D# D# D# D# D# D# p/ D# D# D# D# q[ r[ F# F# F# F# F# F# F# F# F# F# F# F# G# F# F# ,* s[ b# D# D# D# D# D# D# D# D# (^ )* t[ u[ v[ i. w[ x[ y[ s{ b_ l) z[ A[ l: ^; B[ C[ E. E. g. g. g. g. g. g. g. g. g. g. g. g. g. g. g. g. g. g. g. g. g. g. g. g. g. g. g. g. g. g. g. g. g. g. g. g. g. g. g. g. g. g. g. g. g. g. g. o{ D[ E[ F[  ;  ;  ;  ; a,  ; G[ H[ I[ '# D+ e% !# ]< J[ K[ L[ o^ .  .  .  .  .  .  .  .  .  .  .  .  .  .  .  .  .  .  .  .  .  .  .  .  .  .  .  .  .  .  .  .  .  .  .  .                                                                                                                                                                                                                                                                                                     ",
".  .  .  .  .  .  .  .  .  .  .  .  .  .  .  .  .  .  .  .  .  .  .  .  .  .  .  .  .  .  .  .  .  .  .  .  .  .  M[ N[ O[ R@ P[ g[ Q[  - @: R[ S[ T[ [& <# <# <# <# <# <# <# <# <# <# <# <# <# <# <# <# <# <# <# <# <# <# <# <# <# <# <# <# <# <# <# <# <# <# <# <# <# <# <# <# <# <# <# <# <# <# <# <# <# <# <# <# <# <# <# <# <# <# <# <# <# <# <# <# <# v* x; U[ o[ p[ .& F# F# F# F# F# F# F# F# F# F# F# F# F# F# F# F# F# F# F# F# F# F# F# F# F# F# F# F# F# F# G# w- }; D# D# D# D# D# D# D# D# D# D# D# V[ W[ F# F# F# F# F# F# F# F# F# F# F# F# F# F# F# ,* s[ D# D# D# D# D# D# D# D# D# D# F* X[ Y[ v[ )& 8+ Z[ `[ i% <# <# <# <# v* y% B[  } B% g. g. g. g. g. g. g. g. g. g. g. g. g. g. g. g. g. g. g. g. g. g. g. g. g. g. g. g. g. g. g. g. g. g. g. g. g. g. g. g. g. g. g. g. g. g. g. g. g. .} E[ +} d; d; d; d; d; d; @} H[ I[ '# '# '# '# D+ #} K[ $} .  .  .  .  .  .  .  .  .  .  .  .  .  .  .  .  .  .  .  .  .  .  .  .  .  .  .  .  .  .  .  .  .  .  .  .  .                                                                                                                                                                                                                                                                                                     ",
".  .  .  .  .  .  .  .  .  .  .  .  .  .  .  .  .  .  .  .  .  .  .  .  .  .  .  .  .  .  .  .  .  .  .  .  .  .  M[ N[ %} =! P[ &} *} =} #& -} ;} >} |, )= )= )= )= )= )= )= )= )= M( #_ 3, <# <# <# <# <# <# <# <# <# <# <# <# <# <# <# <# <# <# <# <# <# <# <# <# <# <# <# <# <# <# <# <# <# <# <# <# <# <# <# <# <# <# <# <# <# <# <# <# <# <# <# <# <# v* x; U[ o[ p[ .& F# F# F# F# F# F# F# F# F# F# F# F# F# F# F# F# F# F# F# F# F# F# F# F# F# F# F# F# F# F# G# w- }; D# D# D# D# D# D# D# D# D# D# D# V[ W[ F# F# F# F# F# F# F# F# F# F# F# F# F# F# F# ,* s[ D# D# D# D# h# ]^ ]^ ]^ ]^ ]^ Q* ,} Y[ '} )} !{ !} `[ i% <# <# K) J. 4, K. B[  } B% g. E. E. E. E. E. g. g. g. g. g. g. g. g. g. g. g. g. g. g. g. g. g. g. g. g. g. g. g. g. g. g. g. g. g. g. g. g. g. g. g. g. g. g. g. g. g. g. o{ D[ E[ +} d; d; d; d; d;  ; b, H[ I[ '# '# '# '# D+ #} ~} {} .  .  .  .  .  .  .  .  .  .  .  .  .  .  .  .  .  .  .  .  .  .  .  .  .  .  .  .  .  .  .  .  .  .  .  .  .                                                                                                                                                                                                                                                                                                     ",
".  .  .  .  .  .  .  .  .  .  .  .  .  .  .  .  .  .  .  .  .  .  .  .  .  .  .  .  .  .  .  .  .  .  .  .  .  .  ]} ^} /} (} _} :} <} [} }} |} 1} 2} 3} 3} 3} 4} 5} 5} 5} 5} 5} 5} 6} 7} 3( 3, <# <# <# <# <# <# <# <# <# <# <# <# <# <# <# <# <# <# <# <# <# <# <# <# <# <# <# <# <# <# <# <# <# <# <# <# <# <# <# <# <# <# <# <# <# <# <# <# <# <# <# <# v* x; U[ o[ p[ .& F# F# F# F# F# F# F# F# F# F# F# F# F# F# F# F# F# F# F# F# F# F# F# F# F# F# F# F# F# F# G# w- 8} a# )* @& a# @& )* a# a# )* @& a# V[ W[ F# F# F# F# F# F# F# G# 9} 9} 9} 9} &( F# F# ,* M- _= )* a# 0} a} b} b} b} b} b} c} d} e} f} 6( g} h} i} i% <# k< j} k} k} l} m} n} g. g. o} P> P> P> 0, g. g. g. g. g. g. g. g. g. g. g. g. g. g. g. g. g. g. g. g. g. g. g. g. g. g. g. g. g. g. g. g. g. g. g. g. g. g. g. g. g. g. o{ D[ E[ +} d; d; d; d; d; d; p} H[ I[ '# '# '# '# D+ #} q} r} s} t} u} v} w} Y, .  .  .  .  .  .  .  .  .  .  .  .  .  .  .  .  .  .  .  .  .  .  .  .  .  .  .  .  .  .  .                                                                                                                                                                                                                                                                                                     ",
".  .  .  .  .  .  .  .  .  .  .  .  .  .  .  .  .  .  .  .  .  .  .  .  .  .  .  .  .  .  .  .  .  .  .  .  .  .  .  x} y} z} z} A} B} C} D} E} F} G} H} H} I} J} K} K} K} K} K} L} M} N} O} 2, <# <# <# <# <# <# <# <# <# <# <# <# <# <# <# <# <# <# <# <# <# <# <# <# <# <# <# <# <# <# <# <# <# <# <# <# <# <# <# <# <# <# <# <# <# <# <# <# <# <# <# <# v* x; U[ o[ p[ .& F# F# F# F# F# F# F# F# F# F# F# F# F# F# F# F# F# F# F# F# F# F# F# F# F# F# F# F# F# F# G# 9} 9} 9} 9} 9} 9} 9} 9} 9} 9} 9} 9} 9} ,* F# F# F# F# F# F# F# F# D% P} 7/ 7/ 7/ &< *< F# F# &( 9} Q} R} S} T} U} C} C} C} C} C} V} W} X} z} z} Y} .= <# t, Z} `}  | _/ _/ .| h. E. W{ +| @| #| #| $| %| &| g. g. g. g. g. g. g. g. g. g. g. g. g. g. g. g. g. g. g. g. g. g. g. g. g. g. g. g. g. g. g. g. g. g. g. g. g. g. g. g. g. .} E[ +} d; d; d; d; d; d; @} H[ I[ '# '# '# '# '# '# ;& *| *| =| -| ;| >| ,| .  .  .  .  .  .  .  .  .  .  .  .  .  .  .  .  .  .  .  .  .  .  .  .  .  .  .  .  .  .  .                                                                                                                                                                                                                                                                                                     ",
".  .  .  .  .  .  .  .  .  .  .  .  .  .  .  .  .  .  .  .  .  .  .  .  .  .  .  .  .  .  .  .  .  .  .  .  .  .  .  '| )| !| J. J. s{ )= ~| {| ]| ^| ], (= /| (| U* _| _| _| _| _| :| <| [| 2, <# <# <# <# <# <# <# <# <# <# <# <# <# <# <# <# <# <# <# <# <# <# <# <# <# <# <# <# <# <# <# <# <# <# <# <# <# <# <# <# <# <# <# <# <# <# <# <# <# <# <# <# v* x; U[ o[ p[ .& F# F# F# F# F# F# F# F# F# F# F# F# F# F# F# F# F# F# F# F# F# F# F# F# F# F# F# F# F# F# F# F# F# F# F# F# F# F# F# F# F# F# F# F# F# F# F# F# F# F# F# F# F# D% E% D# D# J- }| *< F# F# F# F# *( =( || 1| E( |, )= )= )= )= M( c= J. J. 4, K. 3, <# t, 2| 3| 4| E. y+ F. g. E. W{ 5| 6| 7| 8| 9| 0| &| g. g. g. g. g. g. g. g. g. g. g. g. g. g. g. g. g. g. g. g. g. g. g. g. g. g. g. g. g. g. g. g. g. g. g. g. g. g. g. g. o{ D[ E[ +} d; d; d; d; d;  ; @} H[ I[ '# '# '# '# '# '# e% a| b| c| d| e| f| g| .  .  .  .  .  .  .  .  .  .  .  .  .  .  .  .  .  .  .  .  .  .  .  .  .  .  .  .  .  .  .                                                                                                                                                                                                                                                                                                     ",
".  .  .  .  .  .  .  .  .  .  .  .  .  .  .  .  .  .  .  .  .  .  .  .  .  .  .  .  .  .  .  .  .  .  .  .  .  .  .  '| h| t* <# p. p. ^; u* i| j| k| @& D# y^ >* F# F# F# F# F# *( l| m| [| 2, <# <# <# <# <# <# <# <# <# <# <# <# <# <# <# <# <# <# <# <# <# <# <# <# <# <# <# <# <# <# <# <# <# <# <# <# <# <# <# <# <# <# <# <# <# <# <# <# <# <# <# <# v* x; U[ o[ p[ .& F# F# F# F# F# F# F# F# F# F# F# F# F# F# F# F# F# F# F# F# F# F# F# F# F# F# F# F# F# F# F# F# F# F# F# F# F# F# F# F# F# F# F# F# F# F# F# F# F# F# F# F# F# D% E% D# D# J- }| *< F# F# F# F# n| =( || o| =_ <# <# <# <# <# <# <# <# <# <# <# <# <# t, 2| 3| p| g. g. g. g. E. W{ q| r| i^ U+ s| 0| &| g. g. g. g. g. g. g. g. g. g. g. g. g. g. g. g. g. g. g. g. g. g. g. g. g. g. g. g. g. g. g. g. g. g. g. g. g. g. g. g. o{ D[ E[ +} d; d; d; d; d; a, @} H[ I[ '# '# '# '# '# '# '# '# '# '# d| t| u| v| .  .  .  .  .  .  .  .  .  .  .  .  .  .  .  .  .  .  .  .  .  .  .  .  .  .  .  .  .  .  .                                                                                                                                                                                                                                                                                                     ",
".  .  .  .  .  .  .  .  .  .  .  .  .  .  .  .  .  .  .  .  .  .  .  .  .  .  .  .  .  .  .  .  .  .  g= w| x| y| z| A| h| t* <# v* c= )= M( B| C| k| @& D# y^ >* F# F# F# F# F# *( l| m| D| b_ )= E| <# <# <# <# <# <# <# <# <# <# <# <# <# <# <# <# <# <# <# <# <# <# <# <# <# <# <# <# <# <# <# <# <# <# <# <# <# <# <# <# <# <# <# <# <# <# <# <# <# <# v* x; U[ o[ p[ .& F# F# F# F# F# F# F# F# F# F# F# F# F# F# F# F# F# F# F# F# F# F# F# F# F# F# F# F# F# F# F# F# F# F# F# F# F# F# F# F# F# F# F# F# F# F# F# F# F# F# F# F# F# D% +& (^ (^ P) F| G| <= <= <= <= H| I| J| K| =_ 3, <# <# <# <# <# <# <# <# <# <# <# <# t, 2| L| M| y+ y+ y+ z+ =! N| 5| r| F. O| P| Q| R| z+ z+ z+ z+ z+ z+ g. g. g. g. g. g. g. g. g. g. g. g. g. g. g. g. g. g. g. g. g. g. g. g. g. g. g. g. g. g. g. g. g. g. g. .} E[ F[ d; d; d; d; d; d; @} H[ I[ '# '# '# '# '# '# '# '# '# e% d| t| S| .@ .  .  .  .  .  .  .  .  .  .  .  .  .  .  .  .  .  .  .  .  .  .  .  .  .  .  .  .  .  .  .                                                                                                                                                                                                                                                                                                     ",
".  .  .  .  .  .  .  .  .  .  .  .  .  .  .  .  .  .  .  .  .  .  .  .  .  .  .  .  .  .  .  .  .  9  T| U| V| W| X| Y| Z| v* `|  1 .1 +1 @1 #1 $1 %1 =$ D# y^ >* F# F# F# F# F# V* &1 *1 =1 -1 ;1 >1 ,1 u^ 3, <# <# <# <# <# <# <# <# <# <# <# <# <# <# <# <# <# <# <# <# <# <# <# <# <# <# <# <# <# <# <# <# <# <# <# <# <# <# <# <# <# <# <# <# <# <# <# v* x; U[ o[ p[ .& F# F# F# F# F# F# F# F# F# F# F# F# F# F# F# F# F# F# F# F# F# F# F# F# F# F# F# F# F# F# F# F# F# F# F# F# F# F# F# F# F# F# F# F# F# F# F# F# F# F# F# F# F# '1 )1 !1 ~1 {1 ]1 ^1 /1 /1 /1 /1 /1 (1 _1 :1 <1 <# <# <# <# <# <# <# <# <# <# <# <# <# v* [1 }1 |1 11 11 21 31 41 51 61 71 F. U+ 81 91 01 a1 a1 a1 a1 a1 a1 b1 c1 g. g. g. g. g. g. g. g. g. g. g. g. g. g. g. g. g. g. g. g. g. g. g. g. g. g. g. g. g. g. g. g. U+ h] d1 e1 f1 g1 h1 i1 Z- a, @} H[ I[ '# '# '# '# '# '# '# '# '# D+ d| j1 k1 ,| .  .  .  .  .  .  .  .  .  .  .  .  .  .  .  .  .  .  .  .  .  .  .  .  .  .  .  .  .  .  .                                                                                                                                                                                                                                                                                                     ",
".  .  .  .  .  .  .  .  .  .  .  .  .  .  .  .  .  .  .  .  .  .  .  .  .  .  .  .  .  .  .  .  .  l1 m1 n1 o1 3, p1 t* <# t, q1 r1 s1 t1 J- F* @: D# D# D# y^ >* F# F# F# F# F# F# F# u1 W< J- v1 w1 x1 y1 [& <# <# <# <# <# <# <# <# <# <# <# <# <# <# <# <# <# <# <# <# <# <# <# <# <# <# <# <# <# <# <# <# <# <# <# <# <# <# <# <# <# <# <# <# <# <# <# v* x; U[ o[ p[ .& F# F# F# F# F# F# F# F# F# F# F# F# F# F# F# F# F# F# F# F# F# F# F# F# F# F# F# F# F# F# F# F# F# F# F# F# F# F# F# F# F# F# F# F# F# F# F# F# F# F# F# F# 9/ z1 A1 Y% J* J* J* i. i. i. i. i. )& B1 C1 D1 i% <# <# <# <# <# <# <# <# <# <# <# <# <# <# v* K) K) K) c= E1 F1 G1 H1 I1 F. g. g. J1 K1 L1 M1 N1 M1 O1 P1 Q1 R1 S1 g. g. g. g. g. g. g. g. g. g. g. g. g. g. g. g. g. g. g. g. g. g. g. g. g. g. g. g. g. g. g. g. g. g. @$ T1 @$ U1 V1 W1 F[ d; @} H[ I[ '# '# '# '# '# '# '# '# '# D+ d| X1 Y1 ,| .  .  .  .  .  .  .  .  .  .  .  .  .  .  .  .  .  .  .  .  .  .  .  .  .  .  .  .  .  .  .                                                                                                                                                                                                                                                                                                     ",
".  .  .  .  .  .  .  .  .  .  .  .  .  .  .  .  .  .  .  .  .  .  .  .  .  .  .  .  .  .  .  .  .  Z) Z1 `1  2 <# <# <# <# t, .2 +2 @2 *$ h# h# a# D# D# D# y^ >* F# F# F# F# F# F# G# #2 j- _  $2 %2 &2 *2 [& <# <# <# <# <# <# <# <# <# <# <# <# <# <# <# <# <# <# <# <# <# <# <# <# <# <# <# <# <# <# <# <# <# <# <# <# <# <# <# <# <# <# <# <# <# <# <# v* x; U[ o[ p[ .& F# F# F# F# F# F# F# F# F# F# F# F# F# F# F# F# F# F# F# F# F# F# F# F# F# F# F# F# F# F# F# F# F# F# F# F# F# F# F# F# F# F# F# F# F# F# F# F# F# F# F# F# 9/ =2 -2 I* C. C. C. C. C. C. C. C. x) o} ;2 >2 i% <# <# <# <# <# <# <# <# <# <# <# <# <# <# <# <# <# <# J. ,2 '2 )2 !2 U+ g. g. g. ~2 {2 {2 ]2 ^2 /2 (2 _2 :2 R1 S1 g. g. g. g. g. g. g. g. g. g. g. g. g. g. g. g. g. g. g. g. g. g. g. g. g. g. g. g. g. g. g. g. g. g. g. g. g. O% V1 W1 F[ d; @} H[ I[ '# '# '# '# '# '# '# '# '# e% d| <2 [2 g= .  .  .  .  .  .  .  .  .  .  .  .  .  .  .  .  .  .  .  .  .  .  .  .  .  .  .  .  .  .  .                                                                                                                                                                                                                                                                                                     ",
".  .  .  .  .  .  .  .  .  .  .  .  .  .  .  .  .  .  .  .  .  .  .  .  .  .  .  .  .  .  }2 |2 12 22 32 42 s~ <# <# v* J. n: 52 62 72 q] 82 a# P: D# D# D# y^ >* F# F# F# F# F# F# G# 92 02 b# a2 b2 c2 d2 c= K) ^; 3, <# <# <# <# <# <# <# <# <# <# <# <# <# <# <# <# <# <# <# <# <# <# <# <# <# <# <# <# <# <# <# <# <# <# <# <# <# <# <# <# <# <# <# <# v* x; U[ o[ p[ .& F# F# F# F# F# F# G# G# G# G# F# F# F# F# F# F# F# F# F# F# F# F# F# G# e2 e2 e2 e2 e2 e2 e2 e2 e2 e2 e2 e2 e2 e2 e2 e2 e2 e2 e2 e2 e2 e2 e2 e2 e2 e2 e2 e2 f2 g2 h2 I* g. g. g. g. g. g. g. g. E. 0, i2 >2 i% <# <# <# <# <# <# <# <# <# <# <# <# <# <# <# <# <# <# G- ,2 '2 j2 F. g. g. g. g. g. g. g. g. g. g. g. k2 l2 R1 S1 g. g. g. g. g. g. g. g. D. J* J* J* J* J* J* Y% I* S- m2 m2 m2 m2 m2 m2 m2 A# g. g. g. g. g. g. g. g. g. g. D. U1 n2 o2 d;  ; p2 q2 I[ '# '# '# '# '# '# '# '# '# '# d| r2 s2 t2 u2 v2 =  .  .  .  .  .  .  .  .  .  .  .  .  .  .  .  .  .  .  .  .  .  .  .  .  .  .  .  .                                                                                                                                                                                                                                                                                                     ",
".  .  .  .  .  .  .  .  .  .  .  .  .  .  .  .  .  .  .  .  .  .  .  .  .  .  .  .  .  w2 x2 y2 z2 z2 A2 B2 3, v* C2 D2 E2 F2 G2 H2 I2 J2 K2 L2 M2 N2 =$ D# y^ >* F# F# F# F# F# F# F# O2 P2 Q2 R2 S2 T2 U2 V2 W2 X2 Y2 3, <# <# <# <# <# <# <# <# <# <# <# <# <# <# <# <# <# <# <# <# <# <# <# <# <# <# <# <# <# <# <# <# <# <# <# <# <# <# <# <# <# <# <# v* x; U[ o[ p[ .& F# F# F# F# F# Z2 `2  3 Z_ Z_ .3 F# F# F# F# F# F# F# F# F# F# F# +3 @3 #3 $3 $3 $3 $3 $3 $3 $3 $3 $3 $3 $3 $3 $3 $3 $3 $3 $3 $3 $3 $3 $3 $3 $3 $3 $3 $3 $3 %3 &3 *3 C. g. g. g. g. g. g. g. g. E. 0, i2 >2 i% <# <# <# <# <# <# <# <# <# <# <# <# <# <# <# <# <# <# G- ,2 '2 j2 F. g. g. g. g. g. g. g. g. g. g. g. k2 =3 R1 S1 g. g. g. g. g. g. g. -3 ;3 >3 ,3 '3 '3 '3 ,3 )3 !3 ~3 {3 ]3 ]3 ]3 ]3 ]3 ]3 ^3 /3 g. g. g. g. g. g. g. g. g. g. &+ (3 _3 :3 <3 [3 }3 y' '# '# '# '# '# '# '# '# '# D+ |3 13 23 33 43 53 63 .  .  .  .  .  .  .  .  .  .  .  .  .  .  .  .  .  .  .  .  .  .  .  .  .  .  .  .                                                                                                                                                                                                                                                                                                     ",
".  .  .  .  .  .  .  .  .  .  .  .  .  .  .  .  .  .  .  .  .  .  .  .  .  .  .  .  .  73 83 93 3, u* *^ u* <# v* 03 a3 b3 c3 d3 e3 f3 g3 E| h3 i3 k| @& D# y^ >* F# F# F# F# F# F# F# F# G# G# e# j3 k3 l3 x) m3 `~ 3{ 3, <# <# <# <# <# <# <# <# <# <# <# <# <# <# <# <# <# <# <# <# <# <# <# <# <# <# <# <# <# <# <# <# <# <# <# <# <# <# <# <# <# <# <# v* x; U[ o[ p[ .& F# F# F# F# G# #2 02 b# D# y^ c# F# F# F# F# F# F# F# F# F# F# e# n3 o3 h^ i. i. i. i. i. i. i. i. i. i. i. i. i. i. i. i. i. i. i. i. i. i. i. i. i. i. i. i. Y% U= g. g. g. g. g. g. g. g. g. E. 0, i2 >2 i% <# <# <# <# <# <# <# <# <# <# <# <# <# <# <# <# <# <# G- ,2 '2 j2 F. g. g. g. g. g. g. g. g. g. g. g. k2 =3 R1 S1 g. g. g. g. g. g. D. p3 q3 r3 (^ s3 s3 s3 s3 t3 u3 v3 w3  ;  ;  ;  ; x3 1! y3 z3 g. g. g. g. g. g. g. g. g. g. g. g. g. S- E. `* A3 B3 '# '# '# '# '# '# '# '# '# '# '# )# !# C3 D3 E3 F3 .  .  .  .  .  .  .  .  .  .  .  .  .  .  .  .  .  .  .  .  .  .  .  .  .  .  .  .                                                                                                                                                                                                                                                                                                     ",
".  .  .  .  .  .  .  .  .  .  .  .  .  .  .  .  .  .  .  .  .  .  .  .  .  .  .  .  .  G3 H3 I3 3, <# <# <# <# v* 03 J3 K3 L3 M3 N3 O3 <1 '& i| j| k| @& D# y^ >* F# F# F# F# F# F# F# F# F# F# e# P3 Q3 E~ R3 7~ `~ 3{ 3, <# <# <# <# <# <# <# <# <# <# <# <# <# <# <# <# <# <# <# <# <# <# <# <# <# <# <# <# <# <# <# <# <# <# <# <# <# <# <# <# <# <# <# v* x; U[ o[ p[ .& F# F# F# F# G# #2 j- D# D# D# c# F# F# F# F# F# F# F# F# F# F# e# S3 T3 P] Y% g. g. g. g. g. g. g. g. g. g. g. g. g. g. g. g. g. g. g. g. g. g. g. g. g. g. g. g. g. g. g. g. g. g. g. g. g. g. E. 0, i2 U3 i% <# <# <# <# <# <# <# <# <# <# <# <# <# <# <# <# <# <# G- ,2 '2 j2 F. g. g. g. g. g. g. g. g. g. g. g. k2 l2 R1 S1 g. g. g. g. g. g. D. p3 V3 W3 =$ D# D# D# D# X3 u3 Y3 9) d; d; d; d; d; a, y3 Z3 g. g. g. g. g. g. g. g. g. g. g. g. g. g. g. `3 A3 B3 '# '# '# '# '# '# '# '# '# '# '# '# '# e%  4 .4 j  .  .  .  .  .  .  .  .  .  .  .  .  .  .  .  .  .  .  .  .  .  .  .  .  .  .  .  .                                                                                                                                                                                                                                                                                                     ",
".  .  .  .  .  .  .  .  .  .  .  .  .  .  .  .  .  .  .  .  .  .  .  .  .  .  .  .  .  +4 @4 I3 3, <# <# <# <# v* 03 J3 #4 $4 %4 &4 *4 =4 '& i| ]| -4 ], z( ;4 >4 F# F# F# F# F# F# F# F# F# F# e# P3 Q3 E~ R- ,4 '4 )4 J. J. J. J. J. J. J. J. J. J. J. N, <# <# <# <# <# <# <# <# <# <# <# <# <# <# <# <# <# <# <# <# <# <# <# <# <# <# <# <# <# v* K) t) )= !4 ~4 o[ p[ .& F# F# F# F# G# #2 W< D# D# D# c# F# F# }% {4 ]4 ]4 ]4 ]4 ]4 ]4 U* ^4 T3 /4 x) E. E. E. E. E. E. E. E. E. F. g. g. g. g. g. g. g. g. g. g. g. g. g. g. g. g. g. g. g. g. g. g. g. g. g. g. g. g. E. 0, i2 (4 J. J. J. N, <# <# <# <# <# <# <# <# <# <# <# <# <# <# <# G- ,2 '2 j2 F. g. g. g. g. g. g. g. g. F. _4 :4 <4 [4 R1 }4 B% B% B% B% B% B% -@ |4 V3 W3 =$ D# D# D# D# 14 u3 24 34 44 54 '~ d; d; X- y3 Z3 g. g. g. g. g. g. g. g. g. g. g. g. g. g. D. `3 A3 h_ ># ># ># ># ># ># N# '# '# '# '# '# '# '#  4 64 74 .  .  .  .  .  .  .  .  .  .  .  .  .  .  .  .  .  .  .  .  .  .  .  .  .  .  .  .                                                                                                                                                                                                                                                                                                     ",
".  .  .  .  .  .  .  .  .  .  .  .  .  .  .  .  .  .  .  .  .  .  .  .  .  .  0$ 84 ^+ 94 04 I3 3, <# <# <# <# v* 03 a4 b4 c4 d4 e4 f4 i% '& g4 h4 i4 j4 j4 k4 l4 F# F# F# F# F# F# F# F# F# F# e# P3 m4 n4 o4 p4 q4 r4 -+ -+ -+ -+ -+ -+ -+ -+ -+ -+ s4 t4 <# <# <# <# <# <# <# <# <# <# <# <# <# <# <# <# <# <# <# <# <# <# <# <# <# <# <# <# <# u4 v4 w4 x4 y4 z4 A4 B4 .& F# F# F# F# G# #2 C4 a# =$ )* c# D4 &( E4 F4 G4 G4 G4 G4 G4 G4 G4 H4 I4 J4 c( @) @) @) @) @) @) @) @) @) K4 g. g. g. g. g. g. g. g. g. g. g. g. g. g. g. g. g. g. g. g. g. g. g. g. g. g. g. g. E. 0, L4 M4 s4 s4 N4 O4 <# <# <# <# <# <# <# <# <# <# <# <# <# <# <# G- ,2 '2 j2 F. g. g. g. g. g. g. g. g. F. P4 Q4 R4 S4 T4 U4 V4 W4 W4 W4 W4 W4 X4 Y4 %> Z4 b# D# D# D# D# `4 u3  5 .5 .5 +5 @5 d; d; X- y3 Z3 g. g. g. g. g. g. g. g. g. g. g. g. #5 #5 $5 >@ %5 &5 e, e, e, e, e, e, d) *5 '# '# '# '# '# D+  4 =5 -5 ;5 >5 ,5 '5 .  .  .  .  .  .  .  .  .  .  .  .  .  .  .  .  .  .  .  .  .  .  .  .                                                                                                                                                                                                                                                                                                     ",
".  .  .  .  .  .  .  .  .  .  .  .  .  .  .  .  .  .  .  .  .  .  .  .  .  .  )5 !5 ~5 {5 ]5 =4 <# <# <# <# <# <# <# ^5 /5 (5 _5 :5 <5 <# <# [5 }5 |5 15 25 35 45 B4 d# F# F# F# F# F# F# F# F# F# .# 55 65 65 75 85 95 05 0+ 0+ 0+ 0+ 0+ 0+ 0+ 0+ 0+ a5 b5 c5 3, <# <# <# <# <# <# <# <# <# <# <# <# <# <# <# <# <# <# <# <# <# <# <# <# <# <# '& d5 e5 f5 g5 g5 h5 i5 F# F# F# F# F# F# F# &( j5 j5 j5 j5 k5 8/ l5 m5 n5 o5 p5 p5 p5 p5 p5 p5 q5 r5 s5 t5 t5 t5 t5 t5 t5 t5 t5 t5 u5 v5 w5 g. g. g. g. g. g. g. g. g. g. g. g. g. g. g. g. g. g. g. g. g. g. g. g. g. g. g. g. g. x5 05 0+ a+ y5 z5 5; 3, <# <# <# <# <# <# <# <# <# <# <# <# <# G- ,2 '2 j2 F. g. g. g. g. g. g. g. {2 A5 B5 C5 D5 E5 F5 65 65 65 65 65 65 65 65 G5 H5 I5 D# D# D# D# D# D# J5 K5 L5 M5 N5 O5 P5 '~ X- y3 Z3 g. g. g. g. g. g. g. g. g. g. >^ Q5 R5 S5 T5 U5 V5 W5 X5 Y5 44 W5 Y5 Y5 Z5 `5 X: '# '# '# '# '# >#  6 o( .6 +6 @6 #6 .  .  .  .  .  .  .  .  .  .  .  .  .  .  .  .  .  .  .  .  .  .  .  .                                                                                                                                                                                                                                                                                                     ",
".  .  .  .  .  .  .  .  .  .  .  .  .  .  .  .  .  .  .  .  .  .  .  .  .  $6 %6 &6 [$ p. B_ <# <# <# <# <# <# <# <# t, s{ |, |, *6 M, <# <# v* w* )= P, =6 -6 ;6 B4 d# F# F# F# F# F# F# F# F# F# 9} >6 )* @& ,6 '6 )6 E. y+ y+ y+ y+ y+ y+ y+ y+ !6 ~6 >! ,! 3, <# <# <# <# <# <# <# <# <# <# <# <# <# <# <# <# <# <# <# <# <# <# <# <# <# <# '& {6 %< ]6 ^6 /% <% B* F# F# F# F# F# F# F# F# F# F# F# &( >6 I5 I( /6 (6 _6 :6 9= 9= 9= 9= 9= 9= <6 {# ]# ># m# M# ># m# M# ># '# M# [6 }6 g. g. g. g. g. g. g. g. g. g. g. g. g. g. g. g. g. g. g. g. g. g. g. g. g. g. g. g. g. y+ y+ y+ b. |6 16 26 3, <# <# <# <# <# <# <# <# <# <# <# <# <# G- ,2 '2 j2 F. g. g. g. g. g. g. g. {2 L1 36 46 56 66 d  @& @& @& @& @& @& @& @& @& @& D# D# D# D# D# D# D# D# =$ @& 76 86 96 06 9) X- y3 Z3 g. g. g. g. g. g. g. g. g. g. o{ V1 a6 d; d; d;  ; a, a, a, a, a, a, )~ b6 c6 d6 '# '# '# '# '# D+ e% e% c| e6 f6 g6 .  .  .  .  .  .  .  .  .  .  .  .  .  .  .  .  .  .  .  .  .  .  .  .                                                                                                                                                                                                                                                                                                     ",
".  .  .  .  .  .  .  .  .  .  .  .  .  .  .  .  .  .  .  .  .  .  .  .  .  h6 i6 j6 <# <# <# <# <# <# <# <# <# <# <# <# <# <# <# <# <# <# <# <# <# <# v* k6 l6 ;6 B4 d# F# F# F# F# F# F# F# F# F# 9} >6 I5 D# m6 '6 )6 P@ g. g. g. g. g. g. g. g. y+ n6 >! ,! 3, <# <# <# <# <# <# <# <# <# <# <# <# <# <# <# <# <# <# <# <# <# <# <# <# <# <# '& {6 %< o6 <% F# F# F# F# F# F# F# F# F# F# F# F# F# F# 9} >6 I5 p6 q6 r6 s6 '# '# '# '# '# '# '# D+ '# '# '# '# '# '# '# '# '# '# '# [6 }6 g. g. g. g. g. g. g. g. g. g. g. g. g. g. g. g. g. g. g. g. g. g. g. g. g. g. g. g. g. g. g. g. z+ j^ 16 26 3, <# <# <# <# <# <# <# <# <# <# <# <# <# '& ,2 '2 j2 F. F. F. F. F. F. F. F. {2 t6 u6 46 v6 =$ D# D# D# D# D# D# D# D# D# D# D# D# D# D# D# D# D# D# D# D# D# @: w6 96 06 9) X- y3 Z3 g. g. g. g. g. g. g. g. g. g. O% V1 W1 F[ d; d; d; d; d; d; d; d; d; )~ b6 c6 d6 '# '# '# '# '# '# '# '# D+ x6 y6 z6 .  .  .  .  .  .  .  .  .  .  .  .  .  .  .  .  .  .  .  .  .  .  .  .                                                                                                                                                                                                                                                                                                     ",
".  .  .  .  .  .  .  .  .  .  .  .  .  .  .  .  .  .  .  .  .  .  .  .  .  h6 A6 B6 <# <# <# <# <# <# <# <# <# <# <# <# <# <# <# <# <# <# <# v* K) )= )= m[ C6 ;6 B4 d# F# F# F# F# F# F# F# F# F# 9} >6 D# D# D6 '6 E6 I* -@ 6# y+ y+ y+ F. g. g. y+ n6 >! ,! 3, <# <# <# <# <# <# <# <# <# <# <# <# <# <# v* K) 4, 4, J. J. )= )= )= )= )= )= F6 G6 H6 t: <% F# F# F# F# F# F# F# F# F# F# F# 3= <= <= I6 J6 K6 L6 M6 r6 s6 '# '# '# '# '# '# '# '# '# '# '# '# '# '# '# '# '# '# '# [6 }6 g. g. g. g. g. g. g. g. g. g. g. g. g. g. g. g. g. g. g. g. g. g. g. g. g. g. g. g. g. g. g. g. z+ j^ 16 N6 K. G- N, <# <# <# <# K. K. K. K. K. K. K. J. ,2 '2 j2 O6 P6 Q6 R6 R6 R6 R6 R6 S6 T6 U6 V6 v6 =$ D# D# D# D# D# D# D# D# D# D# D# D# D# D# D# D# D# D# D# D# D# D# W6 96 06 9) X- y3 Z3 g. g. g. g. g. g. g. g. g. F. >^ V1 W1 F[ d; d; d; d; d; d; d; d; d; X6 b6 c6 d6 '# '# '# '# '# '# '# '# D+ x6 Y6 Z6 .  .  .  .  .  .  .  .  .  .  .  .  .  .  .  .  .  .  .  .  .  .  .  .                                                                                                                                                                                                                                                                                                     ",
".  .  .  .  .  .  .  .  .  .  .  .  .  .  .  .  .  .  .  .  .  .  .  .  .  h6 `6  7 .7 +7 @7 3, <# <# <# <# <# <# <# <# <# <# <# <# <# <# <# #7 $7 %7 &7 *7 =7 -7 ^% d# F# F# F# F# F# F# F# F# F# &( ;7  [  [ >7 ,7 '7 )7 !7 ~7 {7 ]7 ]7 ^7 /7 C. y+ n6 >! ,! 3, <# <# <# <# <# <# <# <# <# <# <# <# <# <# (7 _7 :7 <7 [7 }7 |7 17 17 17 17 17 17 27 37 47 [% F# F# F# F# F# F# F# F# F# 57 67 77 87 97 07 a7 b7 c7 d7 e7 f7 '# '# '# '# '# '# '# '# '# '# '# '# '# '# '# '# '# '# '# [6 }6 g. g. g. g. g. g. g. g. g. g. g. g. g. g. g. g. g. g. g. g. g. g. g. g. g. g. g. g. g. g. g. g. z+ g7 h7 i7 j7 k7 l7 3( <# '& m7 n7 o7 j7 j7 j7 j7 j7 j7 p7 q7 r7 s7 t7 u7 v7 w7 w7 w7 w7 w7 x7 y7 z7 A7 +: B7  [  [ B7 p> B7 B7 p> B7 B7 p> B7  [  [ C7 02 D# D# D# D# D# @: w6 96 06 9) X- y3 Z3 g. g. g. g. g. g. a; D7 E7 F7 F7 G7 H7 Z- d; d; d; d; d; d; d; d; d; )~ b6 c6 d6 '# '# '# '# '# '# '# '# D+ x6 Y6 I7 J7 .  .  .  .  .  .  .  .  .  .  .  .  .  .  .  .  .  .  .  .  .  .  .                                                                                                                                                                                                                                                                                                     ",
".  .  .  .  .  .  .  .  .  .  .  .  .  .  .  .  .  .  .  .  .  .  .  .  .  h6 K7 L7 M7 N7 O7 <1 <# <# <# <# <# <# <# <# <# <# <# <# <# <# '& P7 Q7 R7 M{ M{ S7 [; F# F# F# F# F# F# F# F# F# F# F# F# G# G# G# 7; T7 U7 V7 W7 X7 Y7 c= u* Z7  } B% y+ n6 >! ,! 3, <# <# <# <# <# <# <# <# <# <# <# <# <# v* `7  8 .8 N@ +8 @8 #8 $8 w= %8 w= w= w= &8 *8 F# F# F# F# F# F# F# F# F# F# F# =8 -8 ;8 i. h< >8 ,8 l# l# '8 )8 '# '# '# '# '# '# '# '# '# '# '# '# '# '# '# '# '# '# '# '# [6 }6 g. g. g. g. g. g. g. g. g. g. g. g. g. g. g. g. g. g. g. g. g. g. g. g. g. g. g. g. g. g. g. g. =! !8 ~8 {8 ]8 ^8 /8 (8 3, 4, _8 :8 <8 [8 [8 [8 [8 [8 [8 [8 }8 |8 18 28 38 48 ;$ ;$ ;$ ;$ ;$ ;$ F% 58 G# G# G# G# G# G# G# G# G# G# G# G# G# G# G# G# w= D* D# D# D# D# D# @: 68 96 06 9) X- y3 Z3 g. g. g. g. g. g. 78 88 98 a, a, .; d; d; d; d; d; d; d; d; d; d; d; )~ b6 c6 d6 '# '# '# '# '# '# '# '# D+ x6 Y6 I7 08 .  .  .  .  .  .  .  .  .  .  .  .  .  .  .  .  .  .  .  .  .  .  .                                                                                                                                                                                                                                                                                                     ",
".  .  .  .  .  .  .  .  .  .  .  .  .  .  .  .  .  .  .  .  .  .  .  .  .  t% a8 b8 O+ N7 O7 <1 <# <# <# <# <# <# <# <# <# <# <# <# <# <# '& i| ]| c8 '{ h# d8 >* F# F# F# F# F# F# F# F# F# F# F# F# F# F# F# F# e8 -$ a# f8 g8 h8 7{ y% Z7  } B% y+ n6 >! ,! 3, <# <# <# <# <# <# <# <# <# <# <# <# <# v* i8 j8 k8 D. l8 m8 := <% ]= d# ]= ]= ]= ]= d# F# F# F# F# F# F# F# F# F# F# F# =8 n8 g< h. >^ .{ o8 M# L# N# '# '# '# '# '# '# '# '# '# '# '# '# '# '# '# '# '# '# '# '# '# [6 }6 g. g. g. g. g. g. g. g. g. g. g. g. g. g. g. g. g. g. g. g. g. g. g. g. g. g. g. g. g. g. g. g. g. p8 q8 r8 s8 t8 /8 L% 3, 4, _8 u8 v8 w8 w8 w8 w8 w8 w8 w8 U+ x8 y8 z8 A8 B8 h# h# h# h# h# h# b# C8 F# F# F# F# F# F# F# F# F# F# F# F# F# F# F# F# w= E% D# D# D# D# D# D# W6 96 06 9) X- y3 Z3 g. g. g. g. g. o{ p) E[ D8 d; d; d; d; d; d; d; d; d; d; d; d; d; d; X6 b6 c6 d6 '# '# '# '# '# '# '# '# D+ x6 Y6 E8 .  .  .  .  .  .  .  .  .  .  .  .  .  .  .  .  .  .  .  .  .  .  .  .                                                                                                                                                                                                                                                                                                     ",
".  .  .  .  .  .  .  .  .  .  .  .  .  .  .  .  .  .  .  .  .  .  .  .  .  F8 G8 H8 I8 N7 O7 J8 p1 p1 p1 p1 p1 p1 p1 p1 p1 p1 p1 p1 p1 p1 z[ K8 ]| k| @& D# y^ >* F# F# F# F# F# F# F# F# F# F# F# F# F# F# F# F# e8 -$ F* f8 g8 L8 >{ M8 Z7  } B% x) n6 q) N8 p1 p1 p1 p1 p1 p1 p1 p1 p1 p1 p1 p1 p1 p1 p1 O8 P8 Q8 Y% R8 m8 >4 B* F# F# F# F# F# F# F# F# F# F# F# F# F# F# F# d# d# d# S8 n8 T8 i. e* .{ U8 '# '# '# '# '# '# '# '# '# '# '# '# m# m# m# m# m# m# m# m# m# '# m# m# [6 }6 g. g. g. g. g. g. g. g. g. g. g. g. g. g. g. g. g. g. g. g. g. g. g. g. g. g. g. g. g. g. g. g. E. p8 V8 q! W8 X8 /8 L% N, J. _8 Y8 Z8 g. `8  9  9  9  9  9  9 .9 +9 @9 A8 #9 D# D# D# D# D# D# D# $9 F# F# F# F# F# F# F# F# F# F# F# F# F# F# F# F# w= E% D# D# D# D# D# J# %9 96 06 9) X- y3 &9 g. g. g. g. g. C% D[ E[ +} d; d; d; d; d; d; d; d; d; d; d; d; d; d; )~ b6 c6 d6 '# '# '# '# '# '# '# '# D+ x6 *9 =9 Y, .  .  .  .  .  .  .  .  .  .  .  .  .  .  .  .  .  .  .  .  .  .  .                                                                                                                                                                                                                                                                                                     ",
".  .  .  .  .  .  .  .  .  .  .  .  .  .  .  .  .  .  .  .  .  -9 ;9 >9 ,9 '9 )9 !9 j+ N7 ~9 {9 ]9 ]9 ]9 ]9 ]9 ]9 ]9 ]9 ]9 ]9 ]9 ]9 ]9 ]9 ^9 /9 (9 _9 @& =$ )* E* F# F# F# F# F# F# F# F# F# F# F# F# F# F# F# F# e8 :9 P) <9 [9 }9 ]9 |9 19 29 6# #$ 39 49 59 69 69 69 69 69 69 69 79 ]9 ]9 ]9 ]9 ]9 ]9 89 99 09 R- R- p3 a9 [; B* F# F# F# F# F# F# F# F# F# F# F# G# G# G# b9 ,* c9 c9 d9 e9 f9 N@ g9 h9 U8 '# '# '# '# '# '# '# '# '# '# '# '# {# {# {# {# {# {# {# {# {# x, {# m# i9 d* g. g. g. g. g. g. g. g. g. g. g. g. g. g. g. g. g. g. g. g. g. g. g. g. g. g. g. g. g. g. g. g. D. p8 V8 q! W8 j9 k9 l9 v* v* m9 n9 o9 F. p9 q9 r9 s9 s9 s9 t9 u9 v9 w9 x9 y9 =$ D# b# a# D# b# b# z9 F# F# F# F# F# F# F# F# F# F# F# F# G# G# G# 7; w= D* D# D# D# D# D# @: A9 96 06 9) X- B9 C9 S- F~ F~ F~ F~ @$ D9 E9 +} d; d; d; d; d; d; d; d; d; d; d; d; d; d; x3 b6 c6 d6 '# '# '# '# '# '# '# '# D+ x6 F9 G9 H9 I9 J9 K9 a$ .  .  .  .  .  .  .  .  .  .  .  .  .  .  .  .  .  .  .                                                                                                                                                                                                                                                                                                     ",
".  .  .  .  .  .  .  .  .  .  .  .  .  .  .  .  .  .  .  .  a$ L9 M9 N9 O9 P9 Q9 R9 S9 T9 U9 V9 W9 X9 X9 X9 X9 X9 X9 X9 X9 X9 X9 X9 X9 X9 X9 Y9 Z9 `9 t$ t$ t$  0 F# F# F# F# F# F# F# F# F# F# F# F# F# F# F# F# w$ x$ t$ .0 +0 @0 X9 #0 $0 %0 &0 &0 *0 =0 -0 ;0 ;0 ;0 ;0 ;0 ;0 ;0 >0 X9 X9 X9 X9 X9 X9 X9 ,0 '0 )0 &0 !0 ~0 *< d# F# F# F# F# F# F# F# F# F# F# &( {0 ]0 ^0 /0 (0 _0 :0 <0 [0 }0 |0 10 20 30 '# '# '# '# '# '# '# '# '# '# '# 40 50 60 60 70 70 70 70 70 70 70 70 80 90 00 g. g. g. g. g. g. g. g. g. g. g. g. g. g. g. g. g. g. g. g. g. g. g. g. g. g. g. g. g. g. g. g. g. p8 V8 q! a0 b0 c0 d0 e0 e0 f0 g0 a0 h0 i0 j0 k0 l0 l0 l0 m0 n0 o0 p0 q0 r0 t$ x= t$ t$ x= t$ t$ +- F# F# F# F# F# F# F# F# F# F# F# 7; s0 t0 t0 t0 u0 W< D# D# D# D# D# D# v0 96 06 9) d; w0 x0 y0 y0 z0 A0 y0 z0 B0 C0 Z- d; d; d; d; d; d; d; d; d; d; d; d; d; d; X6 b6 c6 d6 '# '# '# '# '# '# '# '# '# '# D0 E0 F0 G0 H0 I0 J0 9  .  .  .  .  .  .  .  .  .  .  .  .  .  .  .  .  .  .                                                                                                                                                                                                                                                                                                     ",
".  .  .  .  .  .  .  .  .  .  .  .  .  .  .  .  .  .  .  .  U/ K0 L0  2 p. *^ M0 G+ G+ N0 O0 P0 |% 4= Q0 R0 4= Q0 Q0 4= R0 Q0 3_ R0 Q0 3_ R0 <= <% F# F# F# F# F# F# F# F# F# F# F# F# F# F# F# F# F# F# F# F# F# F# F# F# e# ^= S0 3_ T0 U0 *( V0 {4 4= W0 X0 (= @& 5^ (= @& 5^ 5^ Y0 T0 Z0 R0 3_ Q0 R0 3_ `0 4= *(  a  a F# F# F# F# F# F# F# F# F# F# F# F# F# 9} J6 D# @: .a +a U= -@ @a #a '! 0= 0= '# '# '# '# '# '# '# '# '# '# '# '# '# $a %a =! y+ y+ y+ y+ y+ y+ y+ y+ y+ y+ F. g. g. g. g. g. g. g. g. g. g. g. g. g. g. g. g. g. g. g. g. g. g. g. g. g. g. g. g. g. g. g. g. g. E. p8 V8 q! g. F. &a *a *a *a =a U+ F. -a ;a >a ,a ], Q* Q* 'a )a )a <% [% F# F# F# F# F# F# F# F# F# F# F# F# F# F# F# F# F# F# F# F# ,* '* D# D# D# D# D# D# D# D# D# D# J# !a 96 06 9) d; d; d; d; d; d; d; d; d; d; d; d; d; d; d; d; d; d; d; d; d; d; d; d; d; d; d; b6 c6 d6 '# '# '# '# '# '# '# '# '# '# '# e% e% ~a {a ]a ^a /a .  .  .  .  .  .  .  .  .  .  .  .  .  .  .  .  .  .                                                                                                                                                                                                                                                                                                     ",
".  .  .  .  .  .  .  .  .  .  .  .  .  .  .  .  .  .  .  .  U/ K0 (a  2 <# _a M0 :a G+ N0 <a [a A* F# F# F# F# F# F# F# F# F# F# F# F# F# F# F# F# F# F# F# F# F# F# F# F# F# F# F# F# F# F# F# F# F# F# F# F# F# F# F# F# F# F# F# F# F# F# F# F# F# F# Z2 :9 D# D# D# D# D# D# D# C8 F# F# F# F# F# F# F# F# F# F# F# e# V* U* U* U* B* .& F# F# e# V* U* U* U* }a >6 a# |a 1a +a I* U+ :[ 2a C+ '# '# '# '# '# '# '# '# '# '# '# {# ># ># {# $a 3a g. g. g. g. g. g. g. g. g. g. g. g. g. g. g. g. g. g. g. g. g. g. g. g. g. g. g. g. g. g. g. g. g. g. g. g. g. g. g. g. g. g. E. E. E. D. p8 V8 q! g. g. F. F. F. O6 4a 5a 6a 7a 8a 9a 0a _= D# D# C8 F# F# F# F# F# F# F# F# F# F# F# F# F# F# F# F# F# F# F# F# F# F# F# F# ,* '* D# D# D# D# D# D# D# D# D# D# r] aa 96 ba ca da F[ Z- d; d; d; d; d; d; d; d; d; d; d; d; d; d; d; d; d; d; d; d;  ; a, a, ea b6 c6 d6 '# '# '# '# '# '# '# '# '# '# '# '# '# e% {a fa ga k  .  .  .  .  .  .  .  .  .  .  .  .  .  .  .  .  .  .                                                                                                                                                                                                                                                                                                     ",
".  .  .  .  .  .  .  .  .  .  .  .  .  .  .  .  .  .  .  .  U/ ha ia  2 <# /; M0 ja ka la <a [a A* F# F# F# F# F# F# F# F# F# F# F# F# F# F# F# F# F# F# F# F# F# F# F# F# F# F# F# F# F# F# F# F# F# F# F# F# F# F# F# F# F# F# F# F# F# F# F# F# F# F# Z2 ma D# D# a# =$ D# =$ =$ C8 F# F# F# F# F# F# F# F# ,* &( &( na oa 5* 5* 5* pa qa D4 &( ra sa 5* 5* 5* ta ua va wa xa ya U= U+ :[ 2a C+ '# '# '# '# '# '# '# '# '# '# '# za Aa Aa Ba $a Ca g. g. g. g. g. g. g. g. g. g. g. g. g. g. g. g. g. g. g. g. g. g. g. g. g. g. g. g. g. g. g. g. g. g. g. g. g. g. g. g. g. g. N| N| 8+ O% Da Ea q! g. g. g. g. g. F. Fa Ga Ha Ia Ja Ka 0a _= a# =$ C8 F# F# F# F# F# F# F# F# F# F# F# F# F# F# F# F# F# F# F# F# G# &( &( &( &( '* D# D# D# D# D# D# D# D# D# D# r] aa La Ma Na Oa Pa Qa d; d; d; d; d; d; d; d; d; d; d; d; d; d; d; d; X- Ra Ra X- 8) 44 44 44 Sa c6 Ta a* !$ N# '# '# '# '# '# '# '# '# '# '# e% {a fa Ua a$ .  .  .  .  .  .  .  .  .  .  .  .  .  .  .  .  .  .                                                                                                                                                                                                                                                                                                     ",
".  .  .  .  .  .  .  .  .  .  .  .  .  .  .  .  .  .  .  .  T# Va ia M, <# p. w* Wa Xa Ya Za [a A* F# F# F# F# F# F# F# F# F# F# F# F# F# F# F# F# F# F# F# F# F# F# F# F# F# F# F# F# F# F# F# F# F# F# F# F# F# F# F# F# F# F# F# F# F# F# F# F# F# F# 7; f& f& f& f& f& f& f& f& `a F# F# F# F# F# F# F# G#  b .b +b @b #b $b %b &b *b =b -b ;b $/ >b ,b %b 'b )b !b ~b {b ]b ^b g. g. :[ 2a C+ '# '# '# '# '# '# '# '# '# '# /b (b _b :b <b [b U= g. g. g. g. g. g. g. g. g. g. g. g. g. g. g. g. g. g. g. g. g. g. g. g. g. g. g. g. g. g. g. g. g. g. g. g. g. g. g. g. E. 0, }b |b 1b 2b 3b $, U+ g. g. g. g. 4b 5b 6b 7b 8b 9b 0b ab bb f& f& f& @- F# F# F# F# F# F# F# F# F# F# F# F# F# F# F# F# F# F# F# F# e8 cb db db db =$ D# D# D# D# D# D# D# D# D# D# D# F% eb fb gb hb ib jb U{ d; d; d; d; d; d; d; d; d; d; d; d; d; d; kb lb mb nb ob pb qb rb sb tb ub vb wb xb yb s6 '# '# '# '# '# '# '# '# '# e% {a fa zb /a .  .  .  .  .  .  .  .  .  .  .  .  .  .  .  .  .  .                                                                                                                                                                                                                                                                                                     ",
".  .  .  .  .  .  .  .  .  .  .  .  .  .  .  .  .  .  .  .  u% Ab ia [& <# <# ^; ^; 4, Bb Cb [a A* F# F# F# F# F# F# F# F# F# F# F# F# F# F# F# F# F# F# F# F# F# F# F# F# F# F# F# F# F# F# F# F# F# F# F# F# F# F# F# F# F# F# F# F# F# F# F# F# F# F# F# F# F# F# F# F# F# F# F# F# F# F# F# F# F# F# F# G# i- b# ); !; Db Eb Fb X^ v^ w^ x^ @: Gb Hb Ib Jb Kb Lb w) h. h. h. Y% g. g. :[ 2a C+ '# '# '# '# '# '# '# '# '# '# @{ #{ Mb y+ y+ F. g. g. g. g. g. g. g. g. g. g. g. g. g. g. g. g. g. g. g. g. g. g. g. g. g. g. g. g. g. g. g. g. g. g. g. g. g. g. g. g. g. F. o} Nb Ob Pb Qb .9 F. g. g. g. g. g. Rb Sb Tb Ub Vb 4% ]^ Wb K= F# F# F# F# F# F# F# F# F# F# F# F# F# F# F# F# F# F# F# F# F# F# F# G# Xb g# D# D# D# D# D# D# D# D# D# D# D# D# D# D# D# D# )* (= 5^ Yb Zb `b  c d; d; d; d; d; d; d; d; d; d; d; d; d; d; kb .c +c z+ @c #c $c !$ 8= %c &c 3, t, *c =c s6 '# '# '# '# '# '# '# '# '# e% {a fa -c /a .  .  .  .  .  .  .  .  .  .  .  .  .  .  .  .  .  .                                                                                                                                                                                                                                                                                                     ",
".  .  .  .  .  .  .  .  .  .  .  .  .  .  .  .  .  .  .  .  -9 ;c >c N( '& ^; ^; ^; ,c 'c Cb [a A* F# F# F# F# F# F# F# F# F# F# F# F# F# F# F# F# F# F# F# F# F# F# F# F# F# F# F# F# F# F# F# F# F# F# F# F# F# F# F# F# F# F# F# F# F# F# F# F# F# F# F# F# F# F# F# F# F# F# F# F# F# F# F# F# F# F# F# G# i- b# ); !; )c v; !c )^ !^ w^ x^ @: Gb ~c {c q~ v) .) w) Z% g. g. g. g. g. :[ 2a C+ '# '# '# '# '# '# '# '# '# '# @{ #{ 5{ g. g. g. g. g. g. g. g. g. g. g. g. g. g. g. g. g. g. g. g. g. g. g. g. g. g. g. g. g. g. g. g. g. g. g. g. g. g. g. g. g. g. g. g. E. 0, Nb ]c i^ F. F. g. g. g. g. g. g. Rb Sb ^c Ub #9 D# D# /c (c F# F# F# F# F# F# F# F# F# F# F# F# F# F# F# F# F# F# F# F# F# F# F# G# Xb g# D# D# D# D# D# D# D# D# D# D# D# D# D# D# D# D# D# D# D# I( Zb `b  c Z- d; d; d; d; d; d; d; d; d; d; d; d; d; kb .c _c U+ @c #c :c '# '# %c &c 3, <# *c =c s6 '# '# '# '# '# '# '# '# '# e% {a fa zb /a .  .  .  .  .  .  .  .  .  .  .  .  .  .  .  .  .  .                                                                                                                                                                                                                                                                                                     ",
".  .  .  .  .  .  .  .  .  .  .  .  .  .  .  .  .  9  f= f= <c [c }c o: '= '= |c |, P, 1c 2c [a A* F# F# F# F# F# F# F# F# F# F# F# F# F# F# F# F# F# F# F# F# F# F# F# F# F# F# F# F# F# F# F# F# F# F# F# F# F# F# F# F# F# F# F# F# F# F# F# F# F# F# F# F# F# F# F# F# F# F# F# F# F# F# F# F# F# F# F# G# i- K- ); !; Db 3c Fb X^ 4c ~^ 5c 5% 6c 7c 8c q~ v) .) w) Z% g. g. g. g. g. :[ 2a '! 0= 0= 0= 0= 0= 0= '# '# '# '# 9c #{ 0c y+ y+ y+ y+ y+ y+ y+ y+ y+ y+ y+ y+ y+ y+ y+ F. g. g. g. g. g. g. g. g. g. g. g. g. g. g. g. g. g. g. g. g. g. g. g. g. g. g. g. g. E. 0, Nb ac F. g. g. g. g. g. g. g. g. Rb Sb ^c Ub #9 D# D# /c (c F# F# F# F# F# F# F# F# F# F# F# F# F# F# F# F# F# F# F# F# d# 4= 4= 4= bc cc @& @& @& @& @& @& @& @& @& @& @& @& a# D# D# D# D# @& @& dc Zb `b ec d; d; d; d; d; d; d; d; d; d; d; d; d; d; kb .c +c z+ fc #c gc e% M# %c hc p. <# *c =c s6 '# '# '# '# '# '# '# '# '# e% {a ic jc kc 9  ,| 9  .  .  .  .  .  .  .  .  .  .  .  .  .  .  .                                                                                                                                                                                                                                                                                                     ",
".  .  .  .  .  .  .  .  .  .  .  .  .  .  .  .  lc mc nc oc pc qc rc sc tc tc tc tc tc uc vc v= ]= F# F# F# F# F# F# F# F# F# F# F# F# F# F# F# F# F# F# F# F# F# F# F# F# F# F# F# F# F# F# F# F# F# F# F# F# F# F# F# F# F# F# F# F# F# F# F# F# F# F# F# F# F# F# F# F# F# F# G# O2 t$ t$ t$ wc xc F# F# G# o> yc zc Ac Bc Cc tc Dc Ec Fc Gc Hc Ic Jc Kc q~ v) .) w) Z% g. g. g. g. g. `3 Lc Mc Nc Nc Nc Nc Nc Oc Pc Qc '# '# Rc Sc Tc Uc Uc Uc Uc Uc Uc Uc Uc Uc Uc Uc Uc Uc Uc Vc Wc Xc C. g. g. g. g. g. g. g. g. g. g. g. g. g. g. g. g. g. g. g. g. g. g. g. g. g. g. E. 0, Nb ac F. g. g. g. g. g. g. g. g. Rb Sb ^c Yc Zc t0 C7 `c K= F# F# F# F# F# F# F# F# F# F# F# F# F# F# F# G# D% t$ t$  d .d +d @d @d #d B! $d $d $d $d $d $d $d $d $d $d %d &d *d y^ D# D6 =d -d $d ;d >d ,d 'd y0 y0 y0 y0 )d !d ~d Z- d; d; {d ]d y0 y0 ^d /d (d Vc _d :d <d [d }d |d 1d 2d 3d 4d 5d s6 '# '# '# '# '# '# '# '# '# e% 6d 7d 8d 9d 0d ad bd J@ .  .  .  .  .  .  .  .  .  .  .  .  .  .                                                                                                                                                                                                                                                                                                     ",
".  .  .  .  .  .  .  .  .  .  .  .  .  .  .  .  cd dd ed 5- J. fd gd hd 0- 0- 0- 0- 0- 0- id `; F# F# F# F# F# F# F# F# F# F# F# F# F# F# F# F# F# F# F# F# F# F# F# F# F# F# F# F# F# F# F# F# F# F# F# F# F# F# F# F# F# F# F# F# F# F# F# F# F# F# F# F# F# F# F# F# F# F# F# &( jd a# =$ =$ kd ld F# F# F# G# G# G# md nd 0- od pd qd rd c= q- ^9 l; [& 5- v) .) w) Z% g. g. g. g. g. o{ R@ N@ N@ N@ N@ N@ U= sd td ud '# '# vd wd xd v* v* v* v* v* v* v* v* v* v* v* v* v* v* u* yd M% B% g. g. g. g. g. g. g. g. g. g. g. g. g. g. g. g. g. g. g. g. g. g. g. g. g. g. E. 0, Nb ac F. g. g. g. g. g. g. g. g. Rb Sb zd Ad Bd G# G# G# F# F# F# F# F# F# F# F# F# F# F# F# F# F# F# F# ,* Cd a# 4  Dd Ed Fd #$ #$ #$ B- B- B- B- B- B- B- B- B- B- B- Gd Hd Id :! D# Jd Kd Ld A- B- Md Nd E~ m2 S- S- m2 *! Od E9 +} d; a, Pd Qd S- @$ Rd Sd Td X/ Ud Vd W+ Wd Xd Yd Zd 1$ `d  e .e +e '# '# '# '# '# '# '# '# '# '# '# n# <6 ;# @e #e $e %e .  .  .  .  .  .  .  .  .  .  .  .  .  .                                                                                                                                                                                                                                                                                                     ",
".  .  .  .  .  .  .  .  .  .  .  .  .  .  .  .  &e *e =e <# '& -e ;e >e '{ h# h# h# h# h# kd B( F# F# F# F# F# F# F# F# F# F# F# F# F# F# F# F# F# F# F# F# F# F# F# F# F# F# F# F# F# F# F# F# F# F# F# F# F# F# F# F# F# F# F# F# F# F# F# F# F# F# F# F# F# F# F# F# F# F# F# &( ,e D# D# D# 'e ld F# F# F# F# F# F# ,* '* h# h# )e !e ~e J8 p1 ^; 3, <# v* v) .) w) Z% g. g. g. g. g. g. F. F. F. F. F. F. F. O% td ud '# '# {e ]e ^e ^; '& '& '& '& '& '& '& '& '& '& '& '& '& i% /e k% B% g. g. g. g. g. g. g. g. g. g. g. g. g. g. g. g. g. g. g. g. g. g. g. g. g. g. E. 0, Nb ac F. g. g. g. g. g. g. g. g. Rb Sb zd (e e# d# F# F# F# F# F# F# F# F# F# F# F# F# F# F# F# F# F# F# ,* Cd D# |; _e :e E~ Y% C. C. C. C. C. C. C. C. C. C. C. C. C. <e [e }e :! D# |e 1e ^b h. C. C. C. F. g. F. g. g. C% D[ E[ +} d; a, 2e Qd C. =! 3e 4e 5e ^; 6e 7e N. W+ W+ W+ W+ W+ 0% 8e 9e +e '# '# '# '# '# '# '# '# '# '# '# D+ D+ D+ o< 0e ae be .  .  .  .  .  .  .  .  .  .  .  .  .  .                                                                                                                                                                                                                                                                                                     ",
".  .  .  .  .  .  .  .  .  .  .  .  .  .  .  .  ce de ee <# '& -e ;e fe @& D# D# D# D# D# ge he F# F# F# F# F# F# F# F# F# F# F# F# F# F# F# F# F# F# F# F# F# F# F# F# F# F# F# F# F# F# F# F# F# F# F# F# F# F# F# F# F# F# F# F# F# F# F# F# F# F# F# F# F# F# F# F# F# F# F# &( ,e D# D# D# 'e ld F# F# F# e# ]= ]= ie '* h# h# )e je ke <1 <# <# v* '& K) v) .) w) Z% g. g. g. g. g. g. g. g. g. g. g. g. g. O% td le n# m# me ne B> [& <# <# <# <# <# <# <# <# <# <# <# <# <# y% /e k% B% g. g. g. g. g. g. g. g. g. g. g. g. g. g. g. g. g. g. g. g. g. g. g. g. g. g. E. 0, Nb ac F. g. g. g. g. g. ^2 oe oe pe qe zd (e e# d# F# F# F# F# F# F# F# F# F# F# F# F# F# F# e# ]= ]= ]= re Cd a# h# _e :e E~ C. g. g. g. g. g. g. g. g. g. g. F. F. F. se [e }e :! D# |e 1e ^b B% g. g. g. g. g. g. g. g. o{ D[ E[ D8 d; a, 2e te D. =! 3e 4e ue 3, ve 7e N. W+ W+ W+ W+ W+ '@ 8e 9e we D+ '# '# '# '# '# '# '# '# '# '# '# '# '# m# xe ye ze .  .  .  .  .  .  .  .  .  .  .  .  .  .                                                                                                                                                                                                                                                                                                     ",
".  .  .  .  .  .  .  .  .  .  .  .  .  .  .  .  Ae Be ee <# '& -e ;e Ce =$ b# D# D# D# D# ge he F# F# F# F# F# F# F# F# F# F# F# F# F# F# F# F# F# F# F# F# F# F# F# F# F# F# F# F# F# F# F# F# F# F# F# F# F# F# F# F# F# F# F# F# F# F# F# F# F# F# F# F# F# F# F# F# F# F# F# &( jd b# b# D# 'e .3 G# G# G; De w= w= w= Ee Fe Fe Ge He Ie <1 <# v* v* v* '& '% Lb o) Z% g. g. g. g. g. g. g. g. g. g. g. g. g. O% Je Ke ># >#  6 Le Me [& <# <# <# <# <# <# <# <# <# <# <# <# <# y% /e k% B% g. g. g. g. g. g. g. g. g. g. g. g. g. g. g. g. g. g. g. g. g. g. g. g. g. g. E. 0, Nb ac F. g. g. g. g. O6 Ne Oe Pe Qe Re Se Te e# d# F# F# F# F# F# F# F# F# F# F# F# F# F# F# Ue Ve We We 9} Xe /> Ye Ze `e  f C. g. g. g. g. g. g. g. g. g. g. .f .f .f +f [e @f :! a# Jd 1e ^b B% g. g. g. g. g. g. g. g. C% D[ 88 98 a, X- #f $f g. D. %f Sd ue 3, ve &f 1$ 1$ 1$ ,@ W+ W+ 0% 8e *f =f !# N# N# '# '# '# '# '# '# '# '# '# '# '# m# -f ;f U  .  .  .  .  .  .  .  .  .  .  .  .  .  .                                                                                                                                                                                                                                                                                                     ",
".  .  .  .  .  .  .  .  .  .  .  .  .  .  .  .  &e *e ee <# '& >f ,f 'f m> m> )f ma D# D# ge he F# F# F# F# F# F# F# F# F# F# F# F# F# F# F# F# F# F# F# F# F# F# F# F# F# F# F# F# F# F# F# F# F# F# F# F# F# F# F# F# F# F# F# F# F# F# F# F# F# F# F# F# F# F# F# F# F# F# F# G# !f m> m> m> )f ~f p> {f ]f ^f /f (f (f _f :f <f [f }f |f 3, v* 1f 2f 3f 4f 5f 6f p| C. g. g. g. g. g. g. g. g. g. g. g. g. g. o{ 7f 8f 9f 0f af bf 5; 3, <# <# <# <# <# <# <# <# <# <# <# <# <# y% /e k% B% g. g. g. g. g. g. g. g. g. g. g. g. g. g. g. g. g. g. g. g. g. g. g. g. g. g. E. 0, Nb ac F. g. g. g. O| cf df ef ff gf hf if jf F# F# F# F# F# F# F# F# F# F# F# F# F# F# *( kf lf mf nf of pf qf rf rf sf tf g. g. g. g. g. g. g. g. g. g. E. 8+ uf vf wf xf yf zf Af Bf Cf Df Ef B% g. g. g. g. g. g. g. g. D. a; D7 Ff F7 Gf Hf If Jf Jf Kf Lf Me <# ,c Mf Nf +7 Of Pf G+ W+ W+ Qf Rf Sf Tf Uf Vf )$ '# '# '# '# '# '# '# '# '# '# '# xe Wf %e .  .  .  .  .  .  .  .  .  .  .  .  .  .                                                                                                                                                                                                                                                                                                     ",
".  .  .  .  .  .  .  .  .  .  .  .  .  .  .  .  Ae Be ee <# '& Xf Yf Zf <% F# z: A: D# D# ge he F# F# F# F# F# F# F# F# F# F# F# F# F# F# F# F# F# F# F# F# F# F# F# F# F# F# F# F# F# F# F# F# F# F# F# F# F# F# F# F# F# F# F# F# F# F# F# F# F# F# F# F# F# F# F# F# F# F# F# F# F# F# F# F# O2 `f D# @:  g .g +g |, )= )= )= )= )= q# t* <# v* @g #g 0c y+ y+ g. g. g. g. g. g. g. g. g. g. g. g. g. g. g. g. g. g. y+ y+ =! ]! $g %g 3, <# <# <# <# <# <# <# <# <# <# <# <# <# y% /e k% B% g. g. g. g. g. g. g. g. g. g. g. g. g. g. g. g. g. g. g. g. g. g. g. g. g. g. E. 0, Nb ac F. g. g. g. &g *g =g -g )< ], @& ;g >4 F# F# F# F# F# F# F# F# F# F# F# F# F# F# >g ,g 'g )g l2 [4 !g #, -@ -@ -@ P@ g. g. g. g. g. g. g. g. g. g. E. P> ~g {g ]g ^g /g (g [% F# _g :g Ef B% g. g. g. g. g. g. g. g. g. g. E. g. <g N| !} i} 4, 4, J. N, <# <# <# <# p. p. B_ [g S9 I+ W+ W+ '@ '@ a% }g |g N$ '# '# '# '# '# '# '# '# '# '# m# xe 1g %e .  .  .  .  .  .  .  .  .  .  .  .  .  .                                                                                                                                                                                                                                                                                                     ",
".  .  .  .  .  .  .  .  .  .  .  .  .  .  .  .  2g Be 3g 4g Y& 5g Yf Zf <% F# z: A: D# D# ge he F# F# F# F# F# F# F# F# F# F# F# F# F# F# F# F# F# F# F# F# F# F# F# F# F# F# F# F# F# F# F# F# F# F# F# F# F# F# F# F# F# F# F# F# F# F# F# F# F# F# F# F# F# F# F# F# F# F# F# F# F# F# F# F# 6g 7g 8g :! 9g 0g ag 2, v* '& '& '& '& K) K) K) K) bg #g I* g. g. g. g. g. g. g. g. g. g. g. g. g. g. g. g. g. g. g. g. g. g. =! fc $g %g 3, <# <# <# <# <# <# v* K) K) K) K) K) K) '& /e k% B% g. g. g. g. g. g. g. g. g. g. g. g. g. g. g. g. g. g. g. g. g. g. g. g. g. g. E. 0, cg dg !2 k2 F. g. &g eg fg -g )< D# D#  - >4 F# F# F# F# F# F# F# F# F# F# F# }% }% gg hg ,g 'g ig jg kg lg mg g. g. g. g. g. g. g. g. g. g. g. g. g. g. E. P> ng og pg qg rg sg ]4  a tg :g Ef B% g. g. g. g. g. g. g. g. g. g. g. g. E. N| !} ug G- /; '& N, <# <# <# <# <# <# t, vg S9 I+ W+ W+ wg wg O. xg |g N$ '# '# '# '# '# '# '# '# '# '# '# xe yg be .  .  .  .  .  .  .  .  .  .  .  .  .  .                                                                                                                                                                                                                                                                                                     ",
".  .  .  .  .  .  .  .  .  .  .  .  .  .  .  .  zg Ag X; Bg Cg Dg Eg Zf <% F# z: A: D# D# ge .3 7; 7; 7; G# F# F# F# F# F# F# F# F# F# F# F# F# F# F# F# F# F# F# F# F# F# F# F# F# F# F# F# F# F# F# F# F# F# F# F# F# F# F# F# F# F# F# F# F# F# F# F# F# F# F# F# F# F# F# F# F# ,* 7; 7; 7; Fg Gg }* Hg Ig Jg Kg 2, y% Lg Lg Lg Lg Lg Lg Lg Mg Ng #g l$ g. g. g. g. g. g. g. g. g. g. g. g. g. g. g. g. g. g. g. g. g. g. =! fc $g %g 3, <# <# <# <# <# <# k< Lg Lg Lg Lg Lg Lg .* Og M% B% g. g. g. g. g. g. g. g. g. g. g. g. g. g. g. g. g. g. g. g. g. g. g. g. g. g. E. 0, Pg Qg Rg Sg Tg i^ &g eg fg -g )< D# D#  - >4 F# F# F# F# F# F# F# F# ,* 7; 7; Ug Vg Wg Xg Yg Zg `g  h kg lg mg g. g. g. g. g. g. g. g. g. g. g. g. g. g. E. P> ng .h +h @h #h $h 7* %h &h *h Ef B% g. g. g. g. g. g. g. g. g. g. g. g. E. N| Z[ =h -h Lg Lg _a <# <# <# <# <# <# t, vg S9 I+ W+ W+ M+ M+ ;h >h ,h d% '# '# '# '# '# '# '# '# '# '# '# xe yg be .  .  .  .  .  .  .  .  .  .  .  .  .  .                                                                                                                                                                                                                                                                                                     ",
".  .  .  .  .  .  .  .  .  .  .  .  .  .  .  .  'h )h !h ~h {h ]h ^h K= F# F# z: A: D# D# y^ /h db (h .b _h @- F# F# F# F# F# F# F# F# F# F# F# F# F# F# F# F# F# F# F# F# F# F# F# F# F# F# F# F# F# F# F# F# F# F# F# F# F# F# F# F# F# F# F# F# F# F# F# F# F# F# F# F# F# F# ,* :h (h (h <h [h }h |h 1h 2h 3h 4h <# 5h 6h 7h 7h 7h 7h 7h 7h 7h 8h 9h C. g. g. g. g. g. g. g. g. g. g. g. g. g. g. g. g. g. g. g. g. g. g. =! fc $g %g 3, <# <# <# <# t, 0h ah bh 7h 7h 7h 7h 7h 7h ch dh g. g. g. g. g. g. g. g. g. g. g. g. g. g. g. g. g. g. g. g. g. g. g. g. g. g. g. g. U+ `* eh fh gh hh ih jh eg fg -g )< D# D#  - >4 F# F# F# F# F# F# F# &( kh (h lh mh nh oh ph qh rh sh th uh lg mg g. g. g. g. g. g. g. g. g. g. g. g. g. g. F. P> ng vh wh xh yh zh Ah Ah Bh Ch Dh g. g. g. g. g. g. g. g. g. g. g. g. g. g. U+ Eh Fh 7h 7h Gh Hh 26 3, <# <# <# <# t, vg S9 I+ '@ Ih Jh Kh Lh Mh f7 N# '# '# '# '# '# '# '# '# '# '# m# xe Nh be .  .  .  .  .  .  .  .  .  .  .  .  .  .                                                                                                                                                                                                                                                                                                     ",
".  .  .  .  .  .  .  .  .  .  .  .  .  .  .  .  Oh Ph Qh Rh 4% 5^ Sh @- F# F# z: A: D# D# D# D# D# D# J- Th @- F# F# F# F# F# F# F# F# F# F# F# F# F# F# F# F# F# F# F# F# F# F# F# F# F# F# F# F# F# F# F# F# F# F# F# F# F# F# F# F# F# F# F# F# F# F# F# F# F# F# F# F# F# F# &( ,e D# D# Uh Vh Wh Xh O, Yh Zh [& <# `h  i X% y+ y+ y+ y+ y+ y+ E. g. g. g. g. g. g. g. g. g. g. g. g. g. g. g. g. g. g. g. g. g. g. g. g. =! fc $g %g 3, <# <# <# <# t, .i +i @i y+ y+ y+ y+ y+ =! F. g. g. g. g. g. g. g. g. g. g. g. g. g. g. g. g. g. g. g. g. g. g. g. g. g. g. g. g. g. g. y+ y+ y+ =! p8 V8 #i eg fg -g )< D# D#  - >4 F# F# F# F# F# F# F# &( jd D# $i %i &i *i =i -i ;i >i {2 ,i lg mg g. g. g. g. g. g. g. g. g. g. g. g. g. g. E. P> ng vh F. 'i )i !i ~i {i ]i ^i 7+ g. g. g. g. g. g. g. g. g. g. g. g. g. g. g. y+ y+ y+ c. /i 4e ue 3, <# <# <# <# t, vg S9 I+ '@ 8e 9e (i e% D+ '# '# '# '# '# '# '# '# '# '# '# '# '# xe _i '5 .  .  .  .  .  .  .  .  .  .  .  .  .  .                                                                                                                                                                                                                                                                                                     ",
".  .  .  .  .  .  .  .  .  .  .  .  .  .  .  .  :i Ph Qh <i D# J- [i @- F# F# z: A: I5 D# D# D# D# D# J- Th @- F# F# F# F# F# F# F# F# F# F# F# F# F# F# F# F# F# F# F# F# F# F# F# F# F# F# F# F# F# F# F# F# F# F# F# F# F# F# F# F# F# F# F# F# F# F# F# F# F# F# F# F# F# F# &( ,e D# D# Uh Vh }i [& <# <# <# <# <# `h  i h. g. g. g. g. g. g. g. g. g. g. g. g. g. g. g. g. g. g. g. g. g. g. g. g. g. g. g. g. g. g. g. =! fc $g %g 3, <# <# <# <# t, |i +i 1i C. g. g. g. g. g. g. g. g. g. g. g. g. g. g. g. g. g. g. g. g. g. g. g. g. g. g. g. g. g. g. g. g. g. g. g. g. g. g. g. =! p8 2i jh eg fg -g )< D# D#  - >4 F# F# F# F# F# F# F# &( jd D# $i %i 3i 4i O6 i^ i^ g. {2 ,i lg mg g. g. g. g. g. g. g. g. g. g. g. g. g. g. D. P> ng vh F. 5i 6i 7i 8i 9i 0i ai g. g. g. g. g. g. g. g. g. g. g. g. g. g. g. g. g. g. g. =! bi 4e ue 3, <# <# <# <# t, vg S9 I+ '@ 8e 9e +e '# '# '# '# '# '# '# '# '# '# '# '# '# '# m# ci di .  .  .  .  .  .  .  .  .  .  .  .  .  .  .                                                                                                                                                                                                                                                                                                     ",
".  .  .  .  .  .  .  .  .  .  .  .  =  g= ei fi gi Ph Qh <i D# hi ii ^= 1% 1% ji ki 4% 4% (= Q* d  (= @& li @- F# F# F# F# F# F# F# F# F# F# F# F# F# F# F# F# F# F# F# F# F# F# F# F# F# F# F# F# F# F# F# F# F# F# F# F# F# F# F# F# F# F# F# F# F# F# F# F# F# F# F# F# F# F# &( ,e D# D# Uh Vh Wh mi O, Yh Q# 4, J. `h  i h. g. g. g. y+ y+ y+ E. g. g. g. g. g. g. g. g. g. g. g. g. g. g. g. g. g. g. g. g. g. g. g. g. =! fc ni oi 4, 4, 4, 4, 4, 4, pi +i 1i C. g. g. g. g. g. g. g. g. g. g. g. g. g. g. g. g. g. g. g. g. g. g. g. g. g. g. g. g. g. g. g. g. g. g. g. g. g. g. g. g. p8 qi ri si ti ui vi 66 66 wi xi _| yi yi yi yi yi yi zi ,e 4% |a %i 3i Ai g. g. g. g. {2 kg Bi mg =! =! =! =! =! =! y+ g. g. g. g. g. g. g. E. P> ng vh F. 5i Ci Di i: 9i 0i ai y+ y+ y+ g. g. g. g. g. g. g. g. g. g. g. g. g. g. g. g. =! bi 4e ue 3, <# <# <# <# t, vg S9 N. 0% 8e 9e (i e% e% e% e% e% D+ '# '# '# '# '# '# '# '# O# Ei Fi `) Gi Gi =  .  .  .  .  .  .  .  .  .  .  .                                                                                                                                                                                                                                                                                                     ",
".  .  .  .  .  .  .  .  .  .  .  .  T% Hi Ii Ji Ki Li Mi <i D# Ni Oi Pi Pi Pi Qi Ri Si Si Ti Ui Ui Ui Vi Wi Xi Yi Yi Yi K= F# F# F# F# F# F# F# F# F# F# F# F# F# F# F# F# F# F# F# F# F# F# F# F# F# F# F# F# F# F# F# F# F# F# F# F# F# F# F# F# F# F# F# F# F# F# F# F# F# F# &( ,e D# D# Zi `i  j .j +j @j #j $j %j &j *j g. g. U+ =j -j ;j ;j >j ,j g. g. g. g. g. g. g. g. g. g. g. g. g. g. g. g. g. g. g. g. g. g. g. E. 'j )j !j ~j ~j ~j ~j ~j ~j {j ]j ^j g. g. g. g. g. g. g. g. g. g. g. g. g. g. g. g. g. g. g. g. g. g. g. g. g. g. g. g. g. g. g. g. g. g. g. g. g. g. g. g. E. /j (j _j :j <j [j }j |j |j 1j 2j 3j 3j 3j 3j 3j 3j 3j 2j 4j 5j 6j 7j 8j 9j g. g. g. g. g. 0j aj bj cj cj cj cj cj cj dj ej *! g. g. g. g. g. E. P> ng vh F. fj gj hj ij jj kj lj mj nj nj oj q{ g. g. g. g. g. g. g. g. g. g. g. g. g. g. =! bi 4e ue 3, <# <# <# <# <# pj qj rj qj sj tj uj vj vj vj vj vj wj xj d% '# '# '# '# '# '# '# yj zj Aj Bj Cj Dj 9  .  .  .  .  .  .  .  .  .  .                                                                                                                                                                                                                                                                                                     ",
".  .  .  .  .  .  .  .  .  .  .  .  Ej Fj 79 5- Gj Hj Ij <i J# Jj Kj Lj Mj Mj Mj Nj Oj Pj Qj Rj x% Sj Tj Uj Vj @& =$ :! Wj F# F# F# F# F# F# F# F# F# F# F# F# F# F# F# F# F# F# F# F# F# F# F# F# F# F# F# F# F# F# F# F# F# F# F# F# F# F# F# F# F# F# F# F# F# F# F# F# F# F# &( ,e D# D# D# I( Xj m~ Yj Zj `j  k 6~ F~ P@ g. g. .k +k @k m# '# #k $k U= g. g. g. g. g. g. g. g. g. g. g. g. g. g. g. g. g. g. g. g. g. g. g. C% %k i~ 6~ 6~ 6~ 6~ 6~ 6~ 6~ &k g. g. g. g. g. g. g. g. g. g. g. g. g. g. g. g. g. g. g. g. g. g. g. g. g. g. g. g. g. g. g. g. g. g. g. g. g. g. g. g. g. g. U+ >^ Q- *k =k -k ;k >k >k >k ,k 'k )k !k ~k )k {k ]k ^k >k >k /k (k _k p{ g. g. g. g. g. F. |8 :k <k [k }k }k |k 2b 1k 2k 3k g. g. g. g. g. E. P> ng vh F. F. 4k 5k t6 6k 7k 8k 9k 0k ak bk ck g. g. g. g. g. g. g. g. g. g. g. g. g. g. =! bi 4e ue 3, <# <# <# <# <# <# i% i% i% dk ek K+ W+ W+ W+ W+ Wd fk gk hk N# '# '# '# '# '# '# m# <6 ;# ik jk kk lk .  .  .  .  .  .  .  .  .  .                                                                                                                                                                                                                                                                                                     ",
".  .  .  .  .  .  .  .  .  .  .  .  mk nk w; ok pk Hj Ij <i J# qk rk sk tk H^ $& $& $& uk O7 J8 ,{ c= vk wk xk @& D# yk Wj F# F# F# F# F# F# F# F# F# F# F# F# F# F# F# F# F# F# F# F# F# F# F# F# F# F# F# F# F# F# F# F# F# F# F# F# F# F# F# F# F# F# F# F# F# F# F# F# F# F# &( ,e D# D# D# D# 4  4  zk Ak Bk Ck )& g. g. g. g. .k +k Dk {# {# Ek Fk U= g. g. g. g. g. g. g. g. g. g. g. g. g. g. g. g. g. g. g. g. g. g. g. g. F. F. D. D. D. D. D. D. D. g. g. g. g. g. g. g. g. g. g. g. g. g. g. g. g. g. g. g. g. g. g. g. g. g. g. g. g. g. g. g. g. g. g. g. g. g. g. g. g. g. g. g. g. D. D. g~ Gk Hk Ik Jk Jk Jk Kk Lk -a Mk Nk Ok 5a Pk Jk Jk Jk Jk Qk F. g. g. g. g. g. g. g. F. Rk (2 I1 F. F. O6 Sk Tk 2k 3k g. g. g. g. g. E. P> ng vh F. g. g. Uk (2 Vk t8 Wk Xk Yk Zk `k ck g. g. g. g. g. g. g. g. g. g. g. g. g. g. =! bi 4e ue 3, <# <# <# <# <# <# <# <# <#  l s# `d wg wg wg wg wg W+ gk hk N# '# '# '# '# '# '# D+ D+ e% .l +l Q+ @l .  .  .  .  .  .  .  .  .  .                                                                                                                                                                                                                                                                                                     ",
".  .  .  .  .  .  .  .  .  .  .  .  #l nk w; t, pk Hj Ij <i J# qk rk sk Y+ W+ W+ wg X+ $l O7 %l <# '& &l *l xk d  _  d8 Wj F# F# F# F# F# F# F# F# F# F# F# F# F# F# F# F# F# F# F# F# F# F# F# F# F# F# F# F# F# F# F# F# F# F# F# F# F# F# F# F# F# F# F# F# F# F# F# F# F# F# &( ,e D# D# D# D# b# _  ;$ =l Bk Ck i. F. D. D. D. .k +k -l X: '# Ek Fk U= g. g. g. g. g. g. g. g. g. g. g. g. g. g. g. g. g. g. g. g. g. g. g. g. g. g. g. g. g. g. g. g. g. g. g. g. g. g. g. g. g. g. g. g. g. g. g. g. g. g. g. g. g. g. g. g. g. g. g. g. g. g. g. g. g. g. g. g. g. g. g. g. g. g. g. g. g. F. F. g~ Gk ;l >l g. g. g. U+ ~2 &g U+ O| &g U+ O| g. g. g. g. g. g. g. g. g. g. g. g. g. g. g. g. g. g. ,l I1 'l )l !l 3k g. g. g. g. g. E. P> ng ~l {l ,l ,l ,l ,l ]l ^l Wk Xk /l Zk `k ck g. g. g. g. g. g. g. g. g. g. g. g. g. g. =! 3e 4e ue 3, <# <# <# <# <# <# <# <# <# r# s# ,@ W+ W+ W+ W+ wg W+ gk hk N# '# '# '# '# '# '# '# '# D+ (l +l _l 0  .  .  .  .  .  .  .  .  .  .                                                                                                                                                                                                                                                                                                     ",
".  .  .  .  .  .  .  .  .  .  .  :l <l [l w; t, }l Hj Ij <i J# qk rk sk Y+ W+ K+ 1$ 1$ |l O7 %l <# '& 1l 2l 3l J- J- 4l &_ G# G# G# F# F# F# F# F# F# F# F# F# F# F# F# F# F# F# F# F# F# F# F# F# F# F# F# F# F# F# F# F# F# F# F# F# F# F# F# F# F# F# F# F# F# F# F# F# F# F# &( ,e D# D# D# B; F% J- N{ 5l 6l 7l p{ p{ z+ D. p{ 8l 9l 0l ># M# al $k U= g. g. g. g. g. g. g. g. g. g. g. g. g. g. g. g. g. g. g. g. g. g. g. g. g. g. g. g. g. g. g. g. g. g. g. g. g. g. g. g. g. g. g. g. g. g. g. g. g. g. g. g. g. g. g. g. g. g. g. g. g. g. g. g. g. g. g. g. g. g. g. g. g. g. g. g. g. .f .f e* bl cl >l g. g. g. g. g. g. g. g. g. g. g. g. g. g. g. g. g. g. g. g. g. g. g. g. g. g. g. F. U+ kg ]8 dl el fl R| q{ q{ C. g. g. E. P> gl hl ]8 ]8 ]8 ]8 ]8 O1 il Wk Xk /l Zk `k ck g. g. C% p{ p{ p{ p{ p{ p{ p{ p{ p{ p{ p{ D. 'j Sd ue 3, <# <# X/ X/ X/ <# <# <# <# r# s# ,@ W+ W+ X+ '@ t# t. gk hk N# '# '# '# '# '# '# '# '# D+ (l +l _l 0  .  .  .  .  .  .  .  .  .  .                                                                                                                                                                                                                                                                                                     ",
".  .  .  .  .  .  .  .  .  .  .  q* jl kl ll ml nl ol Ij <i J# qk rk sk Y+ J+ pl ql rl rl sl [& <# <# tl ul vl wl xl yl zl Al Bl Cl Dl F# F# F# F# F# F# F# F# F# F# F# F# F# F# F# F# F# F# F# F# F# F# F# F# F# F# F# F# F# F# F# F# F# F# F# F# F# F# F# F# F# F# F# F# F# F# &( ,e D# D# El Fl Gl wl wl Hl Il Jl Kl Ll Ml Nl Ol Nl Pl Ql Rl Rl Sl Tl g. g. g. g. g. g. g. g. g. g. g. g. g. g. g. g. g. g. g. g. g. g. g. g. g. g. g. g. g. g. g. g. g. g. g. g. g. g. g. g. g. g. g. g. g. g. g. g. g. g. g. g. g. g. g. g. g. g. g. g. g. g. g. g. g. g. g. g. g. g. g. g. g. g. g. g. E. :[ Ul Vl Wl Xl Yl U+ g. g. g. g. g. g. g. g. g. g. g. g. g. g. g. g. g. g. g. g. g. g. g. g. g. g. F. Zl `l  m .m .m +m @m #m $m %m &m *m g. E. P> =m -m .m .m .m .m .m .m ;m >m ,m /l Zk `k ck E. h] 'm )m Kl Kl Kl Kl Kl Kl Kl Kl Kl Kl Kl !m ~m {m <# ]m ^m /m (m _m :m *6 <# <# r# s# ,@ X+ <m [m }m |m 1m 2m s6 '# '# '# '# '# '# '# '# '# D+ (l +l _l 0  .  .  .  .  .  .  .  .  .  .                                                                                                                                                                                                                                                                                                     ",
".  .  .  .  .  .  .  .  .  .  .  3m 4m 5m 6m 7m 8m 9m Ij <i J# qk rk sk Y+ 0m _# am u* p. X/ <# <# <# v* K) t) )= bm cm dm L3 a# %_ em F# F# F# F# F# F# F# F# F# F# F# F# F# F# F# F# F# F# F# F# F# F# F# F# F# F# F# F# F# F# F# F# F# F# F# F# F# F# F# F# F# F# F# F# F# F# &( ,e D# D# Uh Vh fm gm )= s) != 4, J. hm im jm jm km lm mm y+ y+ i^ g. g. g. g. g. g. g. g. g. g. g. g. g. g. g. g. g. g. g. g. g. g. g. g. g. g. g. g. g. g. g. g. g. g. g. g. g. g. g. g. g. g. g. g. g. g. g. g. g. g. g. g. g. g. g. g. g. g. g. g. g. g. g. g. g. g. g. g. g. g. g. g. g. g. g. g. g. z+ p8 nm om pm qm F. g. g. g. g. g. g. g. g. g. g. g. g. g. g. g. g. g. g. g. g. g. g. g. g. g. g. g. F. rm sm tm 8i i: i: um um um vm wm xm g. E. o} ym zm i: i: i: i: i: i: i: i: i: Am Zk `k ck y+ [^ }^ |^ J. J. J. J. J. J. J. J. J. J. J. l: N, <# <# ve 7e N. N. N. Bm Q# u* <# r# s# ,@ '@ xg |g Cm e% D+ '# '# '# '# '# '# '# '# '# '# '# D+ (l +l _l 0  .  .  .  .  .  .  .  .  .  .                                                                                                                                                                                                                                                                                                     ",
".  .  .  .  .  .  .  .  .  .  .  Dm Em 5m 6m 7m 8m 9m Ij <i J# qk rk sk Y+ 0m _# q# <# <# <# <# <# <# <# <# <# v* 03 J3 K3 L3 b# %_ em F# F# F# F# F# F# F# F# F# F# F# F# F# F# F# F# F# F# F# F# F# F# F# F# F# F# F# F# F# F# F# F# F# F# F# F# F# F# F# F# F# F# F# F# F# F# &( ,e D# D# Uh Vh Fm M, <# <# <# <# v* Gm Hm N. a% Im lm Jm C. g. g. g. g. g. g. g. g. g. g. g. g. g. g. g. g. g. g. g. g. g. g. g. g. g. g. g. g. g. g. g. g. g. g. g. g. g. g. g. g. g. g. g. g. g. g. g. g. g. g. g. g. g. g. g. g. g. g. g. g. g. g. g. g. g. g. g. g. g. g. g. g. g. g. g. g. g. g. g. C% p8 V8 Km g. g. g. g. g. g. g. g. g. g. g. g. g. g. g. g. g. g. g. g. g. g. g. g. g. g. g. g. g. g. O6 Lm sm tm Mm i: i: i: #< #< 9i wm xm g. E. o} ym Nm 8i i: i: i: i: i: i: i: i: Am Zk `k ck y+ Om >! ,! 3, <# <# <# <# <# <# <# <# <# <# <# <# <# <# ve 7e N. W+ J+ p# Q# u* <# r# s# ,@ '@ xg |g N$ '# '# '# '# '# '# '# '# '# '# '# '# '# D+ (l +l _l Pm .  .  .  .  .  .  .  .  .  .                                                                                                                                                                                                                                                                                                     ",
".  .  .  .  .  .  .  .  .  .  .  Qm 4m 5m 6m 7m 8m 9m Ij <i J# qk rk sk Y+ s. _# q# <# <# <# <# <# <# v* w* )= != Rm Sm K3 L3 b# %_ em F# F# F# F# F# F# F# F# F# F# F# F# F# F# F# F# F# F# F# F# F# F# F# F# F# F# F# F# F# F# F# F# F# F# F# F# F# F# F# F# F# F# F# F# F# F# Tm Um (= 4% <h Vm Wm M, <# <# <# p. u* Xm Hm N. 7m Im lm Ym E. y+ y+ y+ y+ y+ y+ y+ y+ y+ y+ g. g. g. g. g. g. g. g. g. g. g. g. g. g. g. g. g. g. g. g. g. g. g. g. g. g. g. g. g. g. g. g. g. g. g. g. g. g. g. g. g. g. g. g. g. g. g. g. E. y+ y+ y+ y+ g. g. g. g. g. g. g. g. g. g. g. g. g. g. g. g. D. p8 V8 q! g. g. g. g. g. g. g. g. g. g. g. g. g. g. g. g. g. g. g. g. g. g. g. g. g. g. g. g. g. O| Zm `m  n tm Mm i: i: i: i: i: 9i wm xm g. E. o} ym Nm 8i i: i: i: i: i: i: #< #< Am Zk `k .n !6 ~6 >! ,! 3, <# <# <# <# <# <# <# <# <# <# <# <# <# <# ve 7e N. W+ J+ p# Q# u* <# r# s# ,@ '@ xg |g N$ '# '# '# '# '# '# '# '# '# '# '# '# '# D+ (l +l +n @n .  .  .  .  .  .  .  .  .  .                                                                                                                                                                                                                                                                                                     ",
".  .  .  .  .  .  .  .  .  .  .  q* 4m 5m 6m 7m 8m 9m Ij <i J# #n $n %n &n *n =n *6 <# <# <# <# <# <# -n ;n >n ,n 'n )n !n L3 b# %_ ~n 9} 9} 9} 9} F# F# F# F# F# F# F# F# F# F# F# F# F# F# F# F# F# F# F# F# F# F# F# F# F# F# F# F# F# F# F# F# F# F# G# 9} 9} 9} 9} 9} 9} 9} {n ]n c/ ^n /n (n _n i% <# v* J. :n  * pj <n [n }n |n 1n 2n _/ _/ _/ _/ _/ _/ _/ _/ _/ _/ _/ 3n g. g. g. g. g. g. g. g. g. g. g. g. g. g. g. g. g. g. g. g. g. g. g. g. g. g. g. g. g. g. g. g. g. g. g. g. g. g. g. g. g. g. g. g. g. g. g. 8+ Km 4n 4n 4n 5n g. g. g. g. g. g. g. g. g. g. g. g. g. g. g. E. p8 V8 q! g. g. g. g. g. g. g. g. g. g. g. g. g. g. g. g. g. g. g. g. g. g. g. g. g. g. g. U+ O| 6n 7n 8n 9n 0n Mm i: i: i: i: i: 9i wm xm g. E. o} ym Nm 8i i: i: i: i: i: i: an bn cn dn en fn _/ gn hn ,! 3, <# <# <# <# <# <# <# <# <# <# <# <# <# <# ve 7e N. W+ J+ p# Q# u* <# r# in *n jn kn |g N$ '# '# '# '# '# '# '# '# '# '# '# '# '# D+ (l +l ln mn .  .  .  .  .  .  .  .  .  .                                                                                                                                                                                                                                                                                                     ",
".  .  .  .  .  .  .  .  .  .  .  q* 4m 5m 6m 7m 8m 9m Ij <i J# nn on pn Q# K. K. 3, <# <# <# <# <# i% i| qn rn sn c} tn un D# D# D# D# @& _= @& vn *< F# F# F# F# F# F# F# F# F# F# F# F# F# F# F# F# F# F# F# F# F# F# F# F# F# F# F# F# F# F# F# F# F# !f wn _= _= _= _= a# xn yn zn An Bn Cn Dn En 3, <# Fn 7e Gn N+ Hn In :n :n Jn Kn Ln Ln Ln Ln Ln Ln Ln Ln Ln Ln `/ Mn Nn On g. g. g. g. g. g. g. g. g. g. g. g. g. g. g. g. g. g. g. g. g. g. g. g. g. g. g. g. g. g. g. g. g. g. g. g. g. g. g. g. g. g. g. g. g. G. Pn Qn A5 A5 Rn Sn 3; g. g. g. g. g. g. g. g. g. g. g. g. g. g. g. p8 V8 q! g. g. g. g. g. g. g. g. g. g. g. g. g. g. g. g. g. g. g. g. g. g. g. g. g. g. g. Tn Un Vn Wn Wn Xn Yn i: i: i: i: i: i: 9i wm xm g. E. o} ym Nm 8i i: i: i: i: i: Zn `n  o  o B_ ;+ .o Ln `/ +o <# <# <# <# <# <# <# <# <# <# <# <# <# <# <# <# ve 7e N. W+ J+ p# Q# u* <# <# K) :n ~& @o #o !$ '# '# '# '# '# '# '# '# '# '# '# '# '# D+ (l +l Q+ $o .  .  .  .  .  .  .  .  .  .                                                                                                                                                                                                                                                                                                     ",
".  .  .  .  .  .  .  .  .  .  .  q* 4m 5m 6m 7m 8m 9m Ij <i J# %o &o *o 2, p. p. <# <# <# <# <# <# '& =o wk -o ], ]^ @& =$ D# D# D# D# D# D# J- ;o *< F# F# F# F# F# F# F# F# F# F# F# F# F# F# F# F# F# F# F# F# F# F# F# F# F# F# F# F# F# F# F# F# F# Z2 :9 D# D# D# D# D# B; <, >o ,o L( s) *6 [& <# <# Fn 7e N. X+ Hn 'o p. p. u* t, J. J. J. J. J. J. J. J. J. J. 4, )o !o B. C. g. g. g. g. g. g. g. g. g. g. g. g. g. g. g. g. g. g. g. g. g. g. g. g. g. g. g. g. g. g. g. g. g. g. g. g. g. g. g. g. g. g. g. g. &+ ~o {o ]o ^o /o (o 3; g. g. g. g. g. g. g. g. g. g. g. g. g. g. D. p8 V8 q! g. g. g. g. g. g. g. g. g. g. g. g. g. g. g. g. g. g. g. g. g. g. g. g. g. g. g. Tn _o Vn Yn :o i: i: i: i: i: i: i: i: 9i wm xm g. E. P> ym Nm 8i i: i: i: i: i: <o [o i% 3, 3, J. J. J. J. N, <# <# <# <# <# <# <# <# <# <# <# <# <# <# <# <# ve 7e N. W+ J+ p# Q# u* <# <# <# p. p. }o |o !$ '# '# '# '# '# '# '# '# '# '# '# '# '# D+ (l +l 1o 2o .  .  .  .  .  .  .  .  .  .                                                                                                                                                                                                                                                                                                     ",
".  .  .  .  .  .  .  .  .  .  .  3o 4o 5m 6m 7m 8m 5o 6o 7o 8o 9o 0o ao o: O, O, O, O, O, q# M, <# '& &l *l xk @& D# D# D# D# D# D# D# D# D# J- ;o *< F# F# F# F# F# F# F# F# F# F# F# F# F# F# F# F# F# F# F# F# F# F# F# F# F# F# F# F# F# F# F# F# F# Z2 :9 D# D# D# ]^ 4% J, K, L, s, w; <# <# <# <# <# Fn 7e N. X+ bo 'o p. <# <# <# <# <# <# <# <# <# <# <# <# <# t, co do B. C. g. g. g. g. g. g. g. g. g. g. g. g. g. g. g. g. g. g. g. g. g. g. g. g. g. g. g. g. g. g. g. g. g. g. g. g. g. g. g. g. g. g. g. g. o{ ~o eo F. fo go (o ho =! =! E. g. g. g. g. g. g. g. g. y+ =! =! E. !8 V8 q! g. g. g. g. g. g. g. g. g. g. g. g. g. g. g. g. g. g. g. g. g. g. g. g. g. g. g. Tn _o Vn Yn i: i: i: i: i: i: i: i: i: 9i wm xm y+ !6 .k io jo Yk Yk Yk Yk ko Yk lo mo <# <# <# <# <# <# <# <# <# <# <# <# <# <# <# <# <# <# <# <# <# <# <# <# ve 7e N. X+ X+ Bm Q# p. p. p. <# <# <# no |o !$ '# '# '# '# '# '# '# '# '# '# '# '# '# D+ (l oo po 0  .  .  .  .  .  .  .  .  .  .                                                                                                                                                                                                                                                                                                     ",
".  .  .  .  .  .  .  .  '5 qo ro so to uo 6m vo wo xo yo zo Ao Bo Co Do Eo Eo Fo Go Ho Io Jo Ko <# '& &l *l xk @& D# D# D# D# D# D# D# D# D# J- ;o *< F# F# F# F# F# F# F# F# F# F# F# F# F# F# F# F# F# F# F# F# F# F# F# F# F# F# F# F# F# F# F# F# F# Z2 :9 D# D# Lo Mo No Oo Po Qo s, [& <# <# <# <# <# Ro So To Uo Vo Wo p. <# <# <# <# <# <# <# <# <# <# <# <# <# t, co do B. C. g. g. g. g. g. g. g. g. g. g. g. g. g. g. g. g. g. g. g. g. g. g. g. g. g. g. g. g. g. g. g. g. g. g. g. g. g. g. g. g. g. g. g. g. &+ ~o eo g. qm Xo Yo Zo `o `o oe  p g. g. g. g. g. g. U+ .p +p `o @p #p $p P> g. g. g. g. g. g. g. g. g. g. g. g. g. g. g. g. g. g. g. g. g. g. g. g. g. g. g. Tn _o Vn Yn i: i: i: i: i: i: i: i: i: %p &p *p =p =p -p ;p >p ,p 'p )p !p ~p {p ]p ^p /p <# <# <# <# <# <# <# <# <# <# <# <# <# <# <# <# <# <# <# <# <# <# <# Ro So (p _p :p <p [p }p }p |p Wa <# <# no |o !$ '# '# '# '# '# '# '# '# '# '# '# '# '# D+ O# 1p 2p 3p t+ 4p 5p 6p .  .  .  .  .  .                                                                                                                                                                                                                                                                                                     ",
".  .  .  .  .  .  .  .  7p 8p n* 9p 0p ap N. W+ )+ L+ bp cp dp ep fp gp hp hp ip jp kp lp mp np i% '& &l *l xk @& D# D# D# D# D# D# D# D# D# J- ;o *< F# F# F# F# F# F# F# F# F# F# F# F# F# F# F# F# F# F# F# F# F# F# F# F# F# F# F# F# F# F# F# F# F# Z2 :9 D# J# op pp qp rp sp tp <# <# <# <# <# <# <# <# i% N, N, N, 3, <# <# <# <# <# <# <# <# <# <# <# <# <# <# t, co do B. C. g. g. g. g. g. g. g. g. g. g. g. g. g. g. g. g. g. g. g. g. g. g. g. g. g. g. g. g. g. g. g. g. g. g. g. g. g. g. g. g. g. g. g. g. o{ ~o eo g. F. g. up vp T6 wp xp yp Dh g. g. g. g. E. 0, zp Ap Bp Bp Cp Dp g. g. g. g. g. g. g. g. g. g. g. g. g. g. g. g. g. g. g. g. g. g. g. g. g. g. g. g. Tn _o Vn Yn i: i: i: i: i: i: i: i: i: i: Ep <o Fp Gp Hp Ip Jp Kp Lp Mp Np Op Pp Qp Rp Sp M, <# <# <# <# <# <# <# <# <# <# <# <# <# <# <# <# <# <# <# <# <# <# <# i% N, N, 5- [g S9 |l |l Tp Up Vp <# no |o !$ '# '# '# '# '# '# '# '# '# '# '# '# '# '# '# M# Wp Xp Yp Zp `p  q Y, .  .  .  .  .                                                                                                                                                                                                                                                                                                     ",
".  .  .  .  .  .  .  .  .q +q K. :n @q ap N. W+ W+ O. H^ $& #q $q %q &q _% gg *q ki =q t3 -q Fm M, '& &l *l xk @& D# D# D# D# D# D# D# D# D# J- ;o *< F# F# F# F# F# F# F# F# F# F# F# F# F# F# F# F# F# F# F# F# F# F# F# F# F# F# F# F# F# F# F# F# F# Z2 :9 D# J# ;q >q ,q 'q p1 [& <# <# <# <# <# <# <# <# <# <# <# <# <# <# <# <# <# <# <# <# <# <# <# <# <# <# <# t, co do B. C. g. g. g. g. g. g. g. g. g. g. g. g. g. g. g. g. g. g. g. g. g. g. g. g. g. g. g. g. g. g. g. g. g. g. g. g. g. g. g. g. g. g. g. g. o{ ~o eo g. g. g. )q )q )q !q ~q {q Dh g. g. g. g. E. 0, cg ]q ^q )q  9 g. g. g. g. g. g. g. g. g. g. g. g. g. g. g. g. g. g. g. g. g. g. g. g. g. g. g. g. g. Tn _o Vn Yn i: i: i: i: i: i: i: i: i: i: i: /q (q Yk _q :q <q D. se [e }e O) [q }q |q 1q 2, <# <# <# <# <# <# <# <# <# <# <# <# <# <# <# <# <# <# <# <# <# <# <# <# <# <# _a vg S9 N. W+ Tp Up Vp <# no |o !$ '# '# '# '# '# '# '# '# '# '# '# '# '# '# '# '# D+ '# 2q 3q 4q 5q Y, .  .  .  .  .                                                                                                                                                                                                                                                                                                     ",
".  .  .  .  .  .  .  .  6q +q `& gm 7q ap N. W+ W+ W+ W+ W+ H^ $q %q &q <% d# =< A: |; 8q -q 9q <1 ^; &l *l xk @& D# D# D# D# D# D# D# D# D# J- ;o *< F# F# F# F# F# F# F# F# F# F# F# F# F# F# F# F# F# F# F# F# F# F# F# F# F# F# F# F# F# F# F# F# F# !f :9 D# 0q aq bq cq 2, <# <# <# <# <# <# <# <# <# <# <# <# <# <# <# <# <# <# <# <# <# <# <# <# <# <# <# <# <# t, co do B. C. g. g. g. g. g. g. g. g. g. g. g. g. g. g. g. g. g. g. g. g. g. g. g. g. g. g. g. g. g. g. g. g. g. g. g. g. g. g. g. g. g. g. g. g. &+ ~o dq !2 eq ^2 g. g. g. pm fq {q Dh g. g. g. g. E. 0, Nb ac F. g. g. g. g. g. g. g. g. g. g. g. g. g. g. g. g. g. g. g. g. g. g. g. g. g. g. g. g. g. g. g. Tn _o Vn Yn i: i: i: i: i: i: i: i: i: i: i: i: i: um _q :q <q g. se [e }e :! 0q gq hq iq 2, <# <# <# <# <# <# <# <# <# <# <# <# <# <# <# <# <# <# <# <# <# <# <# <# <# <# t, vg S9 I+ W+ jq Up Vp <# no |o !$ '# '# '# '# '# '# '# '# '# '# '# '# '# '# '# '# '# '# e% kq lq mq .  .  .  .  .  .                                                                                                                                                                                                                                                                                                     ",
".  .  .  .  .  .  .  .  nq oq /; pq qq rq I+ W+ W+ W+ W+ W+ O. sq tq uq *q w: 7< vq _  wq xq yq t) <$ zq Aq Bq j- @& r] q] D# b# D# D# b# D# J- Cq *< F# F# F# F# F# F# F# F# F# F# F# F# F# F# F# F# F# F# F# F# F# F# F# F# F# F# F# F# F# F# F# F# G# Dq Eq b# e< Fq Gq cq 2, <# <# <# <# <# <# <# <# <# <# <# <# <# <# <# <# <# <# <# <# <# <# <# <# <# <# <# <# '& '& Hq Iq Jq G. G. C% g. g. g. g. g. g. g. g. g. g. g. g. g. g. g. g. g. g. g. g. g. g. g. g. g. g. g. g. g. g. g. g. g. g. g. g. g. g. g. g. g. g. G. Kq Lq Mq Mq *g 5n F. g. pm fq {q Dh g. g. g. g. E. 0, Nb ac F. g. g. g. g. g. g. g. g. g. g. g. g. g. g. g. g. g. g. g. g. g. g. g. g. g. g. g. g. g. g. g. Tn _o Vn Yn i: i: i: i: i: i: i: i: i: i: i: i: i: um _q Nq Oq p{ Pq Qq Rq I5 0q Sq Tq Uq M, <# t, K) K) K) K) K) K) K) K) 3, <# <# <# <# <# <# <# <# <# <# <# <# <# <# <# t, vg S9 I+ W+ jq Up x% t, }/ |o !$ '# '# '# '# '# '# '# '# '# '# '# '# '# '# '# '# '# '# e% kq lq mq .  .  .  .  .  .                                                                                                                                                                                                                                                                                                     ",
".  .  .  .  .  .  .  .  Vq Wq Xq Yq Zq `q |$ Wd W+ W+ W+ W+ X+  r .r +r @r #r $r %r &r *r =r -r ;r >r ,r 'r )r !r ~r {r ]r ^r R< S< R< R< /r R< bb @- F# F# F# F# F# F# F# F# F# F# F# F# F# F# F# F# F# F# F# F# F# F# F# F# F# F# F# F# F# F# F# }% (r _r :r <r [r }r |r 1r [& <# <# <# <# <# <# <# <# <# <# <# <# <# <# <# <# <# <# <# <# <# <# <# <# <# <# i% 2r 3r 4r 5r 6r 7r 8r 9r 0r ar *! g. g. g. g. g. g. g. g. g. g. g. g. g. g. g. g. g. g. g. g. g. g. g. g. g. g. g. g. g. g. g. g. g. g. g. g. g. g. g. g. C% /j br cr Mk dr er fr F. pm fq {q Dh g. g. g. g. E. 0, Nb ac F. g. g. g. g. g. g. g. g. g. g. g. g. g. g. g. g. g. g. g. g. g. g. g. g. g. g. g. g. g. g. g. Tn _o Vn Yn i: i: i: i: i: i: i: i: i: i: i: i: i: /q gr hr ir jr kr lr mr nr [r or pr qr 5- rr sr tr ur ur ur ur ur vr wr xr yr 3, <# <# <# <# <# <# <# <# <# <# <# <# <# t, vg S9 I+ wg zr Ar Br Cr Dr Er N# '# '# '# '# '# '# '# '# '# '# '# '# '# '# '# '# '# '# e% kq lq mq .  .  .  .  .  .                                                                                                                                                                                                                                                                                                     ",
".  .  .  .  .  .  .  .  Fr Gr Hr Ir Jr Kr |= 6m W+ W+ W+ W+ W+ Lr Mr b_ b_ b_ b_ b_ l[ Nr Or Pr Qr _= Rr Sr Tr l2 Ur Vr Wr d& G; F# G# G# F# G# F# F# F# F# F# F# F# F# F# F# F# F# F# F# F# F# F# F# F# F# F# F# F# F# F# F# F# F# F# F# F# F# F# >g Xr Yr Zr `& b_ M( N( [& <# <# <# <# <# <# <# <# <# <# <# <# <# <# <# <# <# <# <# <# <# <# <# <# <# <# <# Jn `r  s .s +s @s #s *g $s %s &s Dh g. g. g. g. g. g. g. g. g. g. g. g. g. g. g. g. g. g. g. g. g. g. g. g. g. g. g. g. g. g. g. g. g. g. g. g. g. g. g. g. g. D. z+ z+ =! q! *s =s F. pm fq {q Dh g. g. g. g. E. 0, Nb ac F. g. g. g. g. g. g. g. g. g. g. g. g. g. g. g. g. g. g. g. g. g. g. g. g. g. g. g. g. g. g. g. Tn _o Vn Yn i: i: i: i: i: i: i: i: i: i: i: i: i: i: #< um um um um -s ;s b_ b_ E| 2, 3, t, [5 >s ,s =! E. E. E. E. 's )s !s o. 3, <# <# <# <# <# <# <# <# <# <# <# <# <# t, vg S9 I+ '@ 8e 9e +e '# '# '# '# '# '# '# '# '# '# '# '# '# '# '# '# '# '# '# '# '# '# e% kq lq mq .  .  .  .  .  .                                                                                                                                                                                                                                                                                                     ",
".  .  .  .  .  .  .  .  ~s {s ]s ^s /s Kr |= 6m W+ W+ W+ W+ (s bo J^ p. <# <# <# <# t, 'c _s :s 2= J# <s [s }s |s qe 1s Wr 8< d# F# F# F# F# F# F# F# F# F# F# F# F# F# F# F# F# F# F# F# F# F# F# F# F# F# F# F# F# F# F# F# F# F# F# F# F# F# F# >g Xr 2s 3s M, <# <# <# <# <# <# <# <# <# <# <# <# <# <# <# <# <# <# <# <# <# <# <# <# <# <# <# <# <# <# <# Jn `r 4s 5s g. U+ g. 6s eg 7s &s Dh g. g. g. g. g. g. g. g. g. g. g. g. g. g. g. g. g. g. g. g. g. g. g. g. g. g. g. g. g. g. g. g. g. g. g. g. g. g. g. g. g. g. g. g. E. P> 8s .h F. pm fq {q Dh g. g. g. g. E. 0, Nb ac F. g. g. g. g. g. g. g. g. g. g. g. g. g. g. g. g. g. g. g. g. g. g. g. g. g. g. g. g. g. g. g. Tn _o Vn Yn i: i: i: i: i: i: i: i: i: i: i: i: i: i: i: i: i: i: i: 9s 0s <# <# <# <# <# t, [5 >s as C. g. g. g. g. g~ bs !s o. 3, <# <# <# <# <# <# <# <# <# <# <# <# <# t, vg S9 I+ '@ 8e 9e +e '# '# '# '# '# '# '# '# '# '# '# '# '# '# '# '# '# '# '# '# '# '# e% kq lq cs .  .  .  .  .  .                                                                                                                                                                                                                                                                                                     ",
".  .  .  .  .  .  .  .  ~s {s ]s ^s /s Kr |= 6m N. N. N. N. N. ds J^ p. <# <# <# <# t, 'c _s es fs _= <s [s gs hs qe 1s Wr 8< d# F# F# F# F# F# F# F# F# F# F# F# F# F# F# F# F# F# F# F# F# F# F# F# F# F# F# F# F# F# F# F# F# F# F# F# F# F# F# >g Xr 2s 3s M, <# <# <# <# <# <# <# <# <# <# <# <# <# <# <# <# <# <# <# <# <# <# <# <# <# <# <# <# i% Jn Jn is `r 4s 5s F. g. g. O6 js ks &s ls E. E. E. E. E. E. g. g. g. g. g. g. g. g. g. g. g. g. g. g. g. g. g. g. g. g. g. g. g. g. g. g. g. g. g. g. g. g. g. g. g. D. E. E. !6 P> 8s .h F. pm fq {q Dh g. D. E. E. !6 0, Nb ac F. g. g. g. g. g. g. g. g. g. g. g. g. g. g. g. g. g. g. g. g. g. g. g. g. g. g. g. g. g. g. g. Tn _o Vn Yn i: i: i: i: i: i: i: i: i: i: i: i: i: i: i: i: i: i: i: 9s 0s <# <# <# <# <# t, [5 ms ns E. E. g. g. g. g~ bs !s os J. J. K. 3, <# <# <# <# <# <# <# <# <# <# t, vg S9 I+ '@ 8e 9e +e '# '# '# '# '# '# '# '# '# '# '# '# '# '# '# '# '# '# '# '# '# '# e% kq ps qs .  .  .  .  .  .                                                                                                                                                                                                                                                                                                     ",
".  .  .  .  .  .  .  .  rs ss ]s ^s /s ts M* us $l $l $l $l $l Ih J^ p. <# <# <# <# t, x* vs ws xs }} ys zs As Bs Cs 1s Wr 8< d# F# F# F# F# F# F# F# F# F# F# F# F# F# F# F# F# F# F# F# F# F# F# F# F# F# F# F# F# F# F# F# F# F# F# F# F# F# F# >g Xr 2s 3s M, <# <# <# <# <# <# <# <# <# <# <# <# <# <# <# <# <# <# <# <# <# <# <# <# <# <# <# v* Ds Es Es Es Fs Gs Hs F. g. g. F. Is Js Ks Ls o} o} o} Ms 6( 6( h. g. g. g. g. g. g. g. g. g. g. g. g. g. g. g. g. g. g. g. g. g. g. g. g. g. g. g. g. g. g. g. g. g. g. N| o} P> 0{ Ns Os og F. pm fq {q Dh g. W{ o} o} 0{ Ps Qs ]c F. g. g. g. g. g. g. g. g. g. g. g. g. g. g. g. g. g. g. g. g. g. g. g. g. g. g. g. g. g. g. g. Tn Un Vn Rs Rs Rs Rs Rs Rs Rs Rs Rs Rs Rs Rs Rs Rs Rs Rs Rs Rs Rs Wn Ss Ts  o  o  o u* <# t, -n Us Vs Ws 7( h. Y% g. g~ bs Xs Ys Ln `/ Zs <# <# <# <# <# <# <# <# <# <# <# t, vg S9 I+ '@ 8e 9e +e '# '# '# '# '# '# '# '# '# '# '# '# '# '# '# '# '# '# '# '# '# '# e% kq `s  t t% .  .  .  .  .                                                                                                                                                                                                                                                                                                     ",
".  .  .  .  .  .  .  .  .t ss ]s +t @t #t $t %t :n :n :n :n :n :n =4 <# <# <# <# <# <# k< &t *t =t ,n -t ;t >t x8 ,t 1s Wr 8< d# F# F# F# F# F# F# F# F# F# F# F# F# F# F# F# F# F# F# F# F# F# F# F# F# F# F# F# F# F# F# F# F# F# F# F# F# F# F# >g Xr 2s 3s M, <# <# <# <# <# <# <# <# <# <# <# <# <# <# <# <# <# <# <# <# <# <# <# <# <# <# <# 't )t !t ~t ~t 8n {t g. g. g. g. g. O| 0j go ]t Sg ^t /t (t _t :t <t [t g. g. g. g. g. g. g. g. g. g. g. g. g. g. g. g. g. g. g. g. g. g. g. g. g. g. g. g. g. g. g. g. o{ }t |t Sg ]t 1t `8 U+ g. pm fq {q Dh G. 2t 3t Sg ]t Sg 4t ~2 g. g. g. g. g. g. g. g. g. g. g. g. g. g. g. g. g. g. g. g. g. g. g. g. g. g. g. g. g. g. g. g. U+ O| 5t 7n 7n 7n 7n 7n 7n 7n 7n 7n 7n 7n 7n 7n 7n 7n 7n 7n 7n 8n 6t 7t 8t bn bn bn 9t <# <# <# 0t at bt ct dt 1i C. g. N| et _/ _/ ft h} i} i% <# <# <# <# <# <# <# <# <# t, vg S9 I+ '@ 8e 9e +e '# '# '# '# '# '# '# '# '# '# '# '# '# '# '# '# '# '# '# '# '# '# e% kq gt ht a$ .  .  .  .  .                                                                                                                                                                                                                                                                                                     ",
".  .  .  .  .  .  .  .  Fr ss ]s +t it jt kt t* p. p. p. p. p. p. <# <# <# <# <# <# <# <# t, t) )= O, lt mt nt ot ,t 1s Wr 8< d# F# F# F# F# F# F# F# F# F# F# F# F# F# F# F# F# F# F# F# F# F# F# F# F# F# F# F# F# F# F# F# F# F# F# F# F# F# F# >g Xr 2s 3s M, <# <# <# <# <# <# <# <# <# <# <# <# <# <# <# <# <# <# <# <# <# <# <# <# <# <# <# pt qt rt st st tt g. g. g. g. g. g. g. J1 ut vt wt xt il yt zt At Bt Ct g. g. g. g. g. g. g. g. g. g. g. g. g. g. g. g. g. g. g. g. g. g. g. g. g. g. g. g. g. g. g. g. &+ ~o Dt vt vt wt U+ g. g. pm fq {q Dh g~ Et Ft ut vt vt O| g. g. g. g. g. g. g. g. g. g. g. g. g. g. g. g. g. g. g. g. g. g. g. g. g. g. g. g. g. g. g. g. g. g. g. Gt st st st st st st st st st st st st st st st st st Zm Ht It Ci 7i i: #< Zn Jt <# <# <# t, 4, &/ Kt +i 1i C. g. D. y+ E. !6 U1 Lt `[ i% <# <# <# <# <# <# <# <# <# t, vg S9 W+ '@ 8e 9e +e '# '# '# '# '# '# '# '# '# '# '# '# '# '# '# '# '# '# '# '# '# '# e% kq gt ht a$ .  .  .  .  .                                                                                                                                                                                                                                                                                                     ",
".  .  .  .  .  .  .  .  ~s {s ]s Mt Nt Ot Pt [& <# <# <# <# <# <# <# <# <# <# <# <# <# <# <# <# <# '& Qt mt Rt St Tt Ut Wr Vt /% <% .& F# F# F# F# F# F# F# F# F# F# F# F# F# F# F# F# F# F# F# F# F# F# F# F# F# F# F# F# F# F# F# F# F# F# F# F# >g Xr 2s 3s M, <# <# <# <# <# <# <# <# <# <# <# <# <# <# <# <# <# <# <# <# <# <# <# <# <# <# <# pt qt Wt F. F. F. g. g. g. g. g. g. g. g. F. F. F. Xt Yt yt zt At Bt .n =! y+ E. g. g. g. g. g. g. g. g. g. g. g. g. g. g. g. g. g. g. g. g. g. g. g. g. g. g. g. g. g. &+ ~o eo F. F. F. g. g. g. pm fq {q Dh g~ Et Zt U+ F. F. g. g. g. g. g. g. g. g. g. g. g. g. g. g. g. g. g. g. g. g. g. g. g. g. g. g. g. g. g. g. g. g. g. g. g. g. F. F. F. F. F. F. F. F. F. F. F. F. F. F. F. F. F. F. F. `t  u Ci Di i: i: Zn Jt <# <# <# <# <# t, |i +i @i y+ y+ y+ y+ y+ j. U1 Lt `[ i% <# <# <# <# <# <# p. p. p. B_ [g .u $& $& 8e 9e +e '# '# '# '# '# '# e% e% e% e% e% '# '# '# '# '# '# '# '# '# '# '# e% kq gt ht a$ .  .  .  .  .                                                                                                                                                                                                                                                                                                     ",
".  .  .  .  .  .  .  .  +u @u #u $u %u &u *u 3, <# <# <# <# <# <# <# <# <# <# <# <# <# <# <# <# <# i% =u -u ;u >u ,u 'u )u !u ~u {u [; F# F# F# F# F# F# F# F# F# F# F# F# F# F# F# F# F# F# F# F# F# F# F# F# F# F# F# F# F# F# F# F# F# F# F# F# >g Xr 2s 3s M, <# <# <# <# <# <# <# <# <# <# <# <# <# <# <# <# <# <# <# <# <# <# <# <# <# <# <# pt qt ]u g. g. g. g. g. g. g. g. g. g. g. g. g. F. Xt Yt yt zt ^u /u (u 1& 1& _u :u C. g. g. g. g. g. g. g. g. g. g. g. g. g. g. g. g. g. g. g. g. g. g. g. g. g. g. g. o{ ~o eo g. g. g. g. g. g. pm fq {q Dh g~ Et Zt U+ g. g. g. g. g. g. g. g. g. g. g. g. g. g. g. g. g. g. g. g. g. g. g. g. g. g. g. g. g. g. g. g. g. g. g. g. g. g. g. g. g. g. g. g. g. g. g. g. g. g. g. g. g. g. g. g. g. g. 5i Ci Di i: i: Zn Jt <# <# <# <# <# t, 0h <u [u 1& 1& 1& 1& 1& 1& }u |u 1u i% <# <# <# <# <# t, 2u 3u 3u 3u 4u 5u 6u 6u 7u 8u d% '# '# '# '# '# '# 9u 0u R$ R$ au f7 !$ '# '# '# '# '# '# '# '# '# e% kq gt bu .  .  .  .  .  .                                                                                                                                                                                                                                                                                                     ",
".  .  .  .  .  .  .  .  cu du eu fu gu hu 3, <# <# <# <# <# <# <# <# <# <# <# <# <# <# <# <# <# <# i% iu ju ku Xg lu mu 3i nu ou pu qu 8< F# F# F# F# F# F# F# F# F# F# F# F# F# F# F# F# F# F# F# F# F# F# F# F# F# F# F# F# F# F# F# F# F# F# F# >g Xr 2s 3s M, <# <# <# <# <# <# <# <# <# <# <# <# <# <# <# <# <# <# <# <# <# <# <# <# <# <# <# pt qt ]u g. g. g. g. g. g. g. g. g. g. g. g. g. F. Xt Yt yt ru #< su tu .* uu vu wu xu g. g. g. g. g. g. g. g. g. g. g. g. g. g. g. g. g. g. g. g. g. g. g. g. g. g. g. &+ ~o eo g. g. g. g. g. g. pm fq {q Dh g~ Et Zt U+ g. g. g. g. g. g. g. g. g. g. g. g. g. g. g. g. g. g. g. g. g. g. g. g. g. g. g. g. g. g. g. g. g. g. g. g. g. g. g. g. g. g. g. g. g. g. g. g. g. g. g. g. g. g. g. g. g. g. 5i Ci Di i: i: Zn Jt <# <# <# <# <# <# t, k< .* .* .* .* .* .* .* .* yu 3, <# <# <# <# <# <# Fn &f J+ s. jq zu Au Bu 8) Cu Du Eu '# '# '# '# D+ x6 Fu Gu L+ M+ Hu Iu Ju '# '# '# '# '# '# '# '# '# e% kq gt Ku .  .  .  .  .  .                                                                                                                                                                                                                                                                                                     ",
".  .  .  .  .  .  .  .  Lu Mu Nu J) u) [& <# <# <# <# <# <# <# <# <# <# <# <# <# <# <# <# <# <# <# '& Ou Pu Qu ^6 Ru Su Tu Uu Vu Wu Xu A* F# F# F# F# F# F# F# F# F# F# F# F# F# F# F# F# F# F# F# F# F# F# F# F# F# F# F# F# F# F# F# F# F# F# F# >g Xr 2s 3s M, <# <# <# <# <# <# <# <# <# <# <# <# <# <# <# <# <# <# <# <# <# <# <# <# <# <# <# pt qt ]u g. g. g. g. g. g. g. g. g. g. g. g. g. F. Xt Yt yt ru #< Yu Zu /; w* `u  v p| g. g. g. g. g. g. g. g. g. g. g. g. g. g. g. g. g. g. g. g. g. g. g. g. g. g. g. &+ ~o eo g. g. g. g. g. g. pm fq {q Dh g~ Et Zt U+ g. g. g. g. g. g. g. g. g. g. g. g. g. g. g. g. g. g. g. g. g. g. g. g. g. g. g. g. g. g. g. g. g. g. g. g. g. g. g. g. g. g. g. g. g. g. g. g. g. g. g. g. g. g. g. g. g. g. 5i Ci Di i: i: Zn Jt <# <# <# <# <# <# <# v* K) K) K) K) K) K) K) K) i% 3, <# <# <# <# <# <# ve 7e N. X+ wg .v +v +; 1> b, @v Eu '# '# '# '# D+ x6 #v Gu X+ $v Ih .e Ju '# '# '# '# '# '# '# '# '# e% kq gt %v &v .  .  .  .  .                                                                                                                                                                                                                                                                                                     ",
".  .  .  .  .  .  .  .  Lu Mu *v <# <# <# <# <# <# <# <# <# <# <# <# <# <# <# <# <# <# <# <# <# <# '& =v Pu -v _% ;v Su Tu >v ,v 'v Xu A* F# F# F# F# F# F# F# F# F# F# F# F# F# F# F# F# F# F# F# F# F# F# F# F# F# F# F# F# F# F# F# F# F# F# F# >g Xr 2s 3s M, <# <# <# <# <# <# <# <# <# <# <# <# <# <# <# <# <# <# <# <# <# <# <# <# <# <# <# pt qt ]u `8 a0 `8 g. g. g. g. g. g. g. g. O| a0 &g )v !v yt ru #< Yu ~v <# t, 1f  v p| g. g. g. g. g. g. g. g. g. g. g. g. g. g. g. g. g. g. g. g. g. g. g. g. g. g. F. G. ~o eo g. g. g. g. g. g. pm fq {q Dh g~ Et Zt U+ g. g. g. g. g. g. g. g. g. g. g. g. g. g. g. g. g. g. g. g. g. g. g. g. g. g. g. g. g. g. g. g. g. g. g. g. g. g. g. g. g. g. g. g. g. g. g. g. g. g. g. g. g. g. g. g. g. g. 5i Ci Di i: i: Zn Jt <# <# <# <# <# <# <# <# <# <# <# <# <# <# <# <# <# <# <# <# <# <# <# <# ve 7e N. wg W+ .v +v F[ d; p} @v Eu '# '# '# '# D+ x6 #v Gu I+ '@ Ih .e Ju '# '# '# '# '# '# '# '# '# e% kq gt ht a$ .  .  .  .  .                                                                                                                                                                                                                                                                                                     ",
".  .  .  .  .  .  .  .  Lu Mu *v <# <# <# <# <# <# <# <# <# <# <# <# <# <# <# <# <# <# <# v* G- G- G- {v ]v -v ^v /v Su Tu >v ,v 'v Xu A* F# F# F# F# F# F# F# F# F# F# F# F# F# F# F# F# F# F# F# F# F# F# F# F# F# F# F# F# F# F# F# F# F# F# F# >g Xr (v _v t) m: n* s~ <# <# <# <# <# <# <# <# <# <# <# <# <# <# <# <# <# <# <# <# <# <# <# <# pt qt :v <v <v [v }v F. g. g. g. g. g. O6 |v 1v <v <v /o yt Mm i: Yu ~v <# t, 1f 2v 3v O6 O6 C. g. g. g. g. g. g. g. g. g. g. g. g. g. g. g. g. g. g. g. g. g. g~ g~ g~ &+ 4v 5v g. g. g. g. g. g. pm fq {q Dh g~ Et Zt U+ g. g. g. g. g. g. g. g. g. g. g. g. g. g. g. g. g. g. g. g. g. g. g. g. g. g. g. g. g. g. g. g. g. g. g. g. g. g. g. g. g. g. g. g. g. g. g. g. g. g. g. g. g. g. g. g. g. g. 6v 7v 8v 9v 0v j: av '& G- G- '& 3, <# <# <# <# <# <# <# <# <# <# <# <# <# <# <# <# <# <# <# Ro bv 0% $v M+ cv dv F[ d; ev fv Eu '# '# '# '# D+ x6 #v Gu I+ '@ Ih .e Ju '# '# '# '# '# '# '# '# '# e% kq gv hv a$ .  .  .  .  .                                                                                                                                                                                                                                                                                                     ",
".  .  .  .  .  .  .  .  Lu Mu *v <# <# <# <# <# <# <# <# <# <# <# <# <# <# <# <# <# <# /; iv jv kv lv mv nv ov pv qv rv sv tv ,v 'v Xu A* F# F# F# F# F# F# F# F# F# F# F# F# F# F# F# F# F# F# F# F# F# F# F# F# F# F# F# F# F# F# F# F# F# F# F# }% uv vv wv xv yv zv Av Bv M, <# <# <# <# <# <# <# <# <# <# <# <# <# <# <# <# <# <# <# <# <# <# Cv Dv Ev Fv Fv Gv Hv Iv g. g. g. g. &g Gt Jv Kv Fv Fv Lv Mv Nv Ov D_ ,& <# v* Pv Qv Rv Sv Tv Uv Vv Y% g. g. g. g. g. g. g. g. g. g. g. g. g. g. g. g. g. E. x5 Wv Xv Yv Zv `v  w g. g. g. g. g. g. pm fq {q Dh g~ Et Zt U+ g. g. g. g. g. g. g. g. g. g. g. g. g. g. g. g. g. g. g. g. g. g. g. g. g. g. g. g. g. g. g. g. g. g. g. g. g. g. g. g. g. g. g. g. g. g. g. g. g. g. g. g. g. g. g. g. g. g. .w +w @w #w #w $w %w &w &w &w *w =w <# <# <# <# <# <# <# <# <# <# <# <# <# <# <# <# <# <# v* -w ;w >w ,w 'w )w !w ~w {w ]w ^w /w '# '# '# '# D+ x6 #v Gu I+ '@ Ih .e Ju '# '# '# '# '# '# '# '# '# e% kq gt (w a$ .  .  .  .  .                                                                                                                                                                                                                                                                                                     ",
".  .  .  .  .  .  .  .  Lu Mu *v <# <# <# <# <# <# <# <# <# <# <# <# <# <# <# <# <# <# &/ _w :w <w [w }w |w 1w _  2w 3w sv 4w ,v 'v Xu A* F# F# F# F# F# F# F# F# F# F# F# F# F# F# F# F# F# F# F# F# F# F# F# F# F# F# F# F# F# F# F# F# F# F# F# F# F# 5w 6w hi 7w 8w bq cq 2, <# <# <# <# <# <# <# <# <# <# <# <# <# <# <# <# <# <# <# <# <# <# <# '& G- G- G- `r 9w 5s F. g. g. g. eq 0w aw bw *6 G- '& [$ [& [& [& 3, <# <# <# K) K) K) i% cw  } B% g. g. g. g. g. g. g. g. g. g. g. g. g. g. g. g. g. =! /i dw ew $s fw 4a g. g. g. g. g. g. g. pm fq {q Dh g~ Et Zt U+ g. g. g. g. g. g. g. g. g. g. g. g. g. g. g. g. g. g. g. g. g. g. g. g. g. g. g. g. g. g. g. g. g. g. g. g. g. g. g. g. g. g. g. g. g. g. g. g. g. g. g. g. g. g. g. g. g. g. g. gw hw iw iw iw iw iw iw It jw kw N, <# <# <# <# <# <# <# <# <# <# <# <# <# <# <# <# <# t, lw mw nw 1>  ; ow c6 o< o< ># x, '# '# '# '# '# D+ x6 #v Gu I+ '@ Ih .e Ju '# '# '# '# '# '# '# '# '# e% kq gt ht a$ .  .  .  .  .                                                                                                                                                                                                                                                                                                     ",
".  .  .  .  .  .  .  .  Lu Mu *v <# <# <# <# <# <# <# <# <# <# <# <# <# <# <# <# <# <# &/ pw qw th rw sw |w tw @& $i 3w sv 4w ,v 'v Xu A* F# F# F# F# F# F# F# F# F# F# F# F# F# F# F# F# F# F# F# F# F# F# F# F# F# F# F# F# F# F# F# F# F# F# F# F# F# Z2 :9 D# J# ;q uw cq 2, <# <# <# <# <# <# <# <# <# <# <# <# <# <# <# <# <# <# <# <# <# <# <# <# <# <# Jn `r 4s 5s F. g. g. g. eq vw ww xw [& <# <# <# <# <# <# <# <# <# <# <# <# v* yw cw  } B% g. g. g. g. g. g. g. g. g. g. g. g. g. g. g. g. g. g. zw Aw Bw Cw U+ U+ g. g. g. g. g. g. g. pm fq {q Dh g~ Et Zt U+ g. g. g. g. g. g. g. g. g. g. g. g. g. g. g. g. g. g. g. g. g. g. g. g. g. g. g. g. g. g. g. g. g. g. g. g. g. g. g. g. g. g. g. g. g. g. g. g. g. g. g. g. g. g. g. g. g. g. g. U+ O| O| O| O| O| O| g. Dw jw kw N, <# <# <# <# <# <# <# <# <# <# <# <# <# <# <# <# <# t, Ew Fw Gw d; Hw b6 c6 X: '# '# '# '# '# '# '# '# D+ x6 #v Gu I+ '@ Ih .e Ju '# '# '# '# '# '# '# '# '# e% kq gt ht a$ .  .  .  .  .                                                                                                                                                                                                                                                                                                     ",
".  .  .  .  .  .  .  .  Lu Mu Iw s) u) M, <# <# <# <# <# <# <# <# <# <# <# <# t, c= s) Jw Kw Lw Mw *g Nw |w tw =$ $i 3w sv 4w ,v 'v Xu A* F# e# }% U* ]4 ]4 [% B* F# F# F# F# F# F# F# F# F# F# F# F# F# F# F# F# F# F# F# F# F# F# F# F# F# F# F# F# F# Z2 :9 D# J# ;q Ow Pw Qw u) Rw Jn Jn Jn Jn Jn Jn Jn Jn 3, <# <# <# <# <# <# <# <# <# <# <# <# <# <# <# Jn `r 4s 5s F. g. g. g. eq vw ww xw 3, <# <# <# <# <# <# <# <# <# <# <# <# v* y% cw  } x) E. E. E. E. E. E. E. E. E. E. E. E. E. E. E. E. E. !6 /i Aw Sw F. g. g. g. g. g. g. g. g. g. pm fq {q Dh g~ Et Zt U+ g. g. g. g. g. g. g. g. g. g. g. g. g. g. g. g. g. g. g. g. g. g. g. g. g. g. g. g. g. g. g. g. g. g. g. g. g. g. g. g. g. g. g. g. g. g. g. g. g. g. g. g. g. g. g. g. g. g. g. g. g. g. g. g. g. g. F. Tw jw kw N, N, N, <# <# <# <# <# <# <# <# <# <# <# <# <# t, 3, /; Ew Fw Gw d; Hw b6 c6 d6 '# '# '# '# '# '# '# '# D+ x6 #v Gu X+ $v Ih .e Ju '# '# '# '# '# '# '# '# '# e% kq gt ht a$ .  .  .  .  .                                                                                                                                                                                                                                                                                                     ",
".  .  .  .  .  .  .  .  Lu Uw Vw Ww Xw Yw 3, <# <# u* *^ *^ *^ *^ u* <# <# <# Zw `w Ww Vw  x .x +x @x #x $x tw 5^ %x 3w sv 4w ,v 'v Xu A* F# &x *x =x 3* -x ;x %( D4 &( &( &( &( &( &( &( &( &( &( &( &( &( &( &( &( G# F# F# F# F# F# F# F# &( &( &( &( Z2 :9 D# J# ;q >x ,x Ww 'x ~v )x )x )x )x )x )x )x )x Me <# <# <# <# <# <# <# <# <# <# <# <# <# <# <# Jn `r 4s 5s F. g. g. g. eq vw ww xw 3, <# <# <# <# <# <# <# <# <# <# <# <# v* y% cw !x @) @) @) @) @) @) @) ~x 0, 0, 0, 0, 0, 0, 0, 0, 0, 0, 0, {x ]x Sw g. g. g. g. g. g. g. g. g. g. pm fq {q Dh g~ Et Zt U+ g. g. g. g. g. g. g. g. g. g. g. g. g. g. g. g. g. g. g. g. g. g. g. g. g. g. g. g. g. g. g. g. g. g. g. g. g. g. g. g. g. g. g. g. g. g. g. g. g. g. g. g. g. g. g. g. g. g. g. g. g. g. g. g. g. g. F. Tw jw ^x /x )x (x u^ <# <# <# <# <# <# <# <# <# <# <# X/ _x :x <x [x Fw Gw d; Hw b6 c6 d6 '# '# '# '# '# '# '# '# '# ># #v }x |x )+ 1x 2x Ju '# '# '# '# '# '# '# '# '# e% kq gt ht a$ .  .  .  .  .                                                                                                                                                                                                                                                                                                     ",
".  .  .  .  .  .  .  .  3x 4x 5x 6x 7x 8x *u 3, <# 9x 0x ax ax bx cx <# t, dx ex fx gx hx ix jx jx jx kx lx mx nx ox px Tu >v ,v 'v Xu A* V* qx rx sx tx ux vx wx xx )* 8/ _= )* 8/ :! _= 8/ )* _= 8/ )* _= 8/ )* yx Dl F# F# F# F# F# F# &( zx 8/ Ax Ax 7/ D# D# D# Bx Cx hx :' Dx Ex Fx Gx Hx Hx Hx Hx Hx Ix Jx F- 3, <# <# <# <# <# <# <# <# <# <# <# <# <# Jn `r 4s 5s F. g. g. g. eq vw ww xw 3, <# <# <# <# <# <# <# <# <# <# <# <# <# <# Kx Lx Mx Mx Mx Mx Mx Mx Nx Ox Px Qx Qx Qx Qx Qx Qx Qx Qx Qx Qx Rx >l U+ g. g. g. g. g. g. g. g. g. g. pm fq {q Dh g~ Et Zt U+ g. g. g. g. g. g. g. g. g. g. g. g. g. g. g. g. g. g. g. g. g. g. g. g. g. g. g. g. g. g. g. g. g. g. g. g. g. g. g. g. g. g. g. g. g. g. g. g. g. g. g. g. g. g. g. g. g. g. g. g. g. g. g. g. g. g. g. &g Sx Tx Hx Ux Vx Wx 3, <# <# <# <# <# <# <# <# <# <# p& Xx Yx Zx `x Gw Z-  ; X6 b6 c6 d6 '# '# '# '# '# '# '# '# '# '#  y .y +y +y T) @y N# '# '# '# '# '# '# '# '# '# e% kq gt #y t% .  .  .  .  .                                                                                                                                                                                                                                                                                                     ",
".  .  .  .  .  .  .  .  .t ss ]s $y Nt Ot Pt [& <# %y &y #< #< Zn `n <# t, dx *y =y -y (= (= 5^ h# z( b# _h @- }% ;v Su Tu >v ,v 'v Xu A* V* ;y >y ,y Jb =6 'y )y !y a# D# D# D# D# D# D# D# D# D# D# D# D# D# D# ~y Dl F# F# F# F# F# F# &( jd D# D# D# D# D# D# D# D# z( 4% {y ]y ^y /y (y _y _y _y _y :y <y [y F- 3, <# <# <# <# <# <# <# <# <# <# <# <# <# Jn `r 4s 5s F. g. g. g. eq vw ww xw 3, <# <# <# <# <# <# <# <# <# <# <# <# <# <# t, 4, 4, 4, 4, 4, 4, K. 't }y |y 1y 2y 2y _y 2y 2y _y 3y 2y 4y 5y F. g. g. g. g. g. g. g. g. g. g. g. pm fq {q Dh g~ Et Zt U+ g. g. g. g. g. g. g. g. g. g. g. g. g. g. g. g. g. g. g. g. g. g. g. g. g. g. g. g. g. g. g. g. g. g. g. g. g. g. g. g. g. g. g. g. g. g. g. g. g. g. g. g. g. g. g. g. g. g. g. g. g. g. g. g. g. g. g. g. eq 6y _y 7y 8y 9y 3, <# <# <# <# <# <# <# <# <# t, 0y ay by a,  ; d; d; d; Hw b6 c6 d6 '# '# '# '# '# '# '# '# '# '# '# e% e% e% e% '# '# '# '# '# '# '# '# '# '# '# e% kq gt Ku .  .  .  .  .  .                                                                                                                                                                                                                                                                                                     ",
".  .  .  .  .  .  .  .  .t ss ]s +t it jt kt [& <# %y &y i: i: Zn `n <# t, dx *y cy dy D# D# D# D# D# J- Th @- }% ;v Su Tu >v ,v 'v Xu A* V* ;y >y ey q~ k6 fy )y !y a# D# D# D# D# D# D# D# D# D# D# D# D# D# D# ~y Dl F# F# F# F# F# F# &( jd D# D# D# D# D# D# D# D# D# D# B; ]y ^y gy hy F. F. O6 O6 iy 0w [y F- 3, <# <# <# <# <# <# <# <# <# <# <# <# <# Jn `r 4s Hs i^ F. g. g. eq vw ww xw 3, <# <# <# <# <# <# <# <# <# <# <# <# <# <# <# <# <# <# <# <# <# <# jy }y ky ~2 F. F. F. F. F. F. F. F. F. F. g. g. g. g. g. g. g. g. g. g. g. g. pm fq {q Dh g~ Et Zt U+ g. g. g. g. g. g. g. g. g. g. g. g. g. g. g. g. g. g. g. g. g. g. g. g. g. g. g. g. g. g. g. g. g. g. F. F. F. F. F. F. F. F. g. g. g. g. g. g. g. g. g. g. g. g. g. g. g. g. g. g. g. g. g. g. F. F. F. F. F. O6 4k ly 8y 9y 3, <# <# <# <# <# <# <# <# <# t, 0y ay my d; d; d; d; d; Hw b6 c6 d6 '# '# '# '# '# '# '# '# '# '# '# '# '# '# '# '# '# '# '# '# '# '# '# '# '# '# e% kq gt Ku .  .  .  .  .  .                                                                                                                                                                                                                                                                                                     ",
".  .  .  .  .  .  .  .  .t ss E; ny it oy py |, )= qy ry #< #< Zn `n <# /; sy ty =y uy ], (= (= (= (= ]^ vy ^= zi wy Su Tu >v ,v xy yy zy Ay By Cy ey q~ k6 ~4 Dy Ey (= (= (= @& ]^ (= d  ]^ (= d  5^ (= d  5^ (= Fy Gy 1% Hy <% d# F# F# &( jd D# D# D# D# D# D# D# D# D# D# B; ]y ^y gy Iy g. b0 Jy Ht Ky Ly My F- [& [& [& <# <# <# <# <# <# <# <# <# <# <# Jn `r Ny Oy Ht =a ~2 g. eq vw ww xw 3, <# <# <# <# <# <# <# <# <# <# <# <# <# <# <# K. K. K. K. K. K. K. Py }y ky &g g. g. g. g. g. g. g. g. g. g. g. g. g. g. g. g. g. g. g. g. g. g. pm fq {q Dh g~ Et Zt U+ g. g. g. g. g. g. g. g. g. g. g. g. g. g. g. g. g. g. g. g. g. g. g. g. g. g. g. g. g. g. g. g. g. .w Qy Ht Ht Ht Ht Ht Ht Ry U+ g. g. g. g. g. g. g. g. g. g. g. g. g. g. g. g. g. g. g. g. F. Sy Ht Ht Ht Ht Ht Ht Ty Uy 9y 3, <# <# <# <# <# <# <# <# <# t, 0y ay my d; d; d; d;  ; X6 b6 c6 d6 '# '# '# '# '# '# D+ e% e% e% '# '# '# '# '# '# '# '# '# '# '# '# '# '# '# '# e% kq gt Ku .  .  .  .  .  .                                                                                                                                                                                                                                                                                                     ",
".  .  .  .  .  .  .  .  .t Vy Wy Xy Yy Zy `y  z .z +z @z #z $z %z &z *z *z =z -z ;z >z ,z ,z ,z ,z ,z ,z 'z )z !z ~z {z ]z ^z /z (z _z :z <z [z }z Kc 5- |z 1z 2z 3z 4z 4z 4z 4z 4z 4z 4z 4z 4z 4z 4z 4z 4z 4z 4z 5z 6z <z 7z 8z 9z m> 0z 0z P} D# D# D# D# D# D# D# D# D# D# B; ]y ^y gy Iy p9 az bz cz cz dz ez fz *z *z gz <# <# <# <# <# <# <# <# <# <# <# i% hz iz cz cz jz kz lz eq vw ww xw 3, <# <# <# <# <# <# <# <# <# <# <# <# <# <# mz nz oz oz oz oz oz oz pz qz rz &g g. g. g. g. g. g. g. g. g. g. g. g. g. g. g. g. g. g. g. g. g. g. pm fq {q Dh g~ Et Zt U+ g. g. g. g. g. g. g. g. g. g. g. g. g. g. g. g. g. g. g. g. g. g. g. g. g. g. g. g. g. g. g. g. &g sz tz uz uz uz uz uz uz vz wz xz g. g. g. g. g. g. g. g. g. g. g. g. g. g. g. g. g. g. yz (2 zz uz uz uz uz uz uz Az Bz Cz 3, <# <# <# <# <# <# <# <# <# t, 0y ay my d; d; d; d; d; Hw b6 c6 d6 '# '# '# '# D+ Dz Ez Fz Gz Fz Hz Iz '# '# '# '# '# '# '# '# '# '# '# '# '# '# e% kq gt Ku .  .  .  .  .  .                                                                                                                                                                                                                                                                                                     ",
".  .  .  .  .  .  .  .  .t Jz >* <% G; Kz Lz Fe Mz Nz Oz .= v* t, Pz Zn j: j: Qz Rz {k t9 t9 'k u9 u9 'k Sz ]8 H1 Tz Uz Vz Wz Xz Yz Zz p- `z  A .A 3, <# <# '& J. +A t{ t{ t{ t{ t{ t{ t{ t{ t{ t{ t{ t{ t{ t{ t{ t{ Iw @A #A $A %A @& a# a# D# D# D# D# D# D# D# D# D# D# D# B; ]y ^y gy &A *A =A -A += '& K) ;A Zn j: :o >A 3, 3, <# <# <# <# <# <# <# <# <# <# i% += 5- t, ,A 'A )A eq vw ww xw 3, <# <# <# <# <# <# <# <# <# <# <# <# <# l: ,2 !A ~A [8 [8 [8 [8 [8 <k {A lz g. g. g. g. g. g. g. g. g. g. g. g. g. g. g. g. g. g. g. g. g. g. g. pm fq {q Dh g~ Et Zt U+ g. g. g. g. g. g. g. g. g. g. g. g. g. g. g. g. g. g. g. g. g. g. g. g. g. g. g. g. g. g. g. g. J1 ]A ^A Mm (q (q (q 8i 9v /A (A 5s F. g. g. g. g. g. g. g. g. g. g. g. g. g. g. g. g. g. _A :A <A [A 8i (q (q (q (q }A |A 0s [& <# <# <# <# <# <# <# <# <# t, 0y ay my d; d; d; d; d; Hw b6 c6 d6 '# '# '# '# e% 1A 2A 3A t# t. gk hk N# '# '# '# '# '# '# '# '# '# '# '# '# '# e% kq gt Ku .  .  .  .  .  .                                                                                                                                                                                                                                                                                                     ",
".  .  .  .  .  .  .  .  .t 4A E* V0 5A 6A h# h# 7A 8A 9A [& <# v* 0A #< i: i: aA bA cA oe dA eA fA gA hA dA iA J1 jA kA xz U+ lA mA nA p1 ^; ^; 3, <# <# <# <# '& ^; ^; ^; ^; ^; ^; ^; ^; ^; ^; ^; ^; ^; ^; ^; ^; ^; ^; /; oA pA qA _= D# D# D# D# D# D# D# D# D# D# D# D# D# k- ]y ^y gy Iy rA sA tA i% N, K. uA vA i: :o >A 3, 3, <# <# <# <# <# <# <# <# <# <# <# i% <# 4, wA xA yA {l vw ww xw 3, <# <# <# <# <# <# <# <# <# <# <# <# <# G- ,2 zA AA BA CA CA CA CA CA eq g. g. g. g. O| O| O| O| O| O| O| O| O| O| O| O| O| O| O| O| O| O| g. g. pm fq {q DA g~ Et Zt U+ g. g. g. g. g. g. g. g. g. g. g. g. g. g. g. g. g. g. g. g. g. g. g. g. g. g. g. g. g. g. g. g. EA FA GA j: i: i: i: i: j: HA IA JA O| O| U+ g. g. g. g. g. g. g. g. g. g. g. g. g. g. g. _A t8 Wk Xk i: i: i: i: i: i: KA LA [& <# <# <# <# <# <# <# <# <# t, 0y ay my d; d; d; d;  ; X6 b6 c6 X: '# '# '# '# '# MA NA OA wg W+ gk hk N# '# '# '# '# '# '# '# '# '# '# '# '# '# e% kq gt Ku .  .  .  .  .  .                                                                                                                                                                                                                                                                                                     ",
".  .  .  .  .  .  .  .  .t 4A E* <% &( 6A D# b# PA 8A QA [& <# u* 0A #< i: i: aA Y8 RA g. g. U+ g. g. g. SA TA UA UA UA UA UA VA WA XA 3, <# <# <# <# <# <# <# <# <# <# <# <# <# <# <# <# <# <# <# <# <# <# <# <# <# <# v* YA ZA `A =q =$  B  B  B  B  B  B  B  B  B  B 4  =q k- .B +B @B #B $B %B Ko b_ b_ s) &B Am Ep *B =B <# 3, <# <# <# <# <# <# <# <# <# <# <# <# <# 4, wA -B ;B UA >B aw xw 3, <# <# <# <# <# <# <# <# <# <# '& G- G- G- ,B zA 'B F. g. g. g. g. g. g. g. g. g. F. )B !B !B !B !B !B !B !B ~B UA UA UA UA UA UA UA UA {B i^ g. ]B ^B /B (B &+ _B :B U+ g. g. g. g. g. g. g. g. g. g. g. g. g. g. g. g. g. g. g. g. g. g. g. g. g. g. g. g. g. g. g. g. EA FA GA i: i: i: i: i: 8i <B  s [B UA }B |B F. g. g. g. g. g. g. g. g. g. g. g. g. g. g. _A t8 Wk Xk i: i: i: i: i: #< KA LA [& <# <# <# <# <# <# v* t, A^ v* 1B 2B by d; d; d; d; d; X6 b6 c6 '# o< o< x, '# e% MA NA OA wg W+ gk hk N# '# '# '# '# '# '# '# '# '# '# '# '# '# e% kq gt Ku .  .  .  .  .  .                                                                                                                                                                                                                                                                                                     ",
".  .  .  .  .  .  .  .  .t 4A E* <% 7; 3B 4B 4B 5B 6B 7B [& <# u* 0A #< i: i: aA Y8 RA g. g. g. g. eq 8B 9B 0B $w $w $w $w $w $w aB bB cB cB cB dB .= <# <# <# <# <# <# <# <# <# <# <# <# <# <# <# <# <# <# <# <# <# <# v* eB fB gB hB hB iB iB iB iB iB iB iB iB iB iB hB hB jB kB lB mB nB oB pB qB rB rB sB tB uB vB wB xB yB [& <# <# <# <# <# <# <# <# <# <# <# <# <# i% zB AB BB BB CB DB EB 3, <# <# <# <# <# <# <# <# <# Py FB GB HB IB JB KB LB F. g. g. g. g. g. g. g. g. jA MB NB OB BB BB BB BB BB BB PB QB $w $w $w $w $w $w 0B RB SB TB &g UB VB fo WB XB YB U+ g. g. g. g. g. g. g. g. g. g. g. g. g. g. g. g. g. g. g. g. g. g. g. g. g. g. g. g. g. g. g. g. EA FA GA i: i: i: i: i: 8i ZB `B $w $w  C .C +C &g g. g. g. g. g. g. g. g. g. g. g. g. g. _A t8 Wk Xk i: i: i: i: i: #< KA LA [& <# <# <# <# v* k< @C #C $C %C &C *C =C d; d; d; d; d; d; -C ;C >C ,C 'C )C /w e% MA NA OA wg W+ gk hk N# '# '# '# '# '# '# '# '# '# '# '# '# '# e% kq gt Ku .  .  .  .  .  .                                                                                                                                                                                                                                                                                                     ",
".  .  .  .  .  .  .  .  .t 4A E* <% F# G# G# !C ~C {C ]C [& <# u* 0A #< i: i: aA Y8 RA g. g. g. g. CA ^C /C (C 9v 9v 9v 9v 9v 9v 0v i: i: i: j: _C .= <# <# <# <# <# <# <# <# <# <# <# <# <# <# <# <# <# <# <# <# <# <# <# <# K) J) m: m: m: m: m: m: m: m: m: m: m: m: m: m: :C <C [C }C d  d  d  4  4  4  4  4  4  m_ |C 1C v; w; <# <# <# <# <# <# <# <# <# <# <# <# <# <# <# G- G- G- G- N, <# <# <# <# <# <# <# <# <# <# <# 't 2C 3C 4C 4C 4C 5C F. g. g. g. g. g. g. g. g. g. eq 6C 7C 8C z[ G- G- G- G- '& 9C 0C 9v 9v 9v 9v 9v 9v aC bC cC Iv g. |8 uh fw dC eC F. g. g. g. g. g. g. g. g. g. g. g. g. g. g. g. g. g. g. g. g. g. g. g. g. g. g. g. g. g. g. g. g. g. EA FA GA i: i: i: i: i: i: i: 8i 9v 9v fC gC hC lz g. g. g. g. g. g. g. g. g. g. g. g. g. _A t8 Wk Xk i: i: i: i: i: #< KA LA [& <# <# <# <# v* iC jC kC F[ lC d; Z- d; d; d; d; d; d; d; d; d; d; d; ev fv Eu e% MA NA OA wg W+ gk hk N# '# '# '# '# '# '# '# '# '# '# '# '# '# e% kq gt Ku .  .  .  .  .  .                                                                                                                                                                                                                                                                                                     ",
".  .  .  .  .  .  .  .  rs 4A E* <% F# F# F# >g Xr {C ]C [& <# u* 0A #< i: i: aA Y8 RA g. g. g. g. CA X8 /C mC i: i: i: i: i: i: i: i: i: i: i: _C .= <# <# <# <# <# <# <# <# <# <# <# <# <# <# <# <# <# <# <# <# <# <# <# <# <# <# <# <# <# <# <# <# <# <# <# <# <# <# <# v* nC oC pC qC =$ D# D# D# D# D# D# D# D# rC !; sC v; w; <# <# <# <# <# <# <# <# <# <# <# <# <# <# <# <# <# <# <# <# <# <# <# <# <# <# <# <# <# <# <# 't 2C tC yz &g &g g. g. g. g. g. g. g. g. g. g. g. 0j uC vC wC 3, <# <# <# <# v* xC yC i: i: i: i: i: i: Yk bC zC Iv g. U+ `8 `8 AC BC g. g. g. g. g. g. g. g. g. g. g. g. g. g. g. g. g. g. g. g. g. g. g. g. g. g. g. g. g. g. g. g. g. g. EA FA GA i: i: i: i: i: i: i: i: i: i: Am CC DC lz g. g. g. g. g. g. g. g. g. g. g. g. g. _A t8 Wk Xk i: i: i: i: i: #< KA LA [& <# <# <# <# v* iC EC kC Z- d; d; d; d; d; d; d; d; d; d; d; d; d; d; p} @v Eu e% MA NA OA wg W+ gk hk N# '# '# '# '# '# '# '# '# '# '# '# '# '# e% kq gt Ku .  .  .  .  .  .                                                                                                                                                                                                                                                                                                     ",
".  .  .  .  .  .  .  FC GC HC E* <% F# F# F# >g Xr {C ]C [& <# u* 0A #< i: i: aA Y8 RA g. !2 BC IC JC ^l /C mC i: i: i: i: i: i: i: i: i: #< i: _C .= <# <# <# <# <# <# <# <# <# <# <# <# <# <# <# <# <# <# <# <# <# <# <# <# <# <# <# <# <# <# <# <# <# <# i% i% i% i% i% '& H, oC pC 3  =$ D# D# D# D# D# D# D# D# B; !; KC LC m: J) J) J) J) J) J) J) J) J) J) J) J) J) J) J) J) J) J) J) J) J) J) J) u) Rw i% i% i% i% i% N, jy 2C MC ~2 g. g. g. g. g. g. g. g. g. g. NC IC IC Tn OC vC yr 3, <# <# <# <# t, xC yC #< i: i: i: 9v 0k Yk bC zC Iv g. g. g. g. g. F. g. g. g. g. g. g. g. g. g. g. g. g. g. g. g. g. g. g. g. g. g. g. g. g. g. g. g. g. g. g. g. g. g. g. EA FA GA 9v 9v 9v 9v 9v 9v 9v 9v 9v 9v PC CC QC RC IC BC a0 g. g. g. g. g. g. g. g. g. g. _A t8 Wk Xk i: i: i: i: i: #< KA LA [& <# v* v* v* K) iC EC kC Z- d; d; d; d; d; d; d; d; d; d; d; d; d;  ; p} @v Eu e% MA NA OA wg W+ gk hk N# '# '# '# '# '# '# '# '# '# '# '# '# '# e% kq gt Ku .  .  .  .  .  .                                                                                                                                                                                                                                                                                                     ",
".  .  .  t% SC TC v} UC VC WC E* <% F# F# F# >g Xr {C ]C [& <# u* XC :o :o :o YC Y8 RA F. ZC `C  D .D +D /C mC i: i: i: :o :o :o :o :o :o :o :o _C .= <# <# <# <# <# <# <# <# <# <# <# <# <# <# <# <# <# <# <# <# <# <# <# <# <# <# <# <# <# <# <# <# <# @D #D #D #D #D #D #D $D %D &D 3  =$ D# D# D# =$ D# a# =$ D# *D =D -D ;D >D >D >D >D >D >D >D >D >D >D >D >D >D >D >D >D >D >D >D >D ,D ,D ,D ,D 'D )D #D #D #D #D #D #D !D ~D {D ~2 g. g. g. g. g. g. g. g. g. F. ]D Uz  D  D ^D vC yr 3, <# <# <# <# t, xC /D :o :o :o i: (D (D _D bC :D Iv g. g. g. g. g. g. g. g. g. g. g. g. g. g. g. g. g. g. g. g. g. g. g. g. g. g. g. g. g. g. g. g. g. g. g. g. g. g. g. g. J1 ]A <D (D (D (D (D (D (D (D (D (D (D [D CC }D .D  D |D iy F. g. g. g. g. g. g. g. g. g. _A t8 Wk Xk i: i: i: i: i: #< KA LA [& <# X/ iC 1D 1D R) 2D kC Z- d; d; d; d; d; d; d; d; d; d; d; d; d; a, p} @v Eu e% MA NA OA wg W+ gk hk N# '# '# '# '# '# '# '# '# '# '# '# '# '# e% kq gt Ku .  .  .  .  .  .                                                                                                                                                                                                                                                                                                     ",
".  .  .  3D 4D 5D 6D 7D 8D 9D E* <% F# F# F# >g Xr {C ]C [& <# <# 0D aD aD bD cD dD eD fD gD hD iD iD jD kD 8i i: #< ax lD aD aD aD aD aD aD aD O4 <# <# <# <# <# <# <# <# <# <# <# <# <# <# <# <# <# <# <# <# <# <# <# <# <# <# <# <# <# <# <# <# <# J. mD nD oD pD pD pD oD qD rD 46 {, =$ D# 'e sD f& tD f& f& tD f& uD vD wD xD yD zD yD yD zD yD yD zD yD yD zD yD yD yD yD yD yD yD wD AD BD CD DD ED FD GD pD pD pD pD pD HD ID JD g. g. g. g. g. g. g. g. g. g. KD LD MD iD iD ND OD <# 3, <# <# <# <# <#  o aD aD PD QD RD SD Gx Gx TD g9 ~2 g. g. g. g. g. g. g. g. g. g. g. g. g. g. g. g. g. g. g. g. g. g. g. g. g. g. g. g. g. g. g. g. g. g. g. g. g. g. g. g. U+ UD VD WD Gx Gx Gx Gx Gx Gx Gx Gx Gx XD YD ZD iD iD `D  E .E F. g. g. g. g. g. g. g. g. _A t8 Wk Xk i: i: i: i: i: #< KA LA [& v* lw +E @E #E $E %E +} d; d; d; d; d; d; d; d; d; d; d; d; d; d; d; p} @v Eu e% MA NA OA wg W+ gk hk N# '# '# '# '# '# '# '# '# '# '# '# '# '# e% kq gt Ku .  .  .  .  .  .                                                                                                                                                                                                                                                                                                     ",
".  .  .  &E *E =E S9 -E ;E >E E* <% F# F# F# >g Xr {C ]C [& <# <# <# <# <# K. _8 dD eD ,E 'E )E 8i i: i: i: i: i: #< ax &c <# <# <# <# <# <# <# <# <# <# <# <# <# <# <# <# <# <# <# <# <# <# <# <# <# <# <# <# <# <# <# <# <# <# <# <# <# <# <# <# <# J. !E ~E {E :y :y :y ]E dl ^E /E (E =$ D# 'e ld F# F# F# F# F# F# }% >g _|  a {4 <% gg {4 <% {4 {4 <% {4 gg <% {4  a <% *(  a  a *( /% _E :E 4% xn <E [E }E |E :y :y :y :y 1E 2E g. g. g. g. g. g. g. g. g. g. O| 3E 4E GA i: i: :o 5E 3, 3, <# <# <# <# <# <# <# <# '& 6E 7E 8E 9E 0E st F. g. g. g. g. g. g. g. g. g. g. g. g. g. g. g. g. g. g. g. g. g. g. g. g. g. g. g. g. g. g. g. g. g. g. g. g. g. g. g. g. g. g. g. g. aE 0E 0E 0E 0E 0E 0E 0E 0E 0E bE sA cE i: i: dE eE fE i^ g. g. g. g. g. g. g. g. _A t8 Wk Xk i: i: i: i: i: #< KA LA [& v* gE hE iE a, a, d; d; d; d; d; d; d; d; d; d; d; d; d; d; d; d; a, p} @v Eu e% MA NA OA wg W+ gk hk N# '# '# '# '# '# '# '# '# '# '# '# '# '# e% kq gt Ku .  .  .  .  .  .                                                                                                                                                                                                                                                                                                     ",
".  .  .  jE *E =E X+ kE lE >E E* <% F# F# F# >g Xr {C ]C [& <# <# <# <# <# K. _8 dD mE ,E 'E )E 8i i: i: i: i: i: #< ax &c <# <# <# <# <# <# <# <# <# <# <# <# <# <# <# <# <# <# <# <# <# <# <# <# <# <# <# <# <# <# <# <# <# <# <# <# <# <# <# <# <# J. !E nE TB F. O6 4k {2 L1 ^E /E *{ =$ D# 'e ld F# F# F# F# F# F# F# F# F# F# F# F# F# F# F# F# F# F# F# F# F# F# F# F# F# F# F# F# G# #2 W< D# oE <E [E pE dj 4k O6 F. F. F. F. F. F. F. F. g. g. g. g. g. F. U+ qE 4E GA i: i: :o 5E 3, 3, <# <# <# <# <# <# <# <# '& 6E 7E rE 4k F. F. g. g. g. g. g. g. g. g. g. g. g. g. g. g. g. g. g. g. g. g. g. g. g. g. g. g. g. g. g. g. g. g. g. g. g. g. g. g. g. g. g. g. g. g. g. F. F. F. F. F. F. F. F. F. F. sE sA cE i: i: dE eE tE 4k F. F. F. F. F. F. F. F. uE t8 Wk Xk i: i: i: i: i: #< KA LA [& v* gE hE iE d; d; d; d; d; d; d; d; d; d; d; d; d; d; d; d; d; d;  ; p} @v Eu e% MA NA OA wg W+ gk hk N# '# '# '# '# '# '# '# '# '# '# '# '# '# e% kq gt Ku .  .  .  .  .  .                                                                                                                                                                                                                                                                                                     ",
".  .  .  vE wE =E xE yE zE >E E* <% F# F# F# >g Xr {C AE BE |, Yh N( 3, <# K. _8 CE DE bE EE )E i: #< #< #< #< #< #< ax &c <# <# <# <# <# <# <# <# <# <# <# <# <# <# <# <# <# <# <# <# ^; K. K. K. 3, <# <# <# <# <# <# <# <# <# <# <# <# <# K. K. K. J. !E nE dA g. FE GE HE Bp ^E /E IE b# D# ge ld F# F# F# F# F# F# F# F# F# F# F# F# F# F# F# F# F# F# F# F# F# F# F# F# F# F# F# F# G# #2 j- D# a2 JE KE LE ME NE OE F. g. F. PE rA *a *a *a `8 g. g. g. QE RE rA iw 4E GA i: i: :o 5E K. K. K. [& 3, <# <# <# <# <# '& 6E 7E SE i^ g. g. g. g. g. g. g. g. g. g. g. g. g. g. g. g. g. g. g. g. g. g. g. g. g. g. g. g. g. g. g. g. g. g. g. g. g. g. g. g. g. g. g. g. g. g. g. g. g. g. g. g. g. g. g. g. U+ sE sA cE TE an UE eE VE *a *a *a *a *a *a *a *a *a Ht WE Wk Xk i: i: i: #< #< i: KA XE t, J. gE hE iE d; d; d; d; d; d; d; d; d; d; d; d; d; d; d; d; d; d; d; p} @v Eu e% MA YE ZE 0% `E gk  F e% e% e% '# '# '# '# '# '# '# '# '# '# '# e% kq gt Ku .  .  .  .  .  .                                                                                                                                                                                                                                                                                                     ",
".  .  .  .F +F @F #F $F %F &F E* <% F# F# F# *( *F =F -F [f ;F >F ,F F- [& Jn 'F )F e0 !F ~F {F ]F ]F ]F ]F ]F ]F ^F /F En <# <# <# <# <# <# <# <# <# <# <# <# <# <# <# <# <# <# <# <# (F _F :F :F :F )D <# <# <# <# <# <# <# <# <# <# <# u* <F :F :F [F }F nE dA O| |F 1F 2F 3F 4F 5F 6F t0 7F 8F 9F F# F# F# F# F# F# F# F# F# F# F# F# F# F# F# F# F# F# F# F# F# F# F# F# F# F# F# F# G# w- 0F aF zc bF cF dF eF fF gF }v ~2 &g hF iF jF jF kF lF mF g. jA nF oF jF pF qF rF i: i: :o sF :F :F :F tF .= <# <# <# <# <# '& 6E 7E SE i^ g. g. g. g. g. g. g. g. g. g. g. g. g. g. g. g. g. g. g. g. g. g. g. g. g. g. g. g. g. g. g. g. g. g. g. g. g. g. g. g. g. g. g. g. g. g. g. g. g. g. g. g. g. g. g. g. U+ uF vF wF xF xF yF zF jF jF jF jF jF jF jF jF jF jF jF AF BF Yn i: i: 9v CF ]F DF EF FF GF HF IF JF +} d; d; d; d; d; d; d; d; d; d; d; d; d; d; d; d; d; d; a, p} @v Eu e% KF LF MF NF OF PF QF RF Q$ +6 SF !$ '# '# '# '# '# '# '# '# '# e% kq gt Ku .  .  .  .  .  .                                                                                                                                                                                                                                                                                                     ",
".  .  .  TF UF VF WF XF YF ZF E* <% F# F# F# F# F# `F  G c- .G +G @G cq 2, <# <# i% v* v* _a *^ u* u* u* u* u* u* u* u* <# <# <# <# <# <# <# <# <# <# <# <# <# <# <# <# <# <# <# <# v* #G $G j: j: an %G <# <# <# <# <# <# <# <# <# <# v* *^ &G j: j: um *G nE =G -G ;G >G hd ,G V@ 'G 7; G# G# 7; G# F# F# F# F# F# F# F# F# F# F# F# F# F# F# F# F# F# F# F# F# F# F# F# F# F# F# F# F# F# G# G# G# 7; )G !G ~G {G ]G ^G /G {2 (G _G :G (q 8i <G [G }G O6 |G 1G 2G (q (q }A i: i: i: i: j: j: j: j: 3G LA [& <# <# <# <# '& 6E 7E SE i^ g. g. g. g. g. g. g. g. g. g. g. g. g. g. g. g. g. g. g. g. g. g. g. g. g. g. g. g. g. g. g. g. g. g. g. g. g. g. g. g. g. g. g. g. g. g. g. g. g. g. g. g. g. g. g. g. g. O6 4G 5G t6 ,i 6G 7G 8G (q (q (q (q (q (q (q (q (q (q (q 8i i: i: #< 9G ~v 0G aG bG cG dG eG Z- fG d; d; d; d; d; d; d; d; d; d; d; d; d; d; d; d; d; d; d;  ; p} @v Eu '# '# /$ /$ /$ #} Fu gG Wd t# Lr Iu Ju '# '# '# '# '# '# '# '# '# e% kq gt Ku .  .  .  .  .  .                                                                                                                                                                                                                                                                                                     ",
".  .  .  .  .  .  .  hG iG jG E* <% F# F# F# F# F# e# ]= gg A* kG lG mG 2, <# <# <# i% i% i% <# <# <# <# <# <# <# <# <# <# <# <# <# <# <# <# <# <# <# <# <# <# <# <# <# <# <# <# <# v* nG oG i: #< an %G <# <# <# <# <# <# <# <# <# <# <# *^ &G #< i: pG *G nE jA qG rG -g vi '{ b# 'a F# F# F# F# F# F# F# F# F# F# F# F# F# F# F# F# F# F# F# F# F# F# F# F# F# F# F# F# F# F# F# F# F# F# F# F# F# F# e# e# {4 {G sG tG O1 TB (G uG rF i: vm vG !A wG F. xG yG zG i: i: i: i: i: i: i: i: i: i: #< AG LA [& <# <# <# <# '& 6E 7E SE i^ g. g. g. g. g. g. g. g. g. g. g. g. g. g. g. g. g. g. g. g. g. g. g. g. g. g. g. g. g. g. g. g. g. g. g. g. g. g. g. g. g. g. g. g. g. g. g. g. g. g. g. g. g. g. g. g. g. g. eq W8 W8 b0 BG 7G Yn i: i: i: i: i: i: i: i: i: i: i: i: i: i: #< 9G ~v t, CG DG EG  ; d; d; d; d; d; d; d; d; d; d; d; d; d; d; d; d; d; d; d; d; d; d; d; p} @v Eu '# '# '# D+ D+ x6 #v Gu X+ 0% Ih .e Ju '# '# '# '# '# '# '# '# '# e% kq gt Ku .  .  .  .  .  .                                                                                                                                                                                                                                                                                                     ",
".  .  .  .  .  .  .  FG GG HG E* <% F# G# G# G# G# G# G# G# d# IG JG KG m: b_ b_ b_ b_ b_ b_ b_ b_ b_ b_ b_ b_ b_ b_ b_ b_ b_ b_ b_ b_ b_ b_ M( N( [& <# <# <# <# <# <# <# <# <# <# t, nG oG i: i: bn %G <# <# <# <# <# <# <# <# <# <# v* *^ &G i: i: LG *G MG NG OG PG -g )< b# b# C8 F# F# F# F# G# G# G# G# G# F# F# F# F# F# F# F# F# F# F# F# F# F# F# F# F# F# F# F# F# F# F# F# F# F# F# F# F# F# F# F# n| QG sG RG SG up TG UG rF i: i: VG !A WG Q4 XG YG ZG i: i: i: i: i: i: i: i: i: i: i: AG LA [& <# <# <# <# '& 6E 7E SE i^ g. g. g. g. g. g. g. g. g. g. g. g. g. g. g. g. g. g. g. g. g. g. g. g. g. g. g. g. g. g. g. g. g. g. g. g. g. g. g. g. g. g. g. g. g. g. g. g. g. g. g. g. g. g. g. g. g. g. g. g. g. F. `G 7G  H #< 8i 8i 8i 8i 8i 8i i: i: i: i: i: i: i: #< 9G ~v t, CG DG EG Z- d; d; d; d; d; d; d; d; d; d; d; d; d; d; d; a,  ;  ;  ;  ;  ;  ; 1> p} @v Eu '# '# D+ e% e% #} #v Gu W+ a% Ih 2x Ju '# '# '# '# '# '# '# '# '# e% kq gt Ku .  .  .  .  .  .                                                                                                                                                                                                                                                                                                     ",
".  .  .  .  .  .  .  FG GG .H E* <% G# +H R< R< R< R< R< /r @H #H $H %H &H &H &H &H &H &H *H =H -H -H -H ;H V_ &H &H &H &H &H &H >H ,H -H 'H )H !H ~H 3, <# <# <# <# <# <# <# <# <# <# {H ]H ^H ^H ^H  ) <# <# <# <# <# <# <# <# <# <# <# u* /H ^H ^H (H _H :H <H [H }H |H 1H  3 Z_ 2H F# F# F# w$ 3H R< R< R< 4H @- F# F# F# F# F# F# F# F# F# F# F# F# F# F# F# F# F# F# F# F# F# F# F# F# F# F# F# F# F# F# e# 5H 6H 7H 8H 9H 0H aH bH ^H ^H cH dH eH <H <H fH gH ^H hH iH oG i: i: j: jH ^H ^H ^H kH ,& 3, <# <# <# <# '& 6E 7E SE i^ g. g. g. g. g. g. g. g. g. g. g. g. g. g. g. g. g. g. g. g. g. g. g. g. g. g. g. g. g. g. g. g. g. g. g. g. g. g. g. g. g. g. g. g. g. g. g. g. g. g. g. g. g. g. g. g. g. g. g. g. g. F. lH mH nH oH oH oH oH oH pH qH rH i: i: i: i: i: i: #< 9G ~v t, CG DG EG Z- d; d; d; d; d; d; d; d; d; d; d; d; d; d; @} sH tH uH vH wH xH yH [[ zH AH 5[ D+ J% BH CH DH EH FH GH HH IH JH KH d% '# '# '# '# '# '# '# '# '# e% kq gt Ku .  .  .  .  .  .                                                                                                                                                                                                                                                                                                     ",
".  .  .  .  .  .  .  ]} ~s .H E* <% &( >6 b# a# a# a# a# D# b# F% LH MH NH MH w: MH OH nx PH QH _  _  _  RH MH NH MH w: MH e& nx SH TH _  P: UH VH T[ 2, <# <# <# <# <# <# <# <# <# <# <# <# <# <# <# <# <# <# <# <# <# <# <# <# <# <# <# <# <# <# <# <# <# '& '& WH XH YH ZH 3= G# G# F# F# F# O2 ma a# a# b# X@ @- F# F# F# F# F# F# F# F# F# F# F# F# F# F# F# F# F# F# F# F# F# F# F# F# F# F# F# F# F# F# F# F# `H ki )* (^  I .I +I w; <# <# '& '& '& '& ^; [$ <# '& @I 0C i: i: :o #I 3, 3, <# <# <# <# <# <# <# <# '& 6E 7E SE i^ g. g. g. g. g. g. g. g. g. g. g. g. g. g. g. g. g. g. g. g. g. g. g. g. g. g. g. g. g. g. g. g. g. g. g. g. g. g. g. g. g. g. g. g. g. g. g. g. g. g. g. g. g. g. g. g. g. g. g. g. g. g. CA $I %I &I *I *I *I *I :2 =I 7i i: i: i: i: i: i: #< 9G ~v t, CG DG EG Z- d; d; d; d; d; d; d; d; d; d; d; d; d; a, -I ;I l9 <# [$ >I ,I 'I n# o< X: '# e% 1A )I ZE O. wg gk  F D+ D+ D+ N# '# '# '# '# '# '# '# '# '# '# e% kq gt Ku .  .  .  .  .  .                                                                                                                                                                                                                                                                                                     ",
".  .  .  .  .  .  .  .  ~s .H E* <% &( 6A D# D# D# D# D# D# D# J- [i @- F# F# F# F# F# F# !I `f D# D# D# Th @- F# F# F# F# F# F# ~I {I D# ;$ ]I S[ T[ 2, <# <# <# <# <# <# <# <# <# <# <# <# <# <# <# <# <# <# <# <# <# <# <# <# <# <# <# <# <# <# <# <# <# <# <# G- ^I YH ZH <% F# F# F# F# F# O2 `f D# D# J- X@ @- F# F# F# F# F# F# F# F# F# F# F# F# F# F# F# F# F# F# F# F# F# F# F# F# F# F# F# F# F# F# F# F# z: A: D# r] /I (I _I 2, <# <# <# <# <# <# <# <# <# <# :I 0C i: i: :o 5E 3, 3, <# <# <# <# <# <# <# <# '& 6E 7E SE i^ g. g. g. g. g. g. g. g. g. g. g. g. g. g. g. g. g. g. g. g. g. g. g. g. g. g. g. g. g. g. g. g. g. g. g. g. g. g. g. g. g. g. g. g. g. g. g. g. g. g. g. g. g. g. g. g. g. g. g. g. g. g. g. <I U+ eq eq eq eq yz [I Ci Di i: i: i: i: i: i: #< 9G ~v t, CG DG EG Z- d; d; d; d; d; d; d; d; d; d; d; d; d; a, -I }I yB 3, u* |I 1I '# '# '# '# '# '# MA NA OA wg W+ gk hk N# '# '# '# '# '# '# '# '# '# '# '# '# '# e% kq gt bu .  .  .  .  .  .                                                                                                                                                                                                                                                                                                     ",
".  .  .  .  .  .  .  .  ~s .H E* <% &( 6A D# D# D# D# 4  8g 8g 4  2I @- F# F# F# F# F# F# !f `f D# D# J- Th @- F# F# F# F# F# F# D% 3I D# @: R[ 4I 5I 'q c= =4 [& <# <# <# <# <# <# <# i% i% i% i% i% 3, <# <# <# <# <# <# <# <# <# <# <# <# <# <# <# <# v* c= 4g Y& 6I YH ZH <% F# F# F# F# F# O2 `f D# D# J- X@ 7I  a  a  a  a  a  a  a  a  a  a  a  a  a  a  a A* .& F# F# F# F# F# F# F# F# F# F# F# F# F# F# F# z: A: D# F* /I (I _I 2, 3, 3, 3, <# <# <# <# i% i% '& :I 0C i: #< :o 5E 3, 3, <# <# <# <# <# <# <# <# '& 6E 7E 8I 0j 9I gw F. g. g. g. g. g. g. g. g. g. g. g. g. g. g. g. g. g. g. g. g. g. g. g. g. g. g. g. g. g. g. g. g. g. g. g. g. g. g. g. g. g. g. g. g. g. g. g. g. g. g. g. g. g. g. g. g. g. g. g. g. g. g. g. g. g. g. g. 5i Ci Di i: i: i: i: i: i: #< 0I ~v t, CG DG EG Z- d; d; d; d; d; d; d; d; d; d; d;  ; ^{ /{ -I }I yB ^; 5- |I 1I '# '# '# '# '# D+ MA NA OA wg W+ aI  F )# D+ D+ '# '# '# '# '# '# '# '# '# '# '# e% kq gt (w a$ .  .  .  .  .                                                                                                                                                                                                                                                                                                     ",
".  .  .  .  .  .  .  .  ~s HG >* 4= &( jd D# D# F* bI cI dI dI eI 2I ,* 7; 7; 7; F# F# F# !f `f D# D# J- Th @- F# F# F# F# F# F# D% E% =$ fI gI hI iI rp rp *6 tp 3, <# <# <# <# <# <# @D jI jI jI kI u^ <# <# <# <# <# <# <# <# <# <# <# <# <# <# <# <# lI mI rp nI oI pI ZH <% F# ,* 7; 7; 7; O2 {I D# =$ qI rI sI tI uI  > vI vI vI vI vI vI vI vI vI vI vI wI xI yI F# F# F# F# F# F# F# F# F# F# F# F# F# F# F# z: A: D# F* /I zI +I N( AI AI 3, <# <# <# A^ yu jI kI BI /D 0k 0k an 5E 3, 3, <# <# <# <# <# <# <# <# '& CI 7E DI EI EI FI yA F. g. g. g. g. g. g. g. g. g. g. g. g. g. g. g. g. g. g. g. g. g. g. g. g. g. g. g. g. g. g. g. g. g. g. g. g. g. g. g. g. g. g. g. g. g. g. g. g. g. g. g. g. g. g. g. g. g. g. g. g. g. g. g. g. g. g. 5i Ci Di i: i: i: Zn 0k 0k 0k GI ~v t, CG DG EG Z- d; d; d; d; d; d; d; d; d; d; )~ HI II 8) JI KI LI MI gu >I NI '# '# '# '# '# D+ MA NA OA wg W+ OI hk ]# M# M# !$ '# '# '# '# '# '# '# '# '# '# e% kq gv hv a$ .  .  .  .  .                                                                                                                                                                                                                                                                                                     ",
".  .  .  .  .  .  .  .  ~s {s PI QI (h j- D# D# RI SI TI UI VI WI XI YI (h (h ZI [; F# F# !f `f D# D# J- Th @- F# F# F# F# F# F# 7; -> `I `I  J .J +J @J #J $J %J Jn 3, <# <# <# <# 't &J *J =J =J -J ;J u^ 3, <# <# <# <# <# <# <# <# <# <# <# <# t, >J ,J 'J )J @J !J ~J K= d# ,* :h (h (h (h {J ]J `I ^J /J (J _J :J <J [J }J }J }J }J }J }J }J }J }J }J |J 1J 2J 3J d& d# F# F# F# F# F# F# F# F# F# F# F# F# F# z: A: D# F* /I 4J 5J 6J 7J 7J (~ 3, 3, &/ 8J 9J =J 0J aJ bJ cJ cJ cJ )D <# <# <# <# <# <# <# <# <# <# <# ok dJ eJ eJ fJ gJ hJ th g. g. g. g. g. g. g. g. g. g. g. g. g. g. g. g. g. g. g. g. g. g. g. g. g. g. g. g. g. g. g. g. g. g. g. g. g. g. g. g. g. g. g. g. g. g. g. g. g. g. g. g. g. g. g. g. g. g. g. g. g. g. g. g. g. g. 5i Ci Di i: i: j: iJ cJ cJ cJ cJ jJ t, CG DG EG Z- d; d; d; d; d; d; d; d; d; a, kJ lJ mJ nJ oJ pJ qJ rJ rJ sJ tJ x, '# '# '# '# '# MA NA OA W+ W+ uJ vJ wJ wJ xJ yJ +e '# '# '# '# '# '# '# '# '# e% kq zJ hv a$ .  .  .  .  .                                                                                                                                                                                                                                                                                                     ",
".  .  .  .  .  .  .  .  ~s {s AJ j- D# D# D# D# PA BJ CJ DJ EJ FJ ;e fe @& D#  - >4 F# F# !f `f D# D# J- Th @- F# F# F# F# F# F# F# F# F# F# e# >g /% yi GJ HJ IJ *6 3, <# <# <# <# JJ KJ LJ Dw MJ NJ OJ u^ 3, <# <# <# <# <# <# <# <# <# <# <# <# t, PJ QJ RJ _| yi _% <% F# F# &( ,e D# D# D# 'e ld F# V* SJ TJ UJ VJ WJ XJ YJ ZJ `J  K .K +K rw @K #K ]g $K .D %K ]% ^% .& F# F# F# F# F# F# F# F# F# F# F# F# F# z: A: D# F* /I &K *K #< #< an #I 3, 3, &/ =K ~E xt Ty -K ;K 3, <# <# <# <# <# <# <# <# <# <# <# <# <# <# t, >K i: i: Yk bC zC Iv g. g. g. g. g. g. g. g. g. g. g. g. g. g. g. g. g. g. g. g. g. g. g. g. g. g. g. g. g. g. g. g. g. g. g. g. g. g. g. g. g. g. g. g. g. g. g. g. g. g. g. g. g. g. g. g. g. g. g. g. g. g. g. g. g. g. 5i Ci Di i: i: Zn Jt <# <# <# <# <# t, CG DG EG Z- d; d; d; d; d; d; d; d; d; a, ,K 'K )K $& !K ~K Gw X- d; b6 c6 d6 '# '# '# '# D+ MA NA OA W+ W+ '@ '@ '@ {K Ih .e Ju '# '# '# '# '# '# '# '# '# e% kq zJ ]K a$ .  .  .  .  .                                                                                                                                                                                                                                                                                                     ",
".  .  .  .  .  .  .  .  ~s {s AJ =$ D# D# D# D# PA 8A QA [& '& -e ;e fe @& D#  - >4 F# F# !f ^K D# D# J- Th @- F# F# F# F# F# F# F# F# F# F# F# F# F# }% 5H /K (K *6 3, <# <# <# <# JJ KJ _K 4k Xt Yt OJ u^ 3, <# <# <# <# <# <# <# <# <# <# <# <# t, PJ QJ yy A* F# F# F# F# F# &( ,e D# D# D# 'e ld F# V* SJ TJ :K p1 <K XJ [K 4k F. }K |K I1 4b dA xz 4b 1K 2K %K ]% ^% d# F# F# F# F# F# F# F# F# F# F# F# F# F# z: A: I5 F* /I &K *K 8i #< an #I 3, 3, &/ =K 3K >i 4K -K ;K 3, <# <# <# <# <# <# <# <# <# <# <# <# <# <# _a 5K #< i: Yk bC zC Iv g. g. g. g. g. g. g. g. g. g. g. g. g. g. g. g. g. g. g. g. g. g. g. g. g. g. g. g. g. g. g. g. g. g. g. g. g. g. g. g. g. g. g. g. g. g. g. g. g. g. g. g. g. g. g. F. O6 O6 O6 O6 O6 O6 O6 O6 O6 O6 6K Ci Di i: i: Zn Jt <# <# <# <# <# t, CG DG EG Z- d; d; d; d; d; d; d; d; d; a, ,K 'K )K '@ !K ~K Gw d; Hw 7K c6 d6 '# '# '# '# D+ MA NA OA W+ W+ W+ W+ W+ '@ Ih .e Ju '# '# '# '# '# '# '# '# '# e% kq gt 8K Gi .  .  .  .  .                                                                                                                                                                                                                                                                                                     ",
".  .  .  .  .  .  .  9K 0K {s E; 66 d  @& D# D# PA 8A QA [& '& aK bK )< 66 4% cK &_ F# F# dK eK 4% 4% K6 fK gK yi yi yi yi yi /% <% .& F# F# F# F# F# }% 5H /K (K *6 3, <# <# <# <# JJ KJ hK iK jK NJ OJ u^ 3, <# <# <# <# <# <# <# <# <# <# <# <# t, PJ QJ yy A* F# }% >g yi yi Z0 ,e D# D# D# 'e kK _| Hy lK mK :K p1 <K XJ nK F. g. g. g. g. g. g. g. g. k2 18 @9 ]% Gy oK (% [% F# F# F# F# F# F# F# F# F# F# F# pK qK 4% (= rK &K *K sK i: an tK K. K. J. =K 3K uK 4K -K vK wK K. K. 3, <# <# <# <# <# <# <# <# <# <# v* _a 5K #< i: Yk bC zC Iv g. g. g. g. g. g. g. g. g. g. g. g. g. g. g. g. g. g. g. g. g. g. g. g. g. g. g. g. g. g. g. g. g. g. g. g. g. g. g. g. g. g. g. g. g. g. g. g. g. g. g. g. g. g. g. Zm iK iK iK iK iK iK iK iK iK iK bE 6i Di #< #< Zn Jt <# <# <# <# <# t, CG DG EG Z- d; d; d; d; d; d; a, e; e; e; ,K 'K )K a% !K ~K Gw X- d; b6 c6 d6 '# '# D+ e% e% 1A NA OA W+ W+ W+ W+ W+ '@ Ih .e Ju '# '# '# '# '# '# '# e% e% Z( kq xK Ku .  .  .  .  .  .                                                                                                                                                                                                                                                                                                     ",
".  .  .  .  .  .  .  .  yK zK AK BK CK DK EK FK GK HK IK [& i% JK KK LK BK MK NK OK PK QK RK SK BK BK BK TK UK VK VK VK VK VK WK XK YK F# F# F# F# F# }% 5H /K (K *6 3, <# <# <# <# ZK `K  L .L .L +L @L u^ 3, <# <# <# <# <# <# <# <# <# <# <# <# t, PJ QJ yy A* F# =8 #L $L VK %L &L *L 8o =L -L ;L VK >L ,L 'L )L p1 <K XJ nK F. g. g. g. g. g. g. g. g. ZC !L ~L {L ]L ^L /L (L F# F# F# e& _L Yi Yi Yi G| F# :L <L [L }L |L 1L 2L 3L 4L ij 5L 6L 7L 7L 7L 8L 9L 0L aL bL cL dL 7L eL fL <# <# <# <# <# <# <# <# <# <# <# _a 5K #< i: Yk bC zC Iv g. g. g. g. g. g. g. g. g. g. g. g. g. g. g. g. g. g. g. g. g. g. g. g. g. g. g. g. g. g. g. g. g. g. g. g. g. g. g. g. g. g. g. g. g. g. g. g. g. g. g. g. g. w8 gL hL iL iL iL iL iL iL iL iL iL iL jL kL lL mL ^F ^F nL <# <# <# <# <# t, CG DG EG Z- d; d; d; d; d; )~ oL pL qL qL rL sL tL uL vL wL xL yL zL AL tJ x, '# b* BL CL wj DL EL ZE W+ W+ W+ W+ W+ '@ Ih .e Ju '# '# '# '# '# '# FL GL wj vj HL IL mq .  .  .  .  .  .                                                                                                                                                                                                                                                                                                     ",
".  .  .  .  .  .  .  t% JL KL [$ LL ML NL OL u: ~C PL QL [& <# X/ X/ u* tp RL SL TL UL VL WL XL YL tp tp AI N( Zh Zh Zh Zh ZL `L  M .M ]= F# F# F# F# }% 5H /K (K *6 3, <# <# <# <# <# +M +M v* v* _a u^ <# <# <# <# <# <# <# <# <# <# <# <# <# <# t, PJ QJ yy A* ]= kG @M #M $M %M &M [; *M =M -M ;M <1 N( >M ,M [& ^; <K XJ nK F. g. g. g. g. g. g. g. g. g. 4k 'M )M !M ~M {M ]M ]= d# G# #2 }; =$ b# a# c# *( QG ^M /M (M /k _M !k :M t6 t6 t6 t6 t6 t6 t6 <M [M g. O6 :4 }M t6 <8 |M 1M 8C 3, <# <# <# <# <# <# <# <# v* _a 5K #< i: Yk bC zC Iv g. g. g. g. g. g. g. g. g. g. g. g. g. g. g. g. g. g. g. g. g. g. g. g. g. g. g. g. g. g. g. g. g. g. g. g. g. g. g. g. g. g. g. g. g. g. g. g. g. g. g. g. U+ 2M =A 3M 8i 8i 8i 8i 8i 8i 8i 8i 8i 8i (q 4M )> 5- 5- 5- <# <# <# <# <# <# t, CG DG EG Z- d; d; d; d;  ; Hw 5M 6M Wd W+ [n 7M 5- '& }/ 8M n< 9M 0M !$ x, '# e% aM bM cM W+ W+ `d W+ W+ W+ W+ W+ W+ '@ Ih .e Ju '# '# '# '# D+ n# dM eM W+ W+ fM gM hM .  .  .  .  .  .                                                                                                                                                                                                                                                                                                     ",
".  .  .  .  .  .  .  .  iM jM 'q kM lM mM nM hg Xr {C ]C [& <# <# '& ,{ oM pM qM cy $4 rM -q sM 4g ,{ c= c= c= c= c= c= c= oM tM uM vM ]= F# F# F# F# }% 5H /K (K *6 3, <# <# <# <# <# i% i% i% i% i% <# <# <# <# <# <# <# <# <# <# <# <# <# <# <# t, PJ QJ yy A* ]= wM xM yM zM AM BM &_ hg CM DM EM l) ,{ p1 [& 3, '& <K XJ nK F. g. g. g. g. g. g. g. g. g. g. FM Rb GM HM IM JM ]= d# G# #2 W< D# D# D# c# *( QG sG KM LM MM NM OM gw gw gw gw gw gw gw gw `t F. g. g. iy gw gw PM 6G vC yr 3, <# <# <# <# <# <# <# <# v* _a 5K #< i: Yk bC zC Iv g. g. g. g. g. g. g. g. g. g. g. g. g. g. g. g. g. g. g. g. g. g. g. g. g. g. g. g. g. g. g. g. g. g. g. g. g. g. g. g. g. g. g. g. g. g. g. g. g. g. g. g. U+ sE sA cE j: j: j: j: j: j: j: j: j: j: i: 9s /] i% i% <# <# <# <# <# <# <# t, CG DG EG Z- d; d; d; d;  ; Hw QM RM t# '@ SM TM [$ <# }o #o ]# M# N# N# '# '# e% aM UM VM wg wg W+ W+ W+ W+ W+ W+ W+ '@ Ih .e Ju '# '# '# '# D+ x6 WM XM X+ wg YM ZM `M .  .  .  .  .  .                                                                                                                                                                                                                                                                                                     ",
".  .  .  .  .  .  .  .  iM jM  N =; .N mM nM hg Xr {C ]C [& <# <# <# <# t, dx *y +N @N #N -q $N [& <# <# <# <# <# <# <# <# t, q1 uM vM ]= ]= d# d# F# }% 5H /K (K *6 3, <# <# <# <# <# <# <# <# <# <# <# <# <# <# <# <# <# <# <# <# <# <# <# <# <# t, PJ QJ yy A* ]= wM xM %N &N AM BM &_ _| *F DM *N M, <# <# <# <# '& <K XJ nK F. g. g. g. g. g. g. g. !2 {l {l I1 {2 =N HM -N JM ]= d# G# #2 j- D# D# D# c# *( QG sG tG O1 [M {l `8 g. g. g. g. g. g. g. U+ I1 I1 I1 I1 I1 ~2 g. ;N >N vC yr 3, <# <# <# <# <# <# <# <# <# _a 5K #< i: Yk bC zC Iv g. g. g. g. g. g. g. g. g. g. g. g. g. g. g. g. g. g. g. g. g. g. g. g. g. g. g. g. g. g. g. g. g. g. g. g. g. g. g. g. g. g. g. g. g. g. g. g. g. g. g. g. U+ sE sA cE i: i: i: i: i: i: i: i: i: i: i: 9s 0s <# <# <# <# <# <# <# <# <# t, CG DG EG Z- d; d; d; d;  ; Hw QM RM kE W+ ,N TM Vp <# }o #o N# '# '# '# '# '# e% aM UM VM W+ W+ W+ W+ W+ W+ W+ W+ W+ '@ Ih .e Ju '# '# '# '# D+ x6 WM XM X+ W+ YM 'N )N .  .  .  .  .  .                                                                                                                                                                                                                                                                                                     ",
".  .  .  .  .  .  .  .  !N ~N  N =; .N mM nM hg Xr {C ]C [& <# <# <# <# t, dx {N ]N ^N /N (N _N 3, <# <# <# <# <# <# <# <# t, q1 :N <N [N w= 7< 5A G# b9 R_ /K (K *6 3, <# <# <# <# <# <# <# <# <# <# <# <# <# <# <# <# <# <# <# <# <# <# <# <# <# t, PJ QJ yy A* ]= kG }N |N ]5 1N 2N Sh 3N 4N 5N 6N M, <# <# <# <# '& <K XJ nK F. g. g. g. g. g. O6  9 TA ]8 ]8 7N 8N <k Sg -N 9N 0N G# G# aN 02 b# D# ); bN cN dN eN fN gN <8 [8 hN `8 g. g. g. g. g. F. `8 }M iN u9 jN kN th F. iy OC 7C 8C 3, <# <# <# <# <# v* '& '& '& K) lN (q 0v mN nN oN Iv g. g. g. g. g. g. g. g. g. g. g. g. g. g. g. g. g. g. g. g. g. g. g. g. g. g. g. g. g. g. g. g. g. g. g. g. g. g. g. g. g. g. g. g. g. g. g. g. g. g. g. g. U+ sE sA cE i: i: i: i: i: i: i: i: i: i: j: 4M 0s <# <# <# <# <# <# <# v* v* +M pN DG qN Z- d; d; d; d;  ; Hw QM RM kE W+ ,N rN sN v* tN uN N# '# '# '# '# '# e% aM UM VM W+ W+ (s X+ '@ '@ `d W+ W+ '@ Ih .e Ju '# '# '# '# D+ x6 WM XM X+ W+ YM vN wN .  .  .  .  .  .                                                                                                                                                                                                                                                                                                     ",
".  .  .  .  .  .  .  .  xN yN  N =; .N mM nM hg Xr {C ]C [& <# <# <# <# v* v) zN AN BN CN DN EN <# <# <# <# <# <# <# <# <# v* R) FN GN HN IN JN KN LN Bl MN NN ON PN 3, <# <# <# <# <# <# <# <# <# <# <# <# <# <# <# <# <# <# <# <# <# <# <# <# <# t, PJ QJ yy A* F# QN RN SN TN UN VN WN XN YN ZN `N [& <# <# <# <# '& <K XJ nK F. g. g. g. g. eq 4y  O .O +O @O #O $O %O &O *O =O -O Bl +: ;O >O U< ,O 'O )O !O ~O {O ]O ^O +O /O (O _O U+ g. g. g. F. :O <O [O }O |O 1O 2O 3O 4O ,l 5O 6O 7O 8O 8O 8O 8O 8O 9O 0O aO bO bO cO dO eO eO fO gO hO !2 g. g. g. g. g. g. g. g. g. g. g. g. g. g. g. g. g. g. g. g. g. g. g. g. g. g. g. g. g. g. g. g. g. g. g. g. g. g. g. g. g. g. g. g. g. g. g. g. g. g. g. g. U+ sE sA cE i: i: i: i: i: i: i: ax iO jO jO kO 3( <# <# <# <# <# <# u4 lO mO nO oO pO nw d; d; d; d; d;  ; Hw QM RM kE X+ qO rO sO tO uO vO wO '# '# '# '# '# e% aM UM VM X+ <m xO yO |m zO AO BO I+ '@ Ih .e Ju '# '# '# '# D+ x6 WM XM X+ W+ YM vN wN .  .  .  .  .  .                                                                                                                                                                                                                                                                                                     ",
".  .  .  .  .  .  .  .  xN yN  N =; .N mM nM hg Xr {C ]C [& <# <# <# <# <# <# v* c= s) s) *6 w; <# <# <# <# <# <# <# <# <# <# <# t, c= s) M( B| C| k| @& CO DO EO Jn 3, <# <# <# <# <# <# <# <# <# <# <# <# <# <# <# <# <# <# <# <# <# <# <# <# <# t, PJ QJ yy A* F# FO H; ]^ h5 GO HO IO b_ b_ 2< w; <# <# <# <# <# '& <K XJ nK F. g. g. g. g. ,l 0w JO KO /q vm LO ;6 MO 1% /^ E% D# D# D# NO G| e# OO PO QO Yn RO SO *B i: i: TO UO MC ~2 g. g. g. F. VO WO XO YO ZO `O  P .P +P O6 `l @P ru i: i: i: i: i: Am CC #P $P $P $P $P $P $P %P 9E F. g. g. g. g. g. g. g. g. g. g. g. g. g. g. g. g. g. g. g. g. g. g. g. g. g. g. g. g. g. g. g. g. g. g. g. g. g. g. g. g. g. g. g. g. g. g. g. g. g. g. g. g. g. U+ sE sA cE i: i: i: i: i: i: #< &P En <# <# <# <# <# <# <# <# <# v* _x *P =P `-  ; Z- d; d; d; d; d; d;  ; Hw QM RM kE '@ -P ;P >P 1> oL ,P 'P '# '# '# '# '# e% aM UM VM '@ xg |g Cm e% #} #v Gu I+ '@ Ih .e Ju '# '# '# '# D+ x6 WM XM X+ W+ YM vN wN .  .  .  .  .  .                                                                                                                                                                                                                                                                                                     ",
".  .  .  .  .  .  .  .  )P yN  N !P .N ~P {P ]P ^P {C ]C [& <# <# <# <# <# <# <# <# <# <# <# <# <# <# <# <# <# <# <# <# <# <# <# <# <# <# '& i| ]| /P Q* (P _P :P <P {9 ,{ =4 3, <# <# <# <# <# <# <# <# <# <# <# <# <# <# <# <# <# <# <# <# <# <# t, PJ QJ [P  a gg }P H; b# B; <, |P 1P ]; p1 Vp 3, <# <# <# '& ,{ s{ CI XJ 2P Jk 1K 1K 1K 1K x8 3P JO KO /q vm 4P o[ p[ .& w= D* D# D# D# NO d& {4 5P 6P QO 7P Zn j: j: j: j: 8P 9P MC ~2 g. |K 1K NM 0P aP bP cP dP eP  P fP +P O6 `l @P ru j: j: j: j: j: LG CC gP <I g. g. g. g. g. g. g. g. g. g. g. g. g. g. g. g. g. g. g. g. g. g. g. g. g. g. g. g. g. g. g. g. g. g. g. g. g. g. g. g. g. g. g. g. g. ZC 1K 1K 1K 1K 1K 1K 1K 1K NM dj g. g. g. g. g. U+ sE sA cE i: i: i: i: i: i: #< &P En <# <# <# <# <# <# <# v* v* t, _x *P hP Z- d; d; d; d; d; d; d; d;  ; Hw QM RM t# 0% -P ;P by /{ iP ,P 'P '# '# D+ D+ D+ e% aM UM VM '@ xg |g jP e% x6 #v Gu I+ '@ Ih .e kP D+ D+ '# '# D+ x6 WM XM X+ W+ YM vN wN .  .  .  .  .  .                                                                                                                                                                                                                                                                                                     ",
".  .  .  .  .  .  .  t% lP mP nP oP pP qP rP sP tP uP vP [& <# <# <# <# <# <# <# <# <# <# <# <# <# <# <# <# <# <# <# <# <# <# <# <# <# <# '& wP xP yP Yj zP AP BP yr tp CP >M t* 3, <# <# <# <# <# <# <# <# <# <# <# <# <# <# <# <# <# <# <# <# <# t, DP EP FP GP HP IP JP j- KP LP MP NP tp OP PP t* 3, <# <# X/ u* tp QP RP SP /k /k /k /k /k _M TP UP VP /q vm 4P o[ p[ .& w= A: =$ D# ;$ WP XP HP YP ZP `P  Q Zn 8i 8i 8i 8i .Q +Q @Q ~2 4k #Q $Q %Q &Q *Q =Q -Q ;Q >Q ,Q 'Q )Q 4k !Q @P (D 8i 8i 8i 8i 8i ~Q {Q ]Q lz g. g. g. g. g. g. g. g. g. g. g. g. g. g. g. g. g. g. g. g. g. g. g. g. g. g. g. g. g. g. g. g. g. g. g. g. g. g. g. g. g. g. g. F. 4k ^Q <k /k /k /k /k /k /k /k ,k /Q p{ g. g. g. g. U+ sE sA cE i: i: i: i: i: i: #< &P En <# <# <# <# <# <# X/ k{ )D .= (Q _Q hP Z- d; d; d; d; d; d; d; d; d; Hw 5M 6M Wd W+ :Q <Q [Q R~ }Q |Q 'P N# '# /$ /$ /$ /$ 1Q UM VM '@ qO |g @y /$ l^ #v Gu I+ 0% Ih 2Q NI /$ /$ N# N# D+ x6 WM XM X+ W+ YM vN wN .  .  .  .  .  .                                                                                                                                                                                                                                                                                                     ",
".  .  .  .  .  .  .  3Q 4Q 5Q 6Q 7Q 8Q 9Q 0Q aQ bQ cQ dQ 3, <# <# <# <# <# <# <# <# <# <# <# <# <# <# <# <# <# <# <# <# <# <# <# <# <# <# <# eQ fQ gQ hQ iQ jQ kQ lQ mQ nQ oQ pQ M, <# <# <# <# <# <# <# <# <# <# <# <# <# <# <# <# <# <# <# <# <# <# v/ qQ rQ sQ tQ uQ vQ wQ xQ yQ zQ BK MK AQ BQ CQ [& i% DQ EQ FQ MK GQ HQ IQ IQ IQ IQ IQ IQ |j JQ KQ LQ /q vm 4P o[ p[ .& 7; f- Yi xQ MQ NQ OQ PQ QQ RQ SQ TQ iL iL iL iL iL iL UQ VQ dA WQ XQ YQ ZQ IQ `Q  R .R +R @R #R $R xz g. %R &R iL iL iL iL iL iL *R =R jh U+ g. g. g. g. g. g. g. g. g. g. g. g. g. g. g. g. g. g. g. g. g. g. g. g. g. g. g. g. g. g. g. g. g. g. g. g. g. g. g. g. g. g. g. k2 -R ;R >R ,R IQ IQ IQ IQ IQ 'R )R !R ~R g. g. g. g. U+ sE sA cE i: i: i: i: i: i: #< &P En <# <# <# <# <# v* [x {R ]R 7Q 7Q ^R Gw d; d; d; d; d; d; d; d; d; d; )~ oL pL qL qL /R (R _R :R <R [R }R D+ #} |R 1R 2R 3R 4R 5R s. W+ 6R 7R 1x 3R 8R 9R |= W+ W+ L+ 0R aR 3R bR cR dR eR fR WM XM X+ W+ YM vN gR .  .  .  .  .  .                                                                                                                                                                                                                                                                                                     ",
".  .  .  .  .  .  .  hR iR jR D8 kR lR mR nR 'l oR pR Wx 3, <# <# <# <# <# <# <# <# <# <# <# <# <# <# <# <# <# <# <# <# <# <# <# <# <# <# <# v* w* |, |c =6 fy Dy qR 66 rR sR tR M, <# <# <# <# <# <# <# <# <# <# <# <# <# <# <# <# <# <# <# <# <# <# <# K) '= O, EJ uR vR ZH <% n| Um 4% 4% wR Vh Wm M, '& xR yR zR 66 4% 66 z( 8g 66 66 66 66 AR 6c BR CR /q vm 4P o[ p[ .& F# F# F# *( DR ER FR GR |c HR IR JR iK iK iK iK iK KR LR g. J1 L1 MR NR OR 66 PR QR RR [4 SR TR uK g. g. g. eq KR iK iK iK iK iK iK UR F. g. g. g. g. g. g. g. g. g. g. g. g. g. g. g. g. g. g. g. g. g. g. g. g. g. g. g. g. g. g. g. g. g. g. g. g. g. g. g. g. g. g. g. g. x8 y8 VR WR XR 66 66 66 66 66 *D YR ZR `R  S g. g. g. U+ sE sA cE i: i: i: i: i: i: #< &P En <# <# <# <# <# v* .S +S +} a, a, d; d; d; d; d; d; d; d; d; d; d; d; d; a, e; e; Ra G[ H[ I[ !$ '# '# '# D+ #} ci @S X+ '@ '@ W+ W+ W+ W+ X+ '@ '@ 0% W+ W+ W+ W+ W+ 0% '@ 0% vo #S $S %S fR WM XM X+ W+ YM &S hM .  .  .  .  .  .                                                                                                                                                                                                                                                                                                     ",
".  .  .  .  .  .  .  *S =S -S D8 ;S lR mR >S 4k xh ,S 'S 3, <# <# <# <# <# <# <# <# <# <# <# <# <# <# <# <# <# <# <# <# <# <# <# <# <# <# <# <# <# <# v* k6 fy )y !y a# )S !S ~S w; <# <# <# <# <# <# <# <# <# <# <# <# <# <# <# <# <# <# <# <# <# <# <# <# <# <# '& ^I YH ZH V0 &( ,e D# D# Uh Vh Fm [& '& {S ]S Vj @& D# D# D# D# D# D# D# D# @: ^S /S CR /q vm 4P o[ p[ d# F# F# F# *( (S _S :S 2, l: <S [S }S O6 O6 O6 O6 O6 O6 F. g. J1 t6 |S NR 1S a# 14 QR 2S 3S g. i^ g. g. g. g. g. O6 O6 O6 O6 O6 O6 O6 F. g. g. g. g. g. g. g. g. g. g. g. g. g. g. g. g. g. g. g. g. g. g. g. g. g. g. g. g. g. g. g. g. g. g. g. g. g. g. g. g. g. g. g. F. i^ ot y8 4S A8 #9 D# D# D# D# D# B; YR ZR 5S 6S g. p{ O6 F. sE sA cE i: i: i: i: i: i: #< &P En <# <# <# <# <# v* .S +S +} d; d; d; d; d; d; d; d; d; d; d; d; d; d; d; d; d; d; d; 7S H[ I[ '# '# '# '# D+ #} ci @S W+ W+ W+ W+ W+ W+ W+ W+ W+ W+ W+ W+ W+ W+ W+ W+ W+ W+ W+ wg #S $S %S fR WM XM X+ W+ YM ZM `M .  .  .  .  .  .                                                                                                                                                                                                                                                                                                     ",
".  .  .  .  .  .  .  8S 9S jR 0S kR lR mR aS O6 xh bS cS O, O, Yh N( 3, <# <# <# <# <# <# <# <# <# <# <# <# <# <# <# <# <# <# <# <# <# <# <# <# <# <# v* k6 fy )y !y a# )S dS eS DJ O, O, O, O, |c 1, 2, 3, <# <# <# <# <# <# <# <# <# <# <# <# <# <# <# <# <# <# '& ^I vR YK fS Z0 Cd D# D# Uh Vh Wh mi EJ gS ]S hS @& D# D# D# D# D# D# D# D# @: iS jS CR kS vm 4P lS mS oK /% /% /% /% nS _S :S 2, l: oS [S pS F. g. g. g. g. g. g. g. J1 L1 MR NR OR 66 qS QR 2S 3S U+ g. g. g. g. g. g. g. g. g. g. g. g. g. g. g. g. g. g. g. g. g. g. g. g. g. g. g. g. g. g. g. g. g. g. g. g. g. g. g. g. g. g. g. g. g. g. g. g. g. g. g. g. g. g. g. g. F. rS sS #K tS @9 A8 #9 D# D# D# z( 66 *D YR ZR 5S 6S O| ]E uS uS bE sA cE i: i: i: i: i: i: #< &P En <# <# <# <# <# v* .S +S +} d; d; d; d; d; d; d; d; d; d; d; d; d; d; d; d; d; d; d; vS H[ I[ '# '# '# '# D+ #} ci @S I+ W+ W+ W+ W+ W+ W+ W+ W+ W+ W+ W+ W+ W+ W+ W+ 0% '@ 0% vo #S $S %S /$ wS XM X+ W+ YM ZM `M .  .  .  .  .  .                                                                                                                                                                                                                                                                                                     ",
".  .  .  .  .  .  .  xS yS zS AS BS CS DS aS 4t ES FS GS HS :J IS JS /] 3, <# <# <# <# <# <# <# <# <# <# <# <# <# <# <# <# <# <# <# <# <# <# <# <# <# v* k6 fy )y !y a# KS LS MS NS NS NS NS NS :J OS PS <# <# <# <# <# <# <# <# <# <# <# <# <# <# <# <# <# <# <# i% QS RS SS TS US VS ^> D# WS XS YS ZS `S  T .T +T db db @T u0 @T u0 @T @T @T #T $T %T &T *T =T -T ;T >T ,T 'T )T )T !T ~T {T ]T 2, l: oS [S pS F. g. g. g. g. g. g. g. dA ^T /T (T _T :T <T [T }T |T U+ g. g. g. g. g. g. g. g. g. g. g. g. g. g. g. g. g. g. g. g. g. g. g. g. g. g. g. g. g. g. g. g. g. g. g. g. g. g. g. g. g. g. g. g. g. g. g. g. g. g. g. g. g. g. g. ~2 I1 1T 2T 3T 4T 5T 6T #9 D# 7T 8T 9T 0T aT bT cT dT eT SA fT pD pD gT hT iT i: i: i: i: i: i: #< &P En <# <# <# <# <# v* .S +S +} d; d; d; d; d; d; d; d; d; d; d; d; d; d; d; d; d; d; d; p} H[ I[ '# '# '# '# D+ #} ci @S I+ W+ W+ W+ W+ W+ W+ W+ W+ W+ W+ W+ W+ W+ W+ L+ jT kT wJ lT mT nT oT pT qT rT I+ W+ YM ZM `M .  .  .  .  .  .                                                                                                                                                                                                                                                                                                     ",
".  .  .  .  .  .  .  a$ sT tT '% MI uT !A vT Qb wT xT yT %h zT AT BT cq 2, <# <# <# <# <# <# <# <# <# <# <# <# <# <# <# <# <# <# <# <# <# <# <# <# <# v* k6 fy )y !y a# r] CT DT tI tI tI tI tI ET FT GT *2 3, <# <# <# <# <# <# <# <# <# <# <# <# <# <# <# <# <# <# X/ HT IT u4 JT KT 3  =$ D# LT MT tI tI NT OT ,* 7; 7; 7; 7; 7; 7; 7; 7; 7; 7; PT QT RT dI ST TT UT VT WT XT YT ZT rp `T  U 3, <# l: oS [S pS F. g. g. g. g. g. g. g. g. 4k .U O1 +U @U #U $U %U F. g. g. g. g. g. g. g. g. g. g. g. g. g. g. g. g. g. g. g. g. g. g. g. g. g. g. g. g. g. g. g. g. g. g. g. g. g. g. g. g. g. g. g. g. g. g. g. g. g. g. g. g. g. g. g. g. oe &U *U =U -U ;U >U z~ D# D# ,U 'U )U !U #U ~U {U O6 rm ]U ^U (q }A }A (D 8i i: i: i: i: i: i: #< &P En <# <# <# <# <# v* .S +S +} d; d; d; d; d; d; d; d; d; d; d; d; d; d; d; d; d; d; d; b, H[ I[ '# '# '# '# D+ #} ci @S I+ W+ W+ W+ W+ W+ W+ W+ W+ W+ W+ W+ W+ W+ 0% zr 2Q NI M# m< /U g+ (U M+ _U wg W+ W+ YM ZM `M .  .  .  .  .  .                                                                                                                                                                                                                                                                                                     ",
".  .  .  .  .  .  .  .  !N :U *v l: <U [U vT Pb }U |U 1U ]4  a 2U 3U mG 2, <# <# <# <# <# <# <# <# <# <# <# <# <# <# <# <# <# <# <# <# <# <# <# <# <# v* k6 fy )y !y a# D# 4U 5U gg  a  a  a U* 6U 7U 8U is [& <# <# <# <# <# <# <# <# <# <# <# <# <# <# <# <# <# <# v* K) c= 9U 0U pC 3  =$ D# kd aU gg  a A* .& F# F# F# F# F# F# F# F# F# F# F# G#  b 5^ =q bU cU dU eU fU gU hU l) 4g 4g p1 3, <# l: oS [S pS F. g. g. g. g. g. g. g. g. g. ZC ot ot ot ot iU mF g. g. g. g. g. g. g. g. g. g. g. g. g. g. g. g. g. g. g. g. g. g. g. g. g. g. g. g. g. g. g. g. g. g. g. g. g. g. g. g. g. g. g. g. g. g. g. g. g. g. g. g. g. g. g. g. g. oe L1 jU kU lU R* =$ a# D# D# mU nU oU pU ot fA qU F. rm sm tm Mm j: j: i: i: i: i: i: i: i: i: #< &P En <# <# <# <# <# v* .S +S +} d; d; d; d; d; d; d; d; d; d; d; d; d; d; d; d; d; d; d; b, H[ I[ '# '# '# '# D+ #} ci @S I+ W+ W+ W+ W+ W+ W+ W+ W+ W+ W+ W+ W+ W+ '@ Ih .e we D+ '# /U rU N. wg W+ W+ W+ W+ YM ZM `M .  .  .  .  .  .                                                                                                                                                                                                                                                                                                     ",
".  .  .  .  .  .  .  .  iM jM *v l: <U [U vT Pb }U sU tU [% ]= kG lG mG 2, <# <# <# <# <# <# <# <# <# <# <# <# <# <# <# <# <# <# <# <# <# <# <# <# <# v* k6 fy )y !y a# D# V[ W[ F# F# F# F# e# OO uU 8U vU [& <# <# <# <# <# <# <# <# <# <# <# <# <# <# <# <# <# <# <# <# <# nC oC pC qC =$ D# kd B( d# d# d# d# d# d# d# d# d# d# d# d# d# d# d# G#  b j- |; CO wU dU xU #< 9G ~v [& <# <# <# <# <# J. oS [S pS F. g. g. g. g. g. g. g. g. g. g. g. g. g. g. g. g. g. U+ ^2 ^2 ^2 eq O| g. g. g. g. g. g. g. g. g. g. g. g. g. g. g. g. g. g. g. g. g. g. g. g. g. g. g. g. g. g. g. g. g. g. g. g. g. g. g. g. g. g. g. g. g. g. g. g. g. g. oe L1 yU zU AU =$ D# D# D# D# mU BU CU DU g. g. g. F. rm sm tm Mm i: i: i: i: i: i: i: i: i: i: #< &P En <# <# <# <# <# v* .S +S +} d; d; d; d; d; d; d; d; d; d; d; d; d; d; d; d; d; d; d; p} H[ I[ '# '# '# '# D+ #} ci @S I+ W+ W+ W+ W+ W+ W+ W+ W+ W+ W+ W+ W+ W+ '@ Ih .e Ju '# '# /U rU N. W+ W+ W+ W+ W+ YM ZM `M .  .  .  .  .  .                                                                                                                                                                                                                                                                                                     ",
".  .  .  .  .  .  .  .  iM jM *v l: <U [U vT Pb }U sU 1U }P d# EU 3U mG 2, <# <# <# <# <# <# <# <# <# <# <# <# <# <# <# <# <# <# <# <# <# <# <# <# <# v* k6 fy )y !y a# D# V[ W[ F# F# F# F# e# OO FU GU HU IU Iw JU [& 3, <# <# <# <# <# <# <# <# <# <# <# <# <# <# <# <# <# nC KU LU MU _  _  NU OU w: 3N 3N w: 3N w: w: 3N w: 3N 3N w: PU QU QU QU RU SU @& TU UU VU xU #< WU En 3, <# <# YL '& '& l: oS [S XU F. g. g. g. g. g. g. g. g. g. g. g. g. g. g. g. g. g. 39 8N dC dC YU 0j F. g. g. g. g. g. g. g. g. g. g. g. g. g. g. g. g. g. g. g. g. g. g. g. g. g. g. g. g. g. g. g. g. g. g. g. g. g. g. g. g. g. g. g. g. g. g. g. g. g. oe L1 yU zU AU =$ J# ZU @& @& `U  V .V DU g. g. g. F. rm sm tm Mm i: i: i: i: i: i: i: i: i: i: i: &P En <# <# v* 3, sN Jn +V @V +} d; d; d; d; d; d; d; d; d; d; d; d; d; d; d; d; d; d; d; vS H[ I[ '# '# )# D+ e% P^ ci @S I+ W+ W+ W+ W+ W+ W+ W+ W+ W+ W+ W+ W+ W+ '@ Ih .e Ju '# '# /U rU N. W+ s. X+ '@ '@ #V $V %V .  .  .  .  .  .                                                                                                                                                                                                                                                                                                     ",
".  .  .  .  .  .  .  .  iM jM *v l: <U [U vT Pb }U &V *V =V -V ;V >V ,V 2, <# <# <# <# <# <# <# <# <# <# <# <# <# <# <# <# <# <# <# <# <# <# <# <# <# v* k6 fy )y !y a# D# V[ W[ F# F# F# F# e# :L 'V )V M_ !V ~V {V ]V [& <# <# <# <# <# <# <# <# <# <# <# <# <# <# <# <# <# i% ^V /V (V -H &: _V :V U_ <V [V }V <V }V }V <V |V [V <V 1V 2V 3V 3V 4V 5V 6V 7V 8V 9V 0V aV bV cV dV ]H ^H eV fV gV <H <H hV iV th g. g. g. g. g. g. g. g. g. g. g. g. g. g. g. g. g. g. jV kV lV cr mV nV oV g. g. g. g. g. g. g. g. g. g. g. g. g. g. g. g. g. g. g. g. g. g. g. g. g. g. g. g. g. g. g. g. g. g. g. g. g. g. g. g. g. g. g. g. g. g. g. g. g. oe L1 yU zU AU pV qV rV 8H 9H sV tV uV O| g. g. g. F. rm sm tm Mm i: i: i: i: i: i: j: vV D_ D_ D_ wV xV v* yV zV AV uH BV CV DV F[ d; d; d; d; d; d; d; d; d; d; d; d; d; d; d; d; d; d; d; b, H[ I[ D+ EV 7[ FV IH GV HV IV W+ W+ W+ W+ W+ W+ W+ W+ W+ W+ W+ W+ W+ W+ '@ Ih .e Ju '# '# /U rU N. W+ T9 JV KV DH LV MV NV &v .  .  .  .  .                                                                                                                                                                                                                                                                                                     ",
".  .  .  .  .  .  .  .  iM jM *v l: <U [U vT Pb }U OV PV ^> 0q nn on *o 2, <# <# <# <# <# <# <# <# <# <# <# <# <# <# <# <# <# <# <# <# <# <# <# <# <# v* k6 fy )y !y a# D# V[ W[ F# F# F# F# F# F# V* QV RV QU SV TV UV [& <# <# <# <# <# <# <# <# <# <# <# <# <# <# <# <# <# <# v* /; b_ b_ b_ s{ 4, *6 J) J. *6 l) =4 s{ sp J) s{ l[ VV WV up XV XV XV XV XV XV YV ZV Q4 `V  W .W i: i: .Q +W @W Q4 Q4 #W dA g. g. g. g. g. g. g. g. g. g. g. g. g. g. g. g. g. F. $W %W Q| R| z+ &+ &W *W F. g. g. g. g. g. g. g. g. g. g. g. g. g. g. g. g. g. g. g. g. g. g. g. g. g. g. g. g. g. g. g. g. g. g. g. g. g. g. g. g. g. g. g. g. g. g. g. g. oe L1 yU zU OR =W -W ;W >W XV XV ,W O| g. g. g. g. F. rm sm tm Mm i: i: i: i: i: i: :o av <# <# <# <# <# t, 'W )W !W  ;  ; d; Z- d; d; d; d; d; d; d; d; d; d; d; d; d; d; d; d; d; d; d; d; p} H[ I[ D+ ~W {W ZE '@ '@ W+ W+ W+ W+ W+ W+ W+ W+ W+ W+ W+ W+ W+ W+ W+ W+ '@ Ih .e Ju '# '# /U rU N. W+ OI ]W l# D+ kq ^W /W U/ .  .  .  .  .                                                                                                                                                                                                                                                                                                     ",
".  .  .  .  .  .  .  .  (W _W *v '& oS [U :W <W }U [W PV ;4 fI }W |W 1W 2W p1 =4 3, <# <# <# <# <# <# <# <# <# <# <# <# <# <# <# v* ^; p1 p1 p1 3, <# v* k6 fy )y !y a# D# V[ W[ F# F# F# F# F# F# F# F# F# >g 3W 4W 5W !| p1 p1 p1 p1 p1 =4 3, <# <# <# <# <# <# <# <# <# <# <# <# <# <# <# <# <# i% i% i% i% i% i% i% i% <# <# <# &/ 6W 7W 8W p9 p9 eq U+ U+ U+ U+ U+ U+ U+ 9W .W 8i i: 0W aW bW U+ U+ U+ g. g. g. g. g. g. g. g. g. g. g. g. g. g. g. g. g. g. F. cW 9| 0| &| D. .f dW eW F. g. g. g. g. g. g. g. g. g. g. g. g. g. g. g. g. g. g. g. g. g. g. g. g. g. g. g. g. g. g. g. g. g. g. g. g. g. g. g. g. g. g. g. g. g. g. g. g. oe L1 jU zU fW gW %i 3i Ai U+ U+ g. g. g. g. g. g. F. rm sm tm Mm i: i: i: i: i: i: :o av <# <# <# v* <# t, 'W )W hW Z- d; d; d; d; d; d; d; d; d; d;  ;  ;  ;  ;  ;  ;  ;  ;  ;  ; d; d; d; iW H[ I[ D+ jW {W ZE W+ W+ W+ W+ W+ W+ W+ W+ W+ W+ W+ W+ W+ W+ W+ W+ W+ W+ 0% Ih .e Ju D+ '# /U rU N. W+ kW ]W )# e% kq lW mW U/ .  .  .  .  .                                                                                                                                                                                                                                                                                                     ",
".  .  .  .  .  .  .  .  nW oW ed J. pW qW rW dC sW tW uW vW ;U wW xW yW zW ]9 l* AW 3, <# <# <# <# <# <# <# <# <# <# <# <# <# <# i% ^; 69 7{ ^9 s~ 3, 5- k6 fy )y !y a# D# V[ W[ F# F# F# F# F# F# F# F# F# >g BW CW DW l) ]9 ]9 ]9 ]9 ]9 EW FW 3, <# <# <# <# <# <# <# <# <# <# <# <# <# <# <# <# +M v* v* v* v* v* v* v* i% <# <# &/ GW HW uh <k iN IW O| g. g. g. g. g. U+ JW .W (q (q KW LW MW U+ g. g. g. g. g. g. g. g. g. g. g. g. g. g. g. g. g. g. g. g. F. :O NW OW PW e* QW RW SW F. g. g. g. g. g. g. g. g. g. g. g. g. g. g. g. g. g. g. g. g. g. g. g. g. g. g. g. g. g. g. g. g. g. g. g. g. g. g. g. g. g. g. g. g. g. g. g. g. oe TW UW VW WW XW YW ZW `W g. g. g. g. g. g. g. g. F. rm sm tm Mm i: i: i: i: i: i: :o av <# <# <# i% X/ i%  X .X hW Z- d; d; d; d; d; d; d; d; d; d; +X F[ Z- Z- Z- Z- Z- Z- Z- eG eG eG eG @X #X I[ D+ jW {W ZE W+ W+ W+ W+ W+ W+ W+ W+ W+ W+ W+ W+ W+ W+ W+ s. W+ Wd t# Lr $X %X /$ m< /U rU N. W+ &X *X <6 ;# =X -X ;X /a .  .  .  .  .                                                                                                                                                                                                                                                                                                     ",
".  .  .  .  .  .  .  .  >X ,X 'X )X !X ~X {X ]X ^X /X (X _X :X <X [X }X |X B= 1X 2X <1 3, <# <# <# <# <# <# <# <# <# <# <# t, 3X 4X 5X 6X 7X 8X 9X 0X pq k6 fy )y !y a# D# V[ W[ F# F# F# F# F# F# F# F# F# e# aX bX cX dX dX dX dX dX eX fX gX hX [& <# <# <# <# <# <# <# <# <# <# <# <# <# 4, iX jX e0 e0 e0 e0 e0 e0 kX lX yr 3, v* mX nX oX oX pX qX rX g. g. g. g. g. U+ HM sX jF jF tX hh uX g. g. g. g. g. g. g. g. g. g. g. g. g. g. g. g. g. g. g. g. g. g. g. 9I vX wX xX yX zX `3 g. g. g. g. g. g. g. g. g. g. g. g. g. g. g. g. g. g. g. g. g. g. g. g. g. g. g. g. g. g. g. g. g. g. g. g. g. g. g. g. g. g. g. g. g. g. g. g. g. &g |K AX BX CX DX EX FX ^2 g. g. g. g. g. g. g. g. F. rm sm tm Mm i: i: i: i: i: i: :o av <# v* _x GX HX IX JX KX +} d; d; d; d; d; d; d; d; d; a, vS LX MX NX NX NX NX NX NX OX PX QX RX RX SX TX o@ D+ jW {W ZE W+ W+ W+ W+ W+ W+ W+ W+ W+ W+ W+ W+ W+ W+ W+ UX VX RF Q$ WX XX YX ZX ZX `X 5R W+ W+  Y .Y +Y @Y #Y $Y %Y =  .  .  .  .  .                                                                                                                                                                                                                                                                                                     ",
".  .  .  .  .  .  .  .  =  Y, g= &Y *Y =Y fG X- -Y ;Y >Y sK 9i ,Y 'Y )Y !Y ~Y {Y ]Y >M 3, <# <# <# <# <# <# <# <# <# <# <# t, q1 +2 ^Y 5c 76 -} j[ k[ q~ k6 fy )y !y a# D# V[ W[ F# F# F# F# F# F# F# F# F# F# F# >g S0 1% 1% 1% 1% zi 5= /Y (Y Pt [& <# <# <# <# <# <# <# <# <# <# <# <# <# &/ _Y :Y <Y *a *a *a *a Qy [Y }Y yr 3, <# <# K. K. K. |Y qt ]u g. g. g. g. g. g. BA ,E *a *a ,E 1Y g. g. g. g. g. g. g. g. g. g. g. g. g. g. g. g. g. g. g. g. g. g. g. g. oe .K 2Y 3Y -a 1K g. g. g. g. g. g. g. g. g. g. g. g. g. g. g. g. g. g. g. g. g. g. g. g. g. g. g. g. g. g. g. g. g. g. g. g. g. g. g. g. g. g. g. g. g. g. g. g. g. g. g. F. 4Y @K @K @K NE 5Y F. g. g. g. g. g. g. g. g. F. rm sm tm Mm i: i: i: i: i: i: :o av <# t, (Q 6Y 7Y `- a, d; d; d; d; d; d; d; d; d; d; d; a, -Y 8Y 9Y $& $& $& $& $& $& X+ 0Y aY N# !$ !$ N# '# D+ jW {W ZE W+ W+ W+ W+ W+ W+ W+ W+ W+ W+ W+ W+ W+ wg W+ gk  F e% Z( O$ bY IV '@ '@ wg W+ W+ O. cY dY eY `) 9  9  =  .  .  .  .  .  .                                                                                                                                                                                                                                                                                                     ",
".  .  .  .  .  .  .  .  .  .  .  fY gY hY fG X- -Y iY 2G 8i Yk jY kY Zf ]4 QG lY mY >M 3, <# <# <# <# <# <# <# <# <# <# <# t, q1 +2 nY x^ @: R[ S[ T[ q~ k6 fy )y !y a# D# V[ W[ F# F# F# F# F# F# F# F# F# F# F# F# F# F# F# F# F# e# oY pY qY Pt t* <# <# <# <# <# <# <# <# <# <# <# <# <# &/ _Y rY =G 4k 4k O6 F. sY tY }Y yr 3, <# <# <# <# <# pt qt ]u g. g. g. g. g. g. g. F. F. F. F. F. g. g. g. g. g. g. g. g. g. g. g. g. g. g. g. g. g. g. g. g. g. g. g. g. g. F. F. uY O6 g. g. g. g. g. g. g. g. g. g. g. g. g. g. g. g. g. g. g. g. g. g. g. g. g. g. g. g. g. g. g. g. g. g. g. g. g. g. g. g. g. g. g. g. g. g. g. g. g. g. g. g. g. F. F. F. F. F. F. g. g. g. g. g. g. g. g. g. F. rm sm tm Mm i: i: i: i: i: i: :o av <# t, (Q 6Y 7Y Z- d; d; d; d; d; d; d; d; d; d; d; d; a, -Y 8Y vY kE W+ W+ W+ W+ wg L+ wY aY N# '# '# '# '# D+ jW {W ZE W+ W+ W+ W+ W+ W+ W+ W+ W+ W+ W+ W+ W+ wg W+ gk hk N# e% 3q xY _* W+ W+ W+ W+ W+ O. cY yY zY .  .  .  .  .  .  .  .  .  .                                                                                                                                                                                                                                                                                                     ",
".  .  .  .  .  .  .  .  .  .  .  fY gY AY BY X- -Y iY CY i: Yk jY kY Zf ]4 QG lY mY >M 3, <# <# <# <# <# <# <# <# <# <# <# t, q1 +2 nY x^ @: R[ ;} DY Jb =6 EY )y !y a# D# V[ W[ F# F# F# F# F# F# F# F# F# F# F# F# F# F# F# F# F# e# oY pY FY GY o: O, O, O, O, O, O, O, O, O, 1, N( <# <# &/ _Y HY IY 0E JY jA g. !2 KY }Y yr N, K. K. K. K. K. pt qt ]u g. g. g. g. g. g. g. g. g. g. g. g. g. g. g. g. g. g. g. g. g. g. g. g. g. g. g. g. g. g. g. g. g. g. g. g. g. g. g. F. g. g. g. g. g. g. g. g. g. g. g. g. g. g. g. g. g. g. g. g. g. g. g. g. g. g. g. g. g. g. g. g. g. g. g. g. g. g. g. g. g. g. g. g. g. g. g. g. g. g. g. g. g. g. g. g. g. g. g. g. g. g. g. g. g. g. g. g. g. F. rm sm tm Mm i: i: i: i: i: i: :o >A K. /; (Q 6Y 7Y Z- d; d; d; d; d; d; d; d; d; d; a, LY Ra MY 8Y NY '@ N. N. W+ W+ wg L+ wY aY N# '# '# '# '# D+ jW {W ZE W+ W+ W+ W+ W+ W+ W+ W+ W+ W+ W+ W+ W+ wg W+ gk hk N# e% 3q xY _* W+ W+ W+ W+ M+ W+ cY OY PY .  .  .  .  .  .  .  .  .  .                                                                                                                                                                                                                                                                                                     ",
".  .  .  .  .  .  .  .  .  .  .  8S QY RY SY TY UY VY CY i: Yk jY WY XY cN YY ZY ]Y q# 3, <# <# <# <# <# <# <# <# <# <# <# t, q1 +2 nY x^ @: `Y  Z .Z +Z @Z #Z $Z !y a# D# %Z bb f& f&  # F# F# F# F# F# F# F# F# F# F# F# F# F# F# e# oY &Z *Z =Z -Z -Z -Z -Z -Z -Z -Z ;Z +Z >Z ,Z 'Z .= <# J. )Z !Z oD pD ~Z {Z TB ]Z ^Z /Z (Z _Z _Z _Z _Z _Z _Z :Z <Z [Z g. g. g. g. g. g. g. g. g. g. g. g. g. g. g. g. g. g. g. g. g. g. g. g. g. g. g. g. g. g. g. g. g. g. g. g. g. g. g. g. g. g. g. g. g. g. g. g. g. g. g. g. g. g. g. g. g. g. g. g. g. g. g. g. g. g. g. g. g. g. g. g. g. g. g. g. g. g. g. g. g. g. g. g. g. g. g. g. g. g. g. g. g. g. g. g. g. g. g. g. g. g. g. g. g. g. g. g. g. g. O| }Z |Z iD iD iD 1Z  H i: i: 2Z 3Z 4Z 5Z 6Z 7Z 8Z Z- d; d; d; d; d; d; d; d; d; d; %, 9Z 0Z aZ bZ cZ dZ eZ fZ gZ W+ W+ J+ hZ iZ Lh jZ jZ jZ jZ jZ kZ lZ V+ W+ W+ W+ W+ W+ W+ W+ W+ W+ W+ W+ W+ W+ wg W+ gk hk N# e% 3q xY _* W+ W+ W+ W+ W+ j+ cY mZ nZ .  .  .  .  .  .  .  .  .  .                                                                                                                                                                                                                                                                                                     ",
".  .  .  .  .  .  .  .  .  .  .  oZ pZ qZ rZ 3P up yG ZG i: Yk sZ tZ fe Q* uZ vZ wZ <1 3, <# <# <# <# <# <# <# <# <# <# <# t, q1 +2 nY x^ D# qI xZ yZ zZ zZ wa AZ D# D# D# D# D# )* j- 0< K= F# F# F# F# F# F# F# F# F# F# F# F# F# F# F# na BZ 8* 8* BZ 8* 8* BZ 8* 8* CZ yZ DZ .B EZ FZ M, <# @D GZ #D GZ HZ IZ JZ F. O6 KZ  D  D  D  D  D  D  D Uz LZ a0 g. g. g. g. g. g. g. g. g. g. g. g. g. g. g. g. g. g. g. g. g. g. g. g. g. g. g. g. g. g. g. g. g. g. g. g. g. g. g. g. g. g. g. g. g. g. g. g. g. g. g. g. g. g. g. g. g. g. g. g. g. g. g. g. g. g. g. g. g. g. g. g. g. g. g. g. g. g. g. g. g. g. g. g. g. g. g. g. g. g. g. g. g. g. g. g. g. g. g. g. g. g. g. g. g. g. g. g. g. g. F. |B .D  D  D MZ NZ OZ i: i: PZ QZ RZ 44 44 9) F[ d; d; d; d; d; d; d; d; d;  ; SZ TZ UZ Gn VZ WZ PN N, ^; XZ YZ N. W+ W+ J+ M+ L+ L+ L+ L+ L+ L+ ZZ `d W+ W+ W+ W+ W+ W+ W+ W+ W+ W+ W+ W+ W+ W+ wg W+ gk hk N# e% 3q xY _* W+ W+ W+ W+ M+ W+ cY `Z Pm .  .  .  .  .  .  .  .  .  .                                                                                                                                                                                                                                                                                                     ",
".  .  .  .  .  .  .  .  .  .  .  .   ` .` +` @`  u #` ZG i: Yk sZ $` fe @& %` &` wZ <1 3, <# <# <# <# <# <# <# <# <# <# <# t, q1 +2 nY x^ D# D# =q R* R* R* =$ a# D# D# D# D# D# D# J- NO K= F# F# F# F# F# F# F# F# F# F# F# F# F# F# F# }% V*  a  a V*  a  a V*  a  a I, 5^ h5 *` =` s, M, <# <# i% i% Jn -` IZ ;` F. g. 1Y IC IC IC IC IC IC IC BC ,l g. g. g. g. g. g. g. g. g. g. g. g. g. g. g. g. g. g. g. g. g. g. g. g. g. g. g. g. g. g. g. g. g. g. g. g. g. g. g. g. g. g. g. g. g. g. g. g. g. g. g. g. g. g. g. g. g. g. g. g. g. g. g. g. g. g. g. g. g. g. g. g. g. g. g. g. g. g. g. g. g. g. g. g. g. g. g. g. g. g. g. g. g. g. g. g. g. g. g. g. g. g. g. g. g. g. g. g. g. g. g. g. g. >` IC IC 2M sA cE i: j: ,` QZ D8 a,  ; d; d; d; d; d; d; d; d; d; d; d; d; SZ '` )` #q L+ !` %l p. u* Fn YZ N. W+ W+ W+ wg wg wg wg wg wg wg W+ W+ W+ W+ W+ W+ W+ W+ W+ W+ W+ W+ W+ W+ W+ W+ wg W+ gk hk N# e% 3q xY _* W+ W+ W+ W+ W+ O. cY OY PY .  .  .  .  .  .  .  .  .  .                                                                                                                                                                                                                                                                                                     ",
".  .  .  .  .  .  .  .  .  .  .  .  ~` qZ {` O| |G #` ZG i: Yk sZ $` ]` d  ^` &` wZ *6 3, <# <# <# <# <# <# <# <# <# <# <# t, q1 +2 nY 2= D# D# D# D# D# D# D# D# D# D# D# D# D# D# D# NO K= F# F# F# F# F# F# F# F# F# F# F# F# F# F# F# F# F# F# F# F# F# F# F# F# ,* H; b# B; <, r, /` M, <# <# <# <# i% (` _` :` &g `8 `8 `8 `8 `8 `8 `8 `8 `8 &g `8 g. g. g. g. g. g. g. g. g. g. g. g. g. g. g. g. g. g. g. g. g. g. g. g. g. g. g. g. g. g. g. g. g. g. g. g. g. g. g. g. g. g. g. g. g. g. g. g. g. g. g. g. g. g. g. g. g. g. g. g. g. g. g. g. g. g. g. g. g. g. g. g. g. g. g. g. g. g. g. g. g. g. g. g. g. g. g. g. g. g. g. g. g. g. g. g. g. g. g. g. g. g. g. g. g. g. g. g. g. g. g. g. g. g. g. U+ sE sA cE i: %p <` QZ D8 d; d; d; d; d; d; d; d; d; d; d; d; d;  ; SZ '` )` jm N7 !` %l <# <# Fn YZ N. W+ W+ W+ W+ W+ W+ W+ W+ W+ W+ W+ W+ W+ W+ W+ W+ W+ W+ W+ W+ W+ W+ W+ W+ W+ W+ wg W+ gk hk N# e% 3q bY _* W+ W+ W+ W+ W+ O. cY mZ mn .  .  .  .  .  .  .  .  .  .                                                                                                                                                                                                                                                                                                     ",
".  .  .  .  .  .  .  .  .  .  .  .  [` }` |` 4C VA 1` 2` 3` aC sZ 4` 5` =q 6` 7` 8` EJ L( 9` 2, 3, <# <# <# <# <# <# v* '& w* 0` a` b` c` d  )* P: D# D# D# D# D# D# D# D# D# D# D# D# NO G| G# G# G# F# F# F# F# F# F# F# F# F# F# F# F# F# F# F# F# F# F# F# F# F# 7; M- =$ KP d` [, }, p: L( L( L( L( L( e` f` g` *I =3 dl dl dl dl dl dl dl dl gN h` !2 g. g. g. g. g. g. g. g. g. g. g. g. g. g. g. g. g. g. g. g. g. g. g. g. g. g. g. g. g. g. g. g. g. g. g. g. g. g. g. g. g. g. g. g. g. g. g. g. g. g. g. g. g. g. g. g. g. g. g. g. g. g. g. g. g. g. g. g. g. g. g. g. g. g. g. g. g. g. g. g. g. g. g. g. g. g. g. g. g. g. g. g. g. g. g. g. g. g. g. g. g. g. g. g. g. g. g. g. g. g. g. g. g. g. U+ sE sA cE i: j: ,` i` j` 1! 1! 1! 1! 1! 1! 1! lC lC lC .; 1> 1> 1> k` '` )` '@ 1$ !` <1 X/ u* l` YZ N. W+ W+ W+ W+ W+ W+ W+ W+ W+ W+ W+ W+ W+ W+ W+ W+ W+ W+ W+ W+ W+ W+ W+ W+ X+ '@ 0% t. gk  F e% e% O$ bY _* W+ W+ wg '@ '@ j+ cY m` n` .  .  .  .  .  .  .  .  .  .                                                                                                                                                                                                                                                                                                     ",
".  .  .  .  .  .  .  .  .  .  .  .  o` p` q` IB r` s` t` u` v` w` x` y` sB z` A` B` C` D` E` F` [& <# <# <# <# <# '& G` H` BB I` J` K` L` M` N` O` P` =$ D# D# D# D# D# D# D# D# D# D# n; =V 4B Z_ 4B Q` F# F# F# F# F# F# F# F# F# F# F# F# F# F# F# F# F# F# F# F# G# e8 R` S` T` U` V` W` W` W` W` W` W` X` Y` Z` ``   .. .+ .@ .@ .@ .@ .+ .# .$ .% .& .* .F. g. g. g. g. g. g. g. g. g. g. g. g. g. g. g. g. g. g. g. g. g. g. g. g. g. g. g. g. g. g. g. g. g. g. g. g. g. g. g. g. g. g. g. g. g. g. g. g. g. g. g. g. g. g. g. g. g. g. g. g. g. g. g. g. g. g. g. g. g. g. g. g. g. g. g. g. g. g. g. g. g. g. g. g. g. g. g. g. g. g. g. g. g. g. g. g. g. g. g. g. g. g. g. g. g. g. g. g. g. g. g. g. U+ sE sA cE i: %p = .- .; .> ., ., ., ., .' .) .! .%C %C ~ .{ .] .] .] .^ ./ .( ._ .: .< .[ .[ .} .| .W+ W+ W+ W+ W+ W+ W+ W+ W+ W+ W+ W+ W+ W+ W+ W+ W+ W+ W+ W+ W+ W+ W+ wg Hn 1 .2 .3 .4 .5 .6 .7 .8 .9 .0 .OA W+ W+ a .b .c .d .e .f .g ..  .  .  .  .  .  .  .  .  .                                                                                                                                                                                                                                                                                                     ",
".  .  .  .  .  .  .  .  .  .  .  .  h .>= pq A[ i .j .k .d; ^{ l .m .#= l[ n .o .p .q .r .s .t .M, <# <# <# <# <# J. u .v .VA UA w .x .[w dl y .z .zR @& D# D# D# D# D# D# D# D# D# D# D# D# b# D# a# E* F# F# F# F# F# F# F# F# F# F# F# F# F# F# F# F# F# F# F# F# F# G# G# G# A .B .RV RV C .QU RV C .QU 9} C .D .D .E .F .d  !* d  d  !* d  !* G .H .I .J .F. g. g. g. g. g. g. g. g. g. g. g. g. g. g. g. g. g. g. g. g. g. g. g. g. g. g. g. g. g. g. g. g. g. g. g. g. g. g. g. g. g. g. g. g. g. g. g. g. g. g. g. g. g. g. g. g. g. g. g. g. g. g. g. g. g. g. g. g. g. g. g. g. g. g. g. g. g. g. g. g. g. g. g. g. g. g. g. g. g. g. g. g. g. g. g. g. g. g. g. g. g. g. g. g. g. g. g. g. g. g. g. g. U+ sE sA cE i: i: #< /q 3` Zn 3` 3` 3` 3` %p K .o. sN 3, ve L .M .H^ X+ N .#_ u* ok O .,@ (s (s N. W+ W+ W+ W+ W+ W+ W+ W+ W+ W+ W+ W+ W+ W+ W+ W+ W+ W+ W+ W+ W+ W+ W+ W+ '@ xg |g P .e% M# #v Gu X+ '@ '@ W+ W+ W+ wg #S $S )$ x6 +l Q .R ..  .  .  .  .  .  .  .  .  .                                                                                                                                                                                                                                                                                                     ",
".  .  .  .  .  .  .  .  .  .  .  .  h .S .w; t, T .U .V .Z- 1! W .X .Y .Z .dx ` . .....+..@..#..M, <# <# <# <# <# J. u .$..%..O| O| O| &g &..*..z .zR @& D# D# D# D# D# D# D# D# D# D# D# D# D# D# y^ E* F# F# F# F# F# F# F# F# F# F# F# F# F# F# F# F# F# F# F# F# F# F# F# F# F# F# F# F# F# F# F# F# F# F# F# F# F# 7; '* D# D# D# D# D# D# @: =..-..;..J .F. g. g. g. g. g. g. g. g. g. g. g. g. g. g. g. g. g. g. g. g. g. g. g. g. g. g. g. g. g. g. g. g. g. g. g. g. g. g. g. g. g. g. g. g. g. g. g. g. g. g. g. g. g. g. g. g. g. g. g. g. g. g. g. g. g. g. g. g. g. g. g. g. g. g. g. g. g. g. g. g. g. g. g. g. g. g. g. g. g. g. g. g. g. g. g. g. g. g. g. g. g. g. g. g. g. g. g. g. g. g. g. g. U+ sE sA cE i: i: i: i: i: i: i: i: i: i: i: 9s 0s <# v* >..,..N. W+ $l '..*6 <# ,c )..,@ W+ W+ W+ W+ W+ W+ W+ W+ W+ W+ W+ W+ W+ W+ W+ W+ W+ W+ W+ W+ W+ W+ W+ W+ W+ W+ W+ '@ xg |g N$ D+ x6 #v Gu X+ W+ W+ W+ W+ W+ wg #S $S %S O# +l !..~...  .  .  .  .  .  .  .  .  .                                                                                                                                                                                                                                                                                                     ",
".  .  .  .  .  .  .  .  .  .  .  .  {..]..w; _a ^..U ./.. ; /{ W .X .(..Z .dx ` ._..:..<..[..}..M, <# <# <# <# <# J. u .|..1..01 1Y F. g. 2..3..4..5..], z( )* =$ D# D# D# D# D# D# D# a# R* z( z( 4^ i5 ]4 ]4 ]4 ]4 ]4 ]4  a B* d# F# F# F# F# F# F# F# F# F# F# F# F# F# F# F# }% *( ]4 ]4 ]4 ]4 ]4 ]4 ]4 ]4 U* U* U* 6..7..z( z( z( z( z( z( 8..9..-..0..J .F. g. g. g. g. g. g. g. g. g. g. g. g. g. g. g. g. g. g. g. g. g. g. g. g. g. g. g. g. g. g. g. g. g. g. g. g. g. g. g. g. g. g. g. g. g. g. g. g. g. g. g. g. g. g. g. g. g. g. g. g. g. g. g. g. g. g. g. g. g. g. g. g. g. g. g. g. g. g. g. g. g. g. g. g. g. g. g. g. g. g. g. g. g. g. g. g. g. g. g. g. g. g. g. g. g. g. g. g. g. g. g. g. U+ sE sA cE i: i: i: i: i: i: i: i: i: i: i: 9s 0s <# v* >..,..N. W+ $l '..*6 <# [# )..,@ W+ W+ W+ W+ W+ W+ W+ W+ W+ W+ W+ W+ W+ W+ W+ W+ W+ W+ W+ W+ W+ W+ W+ W+ W+ W+ W+ '@ xg |g N$ D+ x6 #v Gu X+ W+ W+ W+ W+ W+ wg #S a..b...l +l c..d...  .  .  .  .  .  .  .  .  .                                                                                                                                                                                                                                                                                                     ",
".  .  .  .  .  .  .  .  .  .  .  .  e..f..g..`& h..j .i..j..k..l..X .(..Z .dx m..n..o..p..q..r..M, <# <# <# <# <# K. s..t..u..v..w..hy g. &..x..y..z..A..A..B..C..D# D# D# D# D# D# qI D..E..;) ;) ;) F..G..H..H..H..H..H..I..J..K..&( &( &( &( &( &( &( &( &( &( &( &( &( &( &( L..M..H..H..H..H..H..H..H..H..N..O..P..Q..R..S..S..S..S..S..S..T..U..H .V..J .F. g. g. g. g. g. g. g. g. g. g. g. g. g. g. g. g. g. g. g. g. g. g. g. g. g. g. g. g. g. g. g. g. g. g. g. g. g. g. g. g. g. g. g. g. g. g. g. g. g. g. g. g. g. g. g. g. g. g. g. g. g. g. g. g. g. g. g. g. g. g. g. g. g. g. g. g. g. g. g. g. g. g. g. g. g. g. g. g. g. g. g. g. g. g. g. g. g. g. g. g. g. g. g. g. g. g. g. g. g. g. g. g. U+ sE sA cE i: i: i: i: i: i: i: i: i: i: i: 9s 0s <# v* >..,..N. W+ $l '..*6 <# [# )..,@ W+ W+ W+ W+ W+ W+ W+ W+ W+ W+ W+ W+ W+ W+ W+ W+ W+ W+ W+ W+ W+ W+ W+ W+ W+ W+ W+ '@ xg |g N$ D+ x6 #v Gu X+ W+ W+ W+ W+ W+ s. W..X..Y..R$ Z..`.. +..  .  .  .  .  .  .  .  .  .                                                                                                                                                                                                                                                                                                     ",
".  .  .  .  .  .  .  .  .  .  .  .  g= .+.++.@+.#+.$+.%+.&+.*+.=+.-+..= v* ;+.>+.,+.'+.)+.!+.~+.3, <# <# <# <# <# <# AI {+.]+.]+.^+./+.[M (+._+.:+.<+.[+.}+.|+.1+.2+.a# D# D# D# F* 3+.4+.5+.6+.9' 9' 7+.8+.8+.8+.8+.8+.9+.0+.a+.b+.8/ _= :! 8/ _= _= 8/ :! _= 8/ :! _= 8/ ;4 c+.d+.e+.f+.8+.8+.8+.8+.8+.8+.g+.h+.i+.j+.k+.l+.[+.[+.[+.[+.[+.[+.m+.n+.o+.p+.&g g. g. g. g. g. g. g. g. g. g. g. g. g. g. g. g. g. g. g. g. g. g. g. g. g. g. g. g. g. g. g. g. g. g. g. g. g. g. g. g. g. g. g. g. g. g. g. g. g. g. g. g. g. g. g. g. g. g. g. g. g. g. g. g. g. g. g. g. g. g. g. g. g. g. g. g. g. g. g. g. g. g. g. g. g. g. g. g. g. g. g. g. g. g. g. g. g. g. g. g. g. g. g. g. g. g. g. g. g. g. g. g. g. U+ sE sA cE i: i: i: i: i: i: i: i: i: i: i: 9s 0s <# v* >..,..N. W+ $l '..*6 <# [# )..,@ W+ W+ W+ W+ W+ W+ W+ W+ W+ W+ W+ W+ W+ W+ W+ W+ W+ W+ W+ W+ W+ W+ W+ W+ W+ W+ W+ '@ xg |g N$ D+ x6 #v Gu X+ W+ W+ W+ N. W+ wg R9 q+.r+.s+.t+.u+.=  .  .  .  .  .  .  .  .  .  .                                                                                                                                                                                                                                                                                                     ",
".  .  .  .  .  .  .  .  .  .  .  .  .  .  .  .  v+.w+.x+.Yk /l Zn `n <# v* ;+.y+.z+.A+.B+.C+.D+.3, <# <# <# <# <# <# <# K. K.  * E+.F+.th F. ZC G+.H+.0P .D I+.J+.2+.a# D# D# D# F* K+.L+.M+.|, |, |, |, |, |, |, |, O, O, N+.O+.qA @& D# D# D# D# D# D# D# D# D# D# D# D# D# B; <, P+.Q+.o: O, O, O, O, O, 0p R+.Rt S+.S+.S+.S+.T+.U+.V+.W+.X+.M1 Y+.Z+.<I g. g. g. g. g. g. g. g. g. g. g. g. g. g. g. g. g. g. g. g. g. g. g. g. g. g. g. g. g. g. g. g. g. g. g. g. g. g. g. g. g. g. g. g. g. g. g. g. g. g. g. g. g. g. g. g. g. g. g. g. g. g. g. g. g. g. g. g. g. g. g. g. g. g. g. g. g. g. g. g. g. g. g. g. g. g. g. g. g. g. g. g. g. g. g. g. g. g. g. g. g. g. g. g. g. g. g. g. g. g. g. g. g. F. F. sE sA cE i: i: i: i: i: i: i: i: i: i: i: 9s 0s <# v* >..,..N. W+ $l '..*6 <# [# )..,@ W+ W+ W+ W+ W+ W+ W+ W+ W+ W+ W+ W+ W+ W+ W+ W+ W+ W+ W+ W+ W+ W+ W+ W+ W+ W+ W+ '@ xg |g d% D+ x6 #v Gu X+ W+ W+ W+ W+ Xd M+ `+. @..@.+@.t% .  .  .  .  .  .  .  .  .  .  .  .                                                                                                                                                                                                                                                                                                     ",
".  .  .  .  .  .  .  .  .  .  .  .  .  .  .  .  @@.#@.$@.#< #< Zn `n '& /; ;+.y+.%@.&@.*@.C+.D+.3, 3, 3, 3, <# <# <# <# <# <# &/ E+.=@.-@._y _y ;@.;@.>@.3P I+.J+.$4 66 (= @& a# F* K+.L+.M+.|, |, |, |, |, |, ,@.#_ [& v* '@.O+.)@.!@.(= (= (= Q* Q* (= (= (= (= (= (= (= 4% J, K, L, s, w; <# <# <# <# <# -` IZ ;` O6 F. F. i^ uK ~@.a0 {@.4t ]@.[M i^ g. g. g. g. g. g. g. g. g. g. g. g. g. g. g. g. g. g. g. g. g. g. g. g. g. g. g. g. g. g. g. g. g. g. g. g. g. g. g. g. g. g. g. g. g. g. g. g. g. g. g. g. g. g. g. g. g. g. g. g. g. g. g. g. g. g. g. g. g. g. g. g. g. g. g. g. g. g. g. g. g. g. g. g. g. g. g. g. g. g. g. g. g. g. g. g. g. g. g. g. g. g. g. g. g. g. g. g. g. g. g. g. g. ,l 1y 6y 3E sA cE i: i: i: i: i: i: i: i: i: i: i: 9s 0s p. u* ^@.,..N. N. s. =n *6 p. /@.)..,@ N. N. N. W+ W+ W+ W+ W+ W+ W+ W+ W+ W+ W+ W+ W+ W+ W+ W+ W+ W+ W+ W+ W+ W+ X+ '@ a% xg |g Cm e% x6 #v Gu X+ W+ W+ X+ '@ (@.$v `+._@.:@..  .  .  .  .  .  .  .  .  .  .  .  .  .                                                                                                                                                                                                                                                                                                     ",
".  .  .  .  .  .  .  .  .  .  .  .  .  .  .  .  @@.w+.<@.[@.ax }@.|@.1@.2@.3@.4@.5@.6@.7@.8@.9@.1@.1@.0@.l9 .= <# <# <# <# <# K. a@.b@.Hx Hx Hx Hx Hx Hx c@.d@.e@.f@.g@.h@.i@.j@.k@.l@.m@.n@.o@.o@.p@.q@.r@.r@.s@.t@.u@.v* v@.w@.x@.y@.g@.g@.g@.y@.y@.g@.g@.g@.g@.g@.g@.g@.hx z@.A@.B@.s, M, <# <# <# <# i% -` IZ ;` F. g. g. g. g. g. g. g. g. g. g. g. g. g. g. g. g. g. g. g. g. g. g. g. g. g. g. g. g. g. g. g. g. g. g. g. g. g. g. g. g. g. g. g. g. g. g. g. g. g. g. g. g. g. g. g. g. g. g. g. g. g. g. g. g. g. g. g. g. g. g. g. g. g. g. g. g. g. g. g. g. g. g. g. g. g. g. g. g. g. g. g. g. g. g. g. g. g. g. g. g. g. g. g. g. g. g. g. g. g. g. g. g. g. g. g. g. g. g. g. g. g. g. g. ^2 C@.D@.D@.XD E@.cE i: i: i: i: i: i: i: i: i: i: i: F@.G@.H@.H@.I@.J@.K@.K@.K@.N .:C Wa L@.M@.N@.K@.K@.O@.gZ W+ W+ W+ W+ W+ W+ W+ W+ W+ W+ W+ W+ W+ W+ W+ W+ W+ W+ W+ W+ M+ ,N P@.P@.Q@.R@.S@.+y T@.U@.@S I+ W+ M+ ,N P@.P@.V@.W@.X@.Y@..  .  .  .  .  .  .  .  .  .  .  .  .  .                                                                                                                                                                                                                                                                                                     ",
".  .  .  .  .  .  .  .  .  .  .  .  .  .  .  .  @@.Z@.93 ,% `@. #..#.+#.0) @#.##.$#.^) %#.&#.*#.=#.0) -#.;#./p 3, <# <# <# <# <# @D )x >#.>#.>#.>#.>#.)x )x ,#.'#.Vw )#.!#.~#.{#.&( ]#.^#./#.(#./#._#.:#.<#.<#.[#.}#.|#.[& k< 1#.]) Vw Vw Vw Vw Vw Vw Vw Vw Vw Vw Vw Vw Vw )#.Ww 'x Yw <# <# <# <# <# <# i% -` IZ ;` F. g. g. g. g. g. g. g. g. g. g. g. g. g. g. g. g. g. g. g. g. g. g. g. g. g. g. g. g. g. g. g. g. g. g. g. g. g. g. g. g. g. g. g. g. g. g. g. g. g. g. g. g. g. g. g. g. g. g. g. g. g. g. g. g. g. g. g. g. g. g. g. g. g. g. g. g. g. g. g. g. g. g. g. g. g. g. g. g. g. g. g. g. g. g. g. g. g. g. g. g. g. g. g. g. g. g. g. g. g. g. g. g. g. g. g. g. g. g. g. g. g. g. 2#.3#.tm 4#.5#.5#.8G 8i i: i: i: i: i: i: i: i: i: i: /q 6#.7#.$l 0m bo 8#.K. Jn J. M0 9#.0m N7 !` u) K. K. XZ YZ N. W+ W+ W+ W+ W+ W+ W+ W+ W+ W+ W+ W+ W+ W+ W+ W+ W+ W+ X+ 0#.a#._6 0= b#.c#.d#.L+ |x 9#.N. W+ '@ zr e#.f#.g#.a* h#.i#.j#..  .  .  .  .  .  .  .  .  .  .  .  .  .                                                                                                                                                                                                                                                                                                     ",
".  .  .  .  .  .  .  .  .  .  .  .  .  .  .  .  @@.Z@.93 3, v* k#..#.+} X- Hw l#.m#.G- n#.o#.p#. ; LY q#.;#./p 3, <# <# <# <# <# <# Jn Jn Jn Jn Jn Jn N, N, J. J. s) )= r#.s#.t#.<% e# *( U* [% {4 u#.v#.z( z( w#./, (, [& <# K) J) s) s) s) s) s) s) s) s) s) s) s) s) s) s) J8 u) M, <# <# <# <# <# <# i% -` IZ ;` F. g. g. g. g. g. g. g. g. g. g. g. g. g. g. g. g. g. g. g. g. g. g. g. g. g. g. g. g. g. g. g. g. g. g. g. g. g. g. g. g. g. g. g. g. g. g. g. g. g. g. g. g. g. g. g. g. g. g. g. g. g. g. g. g. g. g. g. g. g. g. g. g. g. g. g. g. g. g. g. g. g. g. g. g. g. g. g. g. g. g. g. g. g. g. g. g. g. g. g. g. g. g. g. g. g. g. g. g. g. g. g. g. g. g. g. g. g. g. g. g. g. F. x#.sm tm Mm i: i: i: i: i: i: i: i: i: i: i: i: i: i: Am 6#.y#.W+ s. ds 8#.B_ X/ _a M0 G+ N. 0m !` M, u* u* Fn YZ N. W+ W+ W+ W+ W+ W+ W+ W+ W+ W+ W+ W+ W+ W+ W+ W+ W+ W+ 0% 8e 9e +e e% MA NA OA wg wg W+ W+ W+ '@ Ih .e Ju '# D+ 0e i#.z#..  .  .  .  .  .  .  .  .  .  .  .  .  .                                                                                                                                                                                                                                                                                                     ",
".  .  .  .  .  .  .  .  .  .  .  .  .  .  .  .  @@.Z@.93 3, v* k#..#.+} a, Hw A#.m#.N, n#.o#.p#.Z- a, q#.;#./p 3, <# <# <# <# <# <# <# <# <# <# <# <# <# <# <# <# <# t, L) s#.t#.<% F# F# F# F# F# 9} >6 D# D# o, p, q, [& <# <# <# <# <# <# <# <# <# <# <# <# <# <# <# <# <# <# <# <# <# <# <# <# <# <# i% -` IZ ;` F. g. g. g. g. g. g. g. g. g. g. g. g. g. g. g. g. g. g. g. g. g. g. g. g. g. g. g. g. g. g. g. g. g. g. g. g. g. g. g. g. g. g. g. g. g. g. g. g. g. g. g. g. g. g. g. g. g. g. g. g. g. g. g. g. g. g. g. g. g. g. g. g. g. g. g. g. g. g. g. g. g. g. g. g. g. g. g. g. g. g. g. g. g. g. g. g. g. g. g. g. g. g. g. g. g. g. g. g. g. g. g. g. g. g. g. g. g. g. g. g. O| U+ x#.sm tm Mm i: i: i: i: i: i: i: i: i: i: i: i: i: i: B#.6#.y#.W+ M+ bo 8#.p. <# t, M0 G+ N. N7 !` %l <# <# Fn YZ N. W+ W+ W+ W+ W+ W+ W+ W+ W+ W+ W+ W+ W+ W+ W+ W+ W+ W+ '@ 8e 9e +e e% MA NA OA W+ W+ W+ W+ W+ '@ Ih .e Ju '# '# 0e i#.z#..  .  .  .  .  .  .  .  .  .  .  .  .  .                                                                                                                                                                                                                                                                                                     ",
".  .  .  .  .  .  .  .  .  .  .  .  .  .  .  .  @@.C#.93 3, v* k#.@V =C D#.k` E#.F#.G- n#.G#.cG `- ^{ H#.;#./p 3, <# <# <# <# <# <# <# <# <# <# <# <# <# <# <# <# <# t, L) s#.t#.<% F# F# F# F# F# 9} >6 D# b# I#.J#.K#.`& ,@.b_ b_ b_ b_ <$ 2, 3, <# <# <# <# <# <# <# <# <# <# <# <# <# <# <# <# <# <# i% -` IZ ;` F. g. g. g. g. g. g. g. g. g. g. g. g. g. g. g. g. g. g. g. g. g. g. g. g. g. g. g. g. g. g. g. g. g. g. g. g. g. g. g. g. g. g. g. g. g. g. g. g. g. g. g. g. g. g. g. g. g. g. g. g. g. g. g. g. g. g. g. g. g. g. g. g. g. g. g. g. g. g. g. g. g. g. g. g. g. g. g. g. g. g. g. g. g. g. g. g. g. g. g. g. g. g. g. g. g. g. g. g. g. g. g. g. g. g. g. g. g. g. g. F. L#.iw M#.N#.tm Mm i: i: i: i: i: i: i: i: i: i: i: i: i: i: _D O#.P#.X+ (s ds 8#.X/ X/ *^ M0 G+ X+ 1$ !` <1 X/ u* Q#.YZ N. W+ W+ W+ W+ W+ W+ W+ W+ W+ W+ W+ W+ W+ W+ W+ W+ W+ W+ '@ 8e 9e +e e% MA NA OA W+ W+ W+ W+ W+ '@ Ih 2x R#.e% '# h#.i#.S#..  .  .  .  .  .  .  .  .  .  .  .  .  .                                                                                                                                                                                                                                                                                                     ",
".  .  .  .  .  .  .  .  .  .  .  .  .  .  .  .  @@.T#.93 3, v* U#.V#.W#.X#.Y#.Z#.`#. $..$.+$.@$.X#.X#.#$.$$.o. 3, <# <# <# <# <# <# <# <# <# <# <# <# <# <# <# <# <# t, L) s#.t#.<% F# F# F# F# F# 7; 3B 4B 4B %$.&$.*$.=$.=$.-$.;$.>$.,$.'$.)$.8C 3, <# <# <# <# <# <# <# <# <# <# <# <# <# <# <# <# <# i% -` IZ ;` F. g. g. g. g. g. g. g. g. g. g. g. g. g. g. g. g. g. g. g. g. g. g. g. g. g. g. g. g. g. g. g. g. g. g. g. g. g. g. g. g. g. g. g. g. g. g. g. g. g. g. g. g. g. g. g. g. g. g. g. g. g. g. g. g. g. g. g. g. g. g. g. g. g. g. g. g. g. g. g. g. g. g. g. g. g. g. g. g. g. g. g. g. g. g. g. g. g. g. g. g. g. g. g. g. g. g. g. g. g. g. g. g. g. g. g. g. g. g. CA !$.~$.#w #w {$.]$.8i i: i: i: i: i: i: i: i: i: i: i: ^$./$.($.($._$.:$.[ .< .< .<$.[$.[$.( .: .< .}$.|$.[ .1$.[$.[$.2$.3$.s. W+ W+ W+ W+ W+ W+ W+ W+ W+ W+ W+ W+ W+ W+ W+ W+ W+ W+ '@ 8e 9e +e e% MA NA OA W+ W+ W+ W+ W+ wg 4$.5$.6$.3 .7$.8$._@..@..  .  .  .  .  .  .  .  .  .  .  .  .  .                                                                                                                                                                                                                                                                                                     ",
".  .  .  .  .  .  .  .  .  .  .  .  .  .  .  .  @@.Z@.93 3, <# v* v* sN ^; ;+.9$.0$.a$.b$.c$.d$.X/ v* 3, N, <# <# <# <# <# <# <# <# <# <# <# <# <# <# <# <# <# <# <# t, L) s#.t#.<% F# F# F# F# F# F# G# G# G# G# e$.f$.g$.g$.h$.02 4  i$.j$.k$.l$.[& <# <# <# <# <# <# <# <# <# <# <# <# <# <# <# <# <# i% -` IZ ;` F. g. g. g. g. g. g. g. g. g. g. g. g. g. g. g. g. g. g. g. g. g. g. g. g. g. g. g. g. g. g. g. g. g. g. g. g. g. g. g. g. g. g. g. g. g. g. g. g. g. g. g. g. g. g. g. g. g. g. g. g. g. g. g. g. g. g. g. g. g. g. g. g. g. g. g. g. g. g. g. g. g. g. g. g. g. g. g. g. g. g. g. g. g. g. g. g. g. g. g. g. g. g. g. g. g. g. g. g. g. g. g. g. g. g. g. g. g. g. m$.n$.o$. H 0v 0v i: i: i: i: i: i: i: i: i: i: i: i: #< &P En <# <# <# X/ X/ u* p$.,..(s (s (s '..#_ u* ok O .,@ (s (s (s I+ W+ W+ W+ W+ W+ W+ W+ W+ W+ W+ W+ W+ W+ W+ W+ W+ W+ W+ W+ '@ 8e 9e +e e% MA NA OA W+ W+ W+ W+ W+ W+ W+ X+ '@ '@ O. q$.r$.:@..  .  .  .  .  .  .  .  .  .  .  .  .  .                                                                                                                                                                                                                                                                                                     ",
".  .  .  .  .  .  .  .  .  .  .  .  .  .  .  .  @@.Z@.93 3, <# <# <# <# v* ;+.y+.%@.Y- *@.C+.D+.3, <# <# <# <# <# <# <# <# <# <# <# <# <# <# <# <# <# <# <# <# <# <# t, L) s#.t#.<% F# F# F# F# F# F# F# F# F# F# F# F# F# G# s$.02 D# t$.u$.k$.l$.[& <# <# <# <# <# <# <# <# <# <# <# <# <# <# <# <# <# i% -` IZ ;` F. g. g. g. g. g. g. g. g. g. g. g. g. g. g. g. g. g. g. g. g. g. g. g. g. g. g. g. g. g. g. g. g. g. g. g. g. g. g. g. g. g. g. g. g. g. g. g. g. g. g. g. g. g. g. g. g. g. g. g. g. g. g. g. g. g. g. g. g. g. g. g. g. g. g. g. g. g. g. g. g. g. g. g. g. g. g. g. g. g. g. g. g. g. g. g. g. g. g. g. g. g. g. g. g. g. g. g. g. g. g. g. g. g. g. g. g. g. g. Tn _o Vn Yn i: i: i: i: i: i: i: i: i: i: i: i: i: i: #< &P En <# <# <# <# <# v* >..,..N. W+ $l '..*6 <# ,c )..,@ W+ W+ W+ W+ W+ W+ W+ W+ W+ W+ W+ W+ W+ W+ W+ W+ W+ W+ W+ W+ W+ W+ W+ '@ 8e 9e +e e% MA NA OA W+ W+ W+ W+ W+ W+ W+ W+ W+ W+ wg `+.v$.:@..  .  .  .  .  .  .  .  .  .  .  .  .  .                                                                                                                                                                                                                                                                                                     ",
".  .  .  .  .  .  .  .  .  .  .  .  .  .  .  .  zg *e w$.[$ <# u* <# <# v* ;+.y+.%@.1> *@.C+.D+.3, <# <# <# <# <# <# <# <# <# <# <# <# <# <# <# <# <# <# <# <# <# <# t, L) s#.t#.<% F# F# F# F# F# F# F# F# F# F# F# F# F# G# o> 02 D# x$.y$.z$.A$.m: J) J) J) J) J) u) M, 3, <# <# <# <# <# <# <# <# <# i% -` IZ ;` F. g. g. g. g. g. g. g. g. g. g. g. g. g. g. g. g. g. g. g. g. g. g. g. g. g. g. g. g. g. g. g. g. g. g. g. g. g. g. g. g. g. g. g. g. g. g. g. g. g. g. g. g. g. g. g. g. g. g. g. g. g. g. g. g. g. g. g. g. g. g. g. g. g. g. g. g. g. g. g. g. g. g. g. g. g. g. g. g. g. g. g. g. g. g. g. g. g. g. g. g. g. g. g. g. g. g. g. O| >` >` >` >` >` >` >` >` >` >` aS _o Vn Yn i: i: i: i: i: i: i: i: i: i: i: i: i: i: #< &P En <# <# <# <# <# v* >..,..N. W+ $l '..#_ u* B$.)..,@ W+ W+ W+ W+ W+ W+ W+ W+ W+ W+ W+ W+ W+ W+ W+ W+ W+ W+ W+ W+ W+ W+ W+ '@ 8e 9e +e e% MA NA OA wg wg wg wg wg wg wg W+ W+ W+ ZZ C$.D$.w# .  .  .  .  .  .  .  .  .  .  .  .  .  .                                                                                                                                                                                                                                                                                                     ",
".  .  .  .  .  .  .  .  .  .  .  .  .  .  .  .  E$.F$.G$.K. Z& c= 3, 3, v* ;+.y+.H$.I$.J$.K$.D+.3, <# <# <# <# <# <# <# <# <# <# <# <# <# <# <# <# <# <# <# <# <# <# t, L) s#.t#.<% F# F# F# F# F# F# F# F# F# F# F# F# F# G# o> C4 )* pV it L$.M$.N$.O$.O$.fu fu fu P$.hu 3, 3, <# <# <# <# <# <# <# <# i% -` IZ ;` F. g. g. g. g. g. g. g. g. g. g. g. g. g. g. g. g. g. g. g. g. g. g. g. g. g. g. g. g. g. g. g. g. g. g. g. g. g. g. g. g. g. g. g. g. g. g. g. g. g. g. g. g. g. g. g. g. g. g. g. g. g. g. g. g. g. g. g. g. g. g. g. g. g. g. g. g. g. g. g. g. g. g. g. g. g. g. g. g. g. g. g. g. g. g. g. g. g. g. g. g. g. g. g. g. g. g. F. Q$.Uz  D  D  D  D  D  D  D  D  D R$.S$.o$.Yn i: i: i: i: i: i: i: i: i: i: i: :o :o :o :o &P En <# <# <# <# <# v* >..,..N. W+ $l '..q# N, T$.O .,@ W+ W+ W+ W+ W+ W+ W+ W+ W+ W+ W+ W+ W+ W+ W+ W+ W+ W+ W+ W+ W+ W+ W+ 0% 8e *f _6 ># `( )I U$.M+ M+ M+ M+ M+ M+ M+ wg V$.W$.#q X$.Y$.%e .  .  .  .  .  .  .  .  .  .  .  .  .  .                                                                                                                                                                                                                                                                                                     ",
".  .  .  .  .  .  .  .  .  .  .  .  .  .  .  .  9  Z$.`$. %..%.+%.@%.*v <# <# tN #%.$%.5Z %%.L% <# <# <# <# <# <# <# <# <# <# <# <# <# <# <# <# <# <# <# <# <# <# <# t, L) s#.t#.<% F# F# F# F# F# F# F# F# F# F# F# F# F# F# &( f& f& tD &%.*%.wD wD wD =%.-%.;%.>%.,%.'%.)%.[& <# <# <# <# <# <# <# <# i% -` IZ ;` F. g. g. g. g. g. g. g. g. g. g. g. g. g. g. g. g. g. g. g. g. g. g. g. g. g. g. g. g. g. g. g. g. g. g. g. g. g. g. g. g. g. g. g. g. g. g. g. g. g. g. g. g. g. g. g. g. g. g. g. g. g. g. g. g. g. g. g. g. g. g. g. g. g. g. g. g. g. g. g. g. g. g. g. g. g. g. g. g. g. g. g. g. g. g. g. g. g. g. g. g. g. g. g. g. g. F. !%.~%.{%.]%.]%.]%.]%.]%.]%.]%.]%.]%.^%.^%.VP i: i: i: i: i: i: i: i: i: i: i: Zn /%.aD aD aD aD jJ <# <# <# <# <# v* >..,..N. W+ W+ xE (%._%.:%.<%.s. W+ W+ W+ W+ W+ W+ W+ W+ W+ W+ W+ W+ W+ W+ W+ W+ W+ W+ W+ W+ W+ W+ W+ W+ L+ [%.}%.|%.1%.2%.3%.R$ R$ R$ R$ R$ R$ 4%.5%.6%.7%.$^ 8%.9%.9  .  .  .  .  .  .  .  .  .  .  .  .  .  .                                                                                                                                                                                                                                                                                                     ",
".  .  .  .  .  .  .  .  .  .  .  .  .  .  .  .  .  .  .  .  u% 0%.a%. 2 <# <# t, t, t, 3, 3, 3, <# <# <# <# <# <# <# <# <# <# <# <# <# <# <# <# <# <# <# <# <# <# <# t, L) s#.t#.<% F# F# F# F# F# F# F# F# F# F# F# F# F# F# F# F# F# F# *( >g /% /% /% b%.c%.4% 76 d%.e%.mG 2, <# <# <# <# <# <# <# <# i% -` IZ ;` F. g. g. g. g. g. g. g. g. g. g. g. g. g. g. g. g. g. g. g. g. g. g. g. g. g. g. g. g. g. g. g. g. g. g. g. g. g. g. g. g. g. g. g. g. g. g. g. g. g. g. g. g. g. g. g. g. g. g. g. g. g. g. g. g. g. g. g. g. g. g. g. g. g. g. g. g. g. g. g. g. g. g. g. g. g. g. g. g. g. g. g. g. g. g. g. g. g. g. g. g. g. g. g. F. F. O6 f%.g%.h%.an an an an an an an an an an an i: i: i: i: i: i: i: i: i: i: i: i: :o av <# 3, 3, 3, 3, <# <# <# <# <# v* >..,..N. W+ W+ N. N. N. N. N. W+ W+ W+ W+ W+ W+ W+ W+ W+ W+ W+ W+ W+ W+ W+ W+ W+ W+ W+ W+ W+ W+ W+ W+ W+ W+ '@ '@ a% xg |g Cm e% e% e% e% e% Z( {a fa i%. ! .  .  .  .  .  .  .  .  .  .  .  .  .  .  .  .  .  .                                                                                                                                                                                                                                                                                                     ",
".  .  .  .  .  .  .  .  .  .  .  .  .  .  .  .  .  .  .  .  U/ ha a%. 2 <# <# t, v* 3, 3, 3, 3, <# <# v* K) 4, 4, 4, 4, v* 3, 3, 3, 3, <# <# <# <# <# <# <# <# <# <# t, L) j%.k%./% ]4 <% d# F# F# F# F# F# F# F# F# F# F# F# F# F# F# F# F# F# F# F# F# Z2 :9 D# J# ;q l%.m%.p: )= )= )= )= )= *6 [& <# i% -` IZ ;` F. g. g. g. g. g. g. g. g. g. g. g. g. g. g. g. g. g. g. g. g. g. g. g. g. g. g. g. g. g. g. g. g. g. g. g. g. g. g. g. g. g. g. g. g. g. g. g. g. g. g. g. g. g. g. g. g. g. g. g. g. g. g. g. g. g. g. g. g. g. g. g. g. g. g. g. g. g. g. g. g. g. g. g. g. g. g. g. g. g. g. g. g. g. g. g. g. g. g. g. g. g. g. 0j st st n%.o%.g%.ru i: i: i: i: i: i: i: i: i: i: i: i: i: i: i: i: i: i: i: i: #< #< #< 8i p%.<# <# <# <# <# <# <# <# p. p. u* ^@.,..N. W+ W+ W+ W+ W+ W+ W+ W+ W+ W+ W+ W+ W+ W+ W+ W+ W+ W+ W+ W+ W+ W+ W+ W+ W+ W+ W+ W+ W+ W+ W+ W+ W+ W+ W+ '@ xg |g Cm e% e% e% e% e% Z( {a fa q%..@ .  .  .  .  .  .  .  .  .  .  .  .  .  .  .  .  .  .                                                                                                                                                                                                                                                                                                     ",
".  .  .  .  .  .  .  .  .  .  .  .  .  .  .  .  .  .  .  .  U/ ha a%. 2 <# <# )o r%.s%.t%.(8 yr <# <# rr u%.x/ x/ v%.w%.s%.x%.x%.(8 B> <# <# <# <# <# <# <# <# <# <# t, y%.z%.A%.B%.C%.D%.K= F# F# F# F# F# F# F# F# F# F# F# F# F# F# F# F# F# F# F# F# !f E%.7/ {y F%.G%.H%.I%.I%.J%.,n ,n K%.L%.M%.3, i% -` IZ ;` F. g. g. g. g. g. g. g. g. g. g. g. g. g. g. g. g. g. g. g. g. g. g. g. g. g. g. g. g. g. g. g. g. g. g. g. g. g. g. g. g. g. g. g. g. g. g. g. g. g. g. g. g. g. g. g. g. g. g. g. g. g. g. g. g. g. g. g. g. g. g. g. g. g. g. g. g. g. g. g. g. g. g. g. g. g. g. g. g. g. g. g. g. g. g. g. g. g. g. g. g. g. O| N%.O%.7n 7n P%.Q%.ru i: i: i: i: i: i: i: i: i: i: i: i: i: i: i: i: i: i: i: 9v bn bn bn bn >A <# <# <# <# <# <# <# K) :n :n  * R%.,..N. W+ W+ W+ W+ W+ W+ W+ W+ W+ W+ W+ W+ W+ W+ W+ W+ W+ W+ W+ W+ W+ W+ W+ W+ W+ W+ W+ W+ W+ W+ W+ W+ W+ W+ W+ '@ S%.T%.U%.V%.V%.V%.V%.V%.V%.W%.ic X%.Z  .  .  .  .  .  .  .  .  .  .  .  .  .  .  .  .  .  .                                                                                                                                                                                                                                                                                                     ",
".  .  .  .  .  .  .  .  .  .  .  .  .  .  .  .  .  .  .  .  U/ ha a%. 2 v* ;+.jC Y%.Z%.`%. &.D+.3, v* `7 .&.+&.6( @&.#&.$&.%&.&&.*&.=&.N, <# <# <# <# <# <# <# <# <# <# lI -&.;&.>&.,&.'&.)&.<% F# F# F# F# F# F# F# F# F# F# F# F# F# F# F# F# F# F# F# G# 9} &( &( L..!&.~&.K} {&.]&.^&.^&./&.(&._&.[& <# -` IZ ;` F. g. g. g. g. g. g. g. g. g. g. g. g. g. g. g. g. g. g. g. g. g. g. g. g. g. g. g. g. g. g. g. g. g. g. g. g. g. g. g. g. g. g. g. g. g. g. g. g. g. g. g. g. g. g. g. g. g. g. g. g. g. g. g. g. g. g. g. g. g. g. g. g. g. g. g. g. g. g. g. g. g. g. g. g. g. g. g. g. g. g. g. g. g. g. g. g. g. g. g. g. &g Q4 ,S :&.Wn Rs Rs  H i: i: i: i: i: i: i: i: i: i: i: i: i: i: i: i: i: i: i: i: k: <&. o  o  o <# <# <# <# <# <# <# [# [&.}&.$l $l fk `d W+ W+ W+ W+ W+ W+ W+ W+ W+ W+ W+ W+ W+ W+ W+ W+ W+ W+ W+ W+ W+ W+ W+ W+ W+ W+ W+ W+ W+ W+ W+ W+ W+ W+ W+ W+ W+ M+ N7 N7 N7 N7 N7 N7 N7 N7 |&.1&.jc .@ .  .  .  .  .  .  .  .  .  .  .  .  .  .  .  .  .  .                                                                                                                                                                                                                                                                                                     ",
".  .  .  .  .  .  .  .  .  .  .  .  .  .  .  .  .  .  .  .  U/ ha a%. 2 v* ;+.y+.%@.D#.*@.C+.D+.3, v* 2&.3&.B# E. .f V1 4&.&@.5&.6&.7&.N, <# <# <# <# <# <# <# <# <# <# <# K) t) s) 8&.9&.)&.<% F# F# F# F# F# F# F# F# F# F# F# F# F# F# F# F# F# F# F# F# F# F# F# e# *( ]4 ]4 S0 Um z( ]^ <h Vh Wm M, <# -` IZ ;` F. g. g. g. g. g. g. g. g. g. g. g. g. g. g. g. g. g. g. g. g. g. g. g. g. g. g. g. g. g. g. g. g. g. g. g. g. g. g. g. g. g. g. g. g. g. g. g. g. g. g. g. g. g. g. g. g. g. g. g. g. g. g. g. g. g. g. g. g. g. g. g. g. g. g. g. g. g. g. g. g. g. g. g. g. g. g. g. g. g. g. g. g. g. g. g. g. g. g. g. g. `8 0&.a&.b&.9v i: i: i: i: i: i: i: i: i: i: i: i: i: i: i: i: i: i: i: i: i: i: i: k: ,& <# <# <# <# <# <# <# <# <# <# [# [&.,@ N. N. X+ W+ W+ W+ W+ W+ W+ W+ W+ W+ W+ W+ W+ W+ W+ W+ W+ W+ W+ W+ W+ W+ W+ W+ W+ W+ W+ W+ W+ W+ W+ W+ W+ W+ W+ W+ W+ W+ W+ W+ X+ '@ '@ '@ '@ '@ '@ '@ c&.d&.e&./a .  .  .  .  .  .  .  .  .  .  .  .  .  .  .  .  .  .                                                                                                                                                                                                                                                                                                     ",
".  .  .  .  .  .  .  .  .  .  .  .  .  .  .  .  .  .  .  .  U/ K0 L0  2 v* ;+.y+.%@.Y- *@.C+.D+.3, v* 2&.3&.f&.g. O% g&.h&.Y- 5&.6&.7&.N, <# <# <# <# <# <# <# <# <# <# <# <# <# v* i&.9&.)&.<% F# F# F# F# F# F# F# F# F# F# F# F# F# F# F# F# F# F# F# F# F# F# F# F# F# F# F# &( ,e D# D# Uh Vh Fm M, i% -` IZ ;` g. U+ U+ g. g. g. g. g. g. g. g. g. g. g. g. g. g. g. g. g. g. g. g. g. g. g. g. g. g. g. g. g. g. g. g. g. g. g. g. g. g. g. g. g. g. g. g. g. g. g. g. g. g. g. g. g. g. g. g. g. g. g. g. g. g. g. g. g. g. g. g. g. g. g. g. g. g. g. g. g. g. g. g. g. g. g. g. g. g. g. g. g. g. g. g. g. g. g. g. U+ U+ a0 0&.a&.b&.i: i: i: i: i: i: i: i: i: i: i: i: i: i: i: i: i: i: i: i: i: i: i: i: k: ,& <# <# <# <# <# <# <# <# <# <# [# [&.,@ W+ W+ W+ W+ W+ W+ W+ W+ W+ W+ W+ W+ W+ W+ W+ W+ W+ W+ W+ W+ W+ W+ W+ W+ W+ W+ W+ W+ W+ W+ W+ W+ W+ W+ W+ W+ W+ W+ W+ W+ W+ W+ W+ W+ W+ W+ W+ W+ W+ W+ j&.d&.e&./a .  .  .  .  .  .  .  .  .  .  .  .  .  .  .  .  .  .                                                                                                                                                                                                                                                                                                     ",
".  .  .  .  .  .  .  .  .  .  .  .  .  .  .  .  .  .  .  .  k&.l&.m&.n&.u* o&.y+.p&.q&.*@.C+.D+.3, v* 2&.r&.)} E. g. Q5 s&.X- t&.u&.=&.X/ 3, v* 3, <# <# <# <# <# <# <# <# <# <# '& i&.v&.w&.x&.x&.y&.[% F# F# F# e$.z&.A&.5= A&.A&.5= A&.A&.[% F# F# F# F# F# F# F# F# F# F# F# &( ,e D# _  Uh B&.fm gm s) C&.D&.E&.F&.G&.H&.g. g. g. g. g. g. g. g. g. g. g. g. g. g. g. g. g. g. g. g. g. g. g. g. g. g. g. g. g. g. g. g. g. g. g. g. g. g. g. g. g. g. g. g. g. g. g. g. g. g. g. g. g. g. g. g. g. g. g. g. g. g. g. g. g. g. g. g. g. g. g. g. g. g. g. g. g. g. g. g. g. g. g. g. g. g. g. g. g. g. g. g. g. g. g. yz ,E Q4 +s w .a&.b&.i: i: i: i: i: i: i: i: i: i: i: i: i: i: i: i: i: i: i: i: i: i: i: i: k: ,& <# <# <# <# <# <# <# <# X/ X/ B$.[&.,@ W+ W+ W+ W+ W+ W+ W+ W+ W+ W+ W+ W+ W+ W+ W+ wg '@ '@ '@ '@ W+ W+ W+ W+ W+ W+ W+ W+ W+ W+ W+ W+ W+ W+ W+ W+ W+ W+ W+ W+ W+ W+ X+ '@ '@ '@ W+ W+ Xd L+ I&.J&.K&.a$ .  .  .  .  .  .  .  .  .  .  .  .  .  .  .  .  .  .                                                                                                                                                                                                                                                                                                     ",
".  .  .  .  .  .  .  .  .  .  .  .  .  .  .  .  .  .  .  .  .  L&.M&.N&.O&.P&.Q&.R&.vH S&.T&.U&.3, v* `u V&.W&.X&.Y&.Z&.`&. *..*.+*.@*.#*.$*.%*.&*.o. 3, <# <# <# <# <# <# <# <# v* **.=*.-*.;*.>*.,*.'*.K= d# )*.!*.~*.{*.]*.^*./*.]*.(*._*.:*.d& d# F# F# F# F# F# F# F# F# F# 7; <*. : [*.}*.|*.1*.[V #r 2*.3*.4*.5*.6*.7*.8*.>i g. g. g. g. g. g. g. g. g. g. g. g. g. g. g. g. g. g. g. g. g. g. g. g. g. g. g. g. g. g. g. g. g. g. g. g. g. g. g. g. g. g. g. g. g. g. g. g. g. g. g. g. g. g. g. g. g. g. g. g. g. g. g. g. g. g. g. g. g. g. g. g. g. g. g. g. g. g. g. g. g. g. g. g. g. g. g. g. g. g. g. g. g. 9*.0*.a*.b*.c*.d*.KO i: i: i: i: i: i: i: i: i: i: i: i: i: i: i: j: 9s hH hH hH hH hH hH hH e*.3( <# <# <# <# <# <# v* f*.g*.g*.h*.M. `d W+ W+ W+ W+ W+ W+ W+ W+ W+ W+ W+ W+ W+ W+ W+ Hn i*.j*.k*.l*.m*.n*.W+ W+ W+ W+ W+ W+ W+ W+ W+ W+ W+ W+ W+ W+ W+ W+ W+ W+ W+ o*.p*.q*.k*.r*.s*.t*.u*.v*.w*.x*.y*.Y, .  .  .  .  .  .  .  .  .  .  .  .  .  .  .  .  .  .                                                                                                                                                                                                                                                                                                     ",
".  .  .  .  .  .  .  .  .  .  .  .  .  .  .  .  .  .  .  .  .  Z) F' z*.A*.B*.C*.D*.[$ v* N, <# <# <# v* K) K) K) K) '& +M K) E*.F*.G*.H*.^{ I*.J*.qr 3, <# <# <# <# <# <# <# <# <# _a t, |, IU K*.L*.M*.N*..& O*.P*.Q*.R*.da da da da R~ S*.T*.5U .& F# F# F# F# F# F# F# F# F# F# G# G# G# G# U*.V*.w: w: W*.X*.@& Y*.Z*.`*. =..=.g. g. g. g. g. g. g. g. g. g. g. g. g. g. g. g. g. g. g. g. g. g. g. g. g. g. g. g. g. g. g. g. g. g. g. g. g. g. g. g. g. g. g. g. g. g. g. g. g. g. g. g. g. g. g. g. g. g. g. g. g. g. g. g. g. g. g. g. g. g. g. g. g. g. g. g. g. g. g. g. g. g. g. g. g. g. g. g. g. g. g. g. g. +=.@=.Mm 9v 9v j: i: i: i: i: i: i: i: i: i: i: i: i: i: i: i: i: :o 5E ^; <# <# <# <# <# <# <# <# <# <# <# <# <# <# ,c #=.|$ ,@ ,@ `d W+ W+ W+ W+ W+ W+ W+ W+ W+ W+ W+ W+ W+ W+ W+ '@ $=.%=.&=.e% P^ *=.==.W+ W+ W+ W+ W+ W+ W+ W+ W+ W+ W+ W+ W+ W+ W+ W+ W+ W+ '@ xg |g -=.D+ #} ;=.+n >=.,=.'=.3. 9  .  .  .  .  .  .  .  .  .  .  .  .  .  .  .  .  .  .  .                                                                                                                                                                                                                                                                                                     ",
".  .  .  .  .  .  .  .  .  .  .  .  .  .  .  .  .  .  .  .  .  .  .  .  .  )=.C*.&6 t* <# <# <# <# <# <# <# <# <# <# <# <# t, )o !=.8Z Z- )~ ~=.}I qr 3, <# <# <# <# <# <# <# <# <# <# <# <# 5- !P {=.]=.N*..& O*.^=./=.(=.d;  ;  ;  ; 1! _=.:=.<=..& F# F# F# F# F# F# F# F# F# F# F# F# F# F# F# F# d# d# b9 i- =$ rC [=.}=.|=.1=.g. g. g. g. g. g. g. g. g. g. g. g. g. g. g. g. g. g. g. g. g. g. g. g. g. g. g. g. g. g. g. g. g. g. g. g. g. g. g. g. g. g. g. g. g. g. g. g. g. g. g. g. g. g. g. g. g. g. g. g. g. g. g. g. g. g. g. g. g. g. g. g. g. g. g. g. g. g. g. g. g. g. g. g. g. g. g. g. g. g. g. g. g. 2=.3=.Mm i: i: i: i: i: i: i: i: i: i: i: i: i: i: i: i: i: i: i: :o 5E <# <# <# <# <# <# <# <# <# <# <# <# <# <# <# ,c G^ G+ W+ W+ W+ W+ W+ W+ W+ W+ W+ W+ W+ W+ W+ W+ W+ W+ W+ W+ '@ -P %=.)$ e% P^ *=.==.W+ W+ W+ W+ W+ W+ W+ W+ W+ W+ W+ W+ W+ W+ W+ W+ W+ W+ '@ xg |g N$ D+ x6 4=.5=.0$ .  .  .  .  .  .  .  .  .  .  .  .  .  .  .  .  .  .  .  .  .  .  .                                                                                                                                                                                                                                                                                                     ",
".  .  .  .  .  .  .  .  .  .  .  .  .  .  .  .  .  .  .  .  .  .  .  .  .  6=.7=.8=.t* <# <# <# <# <# <# <# <# <# <# <# <# t, )o !=.8Z `- 9=.0=.}I a=.[& 3, 3, 3, <# <# <# <# <# <# <# <# <# v* oP {=.]=.5U b=.c=.d=./=.54 dG F[ d; d; e=.f=.g=.<=.<% .& .& .& .& .& .& .& F# F# F# F# F# F# F# F# F# F# F# G# i- b# ); [=.}=.h=.hA )q dj F. g. g. g. g. g. g. g. g. g. g. g. g. g. g. g. g. g. g. g. g. g. g. g. g. g. g. g. g. g. g. g. g. g. g. g. g. g. g. g. g. g. g. g. g. g. g. g. g. g. g. g. g. g. g. g. g. g. g. g. g. g. g. g. g. g. g. g. g. g. F. i=.0j 0j 0j 0j 0j 0j 0j 0j 0j 0j 0j 0j 0j 0j 0j 0j 0j 0j 0j j=.3=.8i i: i: i: i: i: i: i: i: i: i: i: i: i: i: i: i: i: i: #< :o 5E <# <# <# <# <# <# <# <# <# <# <# <# <# <# <# ,c G^ G+ W+ W+ W+ W+ W+ W+ W+ W+ W+ W+ W+ W+ W+ W+ W+ wg wg wg '@ -P %=.)$ D+ k=.*=.==.W+ W+ W+ W+ W+ W+ W+ W+ W+ W+ W+ W+ W+ W+ W+ W+ W+ W+ '@ xg |g N$ D+ x6 l=.m=.0$ .  .  .  .  .  .  .  .  .  .  .  .  .  .  .  .  .  .  .  .  .  .  .                                                                                                                                                                                                                                                                                                     ",
".  .  .  .  .  .  .  .  .  .  .  .  .  .  .  .  .  .  .  .  .  .  .  .  .  ,5 n=.8=.t* <# <# <# <# <# <# <# <# <# <# <# <# t, )o o=.p=.q=.8) r=.s=.YT t=.t=.u^ u^ <# <# <# <# <# <# <# <# <# v* oP u=.v=.w=.hp x=.y=.z=.A=.B=.C=.d; d; e=.D=.E=.F=.G=.H=.I=.G=.H=.I=.xI J=.F# F# F# F# F# F# F# F# F# F# F# G# i- @& K=.L=.M=.N=.#U @U O=.P=.O6 g. g. g. g. g. g. g. g. g. g. g. g. g. g. g. g. g. g. g. g. g. g. g. g. g. g. g. g. g. g. g. g. g. g. g. g. g. g. g. g. g. g. g. g. g. g. g. g. g. g. g. g. g. g. g. g. g. g. g. g. g. g. g. g. g. g. g. F. Q=.R=.EI EI EI EI EI EI EI EI EI EI EI EI EI EI EI EI EI EI dC S=.T=.8i i: i: j: 0k 0k 0k 0k 0k 0k 0k 0k 0k 0k 0k 0k 0k 0k 0k 0k an 5E <# <# v* N, N, N, N, N, N, N, N, N, <# <# <# ,c G^ G+ W+ W+ W+ W+ W+ W+ W+ W+ W+ W+ W+ W+ W+ W+ W+ M+ M+ M+ ZZ U=.%=.V=.M# l^ *=.==.W+ W+ W+ W+ W+ W+ W+ W+ W+ W+ W+ W+ W+ W+ W+ W+ W+ W+ '@ qO W=.X=.M# l^ Y=.Z=.`=..  .  .  .  .  .  .  .  .  .  .  .  .  .  .  .  .  .  .  .  .  .  .                                                                                                                                                                                                                                                                                                     ",
".  .  .  .  .  .  .  .  .  .  .  .  .  .  .  .  .  .  .  .  .  .  .  .  .  6=. -.8=.t* <# <# <# <# <# <# <# <# <# <# <# <# <# X/ .-.+-.@-.#-.$-.%-.&-.*-.=-.--.;-.i% <# <# <# <# <# <# <# <# <# u* >-.,-.'-.Eo )-.!-.~-.{-.]-.^-./-.9) a, (-._-.:-.:-.<-.:-.:-.<-.[-.}-.|-.(| [% F# F# F# F# F# F# F# F# F# F# e& `I `I r .1-.2-.3-.4-.5-.6-.7-.`8 g. g. g. g. g. g. g. g. g. g. g. g. g. g. g. g. g. g. g. g. g. g. g. g. g. g. g. g. g. g. g. g. g. g. g. g. g. g. g. g. g. g. g. g. g. g. g. g. g. g. g. g. g. g. g. g. g. g. g. g. g. g. g. g. g. g. 8-.9-.0-.eJ eJ eJ eJ eJ eJ eJ eJ eJ eJ eJ eJ eJ eJ eJ eJ eJ eJ fJ a-.VP i: i: i: b-.c-.d-.d-.d-.d-.d-.d-.d-.d-.d-.d-.d-.d-.d-.d-.d-.d-.)D <# <# pj e-.(p (p (p (p (p (p (p Vo f-.p. <# ,c G^ G+ W+ W+ W+ W+ W+ W+ W+ W+ W+ W+ W+ W+ W+ '@ jq g-.h-.i-.j-.k-.l-.m-.wJ n-.o-.ZE W+ W+ W+ W+ W+ W+ W+ W+ W+ W+ W+ W+ W+ W+ W+ W+ W+ W+ W+ Qf p-.wJ q-.r-.s-.t-.u-..  .  .  .  .  .  .  .  .  .  .  .  .  .  .  .  .  .  .  .  .  .  .                                                                                                                                                                                                                                                                                                     ",
".  .  .  .  .  .  .  .  .  .  .  .  .  .  .  .  .  .  .  .  .  .  .  .  .  6=.C*.&6 t* <# <# <# <# <# <# <# <# <# <# <# <# <# <# t, t, t, J. v-.w-.x-.X- ea y-.z-.i% <# <# <# <# <# <# <# <# <# <# t, 4, O, |c A-.B-.C-._| D-.E-.F-.D8 d; d; 0) =#.=#.0) =#.0) 0) R*.G-.H-.I-.<% F# F# F# F# F# F# F# F# F# F# F# F# F# }% J-.66 66 K-.L-.M-.N-.a0 g. g. g. g. g. g. g. g. g. g. g. g. g. g. g. g. g. g. g. g. g. g. g. g. g. g. g. g. g. g. g. g. g. g. g. g. g. g. g. g. g. g. g. g. g. g. g. g. g. g. g. g. g. g. g. g. g. g. g. g. g. g. g. g. g. g. O-.P-.Q-.an an an an an an an an an an an an an an an an an an j: :o #< i: i: i: R-.S-.3, [& [& [& [& [& [& [& [& [& [& [& [& [& N, K. <# <# v* [g T-.N. N. N. N. N. N. N. U-.In p. <# ,c G^ G+ W+ W+ W+ W+ W+ W+ W+ W+ W+ W+ W+ W+ W+ '@ ,N V-.W-.e% D+ X-.F+ V+ 0% 0% W+ W+ W+ W+ W+ W+ W+ W+ W+ W+ W+ W+ W+ W+ W+ W+ W+ W+ W+ W+ W+ wg 0% '@ '@ a% Y-.t-.0$ .  .  .  .  .  .  .  .  .  .  .  .  .  .  .  .  .  .  .  .  .  .  .                                                                                                                                                                                                                                                                                                     ",
".  .  .  .  .  .  .  .  .  .  .  .  .  .  .  .  .  .  .  .  .  .  .  .  .  6=.Z-.8=.[& <# <# <# <# <# <# <# <# <# <# <# <# <# <# <# <# <# X/ v-.w-.x-. ; ea y-.z-.i% <# <# <# <# <# <# <# <# <# <# <# <# <# t, `-.B-.C-.B*  ;..;.F-.D8 d; d; a,  ;  ; a, d; a, a, a, G-.H-.I-.<% F# F# F# F# F# F# F# F# F# F# F# F# F# ,* '* D# D# +;.L-.M-.N-.a0 g. g. g. g. g. g. g. g. g. g. g. g. g. g. g. g. g. g. g. g. g. g. g. g. g. g. g. g. g. g. g. g. g. g. g. g. g. g. g. g. g. g. g. g. g. g. g. g. g. g. g. g. g. g. g. g. g. g. g. g. g. g. g. F. O6 O6 @;.P-.KO i: i: i: i: i: i: i: i: i: i: i: i: i: i: i: i: i: i: i: i: i: i: i: i: #;.xV <# <# <# <# <# <# <# <# <# <# <# <# <# <# <# <# <# <# v* [g T-.I+ W+ W+ W+ W+ W+ M+ Hn In p. <# ,c G^ G+ W+ W+ W+ W+ W+ W+ W+ W+ W+ W+ W+ W+ W+ '@ ,N $;.%;.'# D+ X-.F+ V+ W+ W+ W+ W+ W+ W+ W+ W+ W+ W+ W+ W+ W+ W+ W+ W+ W+ W+ W+ W+ W+ W+ W+ W+ W+ W+ W+ O. Y-.&;.0$ .  .  .  .  .  .  .  .  .  .  .  .  .  .  .  .  .  .  .  .  .  .  .                                                                                                                                                                                                                                                                                                     ",
".  .  .  .  .  .  .  .  .  .  .  .  .  .  .  .  .  .  .  .  .  .  .  .  .  *;.=;.&6 t* p. *^ <# <# <# <# <# <# <# <# <# <# <# <# t, 4, 4, J. -;.w-.x-. ; ea y-.z-.i% [& 3, 3, p. p. p. <# <# <# <# <# <# <# t, `-.;;.>;._| ,;.E-.F-.D8 X- d; d; d; d; d; d; d; d; a, ';.);.!;.~;.<% <% F# F# F# F# F# F# F# F# F# F# F# ,* '* D# D# +;.L-.M-.N-.a0 g. g. g. g. g. g. g. g. g. g. g. g. g. g. g. g. g. g. g. g. g. g. g. g. g. g. g. g. g. g. g. g. g. g. g. g. g. g. g. g. g. g. g. g. g. g. g. g. g. g. g. g. g. g. g. g. g. g. g. g. g. g. g. {;.iK ]2 ];.^;.KO i: i: i: i: i: i: i: i: i: i: i: i: i: i: i: i: i: i: i: i: #< #< #< i: R-.xV <# <# <# <# <# <# <# <# <# <# <# <# <# <# <# <# <# <# v* [g T-.X+ W+ W+ N. N. N. N. U-.In p. p. *^ G^ G+ W+ W+ W+ W+ W+ W+ W+ W+ W+ W+ W+ '@ '@ a% ,N V-.W-.e% e% /;.F+ V+ W+ W+ W+ W+ W+ W+ W+ W+ W+ W+ W+ W+ W+ W+ W+ W+ W+ W+ W+ W+ X+ 0% '@ wg W+ W+ M+ wg (;._;.:;..  .  .  .  .  .  .  .  .  .  .  .  .  .  .  .  .  .  .  .  .  .  .                                                                                                                                                                                                                                                                                                     ",
".  .  .  .  .  .  .  .  .  .  .  .  .  .  .  .  .  .  .  .  .  .  .  .  .  x. <;.[;.};.%% |;.Vp <# <# <# <# <# <# <# <# <# <# k< 1;.2;.3;.3;.4;.5;.x-. ; ea 6;.7;.8;.9;.0;.a;.b;.c;.d;.vU <# <# <# <# <# <# t, e;.f;.g;.h;.i;.j;.k;.l;.m;.n;.o;.d; d; d; d; d; d; d; p;.q;.r;.s;.t;.u;.@- F# F# F# F# F# F# F# F# F# F# ,* v;.FK w;.x;.y;.M-.N-.a0 g. g. g. g. g. g. g. g. g. g. g. g. g. g. g. g. g. g. g. g. g. g. g. g. g. g. g. g. g. g. g. g. g. g. g. g. g. g. g. g. g. g. g. g. g. g. g. g. g. g. g. g. g. g. g. g. g. g. g. g. g. g. z;.A;.iL iL B;.C;.VP i: i: i: i: i: i: i: i: i: i: i: i: i: i: i: i: i: i: i: j: &P ^F ^F ^F D;.)D <# <# <# <# <# <# <# <# <# <# <# <# <# <# <# <# <# <# v* [g T-.X+ W+ M+ E;.F;.F;.F;.G;.H;.c;.c;.I;.M@.,@ W+ W+ W+ W+ W+ W+ W+ W+ W+ W+ W+ Ih J;.K;.L;.M;.N;.O;.wj P;.Q;.V+ W+ W+ W+ W+ W+ W+ W+ W+ W+ W+ W+ W+ W+ W+ W+ W+ W+ W+ W+ |x 0R 1x K;.R;.S;.T;.U;.V;.W;.X;..  .  .  .  .  .  .  .  .  .  .  .  .  .  .  .  .  .  .  .  .  .  .  .                                                                                                                                                                                                                                                                                                     ",
".  .  .  .  .  .  .  .  .  .  .  .  .  .  .  .  .  .  .  .  .  .  .  .  .  .  Y;.Z;.P  `;. >.I3 3, <# <# <# <# <# <# <# <# t, CG .>.+>.i~ @>.#>.$>.iE d; d; ea x3 8) dG %>.&>.*>.Zd =>.->.sN <# <# <# <# <# <# [$ O4 u* w; ;>.>>.nP MI v) ,>.'>.9) d; d; d; d; d;  ; `- )>.!>.~>.{>.]>.{P B* F# F# F# F# F# F# F# F# F# F# 7; 7; U*.^>./>.(>._>.a0 g. g. g. g. g. g. g. g. g. g. g. g. g. g. g. g. g. g. g. g. g. g. g. g. g. g. g. g. g. g. g. g. g. g. g. g. g. g. g. g. g. g. g. g. g. g. g. g. g. g. g. g. g. g. g. g. g. g. g. g. g. U+ :>.<>.(q (q [>.,m i: i: i: i: i: i: i: i: i: i: i: i: i: i: i: i: i: i: i: #< Yu ~v 5- _a _a u* <# <# <# <# <# <# <# <# <# <# <# <# <# <# <# <# <# <# <# v* [g T-.X+ W+ }>.|>.=4 i% <# 1>.Hm |l |l |l ,@ W+ W+ W+ W+ W+ W+ W+ W+ W+ W+ X+ 0m 2>.3>.]# 4>.5>.6>.W+ W+ t. `d W+ W+ W+ W+ W+ W+ W+ W+ W+ W+ W+ W+ W+ W+ W+ W+ W+ W+ W+ X+ 8e *f 7>.M# 8>.9>.0>.a>.b>.c>.d>..  .  .  .  .  .  .  .  .  .  .  .  .  .  .  .  .  .  .  .  .  .  .  .                                                                                                                                                                                                                                                                                                     ",
".  .  .  .  .  .  .  .  .  .  .  .  .  .  .  .  .  .  .  .  .  .  .  .  .  .  .  .  .  e>.f>.g>.3, <# <# <# <# <# <# <# <# t, h>.i>.On 6# C% [^ j>.iE d; d;  ;  ;  ; LY k>.l>.m>.W+ n>.o>.sN <# <# <# <# <# <# <# v* ,{ c= z[ [& 3, v* N, p>.q>.9) d; d; d; d; d; d; d; eG F[ HI r>.s>.{P B* F# F# F# F# F# F# F# F# F# F# F# F# *( t>.u>.(>._>.`8 g. g. g. g. g. g. g. g. g. g. g. g. g. g. g. g. g. g. g. g. g. g. g. g. g. g. g. g. g. g. g. g. g. g. g. g. g. g. g. g. g. g. g. g. g. g. g. g. g. g. g. g. g. g. g. g. g. g. g. g. g. U+ v>.w>.8i i: i: i: i: i: i: i: i: i: i: i: i: i: i: i: i: i: i: i: i: i: i: #< Yu ~v <# <# <# <# <# <# <# <# <# <# <# <# <# <# <# <# <# <# <# <# <# <# <# v* [g T-.X+ W+ jq |>.[& <# u* 1>.Hm N. W+ W+ W+ W+ W+ W+ W+ W+ W+ W+ W+ W+ W+ wg 0m x>.y>.z>.4>.A>.B>.wg wg W+ W+ W+ W+ W+ W+ W+ W+ W+ W+ W+ W+ W+ W+ W+ W+ W+ W+ W+ W+ W+ '@ 8e 9e +e e% f+ C>.D>..  .  .  .  .  .  .  .  .  .  .  .  .  .  .  .  .  .  .  .  .  .  .  .  .  .  .  .                                                                                                                                                                                                                                                                                                     ",
".  .  .  .  .  .  .  .  .  .  .  .  .  .  .  .  .  .  .  .  .  .  .  .  .  .  .  .  .  E>.F>.g>.3, <# <# p. p. p. p. p. <# t, h>.G>.mm y+ E. H>.j>.fG &@.D#.d; d; d; a, k>.l>.I>.M .SM J>.Vp sN sN 3, 3, <# <# <# <# <# <# <# <# <# v* i% p>.K>.9)  ;  ; d; d; d; d; d; d; d; )~ L>.M>.N>.O>.<= A&.P>.<= A&.P>.<= A&.<= <= [% F# *( t>.u>.Q>.R>.S>.S>.S>.S>.S>.S>.T>.U>.g. g. g. g. g. g. g. g. g. g. g. g. g. g. g. g. g. g. g. g. g. g. g. g. g. g. g. g. g. g. g. g. g. g. g. g. g. g. g. g. g. g. g. g. g. g. F. V>.W>.W>.W>.W>.W>.W>.'i jw w>.8i i: i: i: i: i: i: i: i: i: i: i: i: i: i: i: i: i: i: i: i: i: i: #< X>.~v <# <# <# <# <# <# <# <# <# <# <# <# p. p. p. p. <# <# <# <# <# X/ p. B_ Y>.T-.(s (s 0m |>.x% p. u* p$.Z>.'@ '@ '@ W+ W+ W+ W+ W+ W+ W+ W+ wg '@ '@ '@ $l `>. ,.e% .,.A>.B>.W+ W+ W+ W+ W+ W+ W+ W+ W+ W+ W+ W+ W+ W+ W+ W+ W+ W+ W+ W+ '@ '@ '@ a% 8e +,.@,.)# D3 #,.$,..  .  .  .  .  .  .  .  .  .  .  .  .  .  .  .  .  .  .  .  .  .  .  .  .  .  .  .                                                                                                                                                                                                                                                                                                     ",
".  .  .  .  .  .  .  .  .  .  .  .  .  .  .  .  .  .  .  .  .  .  .  .  .  .  .  .  .  j; %,.&,.*,.=,.-,.;,.rl >,.rl ,,.<1 v* ',.),.!,.~,.~,.{,.],.^,./,.(,._,.:,.Z- a, %, <,.[,.},.|,.1,.2,.2,.3,.4,.5,.<# <# <# <# <# <# <# <# <# <# <# 6,.7,.8,.9,.0,.a,.x-.d; d; d; d; d; d; b,.c,.d,.e,.f,.g,.h,.i,.g,.j,.k,.g,.k,.l,.m,.^% V* QG n,.o,.p,.q,.q,.r,.s,.t,.u,.v,.w,.x,.g. g. g. g. g. g. g. g. g. g. g. g. g. g. g. g. g. g. g. g. g. g. g. g. g. g. g. g. g. g. g. g. g. g. g. g. g. g. g. g. g. g. g. g. `8 y,.z,.A,.A,.A,.A,.A,.A,.A,.B,.Di i: i: i: i: i: i: i: i: i: i: i: TE C,.D,.D,.D,.D,.D,.D,.D,.D,.D,.D,.D,.7O E,.<# <# <# <# <# <# <# <# <# <# v* F,.G,.rl rl rl H,.3, <# <# Ud I,.G,.J,.N9 K,./m /m /m L,.M,.rl J,.N,.O,.P,.Q,.R,.S,.T,.W+ W+ W+ W+ W+ W+ Hn U,.P,.Q,.V,.W,.X,.Y,.Z,.`,.VM W+ W+ W+ W+ W+ W+ W+ W+ W+ W+ W+ W+ W+ W+ W+ W+ W+ W+ W+ W+  '..'.Q,.Q,.+'.@'.#'.$'.%'.&'.*'..  .  .  .  .  .  .  .  .  .  .  .  .  .  .  .  .  .  .  .  .  .  .  .  .  .  .  .                                                                                                                                                                                                                                                                                                     ",
".  .  .  .  .  .  .  .  .  .  .  .  .  .  .  .  .  .  .  .  .  .  .  .  .  .  .  .  .  .  ='.>X -'.;'.>'.,'.''.)'.}&.p# Q# u* <# K) K) K) K) !'.~'.0% 0% Yd {'.]'.F[ d; d; 9=.Z- Z- +; Z- H*.Z- HI ^'./'.i% 3, <# <# <# <# <# <# <# <# <# v* '& +M K) pN ('.EG Z- d; d; d; d; d; d; _'.HI HI :'.+; :'.+; HI Z- <'.HI HI ['.}'.kK B* F# |'.u: D4 D4 1'.2'.$# P) 3'.4'.5'.6'.F. g. g. g. g. g. g. g. g. g. g. g. g. g. g. g. g. g. g. g. g. g. g. g. g. g. g. g. g. g. g. g. g. g. g. g. g. g. g. g. g. g. g. g. 7'.8'.9'.9v 9v 9v 9v 9v 9v 9v (q i: i: i: i: i: i: i: i: i: i: i: #< 9G Td pq [& [& [& [& [& [& [& [& [& [& [& 3, <# <# <# <# <# <# <# <# <# <# t, 0'.S9 1$ 1$ a'.Up Vp <# v* Gm b'.(s N. c'.d'.<# <# dk e'.f'.(s `d #S g'.!# D+ &) h'.i'.W+ W+ W+ W+ W+ X+ j'.a..&=.~# y, k'.l'.'@ '@ I+ W+ W+ W+ W+ W+ W+ W+ W+ W+ W+ W+ W+ W+ W+ W+ W+ W+ W+ W+ wg M+ m'.n'.!# D+ W%.o'.p'.q'.r'.s'.U  .  .  .  .  .  .  .  .  .  .  .  .  .  .  .  .  .  .  .  .  .  .  .  .  .  .  .  .                                                                                                                                                                                                                                                                                                     ",
".  .  .  .  .  .  .  .  .  .  .  .  .  .  .  .  .  .  .  .  .  .  .  .  .  .  .  .  .  .  .  .  .  t'.u'.v'.9% 0^ w'.p# Q# u* <# <# <# <# v* ve x'.N. '@ wg y'.]'.F[ d; d; d; d; d; d; d; d;  ; ea ^'.z'.i% 3, <# <# <# <# <# <# <# <# <# <# <# <# t, T .U .V .Z- d; d; d; d; d; d;  ;  ;  ;  ; d;  ; d;  ;  ;  ;  ; )~ A'.B'.C'.B* F# e# e# d# d# G# D'.j- _  E'.F'.G'.H'.F. g. g. g. g. g. g. g. g. g. g. g. g. g. g. g. g. g. g. g. g. g. g. g. g. g. g. g. g. g. g. g. g. g. g. g. g. g. g. g. g. g. g. g. 7'.I'.cE j: i: i: i: i: i: i: i: i: i: i: i: i: i: i: i: i: i: i: #< 9G ~v <# <# <# <# <# <# <# <# <# <# <# <# <# <# <# <# <# <# <# <# <# <# <# t, vg S9 X+ W+ jq Up Vp <# v* Gm J'.N. K+ K'.Q# p. <# [# L'.,@ W+ s. M'.N'.!$ e% ;& h'.O'.W+ W+ W+ W+ W+ wg P'.Q'.)$ D+ R'.S'.l'.W+ W+ W+ W+ W+ W+ W+ W+ W+ W+ W+ W+ W+ W+ W+ W+ W+ W+ W+ W+ W+ W+ wg M+ T'.n'.N# e% d| U'.V'.U/ .  .  .  .  .  .  .  .  .  .  .  .  .  .  .  .  .  .  .  .  .  .  .  .  .  .  .  .  .  .  .                                                                                                                                                                                                                                                                                                     ",
".  .  .  .  .  .  .  .  .  .  .  .  .  .  .  .  .  .  .  .  .  .  .  .  .  .  .  .  .  .  .  .  .  -% W'.X'.Y'.N. J+ Z'.Q# p. <# <# <# <# <# ve x'.N. W+ `d y'.]'.fG ^{  ; d; d; d; d; d; d;  ; ea ^'.z'.i% 3, 3, 3, <# <# <# <# <# <# <# <# <# <# t, T .U .V . ;  ;  ;  ;  ;  ; d; d; d; d; d; d; d; d; d; d; d; d; d; `'. ).C'.<% .& .& .& .& .& .& D'.j- h# $2 F'..).+).Jk Jk Jk Jk Jk Jk Jk Jk Jk Jk @).#).g. g. g. g. g. g. g. g. g. g. g. g. g. g. g. g. g. g. g. g. g. g. g. g. g. g. g. g. g. g. ,l (2 $).=A cE i: i: i: i: i: i: i: i: i: i: i: i: i: i: i: i: i: i: i: #< 9G ~v <# <# <# <# <# <# <# <# <# <# <# <# <# <# <# <# <# <# <# <# <# <# <# _a vg S9 N. W+ jq Up [& <# _a Gm J'.N. K+ K'.d'.<# <# r# L'.,@ wg `d M'.N'.eR e% R'.h'.O'.X+ wg wg wg wg j+ P'.Q'.eR D+ R'.S'.l'.W+ W+ W+ W+ W+ W+ W+ W+ W+ W+ W+ W+ W+ W+ W+ W+ W+ W+ W+ W+ W+ wg t# M+ T'. F N# e% d| %).&).,| .  .  .  .  .  .  .  .  .  .  .  .  .  .  .  .  .  .  .  .  .  .  .  .  .  .  .  .  .  .  .                                                                                                                                                                                                                                                                                                     ",
".  .  .  .  .  .  .  .  .  .  .  .  .  .  .  .  .  .  .  .  .  .  .  .  .  .  .  .  .  .  .  .  .  *).=).-).;).W$.>).,).Q# i% i% N, 3, <# <# ve x'.N. wg `d y'.').)).Z- eG a$.Z- d; d; d; d; d; ea !).~).{).'% X/ u~ <# <# <# <# <# <# <# <# <# <# t, T .]).^).dG dG dG dG dG eG F[ fG d; d; d; d; d; d; d; d; d; d; )~ `'./).()._).:).<).[).}).<).|).1)./> t1 2).3).4).5).^k ^k >k ;k ;k ;k ;k ;k ;k /k 6).7).O6 g. g. g. g. g. g. g. g. g. g. g. g. g. g. g. g. g. g. g. g. g. g. g. g. g. g. g. g. 8).9).L1 0).a).cE i: i: i: i: i: i: i: i: <o <o <o <o <o <o <o <o <o <o <o <o 9G ~v <# <# <# <# <# <# <# <# <# <# <# <# <# <# <# <# <# <# <# <# v* i% i% v* b).S9 1$ 1$ c).d).[& i% v* Gm J'.1$ 1$ e).<$ [$ u* Cv L'.K+ W+ W+ f).a..g)./$ R'.h).i'.Wd W+ W+ W+ W+ wg i).$S g)./$ y, j).l'.W+ W+ W+ W+ W+ W+ W+ W+ W+ W+ W+ W+ W+ W+ W+ W+ W+ W+ W+ W+ W+ W+ W+ W+ k). F N# e% d| t| l).,| .  .  .  .  .  .  .  .  .  .  .  .  .  .  .  .  .  .  .  .  .  .  .  .  .  .  .  .  .  .  .                                                                                                                                                                                                                                                                                                     ",
".  .  .  .  .  .  .  .  .  .  .  .  .  .  .  .  .  .  .  .  .  .  .  .  .  .  .  .  .  .  .  .  .  =  m).n).o).p).q).r).s).t).u).v).<1 <# <# ve x'.N. W+ W+ w).x).y).z).A).B).>P d; d; d; d; d; d; @} C).D).D).E).F).G).3, <# <# <# <# <# <# <# <# <# lI H).I).J).J).J).J).J).K).L).M).9) d; d; d; d; d; d; d; d; d; d; N).O).P).Q).R).S).Q).R).T).S).U).V).W).X).Y).Z).`).3j  !..!.|j |j |j |j |j }L +!.@!.#!.$!.g. g. g. g. g. g. g. g. g. g. g. g. g. g. g. g. g. g. g. g. g. g. g. g. g. g. g. `8 %!.&!.ij ij *!.[A i: i: i: i: i: i: #< 9G =!.-!.-!.-!.-!.-!.-!.-!.-!.-!.-!.-!.d-.'D <# <# <# <# <# <# <# <# <# <# <# <# <# <# <# <# <# <# <# v* 1>.;!.rj u).>!.b^ c;.c;.,!.'!.u).rj u).)!.H;.Z$ I;.!!.~!.{!.{!.]!.^!.vj vj /!.(!._!.:!.:!.<!.[!.}!.+6 vj vj vj vj /!.|!.1!.2!.:!.bR 3!.OA W+ W+ W+ W+ W+ W+ W+ W+ W+ W+ W+ W+ W+ W+ W+ W+ W+ W+ '@ I% 4!.5!.vj vj xj N$ '# e% d| t| 6!.,| .  .  .  .  .  .  .  .  .  .  .  .  .  .  .  .  .  .  .  .  .  .  .  .  .  .  .  .  .  .  .                                                                                                                                                                                                                                                                                                     ",
".  .  .  .  .  .  .  .  .  .  .  .  .  .  .  .  .  .  .  .  .  .  .  .  .  .  .  .  .  .  .  .  .  .  .  =  g= d{ 7!.8!.9!.Wd (s 0!.*6 <# <# ve x'.N. W+ W+ '@ 0% $& a!.qO b!.c!.d; d; d; d; d; d; a, a, a, Ra d!.e!.f!.3, <# <# <# <# <# <# <# <# <# <# t, t, 3, 3, 3, 3, 3, K. g!.h!.9) d; d; d; d; d; d; d; d; d; d; d; 0) I$.q=.0) i!.0) i!.0) <'.0) =#.=#.I$.j!.k!.Gy )a ji Z^ 4% @& R* R* @& 66 xn <E [E }E l!.g. g. g. g. g. g. g. g. g. g. g. g. g. g. g. g. g. g. g. g. g. g. g. g. g. F. Xz m!.n!.8i i: i: i: i: i: i: i: i: i: #< &P En [& <# <# <# <# <# <# <# <# <# <# <# <# <# <# <# <# <# <# <# <# <# <# <# <# <# <# <# <# <# <# <# v* o!.b'.N. N. Bm Q# p. p. dk s# ,@ N. X+ Hn f-.p. lI |I p!.N# '# '# e% e% e% '# q!.rU N. a% $l r!. ,.z>.e% e% e% e% '# s!.rU N. 0% '@ W+ W+ W+ W+ W+ W+ W+ W+ W+ W+ W+ W+ W+ W+ W+ W+ W+ W+ W+ W+ '@ t!.u!.v!.e% e% '# '# '# e% d| t| w!..@ .  .  .  .  .  .  .  .  .  .  .  .  .  .  .  .  .  .  .  .  .  .  .  .  .  .  .  .  .  .  .                                                                                                                                                                                                                                                                                                     ",
".  .  .  .  .  .  .  .  .  .  .  .  .  .  .  .  .  .  .  .  .  .  .  .  .  .  .  .  .  .  .  .  .  .  .  .  .  .  x!.y!.9!.'@ J+ 0!.*6 <# <# ve x'.N. W+ W+ W+ W+ W+ wg S%.b!.c!.d; d; d; d; d; d; d; d; d; a, d!.e!.f!.3, <# <# <# <# <# <# <# <# <# <# <# <# <# <# <# <# <# <# g!.h!.9) d; d; d; d; d; d; d; d; d; d; d; a, d;  ; a, d; a, d; d; d; a, a, a, 1! z!.k!.^% d# w= D* I5 D# D# D# D# D# oE <E [E pE A!.p{ p{ p{ p{ p{ p{ p{ p{ p{ p{ p{ p{ p{ p{ F. g. g. g. g. g. g. g. g. g. O6 4k B!.m!.n!.8i i: i: i: i: i: i: i: i: i: #< &P En [& <# <# <# <# <# <# <# <# <# <# <# <# <# <# <# <# <# <# <# <# <# <# <# <# <# <# <# <# <# <# <# v* o!.b'.N. $l p# Q# p. <# r# s# ,@ W+ K+ C!.f-.p. u* |I p!.N# '# '# '# '# '# N# D!.rU N. '@ N7 r!. ,.N# '# '# '# '# D+ s!.rU N. W+ W+ W+ W+ W+ W+ W+ W+ W+ W+ W+ W+ W+ W+ W+ W+ W+ W+ W+ W+ W+ W+ '@ t!.u!.N$ '# '# '# '# '# e% d| t| E!..@ .  .  .  .  .  .  .  .  .  .  .  .  .  .  .  .  .  .  .  .  .  .  .  .  .  .  .  .  .  .  .                                                                                                                                                                                                                                                                                                     ",
".  .  .  .  .  .  .  .  .  .  .  .  .  .  .  .  .  .  .  .  .  .  .  .  .  .  .  .  .  .  .  .  .  .  .  .  .  .  fi y!.F!.t# (s 0!.#_ <# u* G!.x'.N. N. N. N. W+ W+ '@ H!.b!.c!.&@.LY d; d; d; d; d; d; d; a, d!.e!.f!.A[ t, t, t, t, 5- 3, 3, <# <# <# <# <# <# <# <# <# <# <# g!.h!.9) a, a, d; d; d; d; d; d; d; d; d; d; d; d; d; d; d; d; d; d; d; d; d; 1! z!.k!.mS :% I!.J!.@& @& @& @& @& d  xn <E [E K!.L!.]E ]E ]E ]E ]E ]E ]E ]E ]E ]E ]E ]E ]E ]E 5y F. g. g. g. g. g. g. g. a0 ]E >@.M!.m!.n!.8i i: i: i: i: i: i: #< #< #< #< &P En [& <# <# <# <# <# <# <# <# <# <# <# <# <# <# <# <# <# <# <# <# <# <# <# t, t, t, t, 3, 3, p. p. B_ Gm b'.N. (s Bm Q# t, t, r# s# m+ 0% N!.Hn f-.*^ _a |I p!.e% e% e% e% e% e% '# O!.rU N. $v $l r!. ,.z>.e% e% e% e% D+ s!.rU N. W+ W+ W+ W+ W+ W+ W+ W+ W+ W+ W+ W+ W+ W+ W+ W+ W+ W+ W+ W+ W+ W+ '@ t!.u!.N$ '# '# e% e% e% Z( d| P!.Q!..@ .  .  .  .  .  .  .  .  .  .  .  .  .  .  .  .  .  .  .  .  .  .  .  .  .  .  .  .  .  .  .                                                                                                                                                                                                                                                                                                     ",
".  .  .  .  .  .  .  .  .  .  .  .  .  .  .  .  .  .  .  .  .  .  .  .  .  .  .  .  .  .  .  .  .  .  .  .  .  .  x. y!.R!.S!.To T!.U!.V!.W!.X!.Y!._%.Z!.S!.`!.`d W+ '@ I%  ~..~.+~.@~.#~.F[ d; d; d; d; d; a, -Y $~.%~.&~.*~.*~.*~.*~.=~.-~.qr <# <# <# <# <# <# <# <# <# <# <# ;~.>~.,~.rJ BS '~.D8 d; d; d; d; d; d; d; d; d; d; d; d; d; d; d; d; d; d; d; 1! )~.!~.~~.{~.]~.^~./~.(~.(~.(~._~.(~.:~.<~.[~.}~.|~.|~.|~.|~.|~.|~.|~.|~.|~.|~.|~.|~.|~.|~.1~.2~.{l U+ g. g. g. g. g. wh 3~.4~.5~.5~.6~.7~.i: i: i: i: i: i: i: Yu 7J 7J 7J 8~.LA 3, <# <# <# <# <# <# <# <# <# <# <# <# <# <# <# <# <# <# <# <# <# <# <# ^..9~.0~.*~.a~.b~.c~.d~.e~.f~.g~._%.Z!.h~.i~.0~.*~.j~.k~.l~.m~.m~.E/ n~.E& o~.p~.q~.i-.Lh Lh Lh Lh Lh r~.s~.t~.m~.m~.u~.v~.w~.x~.Lh Lh Lh Lh r~.y~.z~.N. W+ W+ W+ W+ W+ W+ W+ W+ W+ W+ W+ W+ W+ W+ W+ W+ W+ W+ W+ W+ W+ W+ '@ t!.u!.N$ '# '# kq A~.B~.C~.D~.E~.F~.,| .  .  .  .  .  .  .  .  .  .  .  .  .  .  .  .  .  .  .  .  .  .  .  .  .  .  .  .  .  .  .                                                                                                                                                                                                                                                                                                     ",
".  .  .  .  .  .  .  .  .  .  .  .  .  .  .  .  .  .  .  .  .  .  .  .  .  .  .  .  .  .  .  .  .  .  .  .  .  .  U  G~.H~.<1 ok #=.3A J+ I~.J~.K~.^; N, ^; [g T-.X+ W+ W+ W+ K+ L~.M~.N~.O~.d; d; d; d; d; d; d; X6 P~.X5 X5 X5 X5 8) Q~.R~.S~.u^ 3, <# <# <# <# <# <# <# <# <# v* T~.U~.V~.T .W~.X~.Z- d; d; d; d; d; d; d; d; d; d; d; d; d; d; d; d; d; d;  ; /{ Y~.!>.Z~.`~. {.Oa .{..{.B=.+{.!>.B=.8) I$.s' s' s' s' s' s' s' s' s' s' s' s' s' s' @{.b, #{.${.CA g. g. g. g. F. %{.@P 8G (D &{.(D 8i i: i: i: i: i: i: :o >A _a _a _a u* <# <# <# <# <# <# <# <# <# <# <# <# <# <# <# <# <# <# <# <# <# <# <# v* ;+.y+.*{.I$.8) ={.-{.Gu K+ f'.C!.Wo K) ;{.>{.,{.I$.X5 '{.fv ){.M# M# ># ># M# k=.Fu Gu }&.M+ M+ M+ M+ M+ M+ !{.a..<6 M# n( h).~{.)+ M+ M+ M+ M+ M+ t. `d W+ W+ W+ W+ W+ W+ W+ W+ W+ W+ W+ W+ W+ W+ W+ W+ W+ W+ W+ W+ W+ W+ W+ '@ t!.u!.N$ D+ #} {{.]{.^{./{.({.0$ Z) .  .  .  .  .  .  .  .  .  .  .  .  .  .  .  .  .  .  .  .  .  .  .  .  .  .  .  .  .  .  .  .                                                                                                                                                                                                                                                                                                     ",
".  .  .  .  .  .  .  .  .  .  .  .  .  .  .  .  .  .  .  .  .  .  .  .  .  .  .  .  .  .  .  .  .  .  .  .  .  .  .  '| _{.t* _a :{.|$ X+ (s <{.K~.[$ <# _a [g T-.I+ W+ W+ wg '@ 0% [{.}{.O~.d; d; d; d; d; d; d;  ;  ;  ;  ;  ;  ; a, ;S |{.S~.u^ 3, <# <# <# <# <# <# <# <# <# v* v* 3, /; 1{.G#.X~.Z- d; d; d; d; d; d; d; d; d; d; d; d; d; d; d; d; d; d; d; d; eG 98 eG F[ eG d; eG eG H*.8) d; H*. ; `-  ;  ;  ;  ;  ;  ;  ;  ;  ;  ;  ;  ;  ;  ; X- MY 2{.3{.w8 F. F. F. F. O6 4{.@P ru j: i: i: i: i: i: i: i: i: i: :o >A <# <# <# <# <# <# <# <# <# <# <# <# <# <# <# <# <# <# <# <# <# <# <# <# <# <# <# v* ;+.jC p&.`- LY 5{.-{.6{.wg (s C!.Wo _a ;{.>{.7{.`-  ; b, 8{.9{.D+ D+ '# '# '# P^ Fu Gu X+ wg wg wg wg wg `d M'.N'.!$ e% n( h'.O'.X+ wg wg wg wg wg W+ W+ W+ W+ W+ W+ W+ W+ W+ W+ W+ W+ W+ W+ W+ W+ W+ W+ W+ W+ W+ W+ W+ W+ W+ '@ t!.u!.N$ D+ #} ~} 0{.a{..  .  .  .  .  .  .  .  .  .  .  .  .  .  .  .  .  .  .  .  .  .  .  .  .  .  .  .  .  .  .  .  .  .  .  .                                                                                                                                                                                                                                                                                                     ",
".  .  .  .  .  .  .  .  .  .  .  .  .  .  .  .  .  .  .  .  .  .  .  .  .  .  .  .  .  .  .  .  .  .  .  .  .  .  .  b{.c{.w; s{ d{.|$ N. (s <{.K~.sN <# t, [g T-.N. N. N. `d W+ N. [{.}{.e{. ; a, d; d; d; d; d; d; d; d; d; d; d; d; ;S |{.S~.f{.v* t, 3, 3, <# <# <# <# <# <# <# <# <# t, 1{.G#.g{. ; a,  ; d; d; d; d; d; d; d; d; d; d; d; d; d; d; d; d; d; d; d; d; d; d; d; d; d; d; d; d; d; d; d; d; d; d; d; d; d; d; d; a, a, a, a, a, a, a, X- MY h{.i{.Jy j{.j{.j{.j{.k{.l{.@P Yn i: i: i: i: i: i: i: i: i: i: :o >A <# <# <# <# <# <# <# <# <# <# <# <# <# <# <# <# <# <# <# <# v* t, t, t, t, t, t, t, ;+.jC p&.Z- a, 5{.-{.m{.$& vo C!.Wo 5- iC >{.7{.`- a, n{.8{.9{.'# '# '# '# D+ #} Fu Gu I+ W+ W+ N. N. '@ wg M'.N'.!$ D+ R'.h'.O'.W+ W+ W+ W+ W+ W+ W+ W+ W+ W+ W+ W+ W+ W+ W+ W+ W+ W+ W+ W+ W+ W+ W+ W+ (s N. X+ '@ '@ '@ '@ '@ t!.o{.p{.e% k=.~} q{.T  .  .  .  .  .  .  .  .  .  .  .  .  .  .  .  .  .  .  .  .  .  .  .  .  .  .  .  .  .  .  .  .  .  .  .  .                                                                                                                                                                                                                                                                                                     ",
".  .  .  .  .  .  .  .  .  .  .  .  .  .  .  .  .  .  .  .  .  .  .  .  .  .  .  .  .  .  .  .  .  .  .  .  .  .  .  r{.s{.t{.u{.v{.w{.x{.x{.y{.z{.X/ <# v* R%.A{.x{.x{.B{.Hm s. X+ P'.C{.D{.E{.E{.F{.G{.H{.I{.J{.K{.F[ d; d; d; d; d; )~ L{.M{.N{.O{.P{.Q{.qr <# <# <# <# <# <# <# <# <# v* R{.S{.T{.U{.E{.V{.W{.F[ d; d; d; d; d; d; d; d; d; d; d; d; d; d; d; d; d; d; d; d; d; d; d; d; d; d; d; d; d; d; d; d; d; d; d; d; X{.Y{.Z{.`{.`{.`{.`{. ]..].+].@].#].uz uz uz uz uz uz $].%].ru i: i: i: i: i: i: i: i: i: i: :o >A <# <# <# <# <# <# <# <# <# <# <# <# <# <# <# <# <# <# <# v* Kx &].*].O{.O{.O{.O{.O{.=].-].g{.Z- a, k>.;].>].,].,].'].)].!].~].{].]].^]./].(]._].:].'# '# <].[].Gz }].|].BO W+ W+ |x 1].Sf 2].3].L$ 4].Gz Gz 5].6].7].W+ W+ W+ W+ W+ W+ W+ W+ W+ W+ W+ W+ W+ W+ W+ W+ W+ W+ W+ W+ W+ W+ W+ M+ 8].9].0].2].2].2].2].a].b].c].d].e].f].g].h].i]..  .  .  .  .  .  .  .  .  .  .  .  .  .  .  .  .  .  .  .  .  .  .  .  .  .  .  .  .  .  .  .  .  .  .  .                                                                                                                                                                                                                                                                                                     ",
".  .  .  .  .  .  .  .  .  .  .  .  .  .  .  .  .  .  .  .  .  .  .  .  .  .  .  .  .  .  .  .  .  .  .  .  .  .  .  .  j].k].l].m].n].3, <# i% 3, <# <# <# v* <# <# <# [# L'.,@ W+ uJ o].v* +M M8 p].q].@$ E~ 4t r].M; d; d; d; d; d; d; )~ +X eG Z- b$.s].t].3, <# <# <# <# <# <# <# <# <# <# ,c v* +M i% u].v].Gw d; d; d; d; d; d; d; d; d; d; d; d; d; d; d; d; d; d; d; d; d; d; d; d; d; d; d; d; d; d; d; d; d; d; d; a, ,K w].x].y].y].y].y].y].y].z].i: j: j: j: j: j: j: j: }A 8i i: i: i: i: i: i: i: i: i: i: i: :o >A <# <# <# <# <# <# <# <# <# <# <# <# <# <# <# <# <# <# <# t, A].B].C].H*.Z- eG H*.H*.eG Z- Z- d; d; d; 9=.+; +; Z- D].E].X: M# '# D+ '# F].F].,# '# '# M# G].H].I+ '@ O+ W+ W+ X+ Ih 2x I].!# '# s!.J].I+ '@ '@ O+ W+ W+ W+ W+ W+ W+ W+ W+ W+ W+ W+ W+ W+ W+ W+ W+ W+ W+ W+ W+ W+ W+ W+ wg J+ T'.aY !# !# !# !# !# N# O!.K].L].M].5> 7> i]..  .  .  .  .  .  .  .  .  .  .  .  .  .  .  .  .  .  .  .  .  .  .  .  .  .  .  .  .  .  .  .  .  .  .  .  .                                                                                                                                                                                                                                                                                                     ",
".  .  .  .  .  .  .  .  .  .  .  .  .  .  .  .  .  .  .  .  .  .  .  .  .  .  .  .  .  .  .  .  .  .  .  .  .  .  .  .  .  .  Gi N].n].3, <# <# <# <# <# <# <# <# <# <# [# O].,@ W+ uJ o>.3, v* T~.P].&! g. g. U- Q].R].Z- d; d; d; d; d; d; d; d; X- MY S].t].3, <# <# <# <# <# <# <# <# <# <# <# <# v* K) lw Fw Gw d; d; d; d; d; d; d; d; d; d; d; d; d; d; d; d; d; d; d; d; d; d; d; d; d; d; d; d; d; d; d; d; d; d; d; a, T].U].V]./q W].W].W].W]./q i: i: j: j: j: j: j: j: j: i: i: i: i: i: i: i: i: i: i: i: i: i: :o >A <# <# <# <# <# <# <# <# <# <# <# <# <# <# <# <# <# <# <# t, A].X].e{.d;  ; d; d; d; d; d; d; d; d; d;  ;  ;  ; ;S Y].Z].*5 '# '# '# '# '# '# '# '# '# M# ^< `].N. W+ W+ W+ W+ '@ 0#..e kP D+ m# q!.rU N. W+ W+ W+ W+ W+ W+ W+ W+ W+ W+ W+ W+ W+ W+ W+ W+ W+ W+ W+ W+ W+ W+ W+ W+ W+ W+ wg L+ wY aY N# D+ D+ D+ D+ D+  ^..^.+^..  .  .  .  .  .  .  .  .  .  .  .  .  .  .  .  .  .  .  .  .  .  .  .  .  .  .  .  .  .  .  .  .  .  .  .  .  .  .  .  .                                                                                                                                                                                                                                                                                                     ",
".  .  .  .  .  .  .  .  .  .  .  .  .  .  .  .  .  .  .  .  .  .  .  .  .  .  .  .  .  .  .  .  .  .  .  .  .  .  .  .  .  .  @^.#^.$^.3, <# <# <# <# <# <# <# <# <# <# r# O].,@ W+ %^.o>.sN v* T~.P].&! 7# D. .k Q].M;  ; d; d; d; d; d; d; d; d; X- MY S].t].3, <# <# <# <# <# <# <# <# <# <# <# <# <# v* lw Fw Gw d; d; d; d; d; d; d; d; d; d; d; d; d; d; d; d; d; d; d; d; d; d; d; d; d; d; d; d; d; d; d; d; d; d; d; X- T].U].rF i: i: i: i: i: i: i: i: i: i: i: i: i: i: i: i: i: i: i: i: i: i: i: i: i: i: i: #< :o >A <# <# <# <# <# <# <# <# <# <# <# <# <# <# <# <# v* <# <# K) A].X].e{.d; d; d; d; d; d; d; d; d; d; d; d; d; d; x3 &^.Z].*5 '# D+ D+ D+ D+ D+ D+ D+ D+ n# G].`].N. W+ W+ W+ W+ 0% 0#..e kP D+ m# q!.rU N. W+ W+ W+ W+ W+ W+ W+ W+ W+ W+ W+ W+ W+ W+ W+ W+ W+ W+ W+ W+ W+ W+ W+ W+ W+ W+ wg L+ wY aY )# '# '# D+ D+ D+ *^.=^.-^..  .  .  .  .  .  .  .  .  .  .  .  .  .  .  .  .  .  .  .  .  .  .  .  .  .  .  .  .  .  .  .  .  .  .  .  .  .  .  .  .                                                                                                                                                                                                                                                                                                     ",
".  .  .  .  .  .  .  .  .  .  .  .  .  .  .  .  .  .  .  .  .  .  .  .  .  .  .  .  .  .  .  .  .  .  .  .  .  .  .  .  .  .  ;^.>^.,^.5- K. ^; 5- 3, <# <# <# <# <# <# Ud ek s. Wd '^.)^.sN v* v) !^.~^.g. p{ {^.]^.^^.eG eG eG eG eG eG eG eG eG Z- /^.(^.t].3, <# <# <# <# <# <# <# <# <# <# <# <# <# v* lw Fw Gw d; d; d; d; d; d; ;S )~ eG eG eG _^.:^.:^.:^..; d; d; d; d; d; d; d; d; d; d; d; d; d; d; d; d; e=.e=.e=.Z- <^.[^.rF i: i: i: j: j: j: j: j: j: j: j: j: j: j: j: j: j: j: j: j: j: j: j: j: j: j: j: j: :o }^.<# <# <# <# <# <# <# <# <# <# <# v* <# <# <# <# <# <# p. i% |^.1^.e{.d; d; d; d; d; d;  ; d; eG eG eG eG eG eG dG 2^.Z].*5 '# /$ /$ /$ /$ /$ /$ /$ /$ m< 3^.4^.W+ Wd Wd Wd Wd O. Lr $X I]./$ '# s!.rU N. W+ W+ W+ W+ W+ W+ W+ W+ W+ W+ W+ W+ W+ W+ W+ W+ W+ W+ W+ W+ W+ W+ W+ W+ W+ W+ wg J+ T'.aY /$ M# n# n# ;# g#.5^.6^.7^..  .  .  .  .  .  .  .  .  .  .  .  .  .  .  .  .  .  .  .  .  .  .  .  .  .  .  .  .  .  .  .  .  .  .  .  .  .  .  .  .                                                                                                                                                                                                                                                                                                     ",
".  .  .  .  .  .  .  .  .  .  .  .  .  .  .  .  .  .  .  .  .  .  .  .  .  .  .  .  .  .  .  .  .  .  .  .  .  .  .  .  .  .  =  8^.9^.0^.a^.b^.c^.M, <# <# <# <# <# <# u4 d^.e^.f^.g^.h^..= <# v* 0y i^.j^.j^.k^.l^.m^.n^.n^.n^.n^.n^.n^.n^.n^.n^.n^.o^.p^.q^.<# <# <# <# <# <# <# <# <# <# <# <# <# <# v* lw Fw Gw d; d; d; d;  ; SZ r^.s^.n^.t^.u^.v^.w^.x^.y^.z^.A^.d; d; d; d; d; d; d; d; d; d; d; d; d;  ; X6 B^.C^.D^.E^.F^.8t  H i: i: :o G^.:F :F :F :F :F :F :F :F :F :F :F :F :F :F :F :F :F :F :F :F :F :F :F :F :F H^.<# <# <# <# <# <# <# <# <# <# <# ve I^.J^.K^.L^.M^.N^.O^.P^.Q^.R^.'~ d; d; d; d; d; Hw S^.T^.U^.RX V^.W^.V^.X^.W^.Y^.Z^.x, P^ `^. /.NF ZX ZX ZX ZX ZX L;../.+/.@/.f^.f^.f^.f^.f^.#/.$/.%/.ZX &/.*/.=/.W+ W+ W+ W+ W+ W+ W+ W+ W+ W+ W+ W+ W+ W+ W+ W+ W+ W+ W+ W+ W+ W+ W+ W+ W+ W+ W+ W+ W+ -/.;/.NF ZX >/.,/.'/.)/.!/.~/.T# .  .  .  .  .  .  .  .  .  .  .  .  .  .  .  .  .  .  .  .  .  .  .  .  .  .  .  .  .  .  .  .  .  .  .  .  .  .  .  .  .                                                                                                                                                                                                                                                                                                     ",
".  .  .  .  .  .  .  .  .  .  .  .  .  .  .  .  .  .  .  .  .  .  .  .  .  .  .  .  .  .  .  .  .  .  .  .  .  .  .  .  .  .  .  Y, ,| g| {/.]/.^/.//.<# <# <# <# <# <# o&.(/.Iz e% 6d _/.Me <# v* Y>.T-.$& $& :/.</.<1 t, t, t, t, t, t, t, t, t, t, t, [& 3, <# <# <# <# <# <# <# <# <# <# <# <# <# <# v* lw Fw Gw d; d; d; d; a, t&.[/.7&.3, t, JJ }/.|/.Fa 1/.2/.3/.d; d; d; d; d; d; d; d; d; d; d; d; d;  ; Hw 4/.5/.9i i: i: i: i: i: #< an #I 3, 3, <# <# <# <# <# <# <# <# <# <# <# <# <# <# <# <# <# <# <# <# <# <# <# <# <# <# <# <# <# <# <# <# <# <# v* >..6/.N. vo $l 7/.8/.`- a,  ; d; d; d; d; d; d; d; )~ 9/.0/.'# '# '# '# '# '# ># '# '# D+ #} 0e @S X+ '@ '@ '@ '@ '@ W+ a/.b/.!$ '# '# '# '# e% c/.bY _* '@ '@ wg W+ W+ W+ W+ W+ W+ W+ W+ W+ W+ W+ W+ W+ W+ W+ W+ W+ W+ W+ W+ W+ W+ W+ W+ W+ W+ W+ W+ W+ W+ N. N. X+ N. d/.e/.f/.g/.h/.Gi .  .  .  .  .  .  .  .  .  .  .  .  .  .  .  .  .  .  .  .  .  .  .  .  .  .  .  .  .  .  .  .  .  .  .  .  .  .  .  .  .  .                                                                                                                                                                                                                                                                                                     ",
".  .  .  .  .  .  .  .  .  .  .  .  .  .  .  .  .  .  .  .  .  .  .  .  .  .  .  .  .  .  .  .  .  .  .  .  .  .  .  .  .  .  .  .  .  .  a$ i/.^/.//.<# <# <# <# <# <# Zw j/.Iz '# EV b~.)D <# v* Y>.:a (s W+ k/.</.Vp <# <# <# <# <# <# <# <# <# <# <# <# <# <# <# <# <# <# <# <# <# <# <# <# <# <# <# v* lw Fw Gw d; d; d; d; a, t&.[/.7&.3, <# pt qt Wt iy l/.m/.3/.d; d; d; d; d; d; d; d; d; d; d; d; d;  ; Hw 4/.5/.8i i: i: i: i: i: #< an #I 3, 3, <# <# <# <# <# <# <# <# <# <# <# <# <# <# <# <# <# <# <# <# <# <# <# <# <# <# <# <# <# <# <# <# <# <# v* >..6/.N. t# $l 7/.8/.Z- d; d; d; d; d; d; d; d; d; s' n/.o/.x, '# '# '# '# '# '# '# '# D+ #} 0e p/.W+ W+ W+ W+ W+ W+ s. q/.b/.!$ '# '# '# '# e% c/.bY _* W+ W+ W+ W+ W+ W+ W+ W+ W+ W+ W+ W+ W+ W+ W+ W+ W+ W+ W+ W+ W+ W+ W+ W+ W+ W+ W+ W+ W+ W+ W+ W+ W+ W+ N. N. N. r/.s/.t/.=  .  .  .  .  .  .  .  .  .  .  .  .  .  .  .  .  .  .  .  .  .  .  .  .  .  .  .  .  .  .  .  .  .  .  .  .  .  .  .  .  .  .  .  .                                                                                                                                                                                                                                                                                                     ",
".  .  .  .  .  .  .  .  .  .  .  .  .  .  .  .  .  .  .  .  .  .  .  .  .  .  .  .  .  .  .  .  .  .  .  .  .  .  .  .  .  .  .  .  .  .   ! u/.^/.//.p. p. B_ <# <# <# yV j/.v/.e% kq b~.'D p. B_ w/.:a N. N. J+ </.t* p. p. <# <# <# <# <# <# <# <# <# <# <# <# <# <# <# <# <# <# <# <# <# <# <# <# <# v* lw Fw Gw d; d; d; d; a, t&.[/.7&.l: t, pt qt x/./2 y/.2/.3/.d; d; d; d; d; d; d; d; d; d; d; a, a, Ra Hw 4/.z/.(q #< #< #< #< #< #< an #I 3, 3, <# <# <# <# <# <# <# <# <# <# <# <# <# <# <# <# <# <# <# <# <# <# <# p. p. p. p. p. <# <# <# v* t, t, t, 1>.6/.$& A/.$l 7/.8/.Z- d; d;  ; a, a, a, a, a, LY  ; 9/.0/.B/.e% e% e% e% e% e% e% e% Z( #} 0e p/.X+ '@ '@ '@ '@ '@ wg q/.b/.!$ '# e% e% e% Z( c/.bY _* W+ W+ W+ W+ W+ W+ W+ W+ W+ W+ W+ W+ W+ W+ W+ W+ W+ W+ W+ W+ '@ '@ '@ '@ W+ W+ W+ W+ W+ W+ W+ W+ W+ $l K+ N. J+ C/.D/.E/.Gi .  .  .  .  .  .  .  .  .  .  .  .  .  .  .  .  .  .  .  .  .  .  .  .  .  .  .  .  .  .  .  .  .  .  .  .  .  .  .  .  .  .  .  .                                                                                                                                                                                                                                                                                                     ",
".  .  .  .  .  .  .  .  .  .  .  .  .  .  .  .  .  .  .  .  .  .  .  .  .  .  .  .  .  .  .  .  .  .  .  .  .  .  .  .  .  .  .  .  .  .  t% F/.G/.H/.I/.J/.K/.M, 3, <# rr L/.M/.au N/.O/.d2 H@.2u P/.Q/.eZ eZ R/.S/.T/.H@.3u PN <# <# <# <# <# <# <# <# <# <# <# <# <# <# <# <# <# <# <# <# <# <# <# <# v* lw Fw Gw d; d; d; d; a, t&.U/.V/.W/.4Z X/.Y/.Z/.`/. (..(.3/.d; d; d; d; d; d; d; d; d; d; d; *@.+(.@(.#(.$(.%(.ax &(.&(.&(.&(.&(.bn bx (~ 3, 3, <# <# <# <# <# <# <# <# <# <# <# <# <# <# <# <# <# <# <# <# <# <# t, H@.H@.H@.3u *(.3, <# <# rr tN =(.4Z -(.;(.>(.,(.'(.)(.!(.Z- d; )~ n{.~(.{(.](.Y5 {(.^(.&&./(.((.z' au au au au au au au au au _(.:(.<(.[(.}(.}(.}(.}(.}(.|(.1(.2(.!$ '#  y 3(.au au 4(.5(._* W+ W+ W+ W+ W+ W+ W+ W+ W+ W+ W+ W+ W+ W+ W+ W+ W+ W+ W+ W+ ,N 6(.}(.7(.8(.s. W+ W+ W+ W+ W+ W+ `d 9(.0(.a(.a(.b(.I0 j  Gi .  .  .  .  .  .  .  .  .  .  .  .  .  .  .  .  .  .  .  .  .  .  .  .  .  .  .  .  .  .  .  .  .  .  .  .  .  .  .  .  .  .  .  .                                                                                                                                                                                                                                                                                                     ",
".  .  .  .  .  .  .  .  .  .  .  .  .  .  .  .  .  .  .  .  .  .  .  .  .  .  .  .  .  .  .  .  .  .  .  .  .  .  .  .  .  .  .  .  .  .  .  $6 c(.d(.e(.f(.g(.q^ w; <# w* h(.i(.L+ L+ L+ G+ S9 j(.c'.k(.Jn Jn Py [&.G+ gZ l(.m(.sN <# <# <# <# <# <# <# <# <# <# <# <# <# <# <# <# <# <# <# <# <# <# <# v* lw Fw Gw d; d; d; d; d; d; d; j..44 44 44 n(.o(.o(.o(.)~ d; d; d; d; d; d; d; d; d; d;  ; ea p(.q(.At r(.s(.t(.*^ *^ *^ *^ *^ *^ *^ *^ p. <# <# <# <# <# <# <# <# <# <# <# <# <# <# <# <# <# <# <# <# <# <# <# v* 1>.Hm S9 S9 J+ u(.2< <# t, v(.w(.x(.44 44 Q~.q=.q=.q=.9) F[ d; d; 7S y(.z(.A(.B(.C(.Aa B(.D(.E(.F(.L+ L+ L+ L+ L+ L+ L+ L+ L+ M+ )+ 0Y G(.;# ># ># ># ># ># ># l# !$ D+ #} Fu H(.*n L+ K+ gZ N. W+ W+ W+ W+ W+ W+ W+ W+ W+ W+ W+ W+ W+ W+ W+ W+ W+ W+ wg 0m I(.J(.;# 4>.A>.B>.W+ W+ W+ N. W+ W+ 9#.K(.L(.M(.N(.6=.e..a$ .  .  .  .  .  .  .  .  .  .  .  .  .  .  .  .  .  .  .  .  .  .  .  .  .  .  .  .  .  .  .  .  .  .  .  .  .  .  .  .  .  .  .  .  .                                                                                                                                                                                                                                                                                                     ",
".  .  .  .  .  .  .  .  .  .  .  .  .  .  .  .  .  .  .  .  .  .  .  .  .  .  .  .  .  .  .  .  .  .  .  .  .  .  .  .  .  .  .  .  .  .  .  .  .  .  .  O(.P(.q^ w; <# r# O].`d wg wg wg W+ wg K+ e).k(.p. <# B$.[&.,@ X+ Q(.m(.sN <# <# <# <# <# <# <# <# <# <# <# <# <# <# <# <# <# <# <# <# <# <# <# v* lw Fw Gw d; d; d; d; d; d;  ;  ; a, a, a,  ;  ;  ;  ; d; d; d; d; d; d; d; d; d; d; d;  ; ea p(.R(.eU W].Yu ~v <# <# <# <# <# <# <# <# <# <# <# <# <# <# <# <# <# <# <# <# <# <# <# <# <# <# <# <# <# <# <# <# v* 1>.Hm N. X+ J+ u(.2< <# t, v(.w(.x-.a, a, LY LY LY LY d; d; d; d; @} y(.S(.N# '# '# M# D+ y, T(.l'.X+ wg wg wg wg wg wg wg wg 0% M+ U(.1I )# D+ D+ D+ D+ D+ D+ '# '# '# #} Fu Gu X+ wg wg W+ W+ W+ W+ W+ W+ W+ W+ W+ W+ W+ W+ W+ W+ W+ W+ W+ W+ W+ W+ wg 0m x>.y>.Z( 4>.A>.B>.W+ W+ W+ W+ J+ W+ 0^ V(.W(.X(..  .  .  .  .  .  .  .  .  .  .  .  .  .  .  .  .  .  .  .  .  .  .  .  .  .  .  .  .  .  .  .  .  .  .  .  .  .  .  .  .  .  .  .  .  .  .  .  .                                                                                                                                                                                                                                                                                                     ",
".  .  .  .  .  .  .  .  .  .  .  .  .  .  .  .  .  .  .  .  .  .  .  .  .  .  .  .  .  .  .  .  .  .  .  .  .  .  .  .  .  .  .  .  .  .  .  .  .  .  .  .  P(.q^ w; <#  l O].,@ W+ W+ W+ W+ W+ J+ K'.k(.p. <# [# [&.,@ N. uJ m(.sN <# <# <# <# <# <# <# <# <# <# <# <# <# <# <# <# <# <# <# <# <# <# <# t, lw Fw Gw d; d; d; d; d; d; d; d; d; d; d; d; d; d; d; d; d; d; d; d; d; d; d; d; d; d;  ; ea p(.R(.ru #< Yu ~v <# <# <# <# <# <# <# <# <# <# <# <# <# <# <# <# <# <# <# <# <# <# <# <# <# <# <# <# <# <# <# <# v* 1>.Hm N. X+ $l u(.#_ <# t, v(.w(.O~.d; d; d; d; d; d; d; d; d; d; k>.y(.S(.'# '# '# '# '# y, T(.l'.W+ W+ W+ W+ W+ W+ W+ W+ W+ wg M+ U(.1I N# '# '# '# '# '# '# '# '# '# P^ Fu Gu I+ W+ W+ W+ W+ W+ W+ W+ W+ W+ W+ W+ W+ W+ W+ W+ W+ W+ W+ W+ W+ W+ W+ X+ 0m x>.y>.z>.4>.A>.B>.W+ W+ W+ W+ (s K+ j+ Y(.Z(.`(..  .  .  .  .  .  .  .  .  .  .  .  .  .  .  .  .  .  .  .  .  .  .  .  .  .  .  .  .  .  .  .  .  .  .  .  .  .  .  .  .  .  .  .  .  .  .  .  .                                                                                                                                                                                                                                                                                                     ",
".  .  .  .  .  .  .  .  .  .  .  .  .  .  .  .  .  .  .  .  .  .  .  .  .  .  .  .  .  .  .  .  .  .  .  .  .  .  .  .  .  .  .  .  .  .  .  .  .  .  .  .   _.._.N( M, +_.@_.f'.W+ W+ W+ W+ W+ M+ K'.k(.p. <# [# [&.,@ N. uJ m(.sN <# <# <# X/ X/ X/ X/ <# <# <# <# <# <# <# <# v* +M sN sN sN sN sN sN G- lw Fw Gw d; d; d; d; d; d; d; d; d; d; d; d; d; d; d; d; d; d; d; d; d; d; d; d; d; d;  ; ea p(.R(.j: #_.$_.Td N, sN sN sN sN sN sN 3, 3, <# <# <# <# <# <# <# <# X/ X/ X/ X/ <# <# <# <# v* <# sN sN sN sN sN <# XZ Z>.H^ H^ wg %_.2< sN G- &_.*_.=_.d; d; d; d; d; d; Z- Z- d; d; -_.y(.;_.e% D+ N# '# D+ y, T(.l'.'@ '@ '@ '@ '@ '@ '@ '@ '@ O. ZZ U(.1I N# '# '# e% e% e% e% e% e% e% M# #v Gu I+ W+ W+ W+ W+ W+ W+ W+ W+ W+ W+ W+ W+ W+ W+ W+ W+ W+ W+ W+ wg '@ '@ '@ L+ `>.y>.)# 4>.A>.B>.W+ W+ s. Wd L+ I+ O+ >_.,_.`(..  .  .  .  .  .  .  .  .  .  .  .  .  .  .  .  .  .  .  .  .  .  .  .  .  .  .  .  .  .  .  .  .  .  .  .  .  .  .  .  .  .  .  .  .  .  .  .  .                                                                                                                                                                                                                                                                                                     ",
".  .  .  .  .  .  .  .  .  .  .  .  .  .  .  .  .  .  .  .  .  .  .  .  .  .  .  .  .  .  .  .  .  .  .  .  .  .  .  .  .  .  .  .  .  .  .  .  .  .  .  .  '_.)_.!_.~_.{_.]_.Wd W+ W+ W+ W+ W+ M+ K'.k(.p. <# [# [&.,@ N. uJ m(.sN <# v* ^_./_._ .(_.__.:_.[& <# <# <# <# <# <# <_.[_.Z#.}_.}_.}_.}_.}_.}_.|_.1_.9) d; d; d; d; d; d; d; d; d; d; d; d; d; d; d; d; d; d; d; d; d; d; d; d; d; d; d; )~ 2_.3_.u` 4_.5_.6_.}_.}_.}_.}_.}_.}_.7_.8_.9_.u^ <# <# <# <# <# ,c 0_.(_.(_._ .a_.wK <# v* rr b_.c_.d_.}_.}_.}_.}_.}_.e_.f_.g_.g_.g_.h_.d_.}_.}_.i_.j_.k_.l_.l_.l_.l_.k_.k_.m_.n_.Z- d; ,K o_.p_.q_.r_.s_.!$ '# b* t_.u_.v_.v_.v_.v_.v_.v_.v_.v_.v_.v_.w_.x_.y_.'# '# z_.A_.B_.6 .6 .6 .6 .6 .C_.D_.7].W+ W+ W+ W+ W+ W+ W+ W+ W+ W+ W+ W+ W+ W+ W+ W+ W+ W+ W+ wg E_.F_.G_.v_.H_.I_.c .6 .J_.K_.L_.W+ wg M_.N_.O_.P_.Q_.R_.S_.i]..  .  .  .  .  .  .  .  .  .  .  .  .  .  .  .  .  .  .  .  .  .  .  .  .  .  .  .  .  .  .  .  .  .  .  .  .  .  .  .  .  .  .  .  .  .  .  .  .                                                                                                                                                                                                                                                                                                     ",
".  .  .  .  .  .  .  .  .  .  .  .  .  .  .  .  .  .  .  .  .  .  .  .  .  .  .  .  .  .  .  .  .  .  .  .  .  .  .  .  .  .  .  .  .  .  .  .  .  .  .  .  T_.T# U_.V_.W_.X_.Y_.X+ W+ W+ W+ W+ L+ K'.k(.p. <# [# [&.,@ N. uJ m(.sN <# v* o!.ap (s ,@ 1$ !` %l <# <# <# <# <# <# g!.h!.i!.lC lC lC lC lC lC d; Z- d; d; d; d; d; d; d; d; d; d; d; d; d; d; d; d; d; d; d; d; d; d; d; d; d; d; d; d; d; 1! 1! 1! 1! 1! lC lC lC lC lC lC  ; +X Z_.`_.u^ 3, <# <# <# <# r#  :.,@ `d N!.Hn f-.p. t, 1{.G#..:.Z- lC lC lC lC lC lC  ; 1>  ; 1> 1> lC lC 1> +:.@:.#:.F].o< o< o< n# ]< $:.%:.Z- a, &:.*:.=:.0% -P %=.)$ '# '# e% e% e% e% e% e% e% e% e% e% e% e% z>.N# '# '# '# -:.;:.VM '@ '@ '@ '@ '@ '@ W+ W+ W+ W+ W+ W+ W+ W+ W+ W+ W+ W+ W+ W+ W+ W+ W+ W+ W+ W+ W+ wg P'.$S >:.e% y, j).l'.'@ '@ s. W+ W+ X+ ,:.':.):.-% !:.!:.~:.9  .  .  .  .  .  .  .  .  .  .  .  .  .  .  .  .  .  .  .  .  .  .  .  .  .  .  .  .  .  .  .  .  .  .  .  .  .  .  .  .  .  .  .  .  .  .  .  .  .                                                                                                                                                                                                                                                                                                     ",
".  .  .  .  .  .  .  .  .  .  .  .  .  .  .  .  .  .  .  .  .  .  .  .  .  .  .  .  .  .  .  .  .  .  .  .  .  .  .  .  .  .  .  .  .  .  .  .  .  .  .  .  .  .  .  .  {:.]:.Y_.`d W+ W+ W+ wg K+ c'.k(.p. <# [# [&.,@ N. ,N m(.sN <# v* o!.ap N. W+ k/.!` %l <# <# <# <# <# <# g!.h!.9) d; d; d;  ;  ;  ;  ;  ;  ;  ;  ; d; d; d; d; d;  ;  ;  ;  ;  ;  ;  ;  ;  ; d; d; d; d;  ;  ;  ;  ; d; d; d; d; d; d; d; d; d; d; d; d; d; d; d; d; ;S ^:.S~./:.5- <# <# <# <# r# s# N. X+ I+ C!.f-.p. t, 1{.(:._:.`- d; d; d; d; d; d; d; d; d; d; d; d; d; d; ::.<:.[:.'# '# '# '# '# e% $:.%:.`- a, &:.}:.|:.'@ -P Q'.)$ '# '# '# '# '# '# '# '# '# '# '# '# D+ D+ D+ '# '# '# e% aM UM VM W+ W+ W+ W+ W+ W+ W+ W+ W+ W+ W+ W+ W+ W+ W+ W+ W+ W+ W+ W+ W+ W+ W+ W+ W+ W+ W+ wg P'.Q'.eR D+ n( S'.l'.W+ W+ W+ W+ W+ )+ 1:.2:.2. .  .  .  .  .  .  .  .  .  .  .  .  .  .  .  .  .  .  .  .  .  .  .  .  .  .  .  .  .  .  .  .  .  .  .  .  .  .  .  .  .  .  .  .  .  .  .  .  .  .  .  .  .  .                                                                                                                                                                                                                                                                                                     ",
".  .  .  .  .  .  .  .  .  .  .  .  .  .  .  .  .  .  .  .  .  .  .  .  .  .  .  .  .  .  .  .  .  .  .  .  .  .  .  .  .  .  .  .  .  .  .  .  .  .  .  .  .  .  .  .  3:.4:.5:.wg H^ f'.W+ '@ X+ e).wK <# <# ,c 6:.|$ m+ 7:.8:.N, <# <# 9:.ap N. W+ k/.!` %l <# <# <# <# <# k{ 0:.a:.b:.H*.H*.Z- +; +; +; +; +; +; +; +; H*.H*.H*.H*.H*.+; +; +; +; +; +; +; +; +; H*.H*.H*.H*.+; +; +; +; Z- H*.H*.H*.Z- Z- d; d; d; d; d; d; d; d; d; d; ;S c:.d:.u^ v* +M +M +M X/ ,c e:.N!.0% 0% C!.f:.,% Z .Kx o#.g:.dG eG eG eG eG eG eG eG eG eG eG eG eG eG eG h:.i:.[:.'# '# '# '# '# e% $:.%:.dG q&.j:.k:.~{.'@ l:.%=.)$ '# '# '# '# '# '# '# '# '# '# '# !# !# !# !# !# !# !# !# 1Q UM VM W+ W+ W+ W+ W+ W+ W+ W+ W+ W+ W+ W+ W+ W+ W+ W+ W+ W+ W+ W+ wg X+ '@ '@ '@ '@ '@ `E N0 a..&=.~# l^ j).l'.X+ N. I+ :/.m:.H+ n:.o:.f= .  .  .  .  .  .  .  .  .  .  .  .  .  .  .  .  .  .  .  .  .  .  .  .  .  .  .  .  .  .  .  .  .  .  .  .  .  .  .  .  .  .  .  .  .  .  .  .  .  .  .  .  .  .                                                                                                                                                                                                                                                                                                     ",
".  .  .  .  .  .  .  .  .  .  .  .  .  .  .  .  .  .  .  .  .  .  .  .  .  .  .  .  .  .  .  .  .  .  .  .  .  .  .  .  .  .  .  .  .  .  .  .  .  .  .  .  .  .  .  .  p:.q:.r:.s:.t:.u:.v:.Gz }].w:.x:.y:.A{.z:.A:.3d B:.C:.D:.z:.x{.x{.E:.gZ W+ W+ k/.!` %l <# <# Ro F:.z:.A{.G:.H:.N{.O{.O{.I:.J:.J:.J:.J:.J:.J:.J:.K:.L:.O{.O{.O{.M:.J:.J:.J:.J:.J:.J:.J:.J:.N:.O:.O{.O{.P:.J:.J:.J:.Q:.R:.O{.O{.S:.T:.U:.F[ d; d; d; d; d; d; d; d; d; d; V:.W:.U{.E{.E{.E{.E{.E{.X:.Y:.Z:.Z:.Z:.`:. <..<.+<.@<.#<.$<.%<.&<.%<.%<.%<.*<.*<.%<.%<.=<.-<.%<.%<.%<.-<.;<.><.d) '# '# '# '# '# D+ ,<.'<.%<.)<.!<.~<.{<.Gz ]<.NI N# '# '# '# '# '# '# '# '# '# '# !# ^<./<.2].2].2].2].2].2].(<._<.,@ W+ W+ W+ W+ W+ W+ W+ W+ W+ W+ W+ W+ W+ W+ W+ W+ W+ W+ wg |x :<.<<.[<.Gz Gz Gz Gz }<.|<.1<.2<.2].3].3<.T,.N. 4<.5<.6<.7<.8<.9<.0<.g= .  .  .  .  .  .  .  .  .  .  .  .  .  .  .  .  .  .  .  .  .  .  .  .  .  .  .  .  .  .  .  .  .  .  .  .  .  .  .  .  .  .  .  .  .  .  .  .  .  .  .  .  .  .                                                                                                                                                                                                                                                                                                     ",
".  .  .  .  .  .  .  .  .  .  .  .  .  .  .  .  .  .  .  .  .  .  .  .  .  .  .  .  .  .  .  .  .  .  .  .  .  .  .  .  .  .  .  .  .  .  .  .  .  .  .  .  .  .  .  .  .  t% k  u_ a<.b<.s6 e% M# dM Gu W+ `d k/.</.x% u* c<.r. ,@ N. N. N. W+ W+ '@ k/.!` %l <# v* hm YZ N. N. C!.Wo sN 3, ,c d<.m+ $& $& $& $& $& M .bo f-.sN sN t, e<.m+ $& $& $& $& $& $& 0% K'.f<.sN t, g<.,@ $& $& 6R J>.Vp 3, M8 h<.i<.fG d; d; d; d; d; d; d; d; d; d; a, a,  ;  ;  ;  ;  ;  ;  ;  ; &@.&@.9=.j<.k<.*5 D+ '# '# M# '# '# n# m# ># '# ># '# ># '# ># '# n# ># '# '# '# '# '# '# '# '# '# '# '# '# ># '# '# '# e% e% D+ '# '# '# '# '# '# '# '# '# '# '# D+ m# P# /# X+ '@ '@ '@ '@ '@ '@ W+ W+ W+ W+ W+ W+ W+ W+ W+ W+ W+ W+ W+ W+ W+ W+ W+ W+ W+ W+ '@ N7 l<.m<.)# e% e% e% e% )# n<.rU ,@ '@ N. s. N. N. o<.p<.q<.r<.k  k  9  .  .  .  .  .  .  .  .  .  .  .  .  .  .  .  .  .  .  .  .  .  .  .  .  .  .  .  .  .  .  .  .  .  .  .  .  .  .  .  .  .  .  .  .  .  .  .  .  .  .  .  .  .  .  .                                                                                                                                                                                                                                                                                                     ",
".  .  .  .  .  .  .  .  .  .  .  .  .  .  .  .  .  .  .  .  .  .  .  .  .  .  .  .  .  .  .  .  .  .  .  .  .  .  .  .  .  .  .  .  .  .  .  .  .  .  .  .  .  .  .  .  .  .  .  Y, s<.t<.s6 '# P^ u<.Gu X+ W+ k/.</.Vp <# ]m r. `d W+ W+ W+ W+ W+ W+ k/.!` %l <# v* hm YZ N. K+ C!.Wo p. <# ,c v<.,@ W+ W+ W+ W+ W+ K+ C!.'o p. <# ,c #=.|$ W+ W+ W+ W+ W+ W+ L+ K'.Q# p. t, G^ G+ W+ (s uJ ->.sN v* i% h<.i<.fG d; d; d; d; d; d; d; d; d; d; d; d; d; d; d; d; d; d; d; d; d; d; d; w<.k<.*5 '# '# '# '# '# '# '# '# '# '# '# '# '# '# '# '# '# '# '# '# '# '# '# '# '# '# '# '# '# '# '# '# '# '# '# '# '# '# '# '# '# '# '# '# '# '# '# '# '# O# P# /# X+ W+ W+ W+ W+ W+ W+ W+ W+ W+ W+ W+ W+ W+ W+ W+ W+ W+ W+ W+ W+ W+ W+ W+ W+ W+ W+ '@ N7 r!. ,.N# '# '# '# '# D+ x<.rU G+ W+ N. '@ X+ M+ o<.y<.z<.T_..  .  .  .  .  .  .  .  .  .  .  .  .  .  .  .  .  .  .  .  .  .  .  .  .  .  .  .  .  .  .  .  .  .  .  .  .  .  .  .  .  .  .  .  .  .  .  .  .  .  .  .  .  .  .  .  .  .                                                                                                                                                                                                                                                                                                     ",
".  .  .  .  .  .  .  .  .  .  .  .  .  .  .  .  .  .  .  .  .  .  .  .  .  .  .  .  .  .  .  .  .  .  .  .  .  .  .  .  .  .  .  .  .  .  .  .  .  .  .  .  .  .  .  .  .  .  .  a$ A<.B<.I].e% '# dM }x W+ W+ k/.</.Vp p. c<.r. `d W+ W+ wg '@ '@ 0% M+ !` %l p. u* C<.YZ N. X+ C!.Wo p. <# ,c v<.,@ W+ W+ W+ N. X+ X+ Hn 'o p. p. /@.#=.|$ W+ W+ W+ N. N. X+ (s K'.Q# p. *^ G^ G+ N. X+ Q(.->.sN v* i% h<.i<.D<.Ra d; d; d; d; d; d; a, a, a, a, a, a, a, a, a, a, a, a, a, a, a, d; w<.k<.*5 '# '# '# '# '# '# '# '# '# '# '# '# '# '# '# '# '# '# '# '# '# '# '# '# '# '# '# '# '# '# '# '# '# '# '# '# '# '# '# '# '# '# e% e% e% e% e% e% e% N# E<./# X+ W+ W+ W+ W+ W+ W+ W+ W+ W+ W+ W+ W+ W+ W+ W+ W+ W+ W+ W+ W+ W+ W+ W+ W+ X+ '@ $v F<.r!. ,.N# '# e% e% e% e% G<.rU G+ W+ J+ H<.L+ L+ I<.J<.K<.L<..  .  .  .  .  .  .  .  .  .  .  .  .  .  .  .  .  .  .  .  .  .  .  .  .  .  .  .  .  .  .  .  .  .  .  .  .  .  .  .  .  .  .  .  .  .  .  .  .  .  .  .  .  .  .  .  .  .                                                                                                                                                                                                                                                                                                     ",
".  .  .  .  .  .  .  .  .  .  .  .  .  .  .  .  .  .  .  .  .  .  .  .  .  .  .  .  .  .  .  .  .  .  .  .  .  .  .  .  .  .  .  .  .  .  .  .  .  .  .  .  .  .  .  .  .  .  .  9  M<.N<.O<.P<.Q<.R<.S<.!9 n+ Qf T<.<P H@.U<.r. `d W+ W+ k/.V<.W<.W<.P@.X<.<P Wa H@.I@.Y<.Z<.`<. [.Wo p. <# ,c v<.,@ W+ W+ L+ [n Z<.`<.p-..[.Wa Wa Xa d<.|$ W+ W+ W+ Gn `<.Z<.+[.@[.f:.Wa Xa #[.Z<.Z<.$[.%[.o>.sN v* i% &[.*[.=[.-[.;[.D8 d; d; )~ >[.W5 Y5 Y5 Y5 Y5 Y5 Y5 Y5 Y5 Y5 Y5 Y5 Y5 Y5 Y5 Y5 ,[.'[.*5 '# '# '# '# '# '# '# '# '# '# '# '# '# '# '# '# '# '# '# '# '# '# '# '# '# '# '# '# '# '# '# '# '# '# '# '# '# '# '# '# '# e+ .y +y +y +y +y +y +y .,.)[./# X+ W+ W+ W+ W+ W+ W+ W+ W+ W+ W+ W+ W+ W+ W+ W+ W+ W+ W+ W+ W+ W+ W+ W+ }>.V<.W<.W<.4R ![.~[.N# m# e+ e+ +y {[.][.^[.o+ !9 n+ /[.n+ ([.}. _[.:[./a .  .  .  .  .  .  .  .  .  .  .  .  .  .  .  .  .  .  .  .  .  .  .  .  .  .  .  .  .  .  .  .  .  .  .  .  .  .  .  .  .  .  .  .  .  .  .  .  .  .  .  .  .  .  .  .  .  .                                                                                                                                                                                                                                                                                                     ",
".  .  .  .  .  .  .  .  .  .  .  .  .  .  .  .  .  .  .  .  .  .  .  .  .  .  .  .  .  .  .  .  .  .  .  .  .  .  .  .  .  .  .  .  .  .  .  .  .  .  .  .  .  .  .  .  .  .  .  .  r<.<[.[[.}[.|[.^+ [[.$^ ^+ 1[.r).2[.F<.}&.gZ W+ W+ W+ a/.2(.9= ;# 3[.A>.4[.$l $l zr J^ K. K. K. 3, <# <# ,c v<.,@ W+ W+ zr 5[.K. K. 6[.Z>.$l $l $l S9 W+ W+ (s <{.7[.K. K. J. [g jn j(.)+ 8[.wK K. K. K. N, <# <# <# o!.9[.0[.a[.b[.%@.Z- d; 7S q2 c[.a| za c| e, b| b| e, c| b| a| ]< b| a| ]< d[.e[.d) '# '# '# '# '# '# '# '# '# '# '# '# '# '# '# '# '# '# '# '# '# '# '# '# '# '# '# '# '# '# '# '# '# '# '# '# '# '# '# '# '# y, T(.~{.F<.$l $l $l $l $l $l N+ `d W+ W+ W+ W+ W+ W+ W+ W+ W+ W+ W+ W+ W+ W+ W+ W+ W+ W+ W+ W+ W+ W+ W+ s. P'.N'.9= ;# ;# !$ N# e% 3[.f[.g[.$l )+ h[.i[.j[.|[.[[.k[.l[.l[.l[.w# d{ .  .  .  .  .  .  .  .  .  .  .  .  .  .  .  .  .  .  .  .  .  .  .  .  .  .  .  .  .  .  .  .  .  .  .  .  .  .  .  .  .  .  .  .  .  .  .  .  .  .  .  .  .  .  .  .  .  .  .                                                                                                                                                                                                                                                                                                     ",
".  .  .  .  .  .  .  .  .  .  .  .  .  .  .  .  .  .  .  .  .  .  .  .  .  .  .  .  .  .  .  .  .  .  .  .  .  .  .  .  .  .  .  .  .  .  .  .  .  .  .  .  .  .  .  .  .  .  .  .  .  .  .  .  .  .  .  .  .  m[.n[.o[.X+ N. W+ W+ W+ W+ p[.]W z>.e% 4>.A>.q[.X+ s. r[.J^ B_ p. p. <# <# <# ,c v<.,@ W+ s. zr 5[.B_ u* 1>.Hm N. wg X+ W+ W+ W+ (s <{.K~.[$ p. _a Y>.T-.X+ K+ 8[.#_ u* p. p. <# <# <# <# w/.T-.s[.;h t[.%@.Z- d; 7S q2 c[.># ># m# ># m# m# ># m# m# ># '# M# ># '# M# !$ N# '# '# '# '# '# '# '# '# '# '# '# '# '# '# '# '# '# '# '# '# '# '# '# '# '# '# '# '# '# '# '# '# '# '# '# '# '# '# '# '# D+ y, T(.l'.X+ X+ X+ X+ X+ X+ '@ W+ W+ W+ W+ W+ W+ W+ W+ W+ W+ W+ W+ W+ W+ W+ W+ W+ W+ W+ W+ W+ W+ W+ W+ W+ s. M'.N'.z>.e% e% '# '# e% 3[.f[.u[.X+ O. v[.w[.x[..  .  .  .  .  .  .  .  .  .  .  .  .  .  .  .  .  .  .  .  .  .  .  .  .  .  .  .  .  .  .  .  .  .  .  .  .  .  .  .  .  .  .  .  .  .  .  .  .  .  .  .  .  .  .  .  .  .  .  .  .  .  .  .  .  .  .                                                                                                                                                                                                                                                                                                     ",
".  .  .  .  .  .  .  .  .  .  .  .  .  .  .  .  .  .  .  .  .  .  .  .  .  .  .  .  .  .  .  .  .  .  .  .  .  .  .  .  .  .  .  .  .  .  .  .  .  .  .  .  .  .  .  .  .  .  .  .  .  .  .  .  .  .  .  .  .  y[.z[.o[.X+ W+ N. W+ W+ W+ p[.]W !$ '# 4>.A>.q[.W+ M+ Ih J^ p. <# <# <# <# <# ,c v<.,@ W+ s. zr 5[.p. v* Gm Hm N. W+ W+ W+ W+ W+ (s <{.K~.sN <# v* [g T-.N. $l 8[.*6 <# <# <# <# <# <# <# o!.ap N!.L+ t[.%@.Z- d; 7S q2 c[.'# '# '# '# '# '# '# '# '# '# '# '# '# '# '# '# '# '# '# '# '# '# '# '# '# '# '# '# '# '# '# '# '# '# '# '# '# '# '# '# '# '# '# '# '# '# '# '# '# '# '# '# '# '# '# '# '# D+ P^ T(.l'.W+ W+ W+ W+ W+ W+ W+ W+ W+ W+ W+ W+ W+ W+ W+ W+ W+ W+ W+ W+ W+ W+ W+ W+ W+ W+ W+ W+ W+ W+ W+ W+ s. M'.N'.!$ '# '# '# '# e% 3[.f[.A[.W+ wg v[.w[.R. .  .  .  .  .  .  .  .  .  .  .  .  .  .  .  .  .  .  .  .  .  .  .  .  .  .  .  .  .  .  .  .  .  .  .  .  .  .  .  .  .  .  .  .  .  .  .  .  .  .  .  .  .  .  .  .  .  .  .  .  .  .  .  .  .  .  .                                                                                                                                                                                                                                                                                                     ",
".  .  .  .  .  .  .  .  .  .  .  .  .  .  .  .  .  .  .  .  .  .  .  .  .  .  .  .  .  .  .  .  .  .  .  .  .  .  .  .  .  .  .  .  .  .  .  .  .  .  .  .  .  .  .  .  .  .  .  .  .  .  .  .  .  .  .  .  .  @@.B[.C[.:/.X+ `d W+ W+ W+ &X ]W l# D+ D[.A>.q[.W+ M+ Ih J^ *^ X/ X/ X/ X/ X/ /@.v<.,@ W+ W+ zr E[.AI u* Xm Hm N. W+ W+ W+ (s (s N. l(.K~.AI X/ u* Y>.T-.N. (s '..*6 <# <# <# <# X/ X/ u* w/.:a j+ $l b[.p&.Z-  ; G[ q2 c[.'# '# '# '# '# '# '# '# '# '# '# '# '# '# '# '# m# m# m# m# m# m# m# '# '# '# '# '# '# '# '# '# '# '# '# '# '# '# '# '# '# '# m# m# m# m# m# m# m# m# m# m# m# m# m# m# m# D+ ># *=.==.W+ W+ W+ W+ W+ W+ W+ W+ W+ W+ W+ W+ W+ W+ W+ W+ W+ W+ W+ W+ W+ W+ W+ W+ W+ W+ W+ W+ W+ (s (s '@ W+ M'.N'.!$ '# '# m# m# D+ J% f[.F[.w'.W+ G[.H[.I[..  .  .  .  .  .  .  .  .  .  .  .  .  .  .  .  .  .  .  .  .  .  .  .  .  .  .  .  .  .  .  .  .  .  .  .  .  .  .  .  .  .  .  .  .  .  .  .  .  .  .  .  .  .  .  .  .  .  .  .  .  .  .  .  .  .  .                                                                                                                                                                                                                                                                                                     ",
".  .  .  .  .  .  .  .  .  .  .  .  .  .  .  .  .  .  .  .  .  .  .  .  .  .  .  .  .  .  .  .  .  .  .  .  .  .  .  .  .  .  .  .  .  .  .  .  .  .  .  .  .  .  .  .  .  .  .  .  .  .  .  .  .  .  .  .  .  k  J[.K[.L[.M[.N[.Y+ W+ s. xg O[.3 .P[.Q[.R[.L_.W+ W+ ,N S[.[$.[$.[$.[$.[$.[$.T[.r. ,@ W+ s. jq U[.[$.[$.V[.<%.W+ W+ L+ W[.X[.Y[.Z[.`[. }.[$.[$.( ..}.+}.|$.@}.#}.<1 <# <# [# $}.[$.%}.&}..}.*}.|$.=}.-}.;}.>}.,}.'}.)}.y' '# '# '# '# '# '# '# '# '# '# '# '# '# '# D+ !}.~}.P[.P[.P[.P[.P[.P[.{}.]}.N$ '# '# '# '# '# '# '# '# '# '# '# '# '# '# m# ^}./}.P[.P[.P[.P[.P[.P[.P[.P[.P[.P[.P[.P[.P[.P[.P[.7$.(}._}.W+ W+ W+ W+ W+ W+ W+ W+ W+ W+ W+ W+ W+ W+ W+ W+ W+ W+ W+ W+ W+ W+ W+ W+ W+ W+ W+ W+ :}.<}.[}.}}.|}.1}.2}.N# '# ># 3}.4}.P[.5}.6}.7}.8}.9}.0}.a}.b}..  .  .  .  .  .  .  .  .  .  .  .  .  .  .  .  .  .  .  .  .  .  .  .  .  .  .  .  .  .  .  .  .  .  .  .  .  .  .  .  .  .  .  .  .  .  .  .  .  .  .  .  .  .  .  .  .  .  .  .  .  .  .  .  .  .  .                                                                                                                                                                                                                                                                                                     ",
".  .  .  .  .  .  .  .  .  .  .  .  .  .  .  .  .  .  .  .  .  .  .  .  .  .  .  .  .  .  .  .  .  .  .  .  .  .  .  .  .  .  .  .  .  .  .  .  .  .  .  .  .  .  .  .  .  .  .  .  .  .  .  .  .  .  .  .  .  =  T# t'.c}.d}.e}.f}.N. W+ wg X+ '@ '@ '@ s. W+ W+ W+ s. N. (s (s (s (s (s (s (s `d W+ W+ W+ W+ (s (s (s V+ W+ W+ N. N7 u(.#_ X/ <# G!.g}.(s (s (s c'.d'.X/ X/ <# <# <# <# Ro M. s. (s N. e).k(.X/ X/ v* v* sN l: h}.i}.d% '# '# '# '# '# '# '# '# '# '# '# '# '# '# /$ G].H].X+ '@ '@ '@ '@ '@ Hn j}.Ju '# '# '# '# '# '# '# '# '# '# '# '# '# '# '# x<.g+ N. '@ '@ '@ '@ '@ '@ '@ '@ '@ '@ '@ '@ '@ '@ '@ s. W+ W+ W+ W+ W+ W+ W+ W+ W+ W+ W+ W+ W+ W+ W+ W+ W+ W+ W+ W+ W+ W+ W+ W+ W+ W+ W+ W+ X+ Ih 2x I].e% e% D+ N# '# D+ ;& h).O'.'@ k}.l}.m}.n}.o}.p}.3. .  .  .  .  .  .  .  .  .  .  .  .  .  .  .  .  .  .  .  .  .  .  .  .  .  .  .  .  .  .  .  .  .  .  .  .  .  .  .  .  .  .  .  .  .  .  .  .  .  .  .  .  .  .  .  .  .  .  .  .  .  .  .  .  .  .  .  .                                                                                                                                                                                                                                                                                                     ",
".  .  .  .  .  .  .  .  .  .  .  .  .  .  .  .  .  .  .  .  .  .  .  .  .  .  .  .  .  .  .  .  .  .  .  .  .  .  .  .  .  .  .  .  .  .  .  .  .  .  .  .  .  .  .  .  .  .  .  .  .  .  .  .  .  .  .  .  .  .  .  .  .  q}.r}.f}.N. W+ W+ W+ W+ W+ W+ W+ W+ W+ W+ W+ W+ W+ W+ W+ W+ W+ W+ W+ W+ W+ W+ W+ W+ W+ W+ W+ W+ W+ W+ X+ $l u(.2< <# <# ve x'.N. W+ J+ K'.Q# p. <# <# <# <# <# Ro M. `d W+ N. e).k(.p. <# <# <# <# <# ',.s}.t}.'# '# '# '# '# '# '# '# '# '# '# '# '# '# !# G].`].X+ W+ W+ W+ W+ X+ 0#..e Ju '# '# '# '# '# '# '# '# '# '# '# '# '# '# m# s!.rU N. W+ W+ W+ W+ W+ W+ W+ W+ W+ W+ W+ W+ W+ W+ W+ W+ W+ W+ W+ W+ W+ W+ W+ W+ W+ W+ W+ W+ W+ W+ W+ W+ W+ W+ W+ W+ W+ W+ W+ W+ W+ W+ W+ W+ '@ 0#..e kP D+ D+ '# '# '# D+ ;& h'.u}.)+ YM v}.w}.t_ .  .  .  .  .  .  .  .  .  .  .  .  .  .  .  .  .  .  .  .  .  .  .  .  .  .  .  .  .  .  .  .  .  .  .  .  .  .  .  .  .  .  .  .  .  .  .  .  .  .  .  .  .  .  .  .  .  .  .  .  .  .  .  .  .  .  .  .  .  .  .                                                                                                                                                                                                                                                                                                     ",
".  .  .  .  .  .  .  .  .  .  .  .  .  .  .  .  .  .  .  .  .  .  .  .  .  .  .  .  .  .  .  .  .  .  .  .  .  .  .  .  .  .  .  .  .  .  .  .  .  .  .  .  .  .  .  .  .  .  .  .  .  .  .  .  .  .  .  .  .  .  .  .  .  x}.y}.z}.W+ `d X+ '@ W+ W+ W+ W+ W+ W+ W+ W+ W+ W+ W+ W+ W+ W+ W+ W+ W+ W+ W+ W+ W+ W+ W+ W+ W+ W+ W+ X+ $l u(.*6 X/ <# |Y A}.N. W+ J+ K'.d'.X/ X/ X/ X/ X/ <# B}.M. `d W+ N. e).k(.X/ X/ X/ X/ X/ <# CG C}.@,.D+ D+ D+ D+ D+ D+ D+ D+ D+ D+ )# N# '# '# N# ^# H].I+ '@ '@ '@ '@ '@ bo j}.Ju '# '# D+ )# D+ D+ D+ D+ D+ D+ D+ D+ D+ D+ D+ X-.rU N. W+ W+ W+ W+ W+ W+ W+ W+ W+ W+ W+ W+ W+ W+ W+ W+ W+ W+ W+ W+ W+ W+ W+ W+ wg X+ '@ '@ '@ '@ '@ '@ '@ I+ W+ W+ W+ wg X+ '@ '@ t. W+ W+ X+ Ih 2x I].)# D+ D+ D+ D+ D+ &) h'.D}.''.E}.F}.G}.H}..  .  .  .  .  .  .  .  .  .  .  .  .  .  .  .  .  .  .  .  .  .  .  .  .  .  .  .  .  .  .  .  .  .  .  .  .  .  .  .  .  .  .  .  .  .  .  .  .  .  .  .  .  .  .  .  .  .  .  .  .  .  .  .  .  .  .  .  .  .  .                                                                                                                                                                                                                                                                                                     ",
".  .  .  .  .  .  .  .  .  .  .  .  .  .  .  .  .  .  .  .  .  .  .  .  .  .  .  .  .  .  .  .  .  .  .  .  .  .  .  .  .  .  .  .  .  .  .  .  .  .  .  .  .  .  .  .  .  .  .  .  .  .  .  .  .  .  .  .  .  .  .  .  .  I}.J}.K}.L}.M}.N}.O}.Wd W+ W+ W+ W+ W+ W+ W+ W+ W+ W+ W+ W+ W+ W+ W+ W+ W+ W+ W+ W+ W+ W+ W+ W+ W+ W+ W+ M+ E;.P}./m /m Q}.3$.s. W+ M+ 4$.R}./m /m /m /m /m /m Q}.S}.s. W+ wg :}.T}./m /m /m /m /m ml U}.V}.W}.X}.X}.X}.X}.X}.X}.X}.X}.X}.Y}.Z}.`}.d% '# '#  |..|.|m |m |m |m |m |m [<.+|.)$ '# D+ @|.#|.X}.X}.X}.X}.X}.X}.X}.X}.X}.X}.$|.%|.&|.N. W+ W+ W+ W+ W+ W+ W+ W+ W+ W+ W+ W+ W+ W+ W+ W+ W+ W+ W+ W+ W+ W+ W+ W+ *|.=|.-|.|m |m |m |m |m ;|.>|.T,.W+ W+ ,|.'|.-|.zO )|.!|.W+ W+ Qf ~|.{|.X}.X}.X}.X}.X}.X}.]|.^|./|.(|._|.:|.<|.9  .  .  .  .  .  .  .  .  .  .  .  .  .  .  .  .  .  .  .  .  .  .  .  .  .  .  .  .  .  .  .  .  .  .  .  .  .  .  .  .  .  .  .  .  .  .  .  .  .  .  .  .  .  .  .  .  .  .  .  .  .  .  .  .  .  .  .  .  .  .  .                                                                                                                                                                                                                                                                                                     ",
".  .  .  .  .  .  .  .  .  .  .  .  .  .  .  .  .  .  .  .  .  .  .  .  .  .  .  .  .  .  .  .  .  .  .  .  .  .  .  .  .  .  .  .  .  .  .  .  .  .  .  .  .  .  .  .  .  .  .  .  .  .  .  .  .  .  .  .  .  .  .  .  .  =  t% Z  [|.u-.}|.5m 6m W+ W+ W+ W+ W+ W+ W+ W+ W+ W+ W+ W+ W+ W+ W+ W+ W+ W+ W+ W+ W+ W+ W+ W+ W+ W+ W+ W+ N. N. (s (s N. s. W+ W+ W+ N. (s (s (s (s (s (s (s N. s. W+ W+ W+ N. (s (s (s (s (s (s N. N. '@ '@ '@ '@ '@ '@ '@ '@ '@ '@ '@ a% ||.9e +e '# '# D+ e% e% e% e% e% e% e% '# '# '# '# '# O!.1|.N. '@ '@ '@ '@ '@ '@ '@ '@ '@ '@ wg W+ W+ W+ W+ W+ W+ W+ W+ W+ W+ W+ W+ W+ W+ W+ W+ W+ W+ W+ W+ W+ W+ W+ W+ W+ wg 2|.3|.e% e% e% e% e% e% aM UM VM W+ s. q/.b/.!$ #} Fu Gu I+ W+ W+ '@ '@ '@ '@ '@ '@ '@ X+ 4|.5|.6|.7|.8|.U/ =  .  .  .  .  .  .  .  .  .  .  .  .  .  .  .  .  .  .  .  .  .  .  .  .  .  .  .  .  .  .  .  .  .  .  .  .  .  .  .  .  .  .  .  .  .  .  .  .  .  .  .  .  .  .  .  .  .  .  .  .  .  .  .  .  .  .  .  .  .  .  .  .                                                                                                                                                                                                                                                                                                     ",
".  .  .  .  .  .  .  .  .  .  .  .  .  .  .  .  .  .  .  .  .  .  .  .  .  .  .  .  .  .  .  .  .  .  .  .  .  .  .  .  .  .  .  .  .  .  .  .  .  .  .  .  .  .  .  .  .  .  .  .  .  .  .  .  .  .  .  .  .  .  .  .  .  .  .  .  .  9|.;= 0|.6m W+ W+ W+ W+ W+ W+ W+ W+ W+ W+ W+ W+ W+ W+ W+ W+ W+ W+ W+ W+ W+ W+ W+ W+ W+ W+ W+ W+ W+ W+ W+ W+ W+ W+ W+ W+ W+ W+ W+ W+ W+ W+ W+ W+ W+ W+ W+ W+ W+ W+ W+ W+ W+ W+ W+ W+ W+ W+ W+ W+ W+ W+ W+ W+ W+ W+ W+ W+ W+ W+ '@ ||.9e +e '# '# '# '# '# '# '# '# '# '# '# '# '# '# '# O!.1|.N. W+ W+ W+ W+ W+ W+ W+ W+ W+ W+ W+ W+ W+ W+ W+ W+ W+ W+ W+ W+ W+ W+ W+ W+ W+ W+ W+ W+ W+ W+ W+ W+ W+ W+ W+ W+ wg 2|.a|.!$ '# '# '# '# e% -:.UM VM W+ s. q/.b/.!$ P^ Fu Gu I+ W+ W+ W+ W+ W+ W+ W+ N. N. O. r/.b|.c|.d|..  .  .  .  .  .  .  .  .  .  .  .  .  .  .  .  .  .  .  .  .  .  .  .  .  .  .  .  .  .  .  .  .  .  .  .  .  .  .  .  .  .  .  .  .  .  .  .  .  .  .  .  .  .  .  .  .  .  .  .  .  .  .  .  .  .  .  .  .  .  .  .  .  .  .                                                                                                                                                                                                                                                                                                     ",
".  .  .  .  .  .  .  .  .  .  .  .  .  .  .  .  .  .  .  .  .  .  .  .  .  .  .  .  .  .  .  .  .  .  .  .  .  .  .  .  .  .  .  .  .  .  .  .  .  .  .  .  .  .  .  .  .  .  .  .  .  .  .  .  .  .  .  .  .  .  .  .  .  .  .  .  .  e|.f|.g|.6m s. W+ W+ wg '@ '@ Wd N. W+ W+ W+ W+ W+ W+ W+ W+ W+ W+ W+ W+ W+ W+ W+ W+ W+ W+ W+ W+ W+ W+ W+ W+ W+ W+ W+ W+ W+ W+ W+ W+ W+ W+ W+ W+ W+ W+ W+ W+ W+ W+ W+ W+ W+ W+ '@ '@ '@ '@ '@ '@ '@ '@ '@ '@ '@ '@ '@ '@ '@ '@ a% h|.9e +e e% e% e% e% e% e% e% e% e% e% e% e% e% e% )# D!.1|.N. W+ W+ W+ W+ W+ W+ W+ W+ W+ W+ W+ W+ W+ W+ W+ W+ W+ W+ W+ W+ W+ W+ W+ W+ W+ W+ W+ W+ '@ '@ '@ '@ '@ '@ '@ 0% j+ 2|.a|.!$ '# e% e% e% e% EV UM VM W+ s. q/.b/.eR m< #v Gu I+ W+ W+ W+ W+ W+ W+ W+ W+ K+ M+ i|.j|.k|.l|..  .  .  .  .  .  .  .  .  .  .  .  .  .  .  .  .  .  .  .  .  .  .  .  .  .  .  .  .  .  .  .  .  .  .  .  .  .  .  .  .  .  .  .  .  .  .  .  .  .  .  .  .  .  .  .  .  .  .  .  .  .  .  .  .  .  .  .  .  .  .  .  .  .  .                                                                                                                                                                                                                                                                                                     ",
".  .  .  .  .  .  .  .  .  .  .  .  .  .  .  .  .  .  .  .  .  .  .  .  .  .  .  .  .  .  .  .  .  .  .  .  .  .  .  .  .  .  .  .  .  .  .  .  .  .  .  .  .  .  .  .  .  .  .  .  .  .  .  .  .  .  .  .  .  .  .  .  .  .  .  .  .  m|.n|.o|.([.n+ n+ n+ p|.q|.r|.s|.9% W+ W+ W+ W+ W+ W+ W+ W+ W+ W+ W+ W+ W+ W+ W+ W+ W+ W+ W+ W+ W+ W+ W+ W+ W+ W+ W+ W+ W+ W+ W+ W+ W+ W+ W+ W+ W+ W+ W+ W+ W+ W+ W+ W+ W+ W+ N7 k/.k/.k/.k/.k/.k/.k/.k/.k/.k/.k/.k/.k/.k/.k/.C/ t|.u|.v|.V%.V%.V%.V%.V%.V%.V%.V%.V%.V%.V%.V%.V%.V%.w|.x|.`].N. W+ W+ W+ W+ W+ W+ W+ W+ W+ W+ W+ W+ W+ W+ W+ W+ W+ W+ W+ W+ W+ W+ W+ W+ W+ W+ W+ W+ N7 k/.k/.k/.k/.k/.k/.k/.y|.z|.3|.!$ '# a* V%.V%.V%.A|.5(.VM W+ wg B|.C|.Mh .,.U@.@S I+ W+ N. H^ l+ D|.E|.F|.G|.H|.G|.I|.J|.K|.Z, .  .  .  .  .  .  .  .  .  .  .  .  .  .  .  .  .  .  .  .  .  .  .  .  .  .  .  .  .  .  .  .  .  .  .  .  .  .  .  .  .  .  .  .  .  .  .  .  .  .  .  .  .  .  .  .  .  .  .  .  .  .  .  .  .  .  .  .  .  .  .  .  .  .  .                                                                                                                                                                                                                                                                                                     ",
".  .  .  .  .  .  .  .  .  .  .  .  .  .  .  .  .  .  .  .  .  .  .  .  .  .  .  .  .  .  .  .  .  .  .  .  .  .  .  .  .  .  .  .  .  .  .  .  .  .  .  .  .  .  .  .  .  .  .  .  .  .  .  .  .  .  .  .  .  .  .  .  .  .  .  .  .  .  T. L|.M|.N|.N|.O|.P|.Q|.R|.S|.T|.Y'.N. W+ W+ W+ W+ W+ W+ W+ W+ W+ W+ W+ W+ W+ W+ W+ W+ W+ W+ W+ W+ W+ W+ W+ W+ W+ W+ W+ W+ W+ W+ W+ W+ W+ W+ W+ W+ W+ W+ W+ W+ W+ W+ wg L+ U|.V|.T) g#.g#.g#.g#.g#.g#.g#.g#.g#.g#.g#.g#.g#.g#.W|.X|.Y|.N7 N7 N7 N7 N7 N7 N7 N7 N7 N7 N7 N7 N7 N7 N7 Z|.,@ W+ W+ W+ W+ W+ W+ W+ W+ W+ W+ W+ W+ W+ W+ W+ W+ W+ W+ W+ W+ W+ W+ W+ W+ W+ W+ W+ W+ J+ U|.`|.T) g#.g#.g#.g#.g#.g#.]# !$ D+ #} xe  1..1.N7 i(.G+ W+ W+ W+ |x N7 N7 N7 9#.N. W+ Y+ +1.@1.#1.$1.%1.&1.&1.&1.&1..< a  .  .  .  .  .  .  .  .  .  .  .  .  .  .  .  .  .  .  .  .  .  .  .  .  .  .  .  .  .  .  .  .  .  .  .  .  .  .  .  .  .  .  .  .  .  .  .  .  .  .  .  .  .  .  .  .  .  .  .  .  .  .  .  .  .  .  .  .  .  .  .  .  .  .  .  .  .                                                                                                                                                                                                                                                                                                     ",
".  .  .  .  .  .  .  .  .  .  .  .  .  .  .  .  .  .  .  .  .  .  .  .  .  .  .  .  .  .  .  .  .  .  .  .  .  .  .  .  .  .  .  .  .  .  .  .  .  .  .  .  .  .  .  .  .  .  .  .  .  .  .  .  .  .  .  .  .  .  .  .  .  .  .  .  .  .  .  .  .  .  .  .  -9 *1.=1.-1.;1.Y'.N. W+ W+ W+ W+ W+ W+ W+ W+ W+ W+ W+ W+ W+ W+ W+ W+ W+ W+ W+ W+ W+ W+ W+ W+ W+ W+ W+ W+ W+ W+ W+ W+ W+ W+ W+ W+ W+ W+ W+ W+ W+ W+ wg L+ `>.y>.e% e% e% e% e% e% e% e% e% e% e% e% e% e% Z( -:.>1.L_.X+ '@ '@ '@ '@ '@ '@ '@ '@ '@ '@ '@ '@ '@ '@ W+ W+ W+ W+ W+ W+ W+ W+ W+ W+ W+ W+ W+ W+ W+ W+ W+ W+ W+ W+ W+ W+ W+ W+ W+ W+ W+ W+ W+ wg J+ `>.y>.e% e% e% e% e% e% e% '# '# D+ #} 0e p/.X+ '@ wg W+ W+ W+ W+ wg '@ '@ '@ W+ W+ W+ W+ fM ,1.'1.9  .  .  .  .  .  .  .  .  .  .  .  .  .  .  .  .  .  .  .  .  .  .  .  .  .  .  .  .  .  .  .  .  .  .  .  .  .  .  .  .  .  .  .  .  .  .  .  .  .  .  .  .  .  .  .  .  .  .  .  .  .  .  .  .  .  .  .  .  .  .  .  .  .  .  .  .  .  .  .  .  .  .  .  .                                                                                                                                                                                                                                                                                                     ",
".  .  .  .  .  .  .  .  .  .  .  .  .  .  .  .  .  .  .  .  .  .  .  .  .  .  .  .  .  .  .  .  .  .  .  .  .  .  .  .  .  .  .  .  .  .  .  .  .  .  .  .  .  .  .  .  .  .  .  .  .  .  .  .  .  .  .  .  .  .  .  .  .  .  .  .  .  .  .  .  .  .  .  .  .  .  )1.!1.~1.Y'.N. W+ W+ W+ W+ W+ W+ W+ W+ W+ W+ W+ W+ W+ W+ W+ W+ W+ W+ W+ W+ W+ W+ W+ W+ W+ W+ W+ W+ W+ W+ W+ W+ W+ W+ W+ W+ W+ W+ W+ W+ W+ W+ wg L+ `>.aY N# '# '# '# '# '# '# '# '# '# '# '# '# '# e% A|.>1.VM W+ W+ W+ W+ W+ W+ W+ W+ W+ W+ W+ W+ W+ W+ W+ W+ W+ W+ W+ W+ W+ W+ W+ W+ W+ W+ W+ W+ W+ W+ W+ W+ W+ W+ W+ W+ W+ W+ W+ W+ W+ W+ W+ W+ wg J+ `>.aY N# '# '# '# '# '# '# '# '# D+ #} 0e p/.W+ W+ W+ W+ W+ W+ W+ W+ W+ W+ W+ W+ W+ W+ )+ k}.{1.]1.t% .  .  .  .  .  .  .  .  .  .  .  .  .  .  .  .  .  .  .  .  .  .  .  .  .  .  .  .  .  .  .  .  .  .  .  .  .  .  .  .  .  .  .  .  .  .  .  .  .  .  .  .  .  .  .  .  .  .  .  .  .  .  .  .  .  .  .  .  .  .  .  .  .  .  .  .  .  .  .  .  .  .  .  .                                                                                                                                                                                                                                                                                                     ",
".  .  .  .  .  .  .  .  .  .  .  .  .  .  .  .  .  .  .  .  .  .  .  .  .  .  .  .  .  .  .  .  .  .  .  .  .  .  .  .  .  .  .  .  .  .  .  .  .  .  .  .  .  .  .  .  .  .  .  .  .  .  .  .  .  .  .  .  .  .  .  .  .  .  .  .  .  .  .  .  .  .  .  .  .  .  !:.^1./1.(1.Wd Wd Wd Wd Wd W+ (s X+ '@ '@ wg W+ W+ W+ wg '@ '@ '@ '@ W+ W+ W+ W+ W+ W+ W+ W+ W+ W+ W+ W+ W+ W+ W+ W+ W+ W+ W+ W+ W+ W+ W+ W+ wg J+ `>.y>.e% e% e% e% e% e% e% e% e% e% e% e% e% e% e% -:.UM VM W+ W+ W+ W+ W+ W+ W+ W+ W+ W+ W+ W+ W+ W+ W+ W+ W+ W+ W+ W+ W+ W+ W+ W+ W+ W+ W+ W+ W+ W+ W+ W+ W+ W+ W+ W+ W+ W+ W+ W+ W+ W+ W+ W+ wg J+ `>.aY N# '# '# D+ e% e% D+ '# '# D+ #} 0e p/.W+ W+ W+ W+ W+ W+ W+ W+ W+ Wd Wd Wd Wd Wd Wd c&._1.:1.k  .  .  .  .  .  .  .  .  .  .  .  .  .  .  .  .  .  .  .  .  .  .  .  .  .  .  .  .  .  .  .  .  .  .  .  .  .  .  .  .  .  .  .  .  .  .  .  .  .  .  .  .  .  .  .  .  .  .  .  .  .  .  .  .  .  .  .  .  .  .  .  .  .  .  .  .  .  .  .  .  .  .  .  .                                                                                                                                                                                                                                                                                                     ",
".  .  .  .  .  .  .  .  .  .  .  .  .  .  .  .  .  .  .  .  .  .  .  .  .  .  .  .  .  .  .  .  .  .  .  .  .  .  .  .  .  .  .  .  .  .  .  .  .  .  .  .  .  .  .  .  .  .  .  .  .  .  .  .  .  .  .  .  .  .  .  .  .  .  .  .  .  .  .  .  .  .  .  .  .  .  t% <1.[1.}1.|1.11.21.11.u*.31.41.51.61.61.71.81.s. W+ h|.51.91.61.r@ 01.L_.W+ W+ W+ W+ W+ W+ W+ W+ W+ W+ W+ W+ W+ W+ W+ W+ W+ W+ W+ W+ W+ W+ W+ K+ a1.b1.c1.d1.d1.d1.d1.d1.d1.d1.d1.d1.d1.d1.d1.d1.d1.e1.>|.OA W+ W+ W+ W+ W+ W+ W+ W+ W+ W+ W+ W+ W+ W+ W+ W+ W+ W+ W+ W+ W+ W+ W+ W+ W+ W+ W+ W+ W+ W+ W+ W+ W+ W+ W+ W+ W+ W+ W+ W+ W+ W+ W+ W+ wg J+ `>.aY N# '# Dz f1.g1.d1.h1.i1.y_.)# #} 0e p/.W+ W+ W+ W+ W+ W+ wg j1.k1.l1.m1.|1.}1.}1.}1.n1.o1.p1.Y, .  .  .  .  .  .  .  .  .  .  .  .  .  .  .  .  .  .  .  .  .  .  .  .  .  .  .  .  .  .  .  .  .  .  .  .  .  .  .  .  .  .  .  .  .  .  .  .  .  .  .  .  .  .  .  .  .  .  .  .  .  .  .  .  .  .  .  .  .  .  .  .  .  .  .  .  .  .  .  .  .  .  .  .                                                                                                                                                                                                                                                                                                     ",
".  .  .  .  .  .  .  .  .  .  .  .  .  .  .  .  .  .  .  .  .  .  .  .  .  .  .  .  .  .  .  .  .  .  .  .  .  .  .  .  .  .  .  .  .  .  .  .  .  .  .  .  .  .  .  .  .  .  .  .  .  .  .  .  .  .  .  .  .  .  .  .  .  .  .  .  .  .  .  .  .  .  .  .  .  .  .  t% q1.r1.'=.s1.t1.u1.v1.w1.x1.y1.)# '# z1.{W ZE wg M'.A1.!# D+ B1.h).O'.W+ W+ W+ W+ W+ W+ W+ W+ W+ W+ W+ W+ W+ W+ W+ W+ W+ W+ W+ W+ W+ W+ W+ W+ s. X+ '@ '@ '@ '@ '@ '@ '@ '@ '@ '@ '@ '@ '@ '@ '@ wg W+ W+ W+ W+ W+ W+ W+ W+ W+ W+ W+ W+ W+ W+ W+ W+ W+ W+ W+ W+ W+ W+ W+ W+ W+ W+ W+ W+ W+ W+ W+ W+ W+ W+ W+ W+ W+ W+ W+ W+ W+ W+ W+ W+ W+ W+ wg J+ `>.aY N# '# C1.D1.E1.'@ O+ 2|.a|.eR #} 0e p/.W+ W+ W+ W+ W+ W+ j+ F1.G1.H1.I1.q1.r1.r1.J1.K1.L1.&v .  .  .  .  .  .  .  .  .  .  .  .  .  .  .  .  .  .  .  .  .  .  .  .  .  .  .  .  .  .  .  .  .  .  .  .  .  .  .  .  .  .  .  .  .  .  .  .  .  .  .  .  .  .  .  .  .  .  .  .  .  .  .  .  .  .  .  .  .  .  .  .  .  .  .  .  .  .  .  .  .  .  .  .  .                                                                                                                                                                                                                                                                                                     ",
".  .  .  .  .  .  .  .  .  .  .  .  .  .  .  .  .  .  .  .  .  .  .  .  .  .  .  .  .  .  .  .  .  .  .  .  .  .  .  .  .  .  .  .  .  .  .  .  .  .  .  .  .  .  .  .  .  .  .  .  .  .  .  .  .  .  .  .  .  .  .  .  .  .  .  .  .  .  .  .  .  .  .  .  .  .  .  .  .  .  .  .  .  .  .  M1.N1.O1.'# m# jW {W V+ wg P1.b/.!$ e% B1.Q1.O'.W+ W+ W+ W+ W+ W+ W+ W+ W+ W+ W+ W+ W+ W+ W+ W+ W+ W+ W+ W+ W+ W+ W+ W+ W+ W+ W+ W+ W+ W+ W+ W+ W+ W+ W+ W+ W+ W+ W+ W+ W+ W+ W+ W+ W+ W+ W+ W+ W+ W+ W+ W+ W+ W+ W+ W+ W+ W+ W+ W+ W+ W+ W+ W+ W+ W+ W+ W+ W+ W+ W+ W+ W+ W+ W+ W+ W+ W+ W+ W+ W+ W+ W+ W+ W+ W+ W+ W+ wg J+ `>.aY N# '# R1.S1.L_.wg wg 2|.a|.eR #} 0e p/.W+ W+ W+ W+ W+ (s ;h u# T1.6=..  .  .  .  .  .  .  .  .  .  .  .  .  .  .  .  .  .  .  .  .  .  .  .  .  .  .  .  .  .  .  .  .  .  .  .  .  .  .  .  .  .  .  .  .  .  .  .  .  .  .  .  .  .  .  .  .  .  .  .  .  .  .  .  .  .  .  .  .  .  .  .  .  .  .  .  .  .  .  .  .  .  .  .  .  .  .  .  .  .  .  .  .                                                                                                                                                                                                                                                                                                     ",
".  .  .  .  .  .  .  .  .  .  .  .  .  .  .  .  .  .  .  .  .  .  .  .  .  .  .  .  .  .  .  .  .  .  .  .  .  .  .  .  .  .  .  .  .  .  .  .  .  .  .  .  .  .  .  .  .  .  .  .  .  .  .  .  .  .  .  .  .  .  .  .  .  .  .  .  .  .  .  .  .  .  .  .  .  .  .  .  .  .  .  .  .  .  .  U1.V1.O1.D+ '# W1.{W V+ W+ P1.A1.)# e% X1.h).O'.W+ W+ W+ wg wg wg wg W+ W+ W+ W+ W+ W+ W+ W+ W+ W+ W+ W+ W+ W+ W+ W+ W+ W+ W+ W+ W+ W+ W+ W+ W+ W+ W+ W+ W+ W+ W+ W+ W+ W+ W+ W+ W+ W+ W+ W+ W+ W+ W+ W+ W+ W+ W+ W+ W+ W+ W+ W+ W+ W+ W+ W+ W+ W+ W+ W+ W+ W+ W+ W+ W+ W+ W+ W+ W+ W+ W+ W+ W+ W+ W+ W+ W+ W+ W+ W+ W+ wg J+ `>.aY D+ D+ EV S1.L_.W+ wg &X a|.z>.fR xe @S W+ M+ M+ M+ W+ W+ wg F1.Y1.Z1..  .  .  .  .  .  .  .  .  .  .  .  .  .  .  .  .  .  .  .  .  .  .  .  .  .  .  .  .  .  .  .  .  .  .  .  .  .  .  .  .  .  .  .  .  .  .  .  .  .  .  .  .  .  .  .  .  .  .  .  .  .  .  .  .  .  .  .  .  .  .  .  .  .  .  .  .  .  .  .  .  .  .  .  .  .  .  .  .  .  .  .  .                                                                                                                                                                                                                                                                                                     ",
".  .  .  .  .  .  .  .  .  .  .  .  .  .  .  .  .  .  .  .  .  .  .  .  .  .  .  .  .  .  .  .  .  .  .  .  .  .  .  .  .  .  .  .  .  .  .  .  .  .  .  .  .  .  .  .  .  .  .  .  .  .  .  .  .  .  .  .  .  .  .  .  .  .  .  .  .  .  .  .  .  .  .  .  .  .  .  .  .  .  .  .  .  .  .  `1. 2..2.+2.@2.#2.$2.#q W$.%2.&2.+2.+2.*2.=2.-2.t. W+ W+ W+ W+ W+ M+ _U W+ W+ W+ W+ W+ W+ W+ W+ W+ W+ W+ W+ W+ W+ W+ W+ W+ W+ W+ W+ W+ W+ W+ W+ W+ W+ W+ W+ W+ W+ W+ W+ W+ W+ W+ W+ W+ W+ W+ W+ W+ W+ W+ W+ W+ W+ W+ W+ W+ W+ W+ W+ W+ W+ W+ W+ W+ W+ W+ W+ W+ W+ W+ W+ W+ W+ W+ W+ W+ W+ W+ W+ W+ W+ W+ W+ W+ W+ W+ W+ wg J+ I(.;2.M# M# >2.S1.L_.W+ s. ,2.'2.Wp @2.)2.!2.~2.{2.{2.]2.]2.]2.W$.^2./2.Z1..  .  .  .  .  .  .  .  .  .  .  .  .  .  .  .  .  .  .  .  .  .  .  .  .  .  .  .  .  .  .  .  .  .  .  .  .  .  .  .  .  .  .  .  .  .  .  .  .  .  .  .  .  .  .  .  .  .  .  .  .  .  .  .  .  .  .  .  .  .  .  .  .  .  .  .  .  .  .  .  .  .  .  .  .  .  .  .  .  .  .  .  .                                                                                                                                                                                                                                                                                                     ",
".  .  .  .  .  .  .  .  .  .  .  .  .  .  .  .  .  .  .  .  .  .  .  .  .  .  .  .  .  .  .  .  .  .  .  .  .  .  .  .  .  .  .  .  .  .  .  .  .  .  .  .  .  .  .  .  .  .  .  .  .  .  .  .  .  .  .  .  .  .  .  .  .  .  .  .  .  .  .  .  .  .  .  .  .  .  .  .  .  .  .  .  .  .  .  a$ (2._2.:2.<2.[2.}2.|2.12.22.32.:2.42.52.62.72.wg X+ 82.92.02.a2.b2.c2.d2.W+ W+ W+ W+ W+ W+ W+ W+ W+ W+ W+ W+ W+ W+ W+ W+ W+ W+ W+ W+ W+ W+ W+ W+ W+ W+ W+ W+ W+ W+ W+ W+ W+ W+ W+ W+ W+ W+ W+ W+ W+ W+ W+ W+ W+ W+ W+ W+ W+ W+ W+ W+ W+ W+ W+ W+ W+ W+ W+ W+ W+ W+ W+ W+ W+ W+ W+ W+ W+ W+ W+ W+ W+ W+ W+ W+ W+ W+ W+ W+ W+ zr J;.e2.K;.r-.f2.s. Wd g2.h2.i2.j2.k2.l2.m2.m2.n2.m2.m2.m2.m2.o2.p2.q2.0$ .  .  .  .  .  .  .  .  .  .  .  .  .  .  .  .  .  .  .  .  .  .  .  .  .  .  .  .  .  .  .  .  .  .  .  .  .  .  .  .  .  .  .  .  .  .  .  .  .  .  .  .  .  .  .  .  .  .  .  .  .  .  .  .  .  .  .  .  .  .  .  .  .  .  .  .  .  .  .  .  .  .  .  .  .  .  .  .  .  .  .  .  .                                                                                                                                                                                                                                                                                                     ",
".  .  .  .  .  .  .  .  .  .  .  .  .  .  .  .  .  .  .  .  .  .  .  .  .  .  .  .  .  .  .  .  .  .  .  .  .  .  .  .  .  .  .  .  .  .  .  .  .  .  .  .  .  .  .  .  .  .  .  .  .  .  .  .  .  .  .  .  .  .  .  .  .  .  .  .  .  .  .  .  .  .  .  .  .  .  .  .  .  .  .  .  .  .  .  .  .  =  =  =  =  =  =  =  =  =  =  .  .< r2.O}.X+ N. ,|.|g N$ D+ M# #v Gu X+ W+ W+ W+ W+ W+ W+ W+ W+ W+ W+ W+ W+ W+ W+ W+ W+ W+ W+ W+ W+ W+ W+ W+ W+ W+ W+ W+ W+ W+ W+ W+ W+ W+ W+ W+ W+ W+ W+ W+ W+ W+ W+ W+ W+ W+ W+ W+ W+ W+ W+ W+ W+ W+ W+ W+ W+ W+ W+ W+ W+ W+ W+ W+ W+ W+ W+ W+ W+ W+ W+ W+ W+ W+ W+ W+ W+ W+ W+ W+ W+ '@ '@ '@ '@ '@ W+ W+ W+ j+ s2.t2.u2..  =  =  =  =  =  =  =  =  =  =  =  .  .  .  .  .  .  .  .  .  .  .  .  .  .  .  .  .  .  .  .  .  .  .  .  .  .  .  .  .  .  .  .  .  .  .  .  .  .  .  .  .  .  .  .  .  .  .  .  .  .  .  .  .  .  .  .  .  .  .  .  .  .  .  .  .  .  .  .  .  .  .  .  .  .  .  .  .  .  .  .  .  .  .  .  .  .  .  .  .  .  .  .  .  .                                                                                                                                                                                                                                                                                                     ",
".  .  .  .  .  .  .  .  .  .  .  .  .  .  .  .  .  .  .  .  .  .  .  .  .  .  .  .  .  .  .  .  .  .  .  .  .  .  .  .  .  .  .  .  .  .  .  .  .  .  .  .  .  .  .  .  .  .  .  .  .  .  .  .  .  .  .  .  .  .  .  .  .  .  .  .  .  .  .  .  .  .  .  .  .  .  .  .  .  .  .  .  .  .  .  .  .  .  .  .  .  .  .  .  .  .  .  .  v2.w2.x2.wg N. ,|.,h Cm y2.N# u<.}x L+ s. s. W+ W+ W+ W+ W+ W+ W+ W+ W+ W+ W+ W+ W+ W+ W+ W+ W+ W+ W+ W+ W+ W+ W+ W+ W+ W+ W+ W+ W+ W+ W+ W+ W+ W+ W+ W+ W+ W+ W+ W+ W+ W+ W+ W+ W+ W+ W+ W+ W+ W+ W+ W+ W+ W+ W+ W+ W+ W+ W+ W+ W+ W+ W+ W+ W+ W+ W+ W+ W+ W+ N. X+ '@ wg W+ s. W+ W+ W+ W+ W+ W+ s. N. W+ s. j+ z2.A2.B2..  .  .  .  .  .  .  .  .  .  .  .  .  .  .  .  .  .  .  .  .  .  .  .  .  .  .  .  .  .  .  .  .  .  .  .  .  .  .  .  .  .  .  .  .  .  .  .  .  .  .  .  .  .  .  .  .  .  .  .  .  .  .  .  .  .  .  .  .  .  .  .  .  .  .  .  .  .  .  .  .  .  .  .  .  .  .  .  .  .  .  .  .  .  .  .  .  .  .  .  .  .  .  .  .  .                                                                                                                                                                                                                                                                                                     ",
".  .  .  .  .  .  .  .  .  .  .  .  .  .  .  .  .  .  .  .  .  .  .  .  .  .  .  .  .  .  .  .  .  .  .  .  .  .  .  .  .  .  .  .  .  .  .  .  .  .  .  .  .  .  .  .  .  .  .  .  .  .  .  .  .  .  .  .  .  .  .  .  .  .  .  .  .  .  .  .  .  .  .  .  .  .  .  .  .  .  .  .  .  .  .  .  .  .  .  .  .  .  .  .  .  .  .  .  C2.D2.I|.E2.F2.G2.H2.I2.J2.K2.L2.M2.N2.O2.P2.J+ W+ W+ W+ W+ W+ W+ W+ W+ W+ W+ W+ W+ W+ W+ W+ W+ W+ W+ W+ W+ W+ W+ W+ W+ W+ W+ W+ W+ W+ W+ W+ W+ W+ W+ W+ W+ W+ W+ W+ W+ W+ W+ W+ W+ W+ W+ W+ W+ W+ W+ W+ W+ W+ W+ W+ W+ W+ W+ W+ W+ W+ W+ W+ W+ W+ W+ W+ N. M+ N7 $l $l fk S9 Q2.Q2.Q2.Q2.Q2.R2.R2.([.l+ Q2.Q2.R2.S2.T2.U2..  .  .  .  .  .  .  .  .  .  .  .  .  .  .  .  .  .  .  .  .  .  .  .  .  .  .  .  .  .  .  .  .  .  .  .  .  .  .  .  .  .  .  .  .  .  .  .  .  .  .  .  .  .  .  .  .  .  .  .  .  .  .  .  .  .  .  .  .  .  .  .  .  .  .  .  .  .  .  .  .  .  .  .  .  .  .  .  .  .  .  .  .  .  .  .  .  .  .  .  .  .  .  .  .  .                                                                                                                                                                                                                                                                                                     ",
".  .  .  .  .  .  .  .  .  .  .  .  .  .  .  .  .  .  .  .  .  .  .  .  .  .  .  .  .  .  .  .  .  .  .  .  .  .  .  .  .  .  .  .  .  .  .  .  .  .  .  .  .  .  .  .  .  .  .  .  .  .  .  .  .  .  .  .  .  .  .  .  .  .  .  .  .  .  .  .  .  .  .  .  .  .  .  .  .  .  .  .  .  .  .  .  .  .  .  .  .  .  .  .  .  .  .  .  =  *).V2.W2.W2.X2.Y2.Z2.Z2.Z2.`2. 3..3.+3.@3.#3.'@ W+ W+ W+ W+ W+ W+ W+ W+ W+ W+ W+ W+ W+ W+ W+ W+ W+ W+ W+ W+ W+ W+ W+ W+ W+ W+ W+ W+ W+ W+ W+ W+ W+ W+ W+ W+ W+ W+ W+ W+ W+ W+ W+ W+ W+ W+ W+ W+ W+ W+ W+ W+ W+ W+ W+ W+ W+ W+ W+ W+ W+ W+ W+ W+ W+ W+ X+ a .$3.*2.e+ %3.&3.*3..3.=3.=3.=3.=3.-3.=3.=3.=3.;3.M|.>3.,3.=  .  .  .  .  .  .  .  .  .  .  .  .  .  .  .  .  .  .  .  .  .  .  .  .  .  .  .  .  .  .  .  .  .  .  .  .  .  .  .  .  .  .  .  .  .  .  .  .  .  .  .  .  .  .  .  .  .  .  .  .  .  .  .  .  .  .  .  .  .  .  .  .  .  .  .  .  .  .  .  .  .  .  .  .  .  .  .  .  .  .  .  .  .  .  .  .  .  .  .  .  .  .  .  .  .  .                                                                                                                                                                                                                                                                                                     ",
".  .  .  .  .  .  .  .  .  .  .  .  .  .  .  .  .  .  .  .  .  .  .  .  .  .  .  .  .  .  .  .  .  .  .  .  .  .  .  .  .  .  .  .  .  .  .  .  .  .  .  .  .  .  .  .  .  .  .  .  .  .  .  .  .  .  .  .  .  .  .  .  .  .  .  .  .  .  .  .  .  .  .  .  .  .  .  .  .  .  .  .  .  .  .  .  .  .  .  .  .  .  .  .  .  .  .  .  .  .  .  .  .  .  .  .  .  .  .  .  .  `1.'3.)3.'@ W+ W+ W+ W+ W+ W+ W+ W+ W+ W+ W+ W+ W+ W+ W+ W+ W+ W+ W+ W+ W+ W+ W+ W+ W+ W+ W+ W+ W+ W+ W+ W+ W+ W+ W+ W+ W+ W+ W+ W+ W+ W+ W+ W+ W+ W+ W+ W+ W+ W+ W+ W+ W+ W+ W+ W+ W+ W+ W+ W+ W+ W+ W+ W+ W+ W+ X+ I% c% !3.'# ($ ~3.{3..  .  .  .  .  .  .  .  .  .  .  .  .  .  .  .  .  .  .  .  .  .  .  .  .  .  .  .  .  .  .  .  .  .  .  .  .  .  .  .  .  .  .  .  .  .  .  .  .  .  .  .  .  .  .  .  .  .  .  .  .  .  .  .  .  .  .  .  .  .  .  .  .  .  .  .  .  .  .  .  .  .  .  .  .  .  .  .  .  .  .  .  .  .  .  .  .  .  .  .  .  .  .  .  .  .  .  .  .  .  .  .  .  .  .  .  .  .  .  .                                                                                                                                                                                                                                                                                                     ",
".  .  .  .  .  .  .  .  .  .  .  .  .  .  .  .  .  .  .  .  .  .  .  .  .  .  .  .  .  .  .  .  .  .  .  .  .  .  .  .  .  .  .  .  .  .  .  .  .  .  .  .  .  .  .  .  .  .  .  .  .  .  .  .  .  .  .  .  .  .  .  .  .  .  .  .  .  .  .  .  .  .  .  .  .  .  .  .  .  .  .  .  .  .  .  .  .  .  .  .  .  .  .  .  .  .  .  .  .  .  .  .  .  .  .  .  .  .  .  .  .  ]3.^3.)3.'@ W+ W+ W+ W+ W+ W+ W+ W+ W+ W+ W+ W+ W+ W+ W+ W+ W+ W+ W+ W+ W+ W+ W+ W+ W+ W+ W+ W+ W+ W+ W+ W+ W+ W+ W+ W+ W+ W+ W+ W+ W+ W+ W+ W+ W+ W+ W+ W+ W+ W+ W+ W+ W+ W+ W+ W+ W+ W+ W+ W+ W+ W+ W+ W+ W+ W+ '@ I% c% d% m# ($ /3.(3..  .  .  .  .  .  .  .  .  .  .  .  .  .  .  .  .  .  .  .  .  .  .  .  .  .  .  .  .  .  .  .  .  .  .  .  .  .  .  .  .  .  .  .  .  .  .  .  .  .  .  .  .  .  .  .  .  .  .  .  .  .  .  .  .  .  .  .  .  .  .  .  .  .  .  .  .  .  .  .  .  .  .  .  .  .  .  .  .  .  .  .  .  .  .  .  .  .  .  .  .  .  .  .  .  .  .  .  .  .  .  .  .  .  .  .  .  .  .  .                                                                                                                                                                                                                                                                                                     ",
".  .  .  .  .  .  .  .  .  .  .  .  .  .  .  .  .  .  .  .  .  .  .  .  .  .  .  .  .  .  .  .  .  .  .  .  .  .  .  .  .  .  .  .  .  .  .  .  .  .  .  .  .  .  .  .  .  .  .  .  .  .  .  .  .  .  .  .  .  .  .  .  .  .  .  .  .  .  .  .  .  .  .  .  .  .  .  .  .  .  .  .  .  .  .  .  .  .  .  .  .  .  .  .  .  .  .  .  .  .  .  .  .  .  .  .  .  .  .  .  .  _3.:3.<3.(# Wd Wd L+ |x L+ Wd W+ W+ W+ Wd |x |x |x |x |x |x |x |x |x |x |x |x |x |x |x |x |x |x |x |x |x |x |x |x |x |x |x |x |x |x |x |x |x |x |x |x |x |x |x |x |x |x |x |x |x |x W+ W+ W+ W+ W+ W+ Yd W+ t. [3.Yd I% }3.d% |3.13.23.33..  .  .  .  .  .  .  .  .  .  .  .  .  .  .  .  .  .  .  .  .  .  .  .  .  .  .  .  .  .  .  .  .  .  .  .  .  .  .  .  .  .  .  .  .  .  .  .  .  .  .  .  .  .  .  .  .  .  .  .  .  .  .  .  .  .  .  .  .  .  .  .  .  .  .  .  .  .  .  .  .  .  .  .  .  .  .  .  .  .  .  .  .  .  .  .  .  .  .  .  .  .  .  .  .  .  .  .  .  .  .  .  .  .  .  .  .  .  .  .                                                                                                                                                                                                                                                                                                     ",
".  .  .  .  .  .  .  .  .  .  .  .  .  .  .  .  .  .  .  .  .  .  .  .  .  .  .  .  .  .  .  .  .  .  .  .  .  .  .  .  .  .  .  .  .  .  .  .  .  .  .  .  .  .  .  .  .  .  .  .  .  .  .  .  .  .  .  .  .  .  .  .  .  .  .  .  .  .  .  .  .  .  .  .  .  .  .  .  .  .  .  .  .  .  .  .  .  .  .  .  .  .  .  .  .  .  .  .  .  .  .  .  .  .  .  .  .  .  .  .  .  .  43.53.63.73.83.83.83.83.83.83.83.83.83.83.83.83.83.83.83.83.83.83.83.83.83.93.83.93.93.83.83.83.83.83.83.83.83.83.83.83.83.83.83.83.83.u*.83.u*.u*.83.03.83.83.03.83.03.03.83.03.03.03.03.03.03.03.a3.b3.c3.d3.e3.f3.g3.h3.i3.j3.o1.k3..  .  .  .  .  .  .  .  .  .  .  .  .  .  .  .  .  .  .  .  .  .  .  .  .  .  .  .  .  .  .  .  .  .  .  .  .  .  .  .  .  .  .  .  .  .  .  .  .  .  .  .  .  .  .  .  .  .  .  .  .  .  .  .  .  .  .  .  .  .  .  .  .  .  .  .  .  .  .  .  .  .  .  .  .  .  .  .  .  .  .  .  .  .  .  .  .  .  .  .  .  .  .  .  .  .  .  .  .  .  .  .  .  .  .  .  .  .  .  .                                                                                                                                                                                                                                                                                                     ",
".  .  .  .  .  .  .  .  .  .  .  .  .  .  .  .  .  .  .  .  .  .  .  .  .  .  .  .  .  .  .  .  .  .  .  .  .  .  .  .  .  .  .  .  .  .  .  .  .  .  .  .  .  .  .  .  .  .  .  .  .  .  .  .  .  .  .  .  .  .  .  .  .  .  .  .  .  .  .  .  .  .  .  .  .  .  .  .  .  .  .  .  .  .  .  .  .  .  .  .  .  .  .  .  .  .  .  .  .  .  .  .  .  .  .  .  .  .  .  .  .  .  3. t( l3.m3.n3.n3.n3.n3.n3.n3.n3.n3.n3.n3.n3.n3.n3.n3.n3.n3.n3.n3.n3.n3.n3.6> J1.6> 6> J1.n3.n3.n3.n3.n3.n3.n3.n3.n3.n3.n3.n3.n3.n3.n3.o3.'=.o3.o3.'=.o3.h/.'=.m3.)1.p3.m3.)1.p3.p3.p3.p3.p3.p3.p3.b}.p3.q3.b}.b}.e|.3m r3.r3.S. s3..  .  .  .  .  .  .  .  .  .  .  .  .  .  .  .  .  .  .  .  .  .  .  .  .  .  .  .  .  .  .  .  .  .  .  .  .  .  .  .  .  .  .  .  .  .  .  .  .  .  .  .  .  .  .  .  .  .  .  .  .  .  .  .  .  .  .  .  .  .  .  .  .  .  .  .  .  .  .  .  .  .  .  .  .  .  .  .  .  .  .  .  .  .  .  .  .  .  .  .  .  .  .  .  .  .  .  .  .  .  .  .  .  .  .  .  .  .  .  .  .                                                                                                                                                                                                                                                                                                     ",
".  .  .  .  .  .  .  .  .  .  .  .  .  .  .  .  .  .  .  .  .  .  .  .  .  .  .  .  .  .  .  .  .  .  .  .  .  .  .  .  .  .  .  .  .  .  .  .  .  .  .  .  .  .  .  .  .  .  .  .  .  .  .  .  .  .  .  .  .  .  .  .  .  .  .  .  .  .  .  .  .  .  .  .  .  .  .  .  .  .  .  .  .  .  .  .  .  .  .  .  .  .  .  .  .  .  .  .  .  .  .  .  .  .  .  .  .  .  .  .  .  .  .  .  .  .  .  .  .  .  .  .  .  .  .  .  .  .  .  .  .  .  .  .  .  .  .  .  .  .  .  .  .  .  .  .  .  .  .  .  .  .  .  .  .  .  .  .  .  .  .  .  .  .  .  .  .  .  .  .  .  .  .  .  .  .  .  .  .  .  .  .  .  .  .  .  .  .  .  .  .  .  .  .  .  .  .  .  .  .  .  .  .  .  .  .  .  .  .  .  .  .  .  .  .  .  .  .  .  .  .  .  .  .  .  .  .  .  .  .  .  .  .  .  .  .  .  .  .  .  .  .  .  .  .  .  .  .  .  .  .  .  .  .  .  .  .  .  .  .  .  .  .  .  .  .  .  .  .  .  .  .  .  .  .  .  .  .  .  .  .  .  .  .  .  .  .  .  .  .  .  .  .  .  .  .  .  .  .  .  .  .  .  .  .  .  .  .  .                                                                                                                                                                                                                                                                                                     ",
".  .  .  .  .  .  .  .  .  .  .  .  .  .  .  .  .  .  .  .  .  .  .  .  .  .  .  .  .  .  .  .  .  .  .  .  .  .  .  .  .  .  .  .  .  .  .  .  .  .  .  .  .  .  .  .  .  .  .  .  .  .  .  .  .  .  .  .  .  .  .  .  .  .  .  .  .  .  .  .  .  .  .  .  .  .  .  .  .  .  .  .  .  .  .  .  .  .  .  .  .  .  .  .  .  .  .  .  .  .  .  .  .  .  .  .  .  .  .  .  .  .  .  .  .  .  .  .  .  .  .  .  .  .  .  .  .  .  .  .  .  .  .  .  .  .  .  .  .  .  .  .  .  .  .  .  .  .  .  .  .  .  .  .  .  .  .  .  .  .  .  .  .  .  .  .  .  .  .  .  .  .  .  .  .  .  .  .  .  .  .  .  .  .  .  .  .  .  .  .  .  .  .  .  .  .  .  .  .  .  .  .  .  .  .  .  .  .  .  .  .  .  .  .  .  .  .  .  .  .  .  .  .  .  .  .  .  .  .  .  .  .  .  .  .  .  .  .  .  .  .  .  .  .  .  .  .  .  .  .  .  .  .  .  .  .  .  .  .  .  .  .  .  .  .  .  .  .  .  .  .  .  .  .  .  .  .  .  .  .  .  .  .  .  .  .  .  .  .  .  .  .  .  .  .  .  .  .  .  .  .  .  .  .  .  .  .  .  .                                                                                                                                                                                                                                                                                                     ",
".  .  .  .  .  .  .  .  .  .  .  .  .  .  .  .  .  .  .  .  .  .  .  .  .  .  .  .  .  .  .  .  .  .  .  .  .  .  .  .  .  .  .  .  .  .  .  .  .  .  .  .  .  .  .  .  .  .  .  .  .  .  .  .  .  .  .  .  .  .  .  .  .  .  .  .  .  .  .  .  .  .  .  .  .  .  .  .  .  .  .  .  .  .  .  .  .  .  .  .  .  .  .  .  .  .  .  .  .  .  .  .  .  .  .  .  .  .  .  .  .  .  .  .  .  .  .  .  .  .  .  .  .  .  .  .  .  .  .  .  .  .  .  .  .  .  .  .  .  .  .  .  .  .  .  .  .  .  .  .  .  .  .  .  .  .  .  .  .  .  .  .  .  .  .  .  .  .  .  .  .  .  .  .  .  .  .  .  .  .  .  .  .  .  .  .  .  .  .  .  .  .  .  .  .  .  .  .  .  .  .  .  .  .  .  .  .  .  .  .  .  .  .  .  .  .  .  .  .  .  .  .  .  .  .  .  .  .  .  .  .  .  .  .  .  .  .  .  .  .  .  .  .  .  .  .  .  .  .  .  .  .  .  .  .  .  .  .  .  .  .  .  .  .  .  .  .  .  .  .  .  .  .  .  .  .  .  .  .  .  .  .  .  .  .  .  .  .  .  .  .  .  .  .  .  .  .  .  .  .  .  .  .  .  .  .  .  .  .                                                                                                                                                                                                                                                                                                     ",
".  .  .  .  .  .  .  .  .  .  .  .  .  .  .  .  .  .  .  .  .  .  .  .  .  .  .  .  .  .  .  .  .  .  .  .  .  .  .  .  .  .  .  .  .  .  .  .  .  .  .  .  .  .  .  .  .  .  .  .  .  .  .  .  .  .  .  .  .  .  .  .  .  .  .  .  .  .  .  .  .  .  .  .  .  .  .  .  .  .  .  .  .  .  .  .  .  .  .  .  .  .  .  .  .  .  .  .  .  .  .  .  .  .  .  .  .  .  .  .  .  .  .  .  .  .  .  .  .  .  .  .  .  .  .  .  .  .  .  .  .  .  .  .  .  .  .  .  .  .  .  .  .  .  .  .  .  .  .  .  .  .  .  .  .  .  .  .  .  .  .  .  .  .  .  .  .  .  .  .  .  .  .  .  .  .  .  .  .  .  .  .  .  .  .  .  .  .  .  .  .  .  .  .  .  .  .  .  .  .  .  .  .  .  .  .  .  .  .  .  .  .  .  .  .  .  .  .  .  .  .  .  .  .  .  .  .  .  .  .  .  .  .  .  .  .  .  .  .  .  .  .  .  .  .  .  .  .  .  .  .  .  .  .  .  .  .  .  .  .  .  .  .  .  .  .  .  .  .  .  .  .  .  .  .  .  .  .  .  .  .  .  .  .  .  .  .  .  .  .  .  .  .  .  .  .  .  .  .  .  .  .  .  .  .  .  .  .  .                                                                                                                                                                                                                                                                                                     ",
".  .  .  .  .  .  .  .  .  .  .  .  .  .  .  .  .  .  .  .  .  .  .  .  .  .  .  .  .  .  .  .  .  .  .  .  .  .  .  .  .  .  .  .  .  .  .  .  .  .  .  .  .  .  .  .  .  .  .  .  .  .  .  .  .  .  .  .  .  .  .  .  .  .  .  .  .  .  .  .  .  .  .  .  .  .  .  .  .  .  .  .  .  .  .  .  .  .  .  .  .  .  .  .  .  .  .  .  .  .  .  .  .  .  .  .  .  .  .  .  .  .  .  .  .  .  .  .  .  .  .  .  .  .  .  .  .  .  .  .  .  .  .  .  .  .  .  .  .  .  .  .  .  .  .  .  .  .  .  .  .  .  .  .  .  .  .  .  .  .  .  .  .  .  .  .  .  .  .  .  .  .  .  .  .  .  .  .  .  .  .  .  .  .  .  .  .  .  .  .  .  .  .  .  .  .  .  .  .  .  .  .  .  .  .  .  .  .  .  .  .  .  .  .  .  .  .  .  .  .  .  .  .  .  .  .  .  .  .  .  .  .  .  .  .  .  .  .  .  .  .  .  .  .  .  .  .  .  .  .  .  .  .  .  .  .  .  .  .  .  .  .  .  .  .  .  .  .  .  .  .  .  .  .  .  .  .  .  .  .  .  .  .  .  .  .  .  .  .  .  .  .  .  .  .  .  .  .  .  .  .  .  .  .  .  .  .  .  .                                                                                                                                                                                                                                                                                                     ",
".  .  .  .  .  .  .  .  .  .  .  .  .  .  .  .  .  .  .  .  .  .  .  .  .  .  .  .  .  .  .  .  .  .  .  .  .  .  .  .  .  .  .  .  .  .  .  .  .  .  .  .  .  .  .  .  .  .  .  .  .  .  .  .  .  .  .  .  .  .  .  .  .  .  .  .  .  .  .  .  .  .  .  .  .  .  .  .  .  .  .  .  .  .  .  .  .  .  .  .  .  .  .  .  .  .  .  .  .  .  .  .  .  .  .  .  .  .  .  .  .  .  .  .  .  .  .  .  .  .  .  .  .  .  .  .  .  .  .  .  .  .  .  .  .  .  .  .  .  .  .  .  .  .  .  .  .  .  .  .  .  .  .  .  .  .  .  .  .  .  .  .  .  .  .  .  .  .  .  .  .  .  .  .  .  .  .  .  .  .  .  .  .  .  .  .  .  .  .  .  .  .  .  .  .  .  .  .  .  .  .  .  .  .  .  .  .  .  .  .  .  .  .  .  .  .  .  .  .  .  .  .  .  .  .  .  .  .  .  .  .  .  .  .  .  .  .  .  .  .  .  .  .  .  .  .  .  .  .  .  .  .  .  .  .  .  .  .  .  .  .  .  .  .  .  .  .  .  .  .  .  .  .  .  .  .  .  .  .  .  .  .  .  .  .  .  .  .  .  .  .  .  .  .  .  .  .  .  .  .  .  .  .  .  .  .  .  .  .                                                                                                                                                                                                                                                                                                     ",
".  .  .  .  .  .  .  .  .  .  .  .  .  .  .  .  .  .  .  .  .  .  .  .  .  .  .  .  .  .  .  .  .  .  .  .  .  .  .  .  .  .  .  .  .  .  .  .  .  .  .  .  .  .  .  .  .  .  .  .  .  .  .  .  .  .  .  .  .  .  .  .  .  .  .  .  .  .  .  .  .  .  .  .  .  .  .  .  .  .  .  .  .  .  .  .  .  .  .  .  .  .  .  .  .  .  .  .  .  .  .  .  .  .  .  .  .  .  .  .  .  .  .  .  .  .  .  .  .  .  .  .  .  .  .  .  .  .  .  .  .  .  .  .  .  .  .  .  .  .  .  .  .  .  .  .  .  .  .  .  .  .  .  .  .  .  .  .  .  .  .  .  .  .  .  .  .  .  .  .  .  .  .  .  .  .  .  .  .  .  .  .  .  .  .  .  .  .  .  .  .  .  .  .  .  .  .  .  .  .  .  .  .  .  .  .  .  .  .  .  .  .  .  .  .  .  .  .  .  .  .  .  .  .  .  .  .  .  .  .  .  .  .  .  .  .  .  .  .  .  .  .  .  .  .  .  .  .  .  .  .  .  .  .  .  .  .  .  .  .  .  .  .  .  .  .  .  .  .  .  .  .  .  .  .  .  .  .  .  .  .  .  .  .  .  .  .  .  .  .  .  .  .  .  .  .  .  .  .  .  .  .  .  .  .  .  .  .  .                                                                                                                                                                                                                                                                                                     ",
".  .  .  .  .  .  .  .  .  .  .  .  .  .  .  .  .  .  .  .  .  .  .  .  .  .  .  .  .  .  .  .  .  .  .  .  .  .  .  .  .  .  .  .  .  .  .  .  .  .  .  .  .  .  .  .  .  .  .  .  .  .  .  .  .  .  .  .  .  .  .  .  .  .  .  .  .  .  .  .  .  .  .  .  .  .  .  .  .  .  .  .  .  .  .  .  .  .  .  .  .  .  .  .  .  .  .  .  .  .  .  .  .  .  .  .  .  .  .  .  .  .  .  .  .  .  .  .  .  .  .  .  .  .  .  .  .  .  .  .  .  .  .  .  .  .  .  .  .  .  .  .  .  .  .  .  .  .  .  .  .  .  .  .  .  .  .  .  .  .  .  .  .  .  .  .  .  .  .  .  .  .  .  .  .  .  .  .  .  .  .  .  .  .  .  .  .  .  .  .  .  .  .  .  .  .  .  .  .  .  .  .  .  .  .  .  .  .  .  .  .  .  .  .  .  .  .  .  .  .  .  .  .  .  .  .  .  .  .  .  .  .  .  .  .  .  .  .  .  .  .  .  .  .  .  .  .  .  .  .  .  .  .  .  .  .  .  .  .  .  .  .  .  .  .  .  .  .  .  .  .  .  .  .  .  .  .  .  .  .  .  .  .  .  .  .  .  .  .  .  .  .  .  .  .  .  .  .  .  .  .  .  .  .  .  .  .  .  .                                                                                                                                                                                                                                                                                                     ",
".  .  .  .  .  .  .  .  .  .  .  .  .  .  .  .  .  .  .  .  .  .  .  .  .  .  .  .  .  .  .  .  .  .  .  .  .  .  .  .  .  .  .  .  .  .  .  .  .  .  .  .  .  .  .  .  .  .  .  .  .  .  .  .  .  .  .  .  .  .  .  .  .  .  .  .  .  .  .  .  .  .  .  .  .  .  .  .  .  .  .  .  .  .  .  .  .  .  .  .  .  .  .  .  .  .  .  .  .  .  .  .  .  .  .  .  .  .  .  .  .  .  .  .  .  .  .  .  .  .  .  .  .  .  .  .  .  .  .  .  .  .  .  .  .  .  .  .  .  .  .  .  .  .  .  .  .  .  .  .  .  .  .  .  .  .  .  .  .  .  .  .  .  .  .  .  .  .  .  .  .  .  .  .  .  .  .  .  .  .  .  .  .  .  .  .  .  .  .  .  .  .  .  .  .  .  .  .  .  .  .  .  .  .  .  .  .  .  .  .  .  .  .  .  .  .  .  .  .  .  .  .  .  .  .  .  .  .  .  .  .  .  .  .  .  .  .  .  .  .  .  .  .  .  .  .  .  .  .  .  .  .  .  .  .  .  .  .  .  .  .  .  .  .  .  .  .  .  .  .  .  .  .  .  .  .  .  .  .  .  .  .  .  .  .  .  .  .  .  .  .  .  .  .  .  .  .  .  .  .  .  .  .  .  .  .  .  .  .                                                                                                                                                                                                                                                                                                     ",
".  .  .  .  .  .  .  .  .  .  .  .  .  .  .  .  .  .  .  .  .  .  .  .  .  .  .  .  .  .  .  .  .  .  .  .  .  .  .  .  .  .  .  .  .  .  .  .  .  .  .  .  .  .  .  .  .  .  .  .  .  .  .  .  .  .  .  .  .  .  .  .  .  .  .  .  .  .  .  .  .  .  .  .  .  .  .  .  .  .  .  .  .  .  .  .  .  .  .  .  .  .  .  .  .  .  .  .  .  .  .  .  .  .  .  .  .  .  .  .  .  .  .  .  .  .  .  .  .  .  .  .  .  .  .  .  .  .  .  .  .  .  .  .  .  .  .  .  .  .  .  .  .  .  .  .  .  .  .  .  .  .  .  .  .  .  .  .  .  .  .  .  .  .  .  .  .  .  .  .  .  .  .  .  .  .  .  .  .  .  .  .  .  .  .  .  .  .  .  .  .  .  .  .  .  .  .  .  .  .  .  .  .  .  .  .  .  .  .  .  .  .  .  .  .  .  .  .  .  .  .  .  .  .  .  .  .  .  .  .  .  .  .  .  .  .  .  .  .  .  .  .  .  .  .  .  .  .  .  .  .  .  .  .  .  .  .  .  .  .  .  .  .  .  .  .  .  .  .  .  .  .  .  .  .  .  .  .  .  .  .  .  .  .  .  .  .  .  .  .  .  .  .  .  .  .  .  .  .  .  .  .  .  .  .  .  .  .  .                                                                                                                                                                                                                                                                                                     ",
".  .  .  .  .  .  .  .  .  .  .  .  .  .  .  .  .  .  .  .  .  .  .  .  .  .  .  .  .  .  .  .  .  .  .  .  .  .  .  .  .  .  .  .  .  .  .  .  .  .  .  .  .  .  .  .  .  .  .  .  .  .  .  .  .  .  .  .  .  .  .  .  .  .  .  .  .  .  .  .  .  .  .  .  .  .  .  .  .  .  .  .  .  .  .  .  .  .  .  .  .  .  .  .  .  .  .  .  .  .  .  .  .  .  .  .  .  .  .  .  .  .  .  .  .  .  .  .  .  .  .  .  .  .  .  .  .  .  .  .  .  .  .  .  .  .  .  .  .  .  .  .  .  .  .  .  .  .  .  .  .  .  .  .  .  .  .  .  .  .  .  .  .  .  .  .  .  .  .  .  .  .  .  .  .  .  .  .  .  .  .  .  .  .  .  .  .  .  .  .  .  .  .  .  .  .  .  .  .  .  .  .  .  .  .  .  .  .  .  .  .  .  .  .  .  .  .  .  .  .  .  .  .  .  .  .  .  .  .  .  .  .  .  .  .  .  .  .  .  .  .  .  .  .  .  .  .  .  .  .  .  .  .  .  .  .  .  .  .  .  .  .  .  .  .  .  .  .  .  .  .  .  .  .  .  .  .  .  .  .  .  .  .  .  .  .  .  .  .  .  .  .  .  .  .  .  .  .  .  .  .  .  .  .  .  .  .  .  .                                                                                                                                                                                                                                                                                                     ",
".  .  .  .  .  .  .  .  .  .  .  .  .  .  .  .  .  .  .  .  .  .  .  .  .  .  .  .  .  .  .  .  .  .  .  .  .  .  .  .  .  .  .  .  .  .  .  .  .  .  .  .  .  .  .  .  .  .  .  .  .  .  .  .  .  .  .  .  .  .  .  .  .  .  .  .  .  .  .  .  .  .  .  .  .  .  .  .  .  .  .  .  .  .  .  .  .  .  .  .  .  .  .  .  .  .  .  .  .  .  .  .  .  .  .  .  .  .  .  .  .  .  .  .  .  .  .  .  .  .  .  .  .  .  .  .  .  .  .  .  .  .  .  .  .  .  .  .  .  .  .  .  .  .  .  .  .  .  .  .  .  .  .  .  .  .  .  .  .  .  .  .  .  .  .  .  .  .  .  .  .  .  .  .  .  .  .  .  .  .  .  .  .  .  .  .  .  .  .  .  .  .  .  .  .  .  .  .  .  .  .  .  .  .  .  .  .  .  .  .  .  .  .  .  .  .  .  .  .  .  .  .  .  .  .  .  .  .  .  .  .  .  .  .  .  .  .  .  .  .  .  .  .  .  .  .  .  .  .  .  .  .  .  .  .  .  .  .  .  .  .  .  .  .  .  .  .  .  .  .  .  .  .  .  .  .  .  .  .  .  .  .  .  .  .  .  .  .  .  .  .  .  .  .  .  .  .  .  .  .  .  .  .  .  .  .  .  .  .                                                                                                                                                                                                                                                                                                     ",
"                                                                                                                                                                                                                                                                                                                                                                                                                                                                                                                                                                                                                                                                                                                                                                                                                                                                                                                                                                                                                                                                                                                                                                                                                                                                                                ",
"                                                                                                                                                                                                                                                                                                                                                                                                                                                                                                                                                                                                                                                                                                                                                                                                                                                                                                                                                                                                                                                                                                                                                                                                                                                                                                ",
"                                                                                                                                                                                                                                                                                                                                                                                                                                                                                                                                                                                                                                                                                                                                                                                                                                                                                                                                                                                                                                                                                                                                                                                                                                                                                                ",
"                                                                                                                                                                                                                                                                                                                                                                                                                                                                                                                                                                                                                                                                                                                                                                                                                                                                                                                                                                                                                                                                                                                                                                                                                                                                                                ",
"                                                                                                                                                                                                                                                                                                                                                                                                                                                                                                                                                                                                                                                                                                                                                                                                                                                                                                                                                                                                                                                                                                                                                                                                                                                                                                ",
"                                                                                                                                                                                                                                                                                                                                                                                                                                                                                                                                                                                                                                                                                                                                                                                                                                                                                                                                                                                                                                                                                                                                                                                                                                                                                                ",
"                                                                                                                                                                                                                                                                                                                                                                                                                                                                                                                                                                                                                                                                                                                                                                                                                                                                                                                                                                                                                                                                                                                                                                                                                                                                                                ",
"                                                                                                                                                                                                                                                                                                                                                                                                                                                                                                                                                                                                                                                                                                                                                                                                                                                                                                                                                                                                                                                                                                                                                                                                                                                                                                ",
"                                                                                                                                                                                                                                                                                                                                                                                                                                                                                                                                                                                                                                                                                                                                                                                                                                                                                                                                                                                                                                                                                                                                                                                                                                                                                                ",
"                                                                                                                                                                                                                                                                                                                                                                                                                                                                                                                                                                                                                                                                                                                                                                                                                                                                                                                                                                                                                                                                                                                                                                                                                                                                                                ",
"                                                                                                                                                                                                                                                                                                                                                                                                                                                                                                                                                                                                                                                                                                                                                                                                                                                                                                                                                                                                                                                                                                                                                                                                                                                                                                ",
"                                                                                                                                                                                                                                                                                                                                                                                                                                                                                                                                                                                                                                                                                                                                                                                                                                                                                                                                                                                                                                                                                                                                                                                                                                                                                                ",
"                                                                                                                                                                                                                                                                                                                                                                                                                                                                                                                                                                                                                                                                                                                                                                                                                                                                                                                                                                                                                                                                                                                                                                                                                                                                                                ",
"                                                                                                                                                                                                                                                                                                                                                                                                                                                                                                                                                                                                                                                                                                                                                                                                                                                                                                                                                                                                                                                                                                                                                                                                                                                                                                ",
"                                                                                                                                                                                                                                                                                                                                                                                                                                                                                                                                                                                                                                                                                                                                                                                                                                                                                                                                                                                                                                                                                                                                                                                                                                                                                                ",
"                                                                                                                                                                                                                                                                                                                                                                                                                                                                                                                                                                                                                                                                                                                                                                                                                                                                                                                                                                                                                                                                                                                                                                                                                                                                                                ",
"                                                                                                                                                                                                                                                                                                                                                                                                                                                                                                                                                                                                                                                                                                                                                                                                                                                                                                                                                                                                                                                                                                                                                                                                                                                                                                ",
"                                                                                                                                                                                                                                                                                                                                                                                                                                                                                                                                                                                                                                                                                                                                                                                                                                                                                                                                                                                                                                                                                                                                                                                                                                                                                                ",
"                                                                                                                                                                                                                                                                                                                                                                                                                                                                                                                                                                                                                                                                                                                                                                                                                                                                                                                                                                                                                                                                                                                                                                                                                                                                                                ",
"                                                                                                                                                                                                                                                                                                                                                                                                                                                                                                                                                                                                                                                                                                                                                                                                                                                                                                                                                                                                                                                                                                                                                                                                                                                                                                ",
"                                                                                                                                                                                                                                                                                                                                                                                                                                                                                                                                                                                                                                                                                                                                                                                                                                                                                                                                                                                                                                                                                                                                                                                                                                                                                                ",
"                                                                                                                                                                                                                                                                                                                                                                                                                                                                                                                                                                                                                                                                                                                                                                                                                                                                                                                                                                                                                                                                                                                                                                                                                                                                                                ",
"                                                                                                                                                                                                                                                                                                                                                                                                                                                                                                                                                                                                                                                                                                                                                                                                                                                                                                                                                                                                                                                                                                                                                                                                                                                                                                ",
"                                                                                                                                                                                                                                                                                                                                                                                                                                                                                                                                                                                                                                                                                                                                                                                                                                                                                                                                                                                                                                                                                                                                                                                                                                                                                                ",
"                                                                                                                                                                                                                                                                                                                                                                                                                                                                                                                                                                                                                                                                                                                                                                                                                                                                                                                                                                                                                                                                                                                                                                                                                                                                                                ",
"                                                                                                                                                                                                                                                                                                                                                                                                                                                                                                                                                                                                                                                                                                                                                                                                                                                                                                                                                                                                                                                                                                                                                                                                                                                                                                ",
"                                                                                                                                                                                                                                                                                                                                                                                                                                                                                                                                                                                                                                                                                                                                                                                                                                                                                                                                                                                                                                                                                                                                                                                                                                                                                                ",
"                                                                                                                                                                                                                                                                                                                                                                                                                                                                                                                                                                                                                                                                                                                                                                                                                                                                                                                                                                                                                                                                                                                                                                                                                                                                                                ",
"                                                                                                                                                                                                                                                                                                                                                                                                                                                                                                                                                                                                                                                                                                                                                                                                                                                                                                                                                                                                                                                                                                                                                                                                                                                                                                ",
"                                                                                                                                                                                                                                                                                                                                                                                                                                                                                                                                                                                                                                                                                                                                                                                                                                                                                                                                                                                                                                                                                                                                                                                                                                                                                                ",
"                                                                                                                                                                                                                                                                                                                                                                                                                                                                                                                                                                                                                                                                                                                                                                                                                                                                                                                                                                                                                                                                                                                                                                                                                                                                                                ",
"                                                                                                                                                                                                                                                                                                                                                                                                                                                                                                                                                                                                                                                                                                                                                                                                                                                                                                                                                                                                                                                                                                                                                                                                                                                                                                ",
"                                                                                                                                                                                                                                                                                                                                                                                                                                                                                                                                                                                                                                                                                                                                                                                                                                                                                                                                                                                                                                                                                                                                                                                                                                                                                                ",
"                                                                                                                                                                                                                                                                                                                                                                                                                                                                                                                                                                                                                                                                                                                                                                                                                                                                                                                                                                                                                                                                                                                                                                                                                                                                                                ",
"                                                                                                                                                                                                                                                                                                                                                                                                                                                                                                                                                                                                                                                                                                                                                                                                                                                                                                                                                                                                                                                                                                                                                                                                                                                                                                ",
"                                                                                                                                                                                                                                                                                                                                                                                                                                                                                                                                                                                                                                                                                                                                                                                                                                                                                                                                                                                                                                                                                                                                                                                                                                                                                                ",
"                                                                                                                                                                                                                                                                                                                                                                                                                                                                                                                                                                                                                                                                                                                                                                                                                                                                                                                                                                                                                                                                                                                                                                                                                                                                                                ",
"                                                                                                                                                                                                                                                                                                                                                                                                                                                                                                                                                                                                                                                                                                                                                                                                                                                                                                                                                                                                                                                                                                                                                                                                                                                                                                ",
"                                                                                                                                                                                                                                                                                                                                                                                                                                                                                                                                                                                                                                                                                                                                                                                                                                                                                                                                                                                                                                                                                                                                                                                                                                                                                                ",
"                                                                                                                                                                                                                                                                                                                                                                                                                                                                                                                                                                                                                                                                                                                                                                                                                                                                                                                                                                                                                                                                                                                                                                                                                                                                                                ",
"                                                                                                                                                                                                                                                                                                                                                                                                                                                                                                                                                                                                                                                                                                                                                                                                                                                                                                                                                                                                                                                                                                                                                                                                                                                                                                ",
"                                                                                                                                                                                                                                                                                                                                                                                                                                                                                                                                                                                                                                                                                                                                                                                                                                                                                                                                                                                                                                                                                                                                                                                                                                                                                                ",
"                                                                                                                                                                                                                                                                                                                                                                                                                                                                                                                                                                                                                                                                                                                                                                                                                                                                                                                                                                                                                                                                                                                                                                                                                                                                                                ",
"                                                                                                                                                                                                                                                                                                                                                                                                                                                                                                                                                                                                                                                                                                                                                                                                                                                                                                                                                                                                                                                                                                                                                                                                                                                                                                ",
"                                                                                                                                                                                                                                                                                                                                                                                                                                                                                                                                                                                                                                                                                                                                                                                                                                                                                                                                                                                                                                                                                                                                                                                                                                                                                                ",
"                                                                                                                                                                                                                                                                                                                                                                                                                                                                                                                                                                                                                                                                                                                                                                                                                                                                                                                                                                                                                                                                                                                                                                                                                                                                                                ",
"                                                                                                                                                                                                                                                                                                                                                                                                                                                                                                                                                                                                                                                                                                                                                                                                                                                                                                                                                                                                                                                                                                                                                                                                                                                                                                ",
"                                                                                                                                                                                                                                                                                                                                                                                                                                                                                                                                                                                                                                                                                                                                                                                                                                                                                                                                                                                                                                                                                                                                                                                                                                                                                                ",
"                                                                                                                                                                                                                                                                                                                                                                                                                                                                                                                                                                                                                                                                                                                                                                                                                                                                                                                                                                                                                                                                                                                                                                                                                                                                                                ",
"                                                                                                                                                                                                                                                                                                                                                                                                                                                                                                                                                                                                                                                                                                                                                                                                                                                                                                                                                                                                                                                                                                                                                                                                                                                                                                ",
"                                                                                                                                                                                                                                                                                                                                                                                                                                                                                                                                                                                                                                                                                                                                                                                                                                                                                                                                                                                                                                                                                                                                                                                                                                                                                                ",
"                                                                                                                                                                                                                                                                                                                                                                                                                                                                                                                                                                                                                                                                                                                                                                                                                                                                                                                                                                                                                                                                                                                                                                                                                                                                                                ",
"                                                                                                                                                                                                                                                                                                                                                                                                                                                                                                                                                                                                                                                                                                                                                                                                                                                                                                                                                                                                                                                                                                                                                                                                                                                                                                ",
"                                                                                                                                                                                                                                                                                                                                                                                                                                                                                                                                                                                                                                                                                                                                                                                                                                                                                                                                                                                                                                                                                                                                                                                                                                                                                                ",
"                                                                                                                                                                                                                                                                                                                                                                                                                                                                                                                                                                                                                                                                                                                                                                                                                                                                                                                                                                                                                                                                                                                                                                                                                                                                                                ",
"                                                                                                                                                                                                                                                                                                                                                                                                                                                                                                                                                                                                                                                                                                                                                                                                                                                                                                                                                                                                                                                                                                                                                                                                                                                                                                ",
"                                                                                                                                                                                                                                                                                                                                                                                                                                                                                                                                                                                                                                                                                                                                                                                                                                                                                                                                                                                                                                                                                                                                                                                                                                                                                                ",
"                                                                                                                                                                                                                                                                                                                                                                                                                                                                                                                                                                                                                                                                                                                                                                                                                                                                                                                                                                                                                                                                                                                                                                                                                                                                                                ",
"                                                                                                                                                                                                                                                                                                                                                                                                                                                                                                                                                                                                                                                                                                                                                                                                                                                                                                                                                                                                                                                                                                                                                                                                                                                                                                ",
"                                                                                                                                                                                                                                                                                                                                                                                                                                                                                                                                                                                                                                                                                                                                                                                                                                                                                                                                                                                                                                                                                                                                                                                                                                                                                                ",
"                                                                                                                                                                                                                                                                                                                                                                                                                                                                                                                                                                                                                                                                                                                                                                                                                                                                                                                                                                                                                                                                                                                                                                                                                                                                                                ",
"                                                                                                                                                                                                                                                                                                                                                                                                                                                                                                                                                                                                                                                                                                                                                                                                                                                                                                                                                                                                                                                                                                                                                                                                                                                                                                ",
"                                                                                                                                                                                                                                                                                                                                                                                                                                                                                                                                                                                                                                                                                                                                                                                                                                                                                                                                                                                                                                                                                                                                                                                                                                                                                                ",
"                                                                                                                                                                                                                                                                                                                                                                                                                                                                                                                                                                                                                                                                                                                                                                                                                                                                                                                                                                                                                                                                                                                                                                                                                                                                                                ",
"                                                                                                                                                                                                                                                                                                                                                                                                                                                                                                                                                                                                                                                                                                                                                                                                                                                                                                                                                                                                                                                                                                                                                                                                                                                                                                ",
"                                                                                                                                                                                                                                                                                                                                                                                                                                                                                                                                                                                                                                                                                                                                                                                                                                                                                                                                                                                                                                                                                                                                                                                                                                                                                                ",
"                                                                                                                                                                                                                                                                                                                                                                                                                                                                                                                                                                                                                                                                                                                                                                                                                                                                                                                                                                                                                                                                                                                                                                                                                                                                                                ",
"                                                                                                                                                                                                                                                                                                                                                                                                                                                                                                                                                                                                                                                                                                                                                                                                                                                                                                                                                                                                                                                                                                                                                                                                                                                                                                ",
"                                                                                                                                                                                                                                                                                                                                                                                                                                                                                                                                                                                                                                                                                                                                                                                                                                                                                                                                                                                                                                                                                                                                                                                                                                                                                                ",
"                                                                                                                                                                                                                                                                                                                                                                                                                                                                                                                                                                                                                                                                                                                                                                                                                                                                                                                                                                                                                                                                                                                                                                                                                                                                                                ",
"                                                                                                                                                                                                                                                                                                                                                                                                                                                                                                                                                                                                                                                                                                                                                                                                                                                                                                                                                                                                                                                                                                                                                                                                                                                                                                ",
"                                                                                                                                                                                                                                                                                                                                                                                                                                                                                                                                                                                                                                                                                                                                                                                                                                                                                                                                                                                                                                                                                                                                                                                                                                                                                                ",
"                                                                                                                                                                                                                                                                                                                                                                                                                                                                                                                                                                                                                                                                                                                                                                                                                                                                                                                                                                                                                                                                                                                                                                                                                                                                                                ",
"                                                                                                                                                                                                                                                                                                                                                                                                                                                                                                                                                                                                                                                                                                                                                                                                                                                                                                                                                                                                                                                                                                                                                                                                                                                                                                ",
"                                                                                                                                                                                                                                                                                                                                                                                                                                                                                                                                                                                                                                                                                                                                                                                                                                                                                                                                                                                                                                                                                                                                                                                                                                                                                                ",
"                                                                                                                                                                                                                                                                                                                                                                                                                                                                                                                                                                                                                                                                                                                                                                                                                                                                                                                                                                                                                                                                                                                                                                                                                                                                                                ",
"                                                                                                                                                                                                                                                                                                                                                                                                                                                                                                                                                                                                                                                                                                                                                                                                                                                                                                                                                                                                                                                                                                                                                                                                                                                                                                ",
"                                                                                                                                                                                                                                                                                                                                                                                                                                                                                                                                                                                                                                                                                                                                                                                                                                                                                                                                                                                                                                                                                                                                                                                                                                                                                                ",
"                                                                                                                                                                                                                                                                                                                                                                                                                                                                                                                                                                                                                                                                                                                                                                                                                                                                                                                                                                                                                                                                                                                                                                                                                                                                                                ",
"                                                                                                                                                                                                                                                                                                                                                                                                                                                                                                                                                                                                                                                                                                                                                                                                                                                                                                                                                                                                                                                                                                                                                                                                                                                                                                ",
"                                                                                                                                                                                                                                                                                                                                                                                                                                                                                                                                                                                                                                                                                                                                                                                                                                                                                                                                                                                                                                                                                                                                                                                                                                                                                                ",
"                                                                                                                                                                                                                                                                                                                                                                                                                                                                                                                                                                                                                                                                                                                                                                                                                                                                                                                                                                                                                                                                                                                                                                                                                                                                                                ",
"                                                                                                                                                                                                                                                                                                                                                                                                                                                                                                                                                                                                                                                                                                                                                                                                                                                                                                                                                                                                                                                                                                                                                                                                                                                                                                ",
"                                                                                                                                                                                                                                                                                                                                                                                                                                                                                                                                                                                                                                                                                                                                                                                                                                                                                                                                                                                                                                                                                                                                                                                                                                                                                                ",
"                                                                                                                                                                                                                                                                                                                                                                                                                                                                                                                                                                                                                                                                                                                                                                                                                                                                                                                                                                                                                                                                                                                                                                                                                                                                                                ",
"                                                                                                                                                                                                                                                                                                                                                                                                                                                                                                                                                                                                                                                                                                                                                                                                                                                                                                                                                                                                                                                                                                                                                                                                                                                                                                ",
"                                                                                                                                                                                                                                                                                                                                                                                                                                                                                                                                                                                                                                                                                                                                                                                                                                                                                                                                                                                                                                                                                                                                                                                                                                                                                                ",
"                                                                                                                                                                                                                                                                                                                                                                                                                                                                                                                                                                                                                                                                                                                                                                                                                                                                                                                                                                                                                                                                                                                                                                                                                                                                                                ",
"                                                                                                                                                                                                                                                                                                                                                                                                                                                                                                                                                                                                                                                                                                                                                                                                                                                                                                                                                                                                                                                                                                                                                                                                                                                                                                ",
"                                                                                                                                                                                                                                                                                                                                                                                                                                                                                                                                                                                                                                                                                                                                                                                                                                                                                                                                                                                                                                                                                                                                                                                                                                                                                                ",
"                                                                                                                                                                                                                                                                                                                                                                                                                                                                                                                                                                                                                                                                                                                                                                                                                                                                                                                                                                                                                                                                                                                                                                                                                                                                                                ",
"                                                                                                                                                                                                                                                                                                                                                                                                                                                                                                                                                                                                                                                                                                                                                                                                                                                                                                                                                                                                                                                                                                                                                                                                                                                                                                ",
"                                                                                                                                                                                                                                                                                                                                                                                                                                                                                                                                                                                                                                                                                                                                                                                                                                                                                                                                                                                                                                                                                                                                                                                                                                                                                                ",
"                                                                                                                                                                                                                                                                                                                                                                                                                                                                                                                                                                                                                                                                                                                                                                                                                                                                                                                                                                                                                                                                                                                                                                                                                                                                                                ",
"                                                                                                                                                                                                                                                                                                                                                                                                                                                                                                                                                                                                                                                                                                                                                                                                                                                                                                                                                                                                                                                                                                                                                                                                                                                                                                ",
"                                                                                                                                                                                                                                                                                                                                                                                                                                                                                                                                                                                                                                                                                                                                                                                                                                                                                                                                                                                                                                                                                                                                                                                                                                                                                                ",
"                                                                                                                                                                                                                                                                                                                                                                                                                                                                                                                                                                                                                                                                                                                                                                                                                                                                                                                                                                                                                                                                                                                                                                                                                                                                                                ",
"                                                                                                                                                                                                                                                                                                                                                                                                                                                                                                                                                                                                                                                                                                                                                                                                                                                                                                                                                                                                                                                                                                                                                                                                                                                                                                "};
