/* XPM */
static char * satelite[] = {
"194 194 4135 2",
"  	c None",
". 	c #000000",
"+ 	c #050D05",
"@ 	c #050E06",
"# 	c #030904",
"$ 	c #262F27",
"% 	c #5F7962",
"& 	c #5F7A61",
"* 	c #5B785E",
"= 	c #4A644D",
"- 	c #061308",
"; 	c #6D7E6E",
"> 	c #9A9C99",
", 	c #828281",
"' 	c #797978",
") 	c #7E7F7D",
"! 	c #818F82",
"~ 	c #203D24",
"{ 	c #7D897D",
"] 	c #7B7C7A",
"^ 	c #424241",
"/ 	c #849084",
"( 	c #223E25",
"_ 	c #6D7F6E",
": 	c #5C675E",
"< 	c #5C665D",
"[ 	c #5F6960",
"} 	c #748075",
"| 	c #424B43",
"1 	c #6D7D6E",
"2 	c #777977",
"3 	c #7D7E7C",
"4 	c #7D7D7C",
"5 	c #878786",
"6 	c #8E8F8D",
"7 	c #636D64",
"8 	c #707D71",
"9 	c #0C2410",
"0 	c #1D3B21",
"a 	c #889288",
"b 	c #1F1D1F",
"c 	c #5D655D",
"d 	c #4A5B4C",
"e 	c #1E3C22",
"f 	c #1A321D",
"g 	c #112915",
"h 	c #1E3B22",
"i 	c #39613E",
"j 	c #5A7A5D",
"k 	c #648067",
"l 	c #6D866F",
"m 	c #5A725C",
"n 	c #A6ADA5",
"o 	c #5D5C5D",
"p 	c #203C24",
"q 	c #203D23",
"r 	c #071308",
"s 	c #2C332D",
"t 	c #7D897E",
"u 	c #8D988E",
"v 	c #9EA19D",
"w 	c #474444",
"x 	c #413E3E",
"y 	c #4C4A4A",
"z 	c #504D4E",
"A 	c #80807E",
"B 	c #90988F",
"C 	c #8C978C",
"D 	c #647665",
"E 	c #263327",
"F 	c #7B887B",
"G 	c #89948A",
"H 	c #869186",
"I 	c #8A958B",
"J 	c #8C968D",
"K 	c #8C988C",
"L 	c #404640",
"M 	c #929D93",
"N 	c #747374",
"O 	c #4F4E4E",
"P 	c #8A8C8A",
"Q 	c #909A91",
"R 	c #859386",
"S 	c #48624A",
"T 	c #474C47",
"U 	c #848C84",
"V 	c #4E4E4D",
"W 	c #575655",
"X 	c #969292",
"Y 	c #9A9696",
"Z 	c #B8B4B2",
"` 	c #BFBCBA",
" .	c #989594",
"..	c #4A4948",
"+.	c #60615F",
"@.	c #898E88",
"#.	c #424E43",
"$.	c #838C83",
"%.	c #595858",
"&.	c #484847",
"*.	c #464545",
"=.	c #494948",
"-.	c #494949",
";.	c #646A64",
">.	c #363B37",
",.	c #92A093",
"'.	c #A9B1A9",
").	c #8F9C8F",
"!.	c #8E8E8D",
"~.	c #4A4A4A",
"{.	c #6A6C69",
"].	c #527155",
"^.	c #060E06",
"/.	c #010301",
"(.	c #4D584E",
"_.	c #7F857E",
":.	c #1C1A1B",
"<.	c #3C3A3A",
"[.	c #9E9A99",
"}.	c #A39F9D",
"|.	c #C0BCB9",
"1.	c #C7C3C0",
"2.	c #9A9695",
"3.	c #2B2828",
"4.	c #4E4E4C",
"5.	c #949D94",
"6.	c #415443",
"7.	c #363E37",
"8.	c #010001",
"9.	c #475248",
"0.	c #808980",
"a.	c #444344",
"b.	c #2B2B2C",
"c.	c #2C2B2C",
"d.	c #2B292B",
"e.	c #555B56",
"f.	c #657E67",
"g.	c #627363",
"h.	c #5F7561",
"i.	c #8A8B89",
"j.	c #666766",
"k.	c #657B67",
"l.	c #3A403B",
"m.	c #3A423A",
"n.	c #0B180D",
"o.	c #040A04",
"p.	c #5B6E5D",
"q.	c #898D89",
"r.	c #1B191A",
"s.	c #3C393A",
"t.	c #A39E9C",
"u.	c #AFAAA7",
"v.	c #B3AEAB",
"w.	c #9E9A98",
"x.	c #827E7C",
"y.	c #827F7E",
"z.	c #7F7E7D",
"A.	c #5D625D",
"B.	c #919A92",
"C.	c #2B452E",
"D.	c #313A32",
"E.	c #637464",
"F.	c #607063",
"G.	c #717C72",
"H.	c #5D6C5F",
"I.	c #5D6D60",
"J.	c #5F6E61",
"K.	c #767B76",
"L.	c #6A6D69",
"M.	c #787A77",
"N.	c #658268",
"O.	c #838F84",
"P.	c #647266",
"Q.	c #7E827E",
"R.	c #727471",
"S.	c #666C66",
"T.	c #718473",
"U.	c #253E28",
"V.	c #345438",
"W.	c #395F3E",
"X.	c #335437",
"Y.	c #494D49",
"Z.	c #808880",
"`.	c #9E9A9A",
" +	c #A29E9D",
".+	c #A59D9B",
"++	c #A59D9A",
"@+	c #A59E9C",
"#+	c #9B9696",
"$+	c #2B2929",
"%+	c #999E99",
"&+	c #436C48",
"*+	c #3B6040",
"=+	c #1B301E",
"-+	c #36573A",
";+	c #172919",
">+	c #293E2B",
",+	c #434E44",
"'+	c #2A3E2C",
")+	c #3E5640",
"!+	c #7E887E",
"~+	c #413F40",
"{+	c #3D3D3C",
"]+	c #7A867A",
"^+	c #446E49",
"/+	c #476E4C",
"(+	c #324334",
"_+	c #5F625F",
":+	c #2E2D2E",
"<+	c #313431",
"[+	c #667967",
"}+	c #253E29",
"|+	c #000500",
"1+	c #566458",
"2+	c #7D887E",
"3+	c #A6A8A5",
"4+	c #A4A5A3",
"5+	c #A7A8A6",
"6+	c #A6A8A6",
"7+	c #6F7B70",
"8+	c #6D796E",
"9+	c #57745A",
"0+	c #0A140B",
"a+	c #484E48",
"b+	c #80877F",
"c+	c #312F2F",
"d+	c #837F7F",
"e+	c #878283",
"f+	c #9F9796",
"g+	c #A69D9C",
"h+	c #A59D9D",
"i+	c #9D9897",
"j+	c #646161",
"k+	c #5C5857",
"l+	c #999897",
"m+	c #A1A19F",
"n+	c #9AA199",
"o+	c #4B524B",
"p+	c #3F5E43",
"q+	c #929A92",
"r+	c #5B6A5D",
"s+	c #5B6B5D",
"t+	c #566658",
"u+	c #566657",
"v+	c #556557",
"w+	c #304231",
"x+	c #8D988D",
"y+	c #737372",
"z+	c #9D9D9C",
"A+	c #A9ABA8",
"B+	c #7F8B80",
"C+	c #09180B",
"D+	c #515251",
"E+	c #2E2F2E",
"F+	c #4B4A4A",
"G+	c #8E978E",
"H+	c #28402B",
"I+	c #1F3A23",
"J+	c #2A4C2E",
"K+	c #819083",
"L+	c #525252",
"M+	c #383537",
"N+	c #48694C",
"O+	c #254228",
"P+	c #172E1A",
"Q+	c #050404",
"R+	c #100D0F",
"S+	c #8E8A8A",
"T+	c #A69D9E",
"U+	c #A69D9D",
"V+	c #A49E9E",
"W+	c #A5A09F",
"X+	c #4F4C4B",
"Y+	c #6B716B",
"Z+	c #4B4F4A",
"`+	c #213D24",
" @	c #19311C",
".@	c #030E04",
"+@	c #1F3D23",
"@@	c #5F7661",
"#@	c #565A57",
"$@	c #020004",
"%@	c #000002",
"&@	c #000003",
"*@	c #000001",
"=@	c #526354",
"-@	c #335137",
";@	c #708971",
">@	c #778678",
",@	c #738674",
"'@	c #484848",
")@	c #808580",
"!@	c #4E6E52",
"~@	c #5C605B",
"{@	c #2D2C2C",
"]@	c #4B4B4B",
"^@	c #8F9990",
"/@	c #768778",
"(@	c #7C8A7C",
"_@	c #888F87",
":@	c #5C5C5C",
"<@	c #434242",
"[@	c #474646",
"}@	c #494848",
"|@	c #4A4949",
"1@	c #575656",
"2@	c #778277",
"3@	c #7E8B7E",
"4@	c #7A887B",
"5@	c #344035",
"6@	c #0B090A",
"7@	c #211E1E",
"8@	c #262223",
"9@	c #868281",
"0@	c #989292",
"a@	c #9F9797",
"b@	c #A69E9E",
"c@	c #ABA5A4",
"d@	c #ACA7A6",
"e@	c #6B6867",
"f@	c #878785",
"g@	c #858884",
"h@	c #6F8472",
"i@	c #030603",
"j@	c #536855",
"k@	c #7E8D7E",
"l@	c #8A958A",
"m@	c #6C6C61",
"n@	c #40430A",
"o@	c #4C4F10",
"p@	c #5D5F14",
"q@	c #5D5E13",
"r@	c #48490C",
"s@	c #3F4206",
"t@	c #818679",
"u@	c #828E82",
"v@	c #8E9A8E",
"w@	c #3B433B",
"x@	c #476A4B",
"y@	c #454645",
"z@	c #9C9D9C",
"A@	c #638166",
"B@	c #828C83",
"C@	c #535253",
"D@	c #5E5D5E",
"E@	c #98A098",
"F@	c #283F2A",
"G@	c #000200",
"H@	c #707770",
"I@	c #414240",
"J@	c #5C5C5B",
"K@	c #C0BFBF",
"L@	c #D2D1D1",
"M@	c #CBCAC9",
"N@	c #CFCECE",
"O@	c #CAC9C9",
"P@	c #C3C1C2",
"Q@	c #B6B4B4",
"R@	c #60605F",
"S@	c #484947",
"T@	c #6B756C",
"U@	c #3E4E40",
"V@	c #1D1B1B",
"W@	c #524F4F",
"X@	c #555252",
"Y@	c #423F3F",
"Z@	c #3B3938",
"`@	c #767271",
" #	c #A49C9C",
".#	c #AAA3A3",
"+#	c #C4BFBD",
"@#	c #C7C2C0",
"##	c #C0BBBA",
"$#	c #BFBAB8",
"%#	c #4B4B49",
"&#	c #585957",
"*#	c #95A095",
"=#	c #224227",
"-#	c #0B0E0B",
";#	c #829182",
">#	c #6D6D6C",
",#	c #434443",
"'#	c #868C3F",
")#	c #A1AD30",
"!#	c #C0C636",
"~#	c #E8E63A",
"{#	c #E6E63B",
"]#	c #B5BC36",
"^#	c #A5B033",
"/#	c #737A3E",
"(#	c #414241",
"_#	c #636963",
":#	c #333933",
"<#	c #4B6D4E",
"[#	c #4D4E4E",
"}#	c #506C52",
"|#	c #586959",
"1#	c #6C806D",
"2#	c #8D998E",
"3#	c #5E7B61",
"4#	c #253D28",
"5#	c #000100",
"6#	c #253526",
"7#	c #505250",
"8#	c #667667",
"9#	c #777F77",
"0#	c #252323",
"a#	c #4A494A",
"b#	c #CAC8C8",
"c#	c #DAD9D9",
"d#	c #CDCBCC",
"e#	c #CDCCCD",
"f#	c #C9C8C8",
"g#	c #CCCACB",
"h#	c #BDBCBC",
"i#	c #5B5A5A",
"j#	c #343334",
"k#	c #69716A",
"l#	c #636B64",
"m#	c #575757",
"n#	c #353D35",
"o#	c #201D1D",
"p#	c #575555",
"q#	c #595757",
"r#	c #2D2A2A",
"s#	c #0A0707",
"t#	c #6C6867",
"u#	c #9F9999",
"v#	c #A8A0A0",
"w#	c #CAC5C3",
"x#	c #C9C5C2",
"y#	c #373534",
"z#	c #504F4E",
"A#	c #A4A9A3",
"B#	c #626C63",
"C#	c #585757",
"D#	c #565655",
"E#	c #555554",
"F#	c #555454",
"G#	c #545454",
"H#	c #555555",
"I#	c #565556",
"J#	c #565555",
"K#	c #585857",
"L#	c #959E95",
"M#	c #5D5B5C",
"N#	c #8B9334",
"O#	c #AFBB36",
"P#	c #CCD23C",
"Q#	c #F6F240",
"R#	c #F4F03F",
"S#	c #C0C838",
"T#	c #B1BD37",
"U#	c #6C751D",
"V#	c #040103",
"W#	c #4C544D",
"X#	c #496B4D",
"Y#	c #464646",
"Z#	c #010000",
"`#	c #4D694F",
" $	c #090D09",
".$	c #101210",
"+$	c #040A05",
"@$	c #56765A",
"#$	c #A0A29F",
"$$	c #908E8E",
"%$	c #817F7E",
"&$	c #807C7C",
"*$	c #7E7B7B",
"=$	c #878585",
"-$	c #848181",
";$	c #888585",
">$	c #8E8C8C",
",$	c #8B8989",
"'$	c #A5A3A3",
")$	c #ACABAB",
"!$	c #908F8E",
"~$	c #888787",
"{$	c #999998",
"]$	c #818E82",
"^$	c #585656",
"/$	c #383435",
"($	c #292626",
"_$	c #4D4A4A",
":$	c #696666",
"<$	c #7C7877",
"[$	c #B8B3B1",
"}$	c #A09C9B",
"|$	c #9D9998",
"1$	c #898787",
"2$	c #8C8B8B",
"3$	c #8E8D8D",
"4$	c #8D8D8D",
"5$	c #8D8D8C",
"6$	c #8D8C8C",
"7$	c #8A8A89",
"8$	c #898888",
"9$	c #888887",
"0$	c #898988",
"a$	c #898989",
"b$	c #8A898A",
"c$	c #8A8989",
"d$	c #8A8988",
"e$	c #8B8A8A",
"f$	c #858484",
"g$	c #383737",
"h$	c #ABAD38",
"i$	c #DFE03D",
"j$	c #E7E740",
"k$	c #F8F440",
"l$	c #F7F340",
"m$	c #E3E33E",
"n$	c #DDE041",
"o$	c #878E26",
"p$	c #070203",
"q$	c #4E554E",
"r$	c #2D342E",
"s$	c #496B4C",
"t$	c #4C694F",
"u$	c #28442C",
"v$	c #3C6140",
"w$	c #6F8671",
"x$	c #939292",
"y$	c #5C5959",
"z$	c #A39F9E",
"A$	c #999594",
"B$	c #4D4949",
"C$	c #322D2C",
"D$	c #322C2C",
"E$	c #322D2D",
"F$	c #312C2C",
"G$	c #D2D1D0",
"H$	c #E1E0E0",
"I$	c #5A5B5B",
"J$	c #97A398",
"K$	c #365E3B",
"L$	c #182B1A",
"M$	c #484D48",
"N$	c #403B3C",
"O$	c #373333",
"P$	c #262323",
"Q$	c #C2BDBC",
"R$	c #CBC6C4",
"S$	c #C1BDBA",
"T$	c #030201",
"U$	c #BCBC3F",
"V$	c #FBF640",
"W$	c #FAF640",
"X$	c #FAF540",
"Y$	c #F9F440",
"Z$	c #F8F542",
"`$	c #F8F746",
" %	c #979C2C",
".%	c #060102",
"+%	c #4E564F",
"@%	c #2E342E",
"#%	c #486B4C",
"$%	c #9C9C9C",
"%%	c #4C684F",
"&%	c #6B746C",
"*%	c #919791",
"=%	c #969A95",
"-%	c #868584",
";%	c #8B8786",
">%	c #847F7F",
",%	c #494545",
"'%	c #373334",
")%	c #3F3B3B",
"!%	c #575353",
"~%	c #A5A4A4",
"{%	c #ABA9AA",
"]%	c #8B898A",
"^%	c #6E6C6C",
"/%	c #7E7C7D",
"(%	c #AAAAA8",
"_%	c #9CA09B",
":%	c #798B7A",
"<%	c #111712",
"[%	c #060F07",
"}%	c #678069",
"|%	c #929592",
"1%	c #191819",
"2%	c #656162",
"3%	c #666363",
"4%	c #454040",
"5%	c #353233",
"6%	c #1D1A1A",
"7%	c #454343",
"8%	c #A9A5A4",
"9%	c #C2BDBB",
"0%	c #C2BEBB",
"a%	c #7A7776",
"b%	c #6F6B6B",
"c%	c #383636",
"d%	c #070403",
"e%	c #424242",
"f%	c #525552",
"g%	c #4E524D",
"h%	c #4E524E",
"i%	c #4D524D",
"j%	c #4D524E",
"k%	c #4F534F",
"l%	c #4D514D",
"m%	c #4C514C",
"n%	c #4B504C",
"o%	c #4A4F4B",
"p%	c #4A4F4A",
"q%	c #505350",
"r%	c #4C514D",
"s%	c #4F5350",
"t%	c #545754",
"u%	c #585A58",
"v%	c #2F2E2E",
"w%	c #ADAF3A",
"x%	c #E4E53F",
"y%	c #ECEB3E",
"z%	c #F7F341",
"A%	c #E7E741",
"B%	c #E6E643",
"C%	c #8C9127",
"D%	c #060103",
"E%	c #303631",
"F%	c #849385",
"G%	c #7E7F7E",
"H%	c #636462",
"I%	c #A5A7A5",
"J%	c #4A684E",
"K%	c #213B24",
"L%	c #2F4E32",
"M%	c #657A67",
"N%	c #3D3F3C",
"O%	c #201F1F",
"P%	c #7B7877",
"Q%	c #A5A0A0",
"R%	c #898585",
"S%	c #332E2E",
"T%	c #322E2E",
"U%	c #373133",
"V%	c #615E5E",
"W%	c #7B7979",
"X%	c #2D292A",
"Y%	c #3A3637",
"Z%	c #9B9898",
"`%	c #CFCCCC",
" &	c #AFACAA",
".&	c #0E0C0C",
"+&	c #3F3C3E",
"@&	c #5D7460",
"#&	c #29442C",
"$&	c #172F1A",
"%&	c #061007",
"&&	c #6A836C",
"*&	c #959794",
"=&	c #181718",
"-&	c #2F2D2E",
";&	c #7C7879",
">&	c #7F7B7C",
",&	c #4E4A4A",
"'&	c #353132",
")&	c #333132",
"!&	c #343232",
"~&	c #302E2E",
"{&	c #AFABAA",
"]&	c #CAC5C4",
"^&	c #CAC6C5",
"/&	c #CAC5C5",
"(&	c #686565",
"_&	c #030100",
":&	c #7E807E",
"<&	c #6A826C",
"[&	c #3A5D3F",
"}&	c #3A5C3E",
"|&	c #3C5D40",
"1&	c #3A5C3F",
"2&	c #667767",
"3&	c #596E5B",
"4&	c #3B5D40",
"5&	c #3F6644",
"6&	c #68836A",
"7&	c #8F9B8F",
"8&	c #5F5E5F",
"9&	c #878F32",
"0&	c #AAB832",
"a&	c #CBD239",
"b&	c #F6F340",
"c&	c #F3F140",
"d&	c #BCC537",
"e&	c #ABB837",
"f&	c #69721B",
"g&	c #020000",
"h&	c #4B534C",
"i&	c #2A2F2A",
"j&	c #47634A",
"k&	c #7C877C",
"l&	c #878F86",
"m&	c #9BA69B",
"n&	c #36523A",
"o&	c #27452B",
"p&	c #809182",
"q&	c #9EA69E",
"r&	c #939893",
"s&	c #525150",
"t&	c #3E3C3C",
"u&	c #787574",
"v&	c #837F7E",
"w&	c #423D3D",
"x&	c #413C3C",
"y&	c #393435",
"z&	c #423E3F",
"A&	c #918E8E",
"B&	c #BFBBBC",
"C&	c #A6A3A2",
"D&	c #575456",
"E&	c #717D71",
"F&	c #7B8A7C",
"G&	c #899489",
"H&	c #3A443B",
"I&	c #6C846E",
"J&	c #999B98",
"K&	c #171616",
"L&	c #2F2D2D",
"M&	c #7B7778",
"N&	c #7E7A7C",
"O&	c #4E494A",
"P&	c #343132",
"Q&	c #302E2F",
"R&	c #141211",
"S&	c #A3A09F",
"T&	c #BBB8B6",
"U&	c #767372",
"V&	c #464241",
"W&	c #848483",
"X&	c #7E8A7F",
"Y&	c #616B61",
"Z&	c #576157",
"`&	c #0F2512",
" *	c #7C8A7D",
".*	c #828C82",
"+*	c #6A6969",
"@*	c #464344",
"#*	c #8B8F4D",
"$*	c #A6AE4E",
"%*	c #C0C448",
"&*	c #E2E146",
"**	c #E0E046",
"=*	c #B3BA3D",
"-*	c #A2AE3C",
";*	c #727845",
">*	c #423F41",
",*	c #7B7C7B",
"'*	c #607061",
")*	c #020202",
"!*	c #1C3C21",
"~*	c #010201",
"{*	c #050D06",
"]*	c #335838",
"^*	c #8F948F",
"/*	c #4E4D4D",
"(*	c #5A5858",
"_*	c #908D8D",
":*	c #979596",
"<*	c #73706F",
"[*	c #4B4747",
"}*	c #5C5858",
"|*	c #797474",
"1*	c #736E6E",
"2*	c #444041",
"3*	c #413D3E",
"4*	c #706C6C",
"5*	c #757171",
"6*	c #696566",
"7*	c #585555",
"8*	c #C0BCBB",
"9*	c #B7B4B4",
"0*	c #5D5E5C",
"a*	c #404240",
"b*	c #7F857F",
"c*	c #596259",
"d*	c #0D150E",
"e*	c #071008",
"f*	c #678169",
"g*	c #8E928E",
"h*	c #191718",
"i*	c #2E2D2D",
"j*	c #7B7777",
"k*	c #7D7A7B",
"l*	c #312D2E",
"m*	c #464544",
"n*	c #8F8B8A",
"o*	c #C7C3C2",
"p*	c #CBC6C5",
"q*	c #C3BFBD",
"r*	c #9D9A99",
"s*	c #3C433D",
"t*	c #616D62",
"u*	c #09130A",
"v*	c #071108",
"w*	c #4C564C",
"x*	c #828B83",
"y*	c #464745",
"z*	c #515250",
"A*	c #B0AEAD",
"B*	c #C2BFBE",
"C*	c #9E9C93",
"D*	c #858373",
"E*	c #76745F",
"F*	c #5A5927",
"G*	c #55551B",
"H*	c #444617",
"I*	c #3C4017",
"J*	c #647060",
"K*	c #617764",
"L*	c #6F8371",
"M*	c #3E4B3F",
"N*	c #020302",
"O*	c #1E291F",
"P*	c #617D64",
"Q*	c #627D65",
"R*	c #464343",
"S*	c #949292",
"T*	c #9D9A9A",
"U*	c #716D6E",
"V*	c #363130",
"W*	c #544F50",
"X*	c #7D7877",
"Y*	c #787372",
"Z*	c #4A4546",
"`*	c #3B3637",
" =	c #3B3537",
".=	c #383234",
"+=	c #393335",
"@=	c #3C3638",
"#=	c #453F41",
"$=	c #746F6F",
"%=	c #605B5C",
"&=	c #373233",
"*=	c #6D6969",
"==	c #C8C3C2",
"-=	c #BEB9B9",
";=	c #5D5B5B",
">=	c #363434",
",=	c #828682",
"'=	c #7E8F7F",
")=	c #738775",
"!=	c #383F38",
"~=	c #637A66",
"{=	c #909390",
"]=	c #2E2C2D",
"^=	c #7E7A7B",
"/=	c #4D494A",
"(=	c #1C1919",
"_=	c #120F0E",
":=	c #858180",
"<=	c #C7C2C1",
"[=	c #CAC6C4",
"}=	c #CBC7C5",
"|=	c #A19E9D",
"1=	c #383635",
"2=	c #464645",
"3=	c #939B93",
"4=	c #798C7A",
"5=	c #69816B",
"6=	c #1B2E1D",
"7=	c #5A745C",
"8=	c #778B79",
"9=	c #888E88",
"0=	c #3C3B3B",
"a=	c #B4B1B0",
"b=	c #C9C5C3",
"c=	c #7D7878",
"d=	c #666262",
"e=	c #232121",
"f=	c #100E0E",
"g=	c #060305",
"h=	c #4B5C4D",
"i=	c #040605",
"j=	c #070B07",
"k=	c #475C49",
"l=	c #8E938E",
"m=	c #7F7D7D",
"n=	c #7C7978",
"o=	c #736F6F",
"p=	c #6F6C6C",
"q=	c #545051",
"r=	c #363131",
"s=	c #444040",
"t=	c #5B5656",
"u=	c #5D5858",
"v=	c #686363",
"w=	c #676364",
"x=	c #534E4F",
"y=	c #363132",
"z=	c #484344",
"A=	c #696565",
"B=	c #676263",
"C=	c #5E5959",
"D=	c #585354",
"E=	c #464141",
"F=	c #342F30",
"G=	c #555151",
"H=	c #888484",
"I=	c #9E9B9A",
"J=	c #939190",
"K=	c #7F7F7E",
"L=	c #919290",
"M=	c #8A948B",
"N=	c #494C49",
"O=	c #808780",
"P=	c #1A191A",
"Q=	c #433F3F",
"R=	c #474342",
"S=	c #656160",
"T=	c #8E8B8A",
"U=	c #C5C1BF",
"V=	c #BAB6B4",
"W=	c #A09C9C",
"X=	c #9B9897",
"Y=	c #888686",
"Z=	c #A4A9A4",
"`=	c #406544",
" -	c #414F42",
".-	c #878B86",
"+-	c #929190",
"@-	c #9C9A99",
"#-	c #9E9C9B",
"$-	c #9F9C9B",
"%-	c #514E4D",
"&-	c #787677",
"*-	c #707A71",
"=-	c #6B746B",
"--	c #4D4B4C",
";-	c #6C766C",
">-	c #27422A",
",-	c #334435",
"'-	c #586159",
")-	c #5E5C5C",
"!-	c #A39F9F",
"~-	c #979393",
"{-	c #504C4C",
"]-	c #342E2E",
"^-	c #363030",
"/-	c #373232",
"(-	c #383233",
"_-	c #353030",
":-	c #423D3E",
"<-	c #797475",
"[-	c #7E7A7A",
"}-	c #5F5A5B",
"|-	c #353031",
"1-	c #524D4E",
"2-	c #827D7E",
"3-	c #7A7576",
"4-	c #A5A2A2",
"5-	c #A9A6A6",
"6-	c #6F6B6C",
"7-	c #322D2E",
"8-	c #4B4848",
"9-	c #BDBABA",
"0-	c #C8C6C5",
"a-	c #908D8C",
"b-	c #595958",
"c-	c #999F99",
"d-	c #494E4A",
"e-	c #818781",
"f-	c #343031",
"g-	c #565152",
"h-	c #5D5959",
"i-	c #454141",
"j-	c #050202",
"k-	c #474545",
"l-	c #C1BDBC",
"m-	c #3F3D3D",
"n-	c #040001",
"o-	c #929792",
"p-	c #2F4832",
"q-	c #314A33",
"r-	c #607362",
"s-	c #747674",
"t-	c #7F7D7C",
"u-	c #C5C1C0",
"v-	c #8C8887",
"w-	c #7E7978",
"x-	c #656B65",
"y-	c #627A64",
"z-	c #5B595A",
"A-	c #9C9E9B",
"B-	c #3A5F3E",
"C-	c #1A311C",
"D-	c #768978",
"E-	c #828A82",
"F-	c #798179",
"G-	c #6F706D",
"H-	c #535150",
"I-	c #696665",
"J-	c #8F8B89",
"K-	c #4A4646",
"L-	c #373231",
"M-	c #383333",
"N-	c #403B3B",
"O-	c #6A6666",
"P-	c #605C5C",
"Q-	c #504B4B",
"R-	c #726E6E",
"S-	c #464242",
"T-	c #BAB7B7",
"U-	c #BEBBBB",
"V-	c #7B7878",
"W-	c #413C3D",
"X-	c #555152",
"Y-	c #A19E9E",
"Z-	c #B0ADAC",
"`-	c #8F8B8B",
" ;	c #676565",
".;	c #777575",
"+;	c #979A96",
"@;	c #868D86",
"#;	c #809081",
"$;	c #151915",
"%;	c #363334",
"&;	c #403D3D",
"*;	c #312E2E",
"=;	c #4C4948",
"-;	c #A7A3A2",
";;	c #AEAAA9",
">;	c #767272",
",;	c #6A6867",
"';	c #939491",
");	c #91958F",
"!;	c #3D463E",
"~;	c #090B09",
"{;	c #859486",
"];	c #878E87",
"^;	c #838A83",
"/;	c #81807F",
"(;	c #686564",
"_;	c #8E8A89",
":;	c #B5B1B0",
"<;	c #B2AEAD",
"[;	c #7C7777",
"};	c #6D6868",
"|;	c #5D5C5C",
"1;	c #474B48",
"2;	c #8B8E8B",
"3;	c #525452",
"4;	c #537056",
"5;	c #545253",
"6;	c #A2A3A0",
"7;	c #395E3E",
"8;	c #17301A",
"9;	c #6A7C6B",
"0;	c #252324",
"a;	c #7F7C7B",
"b;	c #A6A29F",
"c;	c #888382",
"d;	c #353131",
"e;	c #817D7E",
"f;	c #716D6D",
"g;	c #B9B6B6",
"h;	c #706D6D",
"i;	c #A3A0A0",
"j;	c #4B4748",
"k;	c #3E3A3A",
"l;	c #979493",
"m;	c #CEC9C9",
"n;	c #B3AFAF",
"o;	c #1A1718",
"p;	c #3C393B",
"q;	c #162F19",
"r;	c #3B3839",
"s;	c #5B5757",
"t;	c #5B5858",
"u;	c #555352",
"v;	c #191516",
"w;	c #B1ADAB",
"x;	c #CAC7C5",
"y;	c #CCC8C6",
"z;	c #0B0507",
"A;	c #535C54",
"B;	c #3D5240",
"C;	c #1E3E22",
"D;	c #152B18",
"E;	c #27432A",
"F;	c #97A298",
"G;	c #4F4E4F",
"H;	c #A5A1A0",
"I;	c #B3AEAD",
"J;	c #85807F",
"K;	c #797473",
"L;	c #302D2C",
"M;	c #858A85",
"N;	c #5C775F",
"O;	c #5D715F",
"P;	c #223024",
"Q;	c #A1A3A1",
"R;	c #4A5C4C",
"S;	c #5F6D60",
"T;	c #8B938B",
"U;	c #7C7878",
"V;	c #9D9895",
"W;	c #413D3C",
"X;	c #393535",
"Y;	c #403A3B",
"Z;	c #686464",
"`;	c #7A7677",
" >	c #403C3C",
".>	c #3B3636",
"+>	c #BCB9B9",
"@>	c #706C6D",
"#>	c #545050",
"$>	c #938E8E",
"%>	c #C3BEBD",
"&>	c #ABA6A6",
"*>	c #373433",
"=>	c #90968F",
"->	c #768678",
";>	c #1D3120",
">>	c #494E49",
",>	c #1B1A1B",
"'>	c #3A3839",
")>	c #575454",
"!>	c #5A5757",
"~>	c #242222",
"{>	c #171314",
"]>	c #A6A2A1",
"^>	c #BEBAB9",
"/>	c #C9C5C4",
"(>	c #CDC8C7",
"_>	c #CFCCCA",
":>	c #7F7C7C",
"<>	c #434243",
"[>	c #7C7D7C",
"}>	c #9BA39C",
"|>	c #96A197",
"1>	c #6B7A6C",
"2>	c #202F22",
"3>	c #6B7E6D",
"4>	c #819082",
"5>	c #A0A6A0",
"6>	c #5C5A5B",
"7>	c #363536",
"8>	c #C4C0BE",
"9>	c #ACA8A6",
"0>	c #7D7876",
"a>	c #736F6D",
"b>	c #494647",
"c>	c #3E3D3E",
"d>	c #878D87",
"e>	c #3A603F",
"f>	c #030703",
"g>	c #A0A2A0",
"h>	c #345337",
"i>	c #9A9E9A",
"j>	c #333833",
"k>	c #565554",
"l>	c #918E8C",
"m>	c #989491",
"n>	c #706C6B",
"o>	c #484443",
"p>	c #5C5757",
"q>	c #7A7575",
"r>	c #726D6E",
"s>	c #635F5F",
"t>	c #746F70",
"u>	c #5F5C5C",
"v>	c #716C6C",
"w>	c #676463",
"x>	c #9B9796",
"y>	c #959290",
"z>	c #585756",
"A>	c #434543",
"B>	c #848A84",
"C>	c #626862",
"D>	c #4A504A",
"E>	c #818780",
"F>	c #555353",
"G>	c #545252",
"H>	c #4B4948",
"I>	c #484646",
"J>	c #8D8A89",
"K>	c #C6C2C1",
"L>	c #CCC7C6",
"M>	c #DDDBDA",
"N>	c #E2E1E0",
"O>	c #AEACAD",
"P>	c #5C5E5C",
"Q>	c #2F3F31",
"R>	c #687769",
"S>	c #4B4C4A",
"T>	c #5B5B5A",
"U>	c #B7B5B5",
"V>	c #D3D2D2",
"W>	c #A09D9D",
"X>	c #898584",
"Y>	c #716D6C",
"Z>	c #343231",
"`>	c #41413F",
" ,	c #878F87",
".,	c #8F9A90",
"+,	c #8E9B8E",
"@,	c #3B5E3F",
"#,	c #A0A3A0",
"$,	c #263727",
"%,	c #566C58",
"&,	c #9FA09E",
"*,	c #454242",
"=,	c #95918F",
"-,	c #9E9996",
";,	c #6E6968",
">,	c #312C2D",
",,	c #555050",
"',	c #7E7979",
"),	c #767172",
"!,	c #494445",
"~,	c #3A3535",
"{,	c #393434",
"],	c #383334",
"^,	c #777373",
"/,	c #938F8F",
"(,	c #7D7A7A",
"_,	c #7D797A",
":,	c #777374",
"<,	c #ACA9A9",
"[,	c #848182",
"},	c #413B3D",
"|,	c #868383",
"1,	c #747070",
"2,	c #615D5E",
"3,	c #5A5656",
"4,	c #9F9B9A",
"5,	c #9B9795",
"6,	c #4A4746",
"7,	c #282627",
"8,	c #838682",
"9,	c #787D78",
"0,	c #303931",
"a,	c #69826B",
"b,	c #969895",
"c,	c #2D2B2D",
"d,	c #373536",
"e,	c #797677",
"f,	c #7B7879",
"g,	c #373435",
"h,	c #141111",
"i,	c #827F7F",
"j,	c #C3BFBE",
"k,	c #E0DFDF",
"l,	c #EEEDEC",
"m,	c #F0EEEE",
"n,	c #E6E6E5",
"o,	c #A5A6A4",
"p,	c #4B4B4A",
"q,	c #878B87",
"r,	c #454844",
"s,	c #464A46",
"t,	c #6C716C",
"u,	c #8F928E",
"v,	c #393738",
"w,	c #4D4C4C",
"x,	c #C6C4C4",
"y,	c #E5E3E3",
"z,	c #9E9C9C",
"A,	c #7D7978",
"B,	c #2C2A2A",
"C,	c #383B38",
"D,	c #546056",
"E,	c #050505",
"F,	c #0A0C0A",
"G,	c #020402",
"H,	c #526F55",
"I,	c #507254",
"J,	c #6D726D",
"K,	c #828180",
"L,	c #7E7A79",
"M,	c #797573",
"N,	c #75716F",
"O,	c #726F6D",
"P,	c #54504F",
"Q,	c #454041",
"R,	c #5E595A",
"S,	c #5F5B5B",
"T,	c #514C4C",
"U,	c #686364",
"V,	c #585454",
"W,	c #A19F9F",
"X,	c #8E8B8B",
"Y,	c #595556",
"Z,	c #5C5859",
"`,	c #625D5E",
" '	c #484243",
".'	c #646060",
"+'	c #605B5B",
"@'	c #4D4849",
"#'	c #737070",
"$'	c #74706F",
"%'	c #7E7B7A",
"&'	c #807F7E",
"*'	c #7B7E7A",
"='	c #7A807A",
"-'	c #4C644F",
";'	c #7A897B",
">'	c #556657",
",'	c #818481",
"''	c #555253",
")'	c #635F60",
"!'	c #534F50",
"~'	c #343233",
"{'	c #5E5B5B",
"]'	c #605D5E",
"^'	c #8A8686",
"/'	c #969392",
"('	c #DCDADA",
"_'	c #EFEEEE",
":'	c #F2F0F0",
"<'	c #EAE9E8",
"['	c #CACAC9",
"}'	c #9FA19F",
"|'	c #A7A6A7",
"1'	c #7F807E",
"2'	c #6F746E",
"3'	c #767A76",
"4'	c #999695",
"5'	c #9C9999",
"6'	c #A3A1A1",
"7'	c #ABA9A9",
"8'	c #777474",
"9'	c #555051",
"0'	c #7B817B",
"a'	c #5D6E5F",
"b'	c #5A6A5C",
"c'	c #080D09",
"d'	c #6A7F6B",
"e'	c #535252",
"f'	c #A1A3A0",
"g'	c #4A6D4E",
"h'	c #A49F9E",
"i'	c #96918F",
"j'	c #363233",
"k'	c #474343",
"l'	c #787475",
"m'	c #5E5A5A",
"n'	c #332E2F",
"o'	c #565252",
"p'	c #807B7C",
"q'	c #797575",
"r'	c #B0ADAD",
"s'	c #858182",
"t'	c #787474",
"u'	c #797576",
"v'	c #989391",
"w'	c #A19D9B",
"x'	c #767273",
"y'	c #050405",
"z'	c #474846",
"A'	c #627A65",
"B'	c #3D6241",
"C'	c #182A1A",
"D'	c #061107",
"E'	c #243927",
"F'	c #283A2B",
"G'	c #889289",
"H'	c #0F0D0D",
"I'	c #353333",
"J'	c #3B3939",
"K'	c #767373",
"L'	c #6A6667",
"M'	c #D9D8D8",
"N'	c #D9DBD8",
"O'	c #B7BEB6",
"P'	c #AFB4AE",
"Q'	c #403E3F",
"R'	c #090507",
"S'	c #0B0708",
"T'	c #7E7C7C",
"U'	c #C4C0C0",
"V'	c #8B8787",
"W'	c #494646",
"X'	c #030001",
"Y'	c #797A78",
"Z'	c #718672",
"`'	c #2E4130",
" )	c #223023",
".)	c #0C0F0C",
"+)	c #7A8A7B",
"@)	c #535152",
"#)	c #9EA09D",
"$)	c #507053",
"%)	c #545854",
"&)	c #63605F",
"*)	c #4F4C4C",
"=)	c #353231",
"-)	c #363231",
";)	c #353232",
">)	c #6C6768",
",)	c #716C6D",
"')	c #484445",
"))	c #6C6767",
"!)	c #4F4A4B",
"~)	c #403C3D",
"{)	c #878382",
"])	c #908C8B",
"^)	c #757271",
"/)	c #504D4D",
"()	c #646262",
"_)	c #959995",
":)	c #8A918A",
"<)	c #58745B",
"[)	c #070F08",
"})	c #657666",
"|)	c #201E1F",
"1)	c #100F0E",
"2)	c #7F7B7B",
"3)	c #666263",
"4)	c #636061",
"5)	c #636060",
"6)	c #787575",
"7)	c #6D696A",
"8)	c #4F4B4B",
"9)	c #BCBABA",
"0)	c #C5C3C3",
"a)	c #DCDBDB",
"b)	c #D2D5D0",
"c)	c #A3AEA3",
"d)	c #5D7A60",
"e)	c #B5BBB5",
"f)	c #70716F",
"g)	c #626362",
"h)	c #3A3939",
"i)	c #B4B1B1",
"j)	c #7A7777",
"k)	c #6E6A6B",
"l)	c #5F5E5D",
"m)	c #575A57",
"n)	c #637E66",
"o)	c #081309",
"p)	c #0B0F0C",
"q)	c #788879",
"r)	c #010101",
"s)	c #6A816C",
"t)	c #6A6A6A",
"u)	c #635F5E",
"v)	c #A49F9B",
"w)	c #4F4D4C",
"x)	c #343332",
"y)	c #807C7D",
"z)	c #6D6869",
"A)	c #3A3536",
"B)	c #817C7D",
"C)	c #342F2F",
"D)	c #656262",
"E)	c #7A7676",
"F)	c #928E8E",
"G)	c #322F31",
"H)	c #5D755F",
"I)	c #000300",
"J)	c #6F7D70",
"K)	c #1F1D1E",
"L)	c #595857",
"M)	c #5E5C5B",
"N)	c #797676",
"O)	c #1F1A1B",
"P)	c #BFBFBF",
"Q)	c #E9E9E8",
"R)	c #C4C9C3",
"S)	c #607E63",
"T)	c #6E7D6F",
"U)	c #879387",
"V)	c #ACB4AC",
"W)	c #9A9A99",
"X)	c #7D7B7B",
"Y)	c #7D7B7A",
"Z)	c #717971",
"`)	c #79857A",
" !	c #798579",
".!	c #537256",
"+!	c #595D5A",
"@!	c #A59F9C",
"#!	c #96928F",
"$!	c #3A3636",
"%!	c #646061",
"&!	c #6B6767",
"*!	c #3F3A3A",
"=!	c #433E3F",
"-!	c #656061",
";!	c #6E6A6A",
">!	c #6B6868",
",!	c #4F4B4C",
"'!	c #3E393A",
")!	c #423E3E",
"!!	c #9F9A9A",
"~!	c #2D2B2B",
"{!	c #434142",
"]!	c #818681",
"^!	c #6B776C",
"/!	c #1F3221",
"(!	c #5A6F5D",
"_!	c #211F20",
":!	c #3A3838",
"<!	c #3E3B3B",
"[!	c #BAB8B8",
"}!	c #DAD9D8",
"|!	c #D4D5D3",
"1!	c #738A75",
"2!	c #000800",
"3!	c #001900",
"4!	c #859286",
"5!	c #A0A09E",
"6!	c #898686",
"7!	c #747271",
"8!	c #323232",
"9!	c #6E776E",
"0!	c #5D7860",
"a!	c #636563",
"b!	c #97928F",
"c!	c #5D595A",
"d!	c #585455",
"e!	c #726E6F",
"f!	c #454142",
"g!	c #736E6F",
"h!	c #635E5F",
"i!	c #7B7677",
"j!	c #474243",
"k!	c #6C696A",
"l!	c #878484",
"m!	c #5F5B5C",
"n!	c #999696",
"o!	c #949191",
"p!	c #5F5F5E",
"q!	c #4A4B49",
"r!	c #3B493C",
"s!	c #586D5A",
"t!	c #393737",
"u!	c #7F7A7B",
"v!	c #999494",
"w!	c #9B9797",
"x!	c #747171",
"y!	c #5F5E5E",
"z!	c #9C9B9A",
"A!	c #718774",
"B!	c #112113",
"C!	c #49634C",
"D!	c #A3ABA3",
"E!	c #9BA49A",
"F!	c #919490",
"G!	c #444242",
"H!	c #515050",
"I!	c #BDBBBB",
"J!	c #D6D4D4",
"K!	c #A3ABA2",
"L!	c #030303",
"M!	c #496D4D",
"N!	c #5B5F5B",
"O!	c #171517",
"P!	c #A29D9A",
"Q!	c #95908D",
"R!	c #514D4D",
"S!	c #383433",
"T!	c #393536",
"U!	c #787374",
"V!	c #615C5D",
"W!	c #352F31",
"X!	c #7F7A7A",
"Y!	c #838080",
"Z!	c #757172",
"`!	c #625E5F",
" ~	c #393334",
".~	c #9F9D9C",
"+~	c #9A9797",
"@~	c #494747",
"#~	c #201E1E",
"$~	c #566257",
"%~	c #4F5C50",
"&~	c #3A413A",
"*~	c #1F3021",
"=~	c #5E725F",
"-~	c #2C2A2B",
";~	c #706B6C",
">~	c #7D7979",
",~	c #353334",
"'~	c #333131",
")~	c #545151",
"!~	c #807A7A",
"~~	c #807B7B",
"{~	c #A19B9B",
"]~	c #A59F9F",
"^~	c #333130",
"/~	c #8C998C",
"(~	c #778B78",
"_~	c #5A6E5C",
":~	c #4C544C",
"<~	c #889088",
"[~	c #403F3F",
"}~	c #4C4B4B",
"|~	c #BCBCBB",
"1~	c #DBDBD9",
"2~	c #7E9080",
"3~	c #537456",
"4~	c #919891",
"5~	c #677269",
"6~	c #7B7D7A",
"7~	c #6F6B69",
"8~	c #706C6A",
"9~	c #7F7A79",
"0~	c #342F2E",
"a~	c #4A4545",
"b~	c #464243",
"c~	c #615C5C",
"d~	c #615D5D",
"e~	c #666162",
"f~	c #676363",
"g~	c #656161",
"h~	c #4D484A",
"i~	c #4E4A4B",
"j~	c #524E4E",
"k~	c #645F60",
"l~	c #605C5D",
"m~	c #4E4949",
"n~	c #484444",
"o~	c #757373",
"p~	c #70706E",
"q~	c #5D655C",
"r~	c #677067",
"s~	c #768476",
"t~	c #6B806D",
"u~	c #606D62",
"v~	c #787F79",
"w~	c #646362",
"x~	c #535051",
"y~	c #5A5657",
"z~	c #605D5D",
"A~	c #383536",
"B~	c #535050",
"C~	c #938F8D",
"D~	c #96918E",
"E~	c #A19C9A",
"F~	c #8A8584",
"G~	c #817B7B",
"H~	c #9B9A99",
"I~	c #9F9E9D",
"J~	c #909490",
"K~	c #495249",
"L~	c #838983",
"M~	c #858984",
"N~	c #8F8E8E",
"O~	c #7E887F",
"P~	c #28392A",
"Q~	c #515651",
"R~	c #516A54",
"S~	c #9B9E9B",
"T~	c #100F0F",
"U~	c #434040",
"V~	c #A09B9C",
"W~	c #332D2D",
"X~	c #595555",
"Y~	c #443F40",
"Z~	c #373234",
"`~	c #7E797A",
" {	c #7C7778",
".{	c #959191",
"+{	c #050102",
"@{	c #4F504E",
"#{	c #95A195",
"${	c #3B6240",
"%{	c #192B1B",
"&{	c #313F32",
"*{	c #333F35",
"={	c #8D948D",
"-{	c #5A5C5A",
";{	c #060303",
">{	c #3B3838",
",{	c #525050",
"'{	c #7F7B78",
"){	c #8F8B87",
"!{	c #A29D99",
"~{	c #A39E9A",
"{{	c #A59E9E",
"]{	c #857F7F",
"^{	c #3C3838",
"/{	c #494A48",
"({	c #879287",
"_{	c #456749",
":{	c #3F6243",
"<{	c #0E1B10",
"[{	c #384539",
"}{	c #959F95",
"|{	c #5F6C61",
"1{	c #3F6444",
"2{	c #2C462F",
"3{	c #9D9E9B",
"4{	c #586D59",
"5{	c #A2A7A3",
"6{	c #656563",
"7{	c #8B8888",
"8{	c #726E6D",
"9{	c #5A5555",
"0{	c #403A3C",
"a{	c #363232",
"b{	c #403C3B",
"c{	c #524F4E",
"d{	c #696767",
"e{	c #A5A8A4",
"f{	c #9FA49F",
"g{	c #7A8C7C",
"h{	c #0E130F",
"i{	c #848B84",
"j{	c #090605",
"k{	c #524F50",
"l{	c #676464",
"m{	c #7D7879",
"n{	c #8F8A87",
"o{	c #A39D9A",
"p{	c #8C8686",
"q{	c #5F5B5A",
"r{	c #686665",
"s{	c #A6A7A4",
"t{	c #ABAEAA",
"u{	c #A4ACA4",
"v{	c #0B0D0B",
"w{	c #929E92",
"x{	c #707271",
"y{	c #616361",
"z{	c #8F918F",
"A{	c #9B9F9A",
"B{	c #9AA09A",
"C{	c #5D7960",
"D{	c #081209",
"E{	c #050B06",
"F{	c #59745C",
"G{	c #395F3F",
"H{	c #314A34",
"I{	c #556A57",
"J{	c #627664",
"K{	c #969D96",
"L{	c #807B7A",
"M{	c #A4A09E",
"N{	c #383332",
"O{	c #363032",
"P{	c #787676",
"Q{	c #362F31",
"R{	c #777371",
"S{	c #A49F9D",
"T{	c #928E8C",
"U{	c #526B55",
"V{	c #090F09",
"W{	c #051E09",
"X{	c #909990",
"Y{	c #5C5D5B",
"Z{	c #060403",
"`{	c #80797A",
" ]	c #817A78",
".]	c #908A87",
"+]	c #A49C9A",
"@]	c #A49D9A",
"#]	c #A59D9C",
"$]	c #A59E9D",
"%]	c #9E9896",
"&]	c #292325",
"*]	c #A8AAA7",
"=]	c #365E3A",
"-]	c #466149",
";]	c #9DA79E",
">]	c #80807F",
",]	c #141112",
"']	c #777776",
")]	c #5E7A60",
"!]	c #000400",
"~]	c #0C100D",
"{]	c #7D8D7E",
"]]	c #575657",
"^]	c #2A3A2C",
"/]	c #84807F",
"(]	c #3D393A",
"_]	c #3C3738",
":]	c #3D3839",
"<]	c #B5B2B2",
"[]	c #383232",
"}]	c #7A7675",
"|]	c #A39F9C",
"1]	c #131212",
"2]	c #272425",
"3]	c #4F6952",
"4]	c #080E09",
"5]	c #041E08",
"6]	c #8F988F",
"7]	c #686968",
"8]	c #3C3839",
"9]	c #837C7B",
"0]	c #837D7B",
"a]	c #928C89",
"b]	c #A69D9B",
"c]	c #A69E9C",
"d]	c #9F9896",
"e]	c #B2B1B1",
"f]	c #A0A79F",
"g]	c #7E867D",
"h]	c #383E38",
"i]	c #758275",
"j]	c #858684",
"k]	c #333133",
"l]	c #818180",
"m]	c #747D74",
"n]	c #576257",
"o]	c #070C08",
"p]	c #5A595A",
"q]	c #1E3320",
"r]	c #647E67",
"s]	c #657967",
"t]	c #6B7C6C",
"u]	c #878586",
"v]	c #3A3736",
"w]	c #9B9695",
"x]	c #3D3837",
"y]	c #6F6A6A",
"z]	c #787373",
"A]	c #8E8A88",
"B]	c #A49F9C",
"C]	c #141213",
"D]	c #272326",
"E]	c #485F4A",
"F]	c #6D806F",
"G]	c #677A69",
"H]	c #6A706A",
"I]	c #333031",
"J]	c #535151",
"K]	c #7F7C7D",
"L]	c #807A7B",
"M]	c #999391",
"N]	c #A29A98",
"O]	c #A39B99",
"P]	c #A59C9A",
"Q]	c #9C9794",
"R]	c #9A9693",
"S]	c #5A5958",
"T]	c #787E78",
"U]	c #4A504B",
"V]	c #161D17",
"W]	c #436046",
"X]	c #728574",
"Y]	c #728374",
"Z]	c #848984",
"`]	c #515150",
" ^	c #59655B",
".^	c #031204",
"+^	c #050A05",
"@^	c #557259",
"#^	c #030604",
"$^	c #5B775E",
"%^	c #838482",
"&^	c #100D0E",
"*^	c #5F5D5D",
"=^	c #979392",
"-^	c #534F4F",
";^	c #524E4F",
">^	c #514E4E",
",^	c #444141",
"'^	c #757272",
")^	c #504C4D",
"!^	c #3A3436",
"~^	c #757071",
"{^	c #7C797A",
"]^	c #373332",
"^^	c #757070",
"/^	c #918D8B",
"(^	c #94908E",
"_^	c #262326",
":^	c #0A150C",
"<^	c #5F7C62",
"[^	c #7C827C",
"}^	c #282527",
"|^	c #1E1D1D",
"1^	c #302F2F",
"2^	c #6A6868",
"3^	c #9C9593",
"4^	c #A6A09D",
"5^	c #625E5D",
"6^	c #747672",
"7^	c #939E93",
"8^	c #8D998D",
"9^	c #505650",
"0^	c #0A1C0D",
"a^	c #030403",
"b^	c #565C56",
"c^	c #8D938C",
"d^	c #3A3B39",
"e^	c #7C887D",
"f^	c #6D856F",
"g^	c #465247",
"h^	c #1B2F1D",
"i^	c #557158",
"j^	c #58775B",
"k^	c #909890",
"l^	c #7C847C",
"m^	c #848582",
"n^	c #726F6E",
"o^	c #7D7A78",
"p^	c #7F7A78",
"q^	c #645F5F",
"r^	c #4B4646",
"s^	c #676262",
"t^	c #696465",
"u^	c #464142",
"v^	c #4C4849",
"w^	c #5E5A5B",
"x^	c #605C5B",
"y^	c #A39E9D",
"z^	c #94908F",
"A^	c #506952",
"B^	c #49614B",
"C^	c #5E6E5F",
"D^	c #777C77",
"E^	c #323031",
"F^	c #211F1F",
"G^	c #373434",
"H^	c #9B9694",
"I^	c #A49E9A",
"J^	c #958F8D",
"K^	c #928C8A",
"L^	c #6A6968",
"M^	c #999898",
"N^	c #A2A1A1",
"O^	c #9BA59B",
"P^	c #183B1E",
"Q^	c #585D58",
"R^	c #AEB1AC",
"S^	c #848684",
"T^	c #828D83",
"U^	c #3C6141",
"V^	c #0A0E0B",
"W^	c #738675",
"X^	c #5A5859",
"Y^	c #213423",
"Z^	c #3E473F",
"`^	c #5B725D",
" /	c #111010",
"./	c #413F3E",
"+/	c #A29C9A",
"@/	c #746F6E",
"#/	c #373131",
"$/	c #615C5E",
"%/	c #504B4C",
"&/	c #3E3A3B",
"*/	c #797574",
"=/	c #A39E9E",
"-/	c #131112",
";/	c #080F09",
">/	c #1F3522",
",/	c #354236",
"'/	c #808D80",
")/	c #383738",
"!/	c #030202",
"~/	c #050406",
"{/	c #070405",
"]/	c #9B9593",
"^/	c #A39A98",
"//	c #88817F",
"(/	c #807A78",
"_/	c #686463",
":/	c #585655",
"</	c #50504F",
"[/	c #ACB1AB",
"}/	c #6A806C",
"|/	c #607962",
"1/	c #B9BCB7",
"2/	c #CCC9C7",
"3/	c #C1BEBD",
"4/	c #565352",
"5/	c #466D4B",
"6/	c #2E4631",
"7/	c #111211",
"8/	c #8B988B",
"9/	c #575556",
"0/	c #325737",
"a/	c #575855",
"b/	c #908C89",
"c/	c #75706F",
"d/	c #625E5E",
"e/	c #6F6A6B",
"f/	c #4C4748",
"g/	c #5B5657",
"h/	c #3D3939",
"i/	c #706D6C",
"j/	c #3B3635",
"k/	c #577059",
"l/	c #3C3A3C",
"m/	c #020102",
"n/	c #111D3B",
"o/	c #132248",
"p/	c #4C4C59",
"q/	c #6E6B6C",
"r/	c #736E6D",
"s/	c #9E9695",
"t/	c #9B9492",
"u/	c #867F7E",
"v/	c #6E6969",
"w/	c #403E3E",
"x/	c #B9B9B8",
"y/	c #CBCBCA",
"z/	c #D3D3D1",
"A/	c #DBDBDA",
"B/	c #D6D4D3",
"C/	c #C2BEBD",
"D/	c #5F5D5C",
"E/	c #989896",
"F/	c #969B95",
"G/	c #A8AEA7",
"H/	c #515551",
"I/	c #7F8E80",
"J/	c #2A462D",
"K/	c #566B58",
"L/	c #667367",
"M/	c #6D776E",
"N/	c #353A35",
"O/	c #272525",
"P/	c #8B8685",
"Q/	c #706B6B",
"R/	c #3B3737",
"S/	c #383434",
"T/	c #141212",
"U/	c #0F2914",
"V/	c #061D0A",
"W/	c #1D3E22",
"X/	c #1E4124",
"Y/	c #1F4124",
"Z/	c #6D816F",
"`/	c #393739",
" (	c #28427B",
".(	c #2B4E96",
"+(	c #233B70",
"@(	c #131219",
"#(	c #2E2B2B",
"$(	c #9C9694",
"%(	c #A49E9C",
"&(	c #979190",
"*(	c #817D7C",
"=(	c #2D2A2B",
"-(	c #171717",
";(	c #A4A1A0",
">(	c #CBC8C7",
",(	c #CBC7C6",
"'(	c #C6C3C0",
")(	c #C8C4C2",
"!(	c #797776",
"~(	c #1C191A",
"{(	c #878686",
"](	c #606A60",
"^(	c #748775",
"/(	c #5E5C5D",
"((	c #454D45",
"_(	c #3C403C",
":(	c #312E2F",
"<(	c #898483",
"[(	c #3E3A39",
"}(	c #393534",
"|(	c #3F3A3B",
"1(	c #2F3730",
"2(	c #859185",
"3(	c #758176",
"4(	c #9EA79E",
"5(	c #A1AAA1",
"6(	c #A0AAA1",
"7(	c #A0A9A0",
"8(	c #A0A8A0",
"9(	c #B4B6B3",
"0(	c #1D1C22",
"a(	c #294179",
"b(	c #294B92",
"c(	c #22396C",
"d(	c #0F0F13",
"e(	c #2C2928",
"f(	c #9A9593",
"g(	c #A49D9B",
"h(	c #A39D9B",
"i(	c #A39C9A",
"j(	c #151111",
"k(	c #C7C5C1",
"l(	c #C8C6C2",
"m(	c #7D7A79",
"n(	c #828181",
"o(	c #A8ADA8",
"p(	c #A3A8A3",
"q(	c #A2A4A2",
"r(	c #485A4A",
"s(	c #718173",
"t(	c #413D3D",
"u(	c #A39F9B",
"v(	c #4A514B",
"w(	c #868C86",
"x(	c #3C3F3C",
"y(	c #484948",
"z(	c #5C5B5B",
"A(	c #4D4C53",
"B(	c #101A36",
"C(	c #1E3565",
"D(	c #29488A",
"E(	c #294785",
"F(	c #2C2C31",
"G(	c #2D2B2A",
"H(	c #757170",
"I(	c #85807E",
"J(	c #928D8B",
"K(	c #A39E9B",
"L(	c #A4A09C",
"M(	c #A59E9B",
"N(	c #8E8887",
"O(	c #8A8685",
"P(	c #999593",
"Q(	c #9B9794",
"R(	c #999592",
"S(	c #999493",
"T(	c #4A4848",
"U(	c #898684",
"V(	c #C4C0BD",
"W(	c #C9C4C2",
"X(	c #C8C5C2",
"Y(	c #C1BCBA",
"Z(	c #BEBAB8",
"`(	c #565454",
" _	c #7D847C",
"._	c #395D3E",
"+_	c #617B63",
"@_	c #8D8D8B",
"#_	c #090408",
"$_	c #514D4E",
"%_	c #443F3F",
"&_	c #494546",
"*_	c #7C7979",
"=_	c #94908D",
"-_	c #172A1A",
";_	c #525953",
">_	c #7D8F7E",
",_	c #929591",
"'_	c #181617",
")_	c #151313",
"!_	c #151314",
"~_	c #171515",
"{_	c #191716",
"]_	c #A19D9C",
"^_	c #53504F",
"/_	c #253866",
"(_	c #2B4E95",
"__	c #294A8E",
":_	c #0C0F22",
"<_	c #050305",
"[_	c #7D7977",
"}_	c #8E8A87",
"|_	c #A29E9A",
"1_	c #A59C9C",
"2_	c #8B8483",
"3_	c #7F7B7A",
"4_	c #8F8A89",
"5_	c #A19D99",
"6_	c #605D5C",
"7_	c #C2BEBC",
"8_	c #A4A09F",
"9_	c #393736",
"0_	c #161515",
"a_	c #0A0806",
"b_	c #060405",
"c_	c #4B5D4C",
"d_	c #010202",
"e_	c #838E84",
"f_	c #636F64",
"g_	c #777876",
"h_	c #7B7675",
"i_	c #5D5958",
"j_	c #363031",
"k_	c #514C4D",
"l_	c #868280",
"m_	c #938E8C",
"n_	c #272426",
"o_	c #506953",
"p_	c #596B5B",
"q_	c #7F8780",
"r_	c #979796",
"s_	c #AFADAC",
"t_	c #989694",
"u_	c #878383",
"v_	c #928F8E",
"w_	c #B1AEAD",
"x_	c #8A8A94",
"y_	c #293B6B",
"z_	c #1E3567",
"A_	c #1D376C",
"B_	c #21386B",
"C_	c #4D4D58",
"D_	c #575352",
"E_	c #908B88",
"F_	c #918D8A",
"G_	c #938C8B",
"H_	c #857F7E",
"I_	c #817D7D",
"J_	c #918C8A",
"K_	c #948F8D",
"L_	c #9A9592",
"M_	c #6D6A69",
"N_	c #646160",
"O_	c #8A8785",
"P_	c #94918F",
"Q_	c #BFBBB9",
"R_	c #B9B5B3",
"S_	c #495B4B",
"T_	c #333E34",
"U_	c #536C55",
"V_	c #858B86",
"W_	c #141312",
"X_	c #3C3939",
"Y_	c #959291",
"Z_	c #A09B99",
"`_	c #7D7778",
" :	c #918E8B",
".:	c #928E8B",
"+:	c #040805",
"@:	c #040304",
"#:	c #556656",
"$:	c #414742",
"%:	c #1B1A1A",
"&:	c #E8E7E5",
"*:	c #E6E4E2",
"=:	c #C8C3C1",
"-:	c #ACA7A5",
";:	c #B4AFAD",
">:	c #BCB9B7",
",:	c #3D3A39",
"':	c #EAE8E5",
"):	c #B7B5B4",
"!:	c #282729",
"~:	c #284A91",
"{:	c #2C4F98",
"]:	c #19294E",
"^:	c #0C090A",
"/:	c #7D7976",
"(:	c #7F7B79",
"_:	c #807B79",
"::	c #837E7E",
"<:	c #9E9A96",
"[:	c #5A5655",
"}:	c #1C1A19",
"|:	c #464342",
"1:	c #B7B2B1",
"2:	c #C9C4C3",
"3:	c #355639",
"4:	c #060406",
"5:	c #325436",
"6:	c #778478",
"7:	c #3C403B",
"8:	c #696667",
"9:	c #666464",
"0:	c #777272",
"a:	c #5F7862",
"b:	c #7B887D",
"c:	c #748076",
"d:	c #6D6D6B",
"e:	c #ACAAA9",
"f:	c #E4E2E1",
"g:	c #E0DDDC",
"h:	c #BDB9B6",
"i:	c #BBB7B4",
"j:	c #AEAAA7",
"k:	c #AAA6A3",
"l:	c #BBB7B5",
"m:	c #CFCBC9",
"n:	c #C5C2C1",
"o:	c #716F6E",
"p:	c #646261",
"q:	c #BFBCBB",
"r:	c #D6D4D2",
"s:	c #696867",
"t:	c #616066",
"u:	c #33487F",
"v:	c #2C4681",
"w:	c #1B2B51",
"x:	c #121E3D",
"y:	c #4B4C59",
"z:	c #716D6F",
"A:	c #847F7D",
"B:	c #858080",
"C:	c #9F9A97",
"D:	c #A19C99",
"E:	c #9F9997",
"F:	c #9E9897",
"G:	c #2A2727",
"H:	c #B7B3B1",
"I:	c #545251",
"J:	c #929291",
"K:	c #707E71",
"L:	c #79877A",
"M:	c #445B47",
"N:	c #687569",
"O:	c #8D968D",
"P:	c #454744",
"Q:	c #989696",
"R:	c #E0DFDE",
"S:	c #AEADAD",
"T:	c #3B3535",
"U:	c #383335",
"V:	c #7A7574",
"W:	c #938F8C",
"X:	c #18361C",
"Y:	c #9AA29A",
"Z:	c #2B2A2B",
"`:	c #292727",
" <	c #D1CECD",
".<	c #E7E5E3",
"+<	c #DCD9D7",
"@<	c #BFBBBA",
"#<	c #B6B2B1",
"$<	c #D9D6D5",
"%<	c #EAE7E6",
"&<	c #E9E7E5",
"*<	c #E8E5E4",
"=<	c #E9E6E4",
"-<	c #767473",
";<	c #161112",
"><	c #DCDAD9",
",<	c #48454A",
"'<	c #050309",
")<	c #29427B",
"!<	c #2E4E92",
"~<	c #243D76",
"{<	c #0C1021",
"]<	c #353332",
"^<	c #A29D9D",
"/<	c #847E7D",
"(<	c #827C7A",
"_<	c #817B7A",
":<	c #726D6D",
"<<	c #555150",
"[<	c #272223",
"}<	c #0B0406",
"|<	c #C7C4C2",
"1<	c #1A1618",
"2<	c #535A53",
"3<	c #3A503C",
"4<	c #19331D",
"5<	c #6A7F6C",
"6<	c #474B47",
"7<	c #9B9A9A",
"8<	c #DEDDDD",
"9<	c #B1AFB0",
"0<	c #3D3A3A",
"a<	c #131111",
"b<	c #152617",
"c<	c #657566",
"d<	c #A9ACA8",
"e<	c #3C3A3B",
"f<	c #D1D0CF",
"g<	c #DBD8D7",
"h<	c #BEBBBA",
"i<	c #656261",
"j<	c #B8B4B3",
"k<	c #DBD8D6",
"l<	c #EBE9E7",
"m<	c #ECEAE8",
"n<	c #9C9998",
"o<	c #E1E0DE",
"p<	c #DBD9D8",
"q<	c #4E4B4A",
"r<	c #1D1912",
"s<	c #29437D",
"t<	c #2A4D94",
"u<	c #203C76",
"v<	c #070C20",
"w<	c #A09C98",
"x<	c #A29D9B",
"y<	c #979390",
"z<	c #807979",
"A<	c #565251",
"B<	c #272423",
"C<	c #0B0706",
"D<	c #9C9896",
"E<	c #C6C1BF",
"F<	c #83807F",
"G<	c #717170",
"H<	c #898F89",
"I<	c #677868",
"J<	c #616E62",
"K<	c #919A91",
"L<	c #969E96",
"M<	c #858584",
"N<	c #BDB9B7",
"O<	c #736F70",
"P<	c #4D4E4D",
"Q<	c #6B6A6A",
"R<	c #D3D3D3",
"S<	c #8E8C8B",
"T<	c #AAA6A5",
"U<	c #BDB9B8",
"V<	c #DDDBD9",
"W<	c #E9E6E5",
"X<	c #EBEAE8",
"Y<	c #EBEAE7",
"Z<	c #EDEBE9",
"`<	c #C7C4C3",
" [	c #BBB7B6",
".[	c #676564",
"+[	c #6B6969",
"@[	c #979391",
"#[	c #4D4E59",
"$[	c #111D3D",
"%[	c #0E1630",
"&[	c #060509",
"*[	c #171514",
"=[	c #4E4A49",
"-[	c #837E7D",
";[	c #847F7C",
">[	c #84807C",
",[	c #847F7E",
"'[	c #837E7C",
")[	c #807A79",
"![	c #5C5958",
"~[	c #595655",
"{[	c #545150",
"][	c #8B8886",
"^[	c #C6C1C0",
"/[	c #969291",
"([	c #84817F",
"_[	c #5F605E",
":[	c #5C785F",
"<[	c #747673",
"[[	c #040002",
"}[	c #A19E9F",
"|[	c #121111",
"1[	c #1A2C1C",
"2[	c #525952",
"3[	c #6E736E",
"4[	c #8C908B",
"5[	c #131113",
"6[	c #D9D7D6",
"7[	c #DBDAD9",
"8[	c #858282",
"9[	c #807D7C",
"0[	c #A8A3A3",
"a[	c #C9C6C4",
"b[	c #CAC7C6",
"c[	c #E4E1E0",
"d[	c #EAE9E7",
"e[	c #ECEBE8",
"f[	c #D1CECB",
"g[	c #0D0A0B",
"h[	c #110E0E",
"i[	c #6B6766",
"j[	c #7E7977",
"k[	c #343131",
"l[	c #C5C0BE",
"m[	c #B4B0AD",
"n[	c #A5A19D",
"o[	c #888482",
"p[	c #879086",
"q[	c #526253",
"r[	c #495149",
"s[	c #020502",
"t[	c #507354",
"u[	c #7D877D",
"v[	c #59655A",
"w[	c #8E8D8C",
"x[	c #918E8D",
"y[	c #8D8A8A",
"z[	c #959393",
"A[	c #9D9C9C",
"B[	c #6E6D6D",
"C[	c #A29F9F",
"D[	c #5B5758",
"E[	c #332C2E",
"F[	c #3B3738",
"G[	c #656060",
"H[	c #6D6968",
"I[	c #787573",
"J[	c #6C6866",
"K[	c #0D0A0A",
"L[	c #282528",
"M[	c #596A5A",
"N[	c #7B847B",
"O[	c #7D827D",
"P[	c #9D9D9B",
"Q[	c #ADAAAA",
"R[	c #B2B1B0",
"S[	c #D5D2D1",
"T[	c #D0CDCE",
"U[	c #999595",
"V[	c #848080",
"W[	c #928E8D",
"X[	c #D9D6D4",
"Y[	c #DCD9D8",
"Z[	c #EBE9E8",
"`[	c #C0BCBA",
" }	c #B7B3B0",
".}	c #838381",
"+}	c #5C685E",
"@}	c #7E827D",
"#}	c #757874",
"$}	c #3A3738",
"%}	c #21201F",
"&}	c #3F3C3C",
"*}	c #484645",
"=}	c #635E5E",
"-}	c #6C6868",
";}	c #5A5756",
">}	c #4A4747",
",}	c #666261",
"'}	c #959190",
")}	c #AFAAA9",
"!}	c #ABA6A4",
"~}	c #95918E",
"{}	c #7C7876",
"]}	c #7D7E7B",
"^}	c #6E756D",
"/}	c #828D82",
"(}	c #2E4831",
"_}	c #213323",
":}	c #485C4A",
"<}	c #3F5541",
"[}	c #7E847E",
"}}	c #161414",
"|}	c #434141",
"1}	c #CBCACA",
"2}	c #D7D7D5",
"3}	c #312A2C",
"4}	c #4A4647",
"5}	c #332F2F",
"6}	c #070504",
"7}	c #526A54",
"8}	c #101610",
"9}	c #0A0D0A",
"0}	c #0A0A0A",
"a}	c #657066",
"b}	c #414641",
"c}	c #262324",
"d}	c #A7A4A4",
"e}	c #EAE8E6",
"f}	c #E6E3E2",
"g}	c #ABA7A5",
"h}	c #5D5A59",
"i}	c #EDEBEA",
"j}	c #ECEBE9",
"k}	c #ADA9A7",
"l}	c #A4A09D",
"m}	c #0D090B",
"n}	c #7E867E",
"o}	c #3F4F41",
"p}	c #637F66",
"q}	c #415142",
"r}	c #7B897C",
"s}	c #454444",
"t}	c #050403",
"u}	c #2A2827",
"v}	c #343030",
"w}	c #393636",
"x}	c #565353",
"y}	c #5A5857",
"z}	c #5A5758",
"A}	c #595656",
"B}	c #484545",
"C}	c #383534",
"D}	c #141012",
"E}	c #47664A",
"F}	c #030103",
"G}	c #040905",
"H}	c #030803",
"I}	c #4E514D",
"J}	c #B1B2B0",
"K}	c #929191",
"L}	c #595A58",
"M}	c #6C6B6A",
"N}	c #737171",
"O}	c #6B6A69",
"P}	c #6C6A6A",
"Q}	c #706E6E",
"R}	c #6D6B6B",
"S}	c #8C898A",
"T}	c #928F8F",
"U}	c #767474",
"V}	c #5B5859",
"W}	c #282524",
"X}	c #7D847D",
"Y}	c #7D8C7E",
"Z}	c #3C4A3D",
"`}	c #7A8B7B",
" |	c #A3A6A3",
".|	c #767575",
"+|	c #6F6D6D",
"@|	c #B1AFAD",
"#|	c #E6E3E1",
"$|	c #E2DFDD",
"%|	c #C3BEBC",
"&|	c #ACA6A4",
"*|	c #928D8D",
"=|	c #D7D4D3",
"-|	c #E8E6E4",
";|	c #E4E1DF",
">|	c #ADA9A6",
",|	c #A69E9B",
"'|	c #2F2C2C",
")|	c #0A0607",
"!|	c #737D74",
"~|	c #050905",
"{|	c #6F8170",
"]|	c #666665",
"^|	c #4B4E4B",
"/|	c #383736",
"(|	c #333030",
"_|	c #4F4D4D",
":|	c #938F8E",
"<|	c #9C9894",
"[|	c #484544",
"}|	c #838481",
"||	c #8F978E",
"1|	c #6C7D6D",
"2|	c #507154",
"3|	c #4C604E",
"4|	c #858F85",
"5|	c #565756",
"6|	c #838783",
"7|	c #929992",
"8|	c #99A399",
"9|	c #B2B9B2",
"0|	c #B4BAB4",
"a|	c #B3B9B3",
"b|	c #BEC3BE",
"c|	c #C3C6C2",
"d|	c #C5C8C4",
"e|	c #BEC3BD",
"f|	c #D8D8D7",
"g|	c #E0DEDE",
"h|	c #DEDCDC",
"i|	c #B6B5B5",
"j|	c #A2A0A1",
"k|	c #9C9B9B",
"l|	c #4C4747",
"m|	c #595554",
"n|	c #322F30",
"o|	c #2F2C2D",
"p|	c #6B726B",
"q|	c #516453",
"r|	c #D1CECE",
"s|	c #E7E5E4",
"t|	c #A6A19E",
"u|	c #A49E9B",
"v|	c #676362",
"w|	c #D4D2D1",
"x|	c #EDEAE9",
"y|	c #DEDCDA",
"z|	c #CCC8C5",
"A|	c #CBC7C4",
"B|	c #2F2D2C",
"C|	c #070807",
"D|	c #4E6650",
"E|	c #939D93",
"F|	c #849185",
"G|	c #585B58",
"H|	c #0C0A09",
"I|	c #090606",
"J|	c #110F0F",
"K|	c #302F2E",
"L|	c #595756",
"M|	c #221F1F",
"N|	c #181516",
"O|	c #A19C9B",
"P|	c #A09C9A",
"Q|	c #201D1F",
"R|	c #646464",
"S|	c #133118",
"T|	c #7F8E7F",
"U|	c #2D2C2D",
"V|	c #859485",
"W|	c #879687",
"X|	c #849485",
"Y|	c #919D91",
"Z|	c #BCC0BB",
"`|	c #C1C4C0",
" 1	c #ACB2AC",
".1	c #D4D4D2",
"+1	c #DFDDDD",
"@1	c #DDDCDB",
"#1	c #B4B3B3",
"$1	c #A19FA0",
"%1	c #9A9999",
"&1	c #7E7B79",
"*1	c #393433",
"=1	c #4B4746",
"-1	c #5B5756",
";1	c #585453",
">1	c #181616",
",1	c #868684",
"'1	c #B6BAB5",
")1	c #B3B4B1",
"!1	c #2C2929",
"~1	c #D4D1D0",
"{1	c #A7A09D",
"]1	c #A59F9D",
"^1	c #B6B1AF",
"/1	c #D3D0CF",
"(1	c #020B03",
"_1	c #0E2B12",
":1	c #5C6F5D",
"<1	c #5A5D5A",
"[1	c #1F1E1E",
"}1	c #333231",
"|1	c #333232",
"11	c #161413",
"21	c #A29D9C",
"31	c #517054",
"41	c #1D3520",
"51	c #67806A",
"61	c #607462",
"71	c #667567",
"81	c #8C8C8B",
"91	c #494B48",
"01	c #4C4C4A",
"a1	c #4B4C49",
"b1	c #4A4C49",
"c1	c #555453",
"d1	c #5B5A59",
"e1	c #5B5959",
"f1	c #464444",
"g1	c #494544",
"h1	c #5E5D5D",
"i1	c #D7D4D4",
"j1	c #D0CDCB",
"k1	c #ABA6A3",
"l1	c #ACA5A3",
"m1	c #A69F9C",
"n1	c #BEB9B7",
"o1	c #D4D0CE",
"p1	c #E6E2E0",
"q1	c #E5E1DF",
"r1	c #DAD6D4",
"s1	c #D8D5D4",
"t1	c #989493",
"u1	c #817E7C",
"v1	c #C5C1BE",
"w1	c #ADA8A6",
"x1	c #AAA5A3",
"y1	c #0A0507",
"z1	c #747E75",
"A1	c #070907",
"B1	c #415D44",
"C1	c #687B6A",
"D1	c #536A56",
"E1	c #546B57",
"F1	c #576C5A",
"G1	c #8E958E",
"H1	c #353435",
"I1	c #121010",
"J1	c #1A1818",
"K1	c #373535",
"L1	c #171414",
"M1	c #050302",
"N1	c #9E9999",
"O1	c #5C5E5B",
"P1	c #5C655D",
"Q1	c #090506",
"R1	c #0B0709",
"S1	c #0D090A",
"T1	c #0E0A0C",
"U1	c #0B0808",
"V1	c #0C080A",
"W1	c #0C0809",
"X1	c #141011",
"Y1	c #565151",
"Z1	c #666362",
"`1	c #D1CECC",
" 2	c #BAB5B3",
".2	c #DBD7D5",
"+2	c #EEE9E7",
"@2	c #EDE8E7",
"#2	c #EAE7E5",
"$2	c #8B8887",
"%2	c #030000",
"&2	c #868E86",
"*2	c #0A0B0A",
"=2	c #536F56",
"-2	c #050205",
";2	c #050204",
">2	c #5F5C5B",
",2	c #9D9898",
"'2	c #A29E9E",
")2	c #6C6968",
"!2	c #6B7C6D",
"~2	c #6D746E",
"{2	c #6F7670",
"]2	c #656E66",
"^2	c #646E65",
"/2	c #747974",
"(2	c #838582",
"_2	c #6C736C",
":2	c #656E65",
"<2	c #636D65",
"[2	c #687169",
"}2	c #767876",
"|2	c #262222",
"12	c #ADABA9",
"22	c #B5B2B1",
"32	c #D9D5D3",
"42	c #DAD6D3",
"52	c #BEBAB7",
"62	c #AEA9A7",
"72	c #A6A19D",
"82	c #B7B2AF",
"92	c #B9B4B1",
"02	c #D6D2D0",
"a2	c #DDD9D7",
"b2	c #B4B0B0",
"c2	c #B1ADAC",
"d2	c #918D8C",
"e2	c #ADA6A3",
"f2	c #B8B1AF",
"g2	c #AEA9A8",
"h2	c #899088",
"i2	c #517255",
"j2	c #707971",
"k2	c #828782",
"l2	c #798079",
"m2	c #727B73",
"n2	c #8F928F",
"o2	c #8D8F8C",
"p2	c #413F3F",
"q2	c #222020",
"r2	c #232021",
"s2	c #221E1F",
"t2	c #0F0C0B",
"u2	c #434140",
"v2	c #716E6E",
"w2	c #838181",
"x2	c #6D746D",
"y2	c #858B85",
"z2	c #57765A",
"A2	c #0B110C",
"B2	c #333D34",
"C2	c #58765C",
"D2	c #393F3A",
"E2	c #3A403A",
"F2	c #383E39",
"G2	c #546C56",
"H2	c #526C55",
"I2	c #8A938A",
"J2	c #070505",
"K2	c #514F4F",
"L2	c #585554",
"M2	c #292726",
"N2	c #A6A4A3",
"O2	c #EBE8E6",
"P2	c #ACA7A3",
"Q2	c #AAA4A1",
"R2	c #E7E2E1",
"S2	c #EDE9E7",
"T2	c #EEEAE8",
"U2	c #E0DCDB",
"V2	c #888383",
"W2	c #9F9A96",
"X2	c #B3ADAC",
"Y2	c #3D3B3A",
"Z2	c #080306",
"`2	c #768077",
" 3	c #070908",
".3	c #223324",
"+3	c #3C423D",
"@3	c #5C715E",
"#3	c #4B544C",
"$3	c #434944",
"%3	c #3E443F",
"&3	c #667B68",
"*3	c #909C90",
"=3	c #040203",
"-3	c #080606",
";3	c #080607",
">3	c #070606",
",3	c #070607",
"'3	c #090706",
")3	c #080605",
"!3	c #080505",
"~3	c #0C0909",
"{3	c #0E0D0C",
"]3	c #0D0B0A",
"^3	c #607D63",
"/3	c #516353",
"(3	c #263527",
"_3	c #040C05",
":3	c #738074",
"<3	c #3D433D",
"[3	c #666463",
"}3	c #6E6B6A",
"|3	c #E7E3E1",
"13	c #E1DDDB",
"23	c #ABA4A1",
"33	c #A9A19E",
"43	c #B1ABA9",
"53	c #D0CCC9",
"63	c #D0CCCA",
"73	c #E7E4E2",
"83	c #EDEAE7",
"93	c #D1CDCC",
"03	c #7B7776",
"a3	c #9A9595",
"b3	c #8D8989",
"c3	c #9A9491",
"d3	c #A8A19F",
"e3	c #B0ABA9",
"f3	c #5C5C5A",
"g3	c #323A32",
"h3	c #778278",
"i3	c #040B05",
"j3	c #0F1610",
"k3	c #919D92",
"l3	c #5E625F",
"m3	c #353E37",
"n3	c #363D36",
"o3	c #404540",
"p3	c #4F524F",
"q3	c #50524F",
"r3	c #525451",
"s3	c #353D36",
"t3	c #4A684D",
"u3	c #536555",
"v3	c #607162",
"w3	c #929C92",
"x3	c #171313",
"y3	c #E5E1E0",
"z3	c #DAD6D5",
"A3	c #CCC7C5",
"B3	c #A8A39F",
"C3	c #A7A09E",
"D3	c #B6B0AD",
"E3	c #EBE7E5",
"F3	c #ECEAE7",
"G3	c #C0BDBB",
"H3	c #696564",
"I3	c #777372",
"J3	c #C1BDBB",
"K3	c #A19C9C",
"L3	c #9F9A99",
"M3	c #989492",
"N3	c #B4B0AE",
"O3	c #393838",
"P3	c #9CA49D",
"Q3	c #4A634C",
"R3	c #516553",
"S3	c #030503",
"T3	c #556757",
"U3	c #465B48",
"V3	c #455B47",
"W3	c #465B47",
"X3	c #838882",
"Y3	c #848983",
"Z3	c #888C87",
"`3	c #516152",
" 4	c #455A47",
".4	c #455B48",
"+4	c #576859",
"@4	c #314C34",
"#4	c #1A371E",
"$4	c #8E9C8F",
"%4	c #575856",
"&4	c #080608",
"*4	c #3D3B3B",
"=4	c #32302F",
"-4	c #D6D3D2",
";4	c #CAC6C3",
">4	c #A5A19C",
",4	c #B7B1AF",
"'4	c #C8C4C1",
")4	c #CECAC8",
"!4	c #ECE9E6",
"~4	c #5E5A59",
"{4	c #A29C9C",
"]4	c #575253",
"^4	c #B5B1AF",
"/4	c #9A9795",
"(4	c #434442",
"_4	c #97A198",
":4	c #727D72",
"<4	c #849186",
"[4	c #838D83",
"}4	c #242121",
"|4	c #D5D3D2",
"14	c #D1CDCB",
"24	c #A9A5A2",
"34	c #E8E4E2",
"44	c #B9B4B2",
"54	c #7D7F7C",
"64	c #919892",
"74	c #6F7E71",
"84	c #4C654E",
"94	c #010701",
"04	c #0A1A0C",
"a4	c #576E59",
"b4	c #AFB6AE",
"c4	c #A2A0A0",
"d4	c #6A6767",
"e4	c #D1CCCA",
"f4	c #DBD6D4",
"g4	c #EDEAE8",
"h4	c #ECE9E7",
"i4	c #878483",
"j4	c #5B5857",
"k4	c #A39D9D",
"l4	c #0E0A0B",
"m4	c #717671",
"n4	c #5E7460",
"o4	c #061207",
"p4	c #1C3820",
"q4	c #8F9D90",
"r4	c #A6A6A5",
"s4	c #A09D9E",
"t4	c #A9A7A6",
"u4	c #B3B0AF",
"v4	c #DCD8D6",
"w4	c #AFA9A6",
"x4	c #A7A29E",
"y4	c #B8B3B0",
"z4	c #D5D0CE",
"A4	c #E4E0DE",
"B4	c #A9A4A3",
"C4	c #959090",
"D4	c #ACA7A7",
"E4	c #B0ACAB",
"F4	c #797B78",
"G4	c #4A514A",
"H4	c #172218",
"I4	c #436A48",
"J4	c #8B988C",
"K4	c #595B59",
"L4	c #2B2A2A",
"M4	c #A5A3A2",
"N4	c #E5E2E0",
"O4	c #ACA7A4",
"P4	c #E5E0DE",
"Q4	c #EDE8E6",
"R4	c #EDE9E6",
"S4	c #DFDBD9",
"T4	c #A19D9D",
"U4	c #B5B0AE",
"V4	c #637164",
"W4	c #4C4F4C",
"X4	c #414741",
"Y4	c #181D18",
"Z4	c #79897A",
"`4	c #959D95",
" 5	c #A5A7A3",
".5	c #7A7878",
"+5	c #656463",
"@5	c #E7E5E2",
"#5	c #E1DEDC",
"$5	c #AAA5A2",
"%5	c #A8A19E",
"&5	c #ABA6A2",
"*5	c #B1ADAA",
"=5	c #D0CECC",
"-5	c #767170",
";5	c #878281",
">5	c #B1ACAB",
",5	c #BCB8B6",
"'5	c #B4B0AF",
")5	c #566A58",
"!5	c #050705",
"~5	c #203A23",
"{5	c #7A847B",
"]5	c #4F4D4E",
"^5	c #D1CFCE",
"/5	c #E3E0DF",
"(5	c #D8D6D4",
"_5	c #CAC7C4",
":5	c #C3BFBC",
"<5	c #A7A39F",
"[5	c #B6B1AE",
"}5	c #EAE7E4",
"|5	c #ECE8E6",
"15	c #686462",
"25	c #787473",
"35	c #A6A29E",
"45	c #868181",
"55	c #A09B9A",
"65	c #8C938D",
"75	c #4A594B",
"85	c #39553C",
"95	c #162518",
"05	c #46634A",
"a5	c #547258",
"b5	c #171516",
"c5	c #DCDBD5",
"d5	c #CCC4BC",
"e5	c #C6BCB7",
"f5	c #A5A09C",
"g5	c #D2CECB",
"h5	c #B9B6B4",
"i5	c #726E6C",
"j5	c #ABA7A4",
"k5	c #95908E",
"l5	c #817C7B",
"m5	c #9C9897",
"n5	c #1B1919",
"o5	c #454644",
"p5	c #8B918B",
"q5	c #404440",
"r5	c #848B85",
"s5	c #757574",
"t5	c #CBC9C9",
"u5	c #BFBDBE",
"v5	c #736F6E",
"w5	c #AC7968",
"x5	c #E5825D",
"y5	c #CB7B60",
"z5	c #4F4948",
"A5	c #B3AFAD",
"B5	c #E5E3E0",
"C5	c #9E9B99",
"D5	c #ACA8A5",
"E5	c #878280",
"F5	c #908B8A",
"G5	c #9E9898",
"H5	c #C0BBB9",
"I5	c #5E5B5A",
"J5	c #A5A9A4",
"K5	c #8C948C",
"L5	c #687668",
"M5	c #333C33",
"N5	c #585F58",
"O5	c #6D736E",
"P5	c #888C88",
"Q5	c #656464",
"R5	c #E3E3E2",
"S5	c #D4D3D2",
"T5	c #626161",
"U5	c #1C0802",
"V5	c #A64913",
"W5	c #F26418",
"X5	c #D65A19",
"Y5	c #1E0300",
"Z5	c #262423",
"`5	c #B8B3B2",
" 6	c #E9E7E4",
".6	c #A5A09D",
"+6	c #85817F",
"@6	c #8F8B88",
"#6	c #A8A3A2",
"$6	c #535D54",
"%6	c #516B53",
"&6	c #041106",
"*6	c #142917",
"=6	c #6B7D6C",
"-6	c #7F867F",
";6	c #818782",
">6	c #999999",
",6	c #A6A6A7",
"'6	c #ABAAAA",
")6	c #D8D6D6",
"!6	c #CFCDCC",
"~6	c #A07C73",
"{6	c #CA8775",
"]6	c #BD887A",
"^6	c #908B89",
"/6	c #93908E",
"(6	c #E3E1DF",
"_6	c #B9B6B5",
":6	c #B6B4B2",
"<6	c #9C9795",
"[6	c #A8A4A2",
"}6	c #B8B4B1",
"|6	c #B3AEAC",
"16	c #B7B2B0",
"26	c #B2ADAC",
"36	c #969391",
"46	c #92908F",
"56	c #979C97",
"66	c #4F544F",
"76	c #070E07",
"86	c #909B90",
"96	c #5A5A59",
"06	c #A9A8A9",
"a6	c #E8E8E9",
"b6	c #D8D6D7",
"c6	c #D9D8D5",
"d6	c #9F9B98",
"e6	c #807C7A",
"f6	c #302E2D",
"g6	c #9EA29E",
"h6	c #AEB6AE",
"i6	c #D3D6D2",
"j6	c #162618",
"k6	c #5C755F",
"l6	c #607561",
"m6	c #818A81",
"n6	c #6E6E6D",
"o6	c #A2A1A2",
"p6	c #D6D5D5",
"q6	c #C1BCBC",
"r6	c #CFBAB6",
"s6	c #CCB8B4",
"t6	c #A49B99",
"u6	c #A8A3A1",
"v6	c #B1ACAA",
"w6	c #CFCAC8",
"x6	c #E9E4E2",
"y6	c #DCDAD8",
"z6	c #CECBCA",
"A6	c #B9B4B3",
"B6	c #C4BFBC",
"C6	c #A9A4A2",
"D6	c #2A2828",
"E6	c #939692",
"F6	c #C2C4C1",
"G6	c #595E59",
"H6	c #2E4931",
"I6	c #8D938E",
"J6	c #3E3B3C",
"K6	c #CFCECC",
"L6	c #A7A6A5",
"M6	c #785048",
"N6	c #F27140",
"O6	c #EA6C3D",
"P6	c #753C2D",
"Q6	c #8E8B89",
"R6	c #C6C2BF",
"S6	c #CDC9C7",
"T6	c #E9E5E3",
"U6	c #ECE7E5",
"V6	c #9D9997",
"W6	c #3C3938",
"X6	c #393637",
"Y6	c #5F685F",
"Z6	c #3D453D",
"`6	c #403E3D",
" 7	c #D8D6D5",
".7	c #E8E8E6",
"+7	c #672F1D",
"@7	c #F4641D",
"#7	c #ED6018",
"$7	c #732D12",
"%7	c #EFEBE9",
"&7	c #EEEAE9",
"*7	c #B9B5B4",
"=7	c #948E8C",
"-7	c #161313",
";7	c #595454",
">7	c #2B2829",
",7	c #6A6F6B",
"'7	c #868F86",
")7	c #4B5E4E",
"!7	c #041406",
"~7	c #8C928C",
"{7	c #B3AFAE",
"]7	c #8C8888",
"^7	c #968A88",
"/7	c #C38F81",
"(7	c #C49083",
"_7	c #B4A7A3",
":7	c #B1AEAB",
"<7	c #A29F9D",
"[7	c #A09D9B",
"}7	c #ADA8A5",
"|7	c #AEA8A6",
"17	c #918B8A",
"27	c #8A8482",
"37	c #4D4A49",
"47	c #4C4949",
"57	c #525151",
"67	c #5D5D5C",
"77	c #6B6D6B",
"87	c #888F89",
"97	c #324F36",
"07	c #A9ADA8",
"a7	c #151414",
"b7	c #A49D9E",
"c7	c #A29D9E",
"d7	c #E8E5E3",
"e7	c #848180",
"f7	c #9A9694",
"g7	c #86807E",
"h7	c #7F7978",
"i7	c #928B89",
"j7	c #ABA3A1",
"k7	c #605E5D",
"l7	c #909790",
"m7	c #455146",
"n7	c #465246",
"o7	c #495449",
"p7	c #485449",
"q7	c #445045",
"r7	c #434F44",
"s7	c #989E98",
"t7	c #AAA6A4",
"u7	c #ADA9A8",
"v7	c #B6B1B0",
"w7	c #D5D1CF",
"x7	c #B8B6B4",
"y7	c #A9A5A3",
"z7	c #B2AEAB",
"A7	c #928C8B",
"B7	c #837D7C",
"C7	c #817A79",
"D7	c #9C9695",
"E7	c #B8B2B0",
"F7	c #B5AFAE",
"G7	c #7C7F7B",
"H7	c #6B756B",
"I7	c #6C756B",
"J7	c #6C756C",
"K7	c #707970",
"L7	c #6E766E",
"M7	c #69736A",
"N7	c #304D34",
"O7	c #101510",
"P7	c #161815",
"Q7	c #141313",
"R7	c #D8D7D5",
"S7	c #625F5F",
"T7	c #C6C2C0",
"U7	c #9F9B97",
"V7	c #817B79",
"W7	c #827B79",
"X7	c #C9C4C1",
"Y7	c #BDB8B6",
"Z7	c #242221",
"`7	c #4C4A49",
" 8	c #323030",
".8	c #272424",
"+8	c #262525",
"@8	c #272526",
"#8	c #282727",
"$8	c #282626",
"%8	c #9DA29D",
"&8	c #446648",
"*8	c #0F100F",
"=8	c #010402",
"-8	c #202E21",
";8	c #708571",
">8	c #9AA299",
",8	c #A6A1A0",
"'8	c #E4E3E0",
")8	c #DCDBD8",
"!8	c #CDCAC8",
"~8	c #B5B0AD",
"{8	c #837C7A",
"]8	c #8D8887",
"^8	c #575756",
"/8	c #525351",
"(8	c #545352",
"_8	c #889589",
":8	c #253728",
"<8	c #282E28",
"[8	c #646F65",
"}8	c #3D3C3D",
"|8	c #060505",
"18	c #B5B0AF",
"28	c #CBC8C6",
"38	c #EAE9E6",
"48	c #BDBBB9",
"58	c #A8A3A0",
"68	c #837F7D",
"78	c #837F7C",
"88	c #827D7B",
"98	c #525251",
"08	c #919991",
"a8	c #A2A9A1",
"b8	c #979292",
"c8	c #B5B1B1",
"d8	c #C3C0BF",
"e8	c #BFBBBB",
"f8	c #BEBBB9",
"g8	c #716F6F",
"h8	c #3D3B3D",
"i8	c #5B655D",
"j8	c #333B34",
"k8	c #4C5A4E",
"l8	c #6D7C6E",
"m8	c #748074",
"n8	c #727671",
"o8	c #040202",
"p8	c #2C292A",
"q8	c #EEECEA",
"r8	c #928D8C",
"s8	c #827C7B",
"t8	c #979492",
"u8	c #2C302C",
"v8	c #546956",
"w8	c #8B928A",
"x8	c #575956",
"y8	c #090707",
"z8	c #C4BFBE",
"A8	c #CEC8C8",
"B8	c #CDC7C6",
"C8	c #CDC7C7",
"D8	c #6F6D6C",
"E8	c #6E716D",
"F8	c #566456",
"G8	c #1F3622",
"H8	c #818F81",
"I8	c #737471",
"J8	c #666664",
"K8	c #8F8C8B",
"L8	c #131211",
"M8	c #A29F9E",
"N8	c #AEA9A6",
"O8	c #8A8683",
"P8	c #80817E",
"Q8	c #6D786E",
"R8	c #667467",
"S8	c #5E7060",
"T8	c #687669",
"U8	c #838B83",
"V8	c #727672",
"W8	c #2F2E2D",
"X8	c #3F3D3C",
"Y8	c #868282",
"Z8	c #6F6B6A",
"`8	c #807C7B",
" 9	c #95908F",
".9	c #938E8D",
"+9	c #B9B7B8",
"@9	c #989797",
"#9	c #646563",
"$9	c #6E6F6C",
"%9	c #2C402E",
"&9	c #3E5641",
"*9	c #879487",
"=9	c #4C4D4C",
"-9	c #1C1B1B",
";9	c #100D0C",
">9	c #332F30",
",9	c #EEEBE9",
"'9	c #807D7D",
")9	c #7E7A78",
"!9	c #8D8986",
"~9	c #110D0F",
"{9	c #757A75",
"]9	c #585D57",
"^9	c #5A715C",
"/9	c #100E0D",
"(9	c #363433",
"_9	c #736D6D",
":9	c #676161",
"<9	c #2E2929",
"[9	c #BBBABA",
"}9	c #E9E8E7",
"|9	c #A6A5A5",
"19	c #222021",
"29	c #3D3F3D",
"39	c #4E584E",
"49	c #2F4331",
"59	c #25442A",
"69	c #8B968C",
"79	c #5C695D",
"89	c #7B7F7A",
"99	c #8A8786",
"09	c #8D8987",
"a9	c #B6B3B1",
"b9	c #999694",
"c9	c #C8C4C3",
"d9	c #E5E0DF",
"e9	c #BCB8B8",
"f9	c #B9B5B5",
"g9	c #BBB6B4",
"h9	c #948E8D",
"i9	c #4D554D",
"j9	c #4B4F4B",
"k9	c #716E6D",
"l9	c #625D5D",
"m9	c #3C3837",
"n9	c #5F5A5A",
"o9	c #8D8C8B",
"p9	c #737872",
"q9	c #869286",
"r9	c #2E4C31",
"s9	c #030504",
"t9	c #161716",
"u9	c #3C5E40",
"v9	c #9B9F9B",
"w9	c #DAD7D4",
"x9	c #5B5957",
"y9	c #353433",
"z9	c #AFACAB",
"A9	c #817C7A",
"B9	c #A6A19F",
"C9	c #737F73",
"D9	c #464946",
"E9	c #3C413C",
"F9	c #161C16",
"G9	c #4C504C",
"H9	c #9D9999",
"I9	c #3A3737",
"J9	c #3A3534",
"K9	c #696464",
"L9	c #3D3838",
"M9	c #3C3737",
"N9	c #C3C1C1",
"O9	c #A3A5A2",
"P9	c #406445",
"Q9	c #141514",
"R9	c #060706",
"S9	c #323832",
"T9	c #88978A",
"U9	c #919C92",
"V9	c #DFDCD9",
"W9	c #7B7876",
"X9	c #CDCAC9",
"Y9	c #C4C1BF",
"Z9	c #9E9A97",
"`9	c #999491",
" 0	c #50514F",
".0	c #323932",
"+0	c #6E7E70",
"@0	c #0E110E",
"#0	c #566056",
"$0	c #161415",
"%0	c #BBB8B8",
"&0	c #626060",
"*0	c #A2A1A0",
"=0	c #869287",
"-0	c #839284",
";0	c #404840",
">0	c #7A7F7A",
",0	c #474546",
"'0	c #C2BFBD",
")0	c #E0DBD9",
"!0	c #DCD7D5",
"~0	c #A9A6A5",
"{0	c #AEA9A9",
"]0	c #84807D",
"^0	c #BAB5B4",
"/0	c #605F5E",
"(0	c #909690",
"_0	c #465446",
":0	c #586859",
"<0	c #080B08",
"[0	c #6D8770",
"}0	c #9A9D99",
"|0	c #363332",
"10	c #534F4E",
"20	c #707570",
"30	c #404340",
"40	c #557558",
"50	c #717571",
"60	c #CCC8C7",
"70	c #D0CCCB",
"80	c #EBE6E4",
"90	c #ADAAA8",
"00	c #A9A4A4",
"a0	c #A09B9B",
"b0	c #484A48",
"c0	c #546055",
"d0	c #5B615B",
"e0	c #516A53",
"f0	c #3C543E",
"g0	c #000101",
"h0	c #324034",
"i0	c #5B645C",
"j0	c #D2CFCD",
"k0	c #6E6A69",
"l0	c #575453",
"m0	c #43403F",
"n0	c #808881",
"o0	c #78817A",
"p0	c #69786A",
"q0	c #4B504B",
"r0	c #544F4F",
"s0	c #757273",
"t0	c #807D7B",
"u0	c #898482",
"v0	c #7C7977",
"w0	c #6C6C6B",
"x0	c #6D6E6C",
"y0	c #8B978C",
"z0	c #567559",
"A0	c #737673",
"B0	c #A29E9B",
"C0	c #040201",
"D0	c #120E10",
"E0	c #777E77",
"F0	c #5C635C",
"G0	c #191617",
"H0	c #34302F",
"I0	c #5C5758",
"J0	c #2D2828",
"K0	c #A5A09E",
"L0	c #1E1B1A",
"M0	c #434343",
"N0	c #969F96",
"O0	c #5F6F60",
"P0	c #3C4C3E",
"Q0	c #394F3B",
"R0	c #565F56",
"S0	c #DEDAD8",
"T0	c #A8A4A1",
"U0	c #938E8B",
"V0	c #898582",
"W0	c #414640",
"X0	c #4D5A4E",
"Y0	c #475748",
"Z0	c #465747",
"`0	c #636C63",
" a	c #4D5D4F",
".a	c #758477",
"+a	c #505950",
"@a	c #767171",
"#a	c #575252",
"$a	c #5D5859",
"%a	c #858784",
"&a	c #7D847E",
"*a	c #070D08",
"=a	c #131913",
"-a	c #566157",
";a	c #EDEBE8",
">a	c #807C79",
",a	c #787472",
"'a	c #191818",
")a	c #59645A",
"!a	c #455346",
"~a	c #202920",
"{a	c #1E261E",
"]a	c #242F25",
"^a	c #2C342D",
"/a	c #474445",
"(a	c #242324",
"_a	c #5F6A60",
":a	c #141A15",
"<a	c #0B0F0B",
"[a	c #0D160E",
"}a	c #5B6D5D",
"|a	c #778978",
"1a	c #728172",
"2a	c #716B60",
"3a	c #53350C",
"4a	c #827771",
"5a	c #DEDBDA",
"6a	c #E8E5E2",
"7a	c #E0DDDB",
"8a	c #767270",
"9a	c #4D4D4B",
"0a	c #363B36",
"aa	c #606D61",
"ba	c #3A493B",
"ca	c #020603",
"da	c #3A3434",
"ea	c #4C4848",
"fa	c #696463",
"ga	c #6F766F",
"ha	c #768777",
"ia	c #606C61",
"ja	c #283729",
"ka	c #253B27",
"la	c #8D9A8E",
"ma	c #767676",
"na	c #5E5755",
"oa	c #9D7042",
"pa	c #C58C3B",
"qa	c #A97F4C",
"ra	c #5E5C5A",
"sa	c #EBE9E6",
"ta	c #A8A4A3",
"ua	c #7F7979",
"va	c #3F3C3D",
"wa	c #545F55",
"xa	c #6F7F70",
"ya	c #2B372C",
"za	c #4D4948",
"Aa	c #474242",
"Ba	c #454140",
"Ca	c #403B3D",
"Da	c #8F8A8B",
"Ea	c #6F6C6D",
"Fa	c #7F827E",
"Ga	c #5C795F",
"Ha	c #1D3620",
"Ia	c #829183",
"Ja	c #525352",
"Ka	c #271708",
"La	c #9E6F31",
"Ma	c #D59B44",
"Na	c #B1853C",
"Oa	c #160F02",
"Pa	c #4B4947",
"Qa	c #DAD8D7",
"Ra	c #0A0808",
"Sa	c #383638",
"Ta	c #627864",
"Ua	c #121D13",
"Va	c #172B1A",
"Wa	c #787977",
"Xa	c #849384",
"Ya	c #667A67",
"Za	c #2F4C33",
"`a	c #2F4031",
" b	c #98A199",
".b	c #201813",
"+b	c #79624B",
"@b	c #A18469",
"#b	c #AB9965",
"$b	c #CDCA3D",
"%b	c #C2BF43",
"&b	c #93907C",
"*b	c #898685",
"=b	c #9E9997",
"-b	c #B1ACA9",
";b	c #908A8A",
">b	c #5D5B5A",
",b	c #989C97",
"'b	c #617963",
")b	c #080F08",
"!b	c #6A6565",
"~b	c #6B6666",
"{b	c #6A6665",
"]b	c #6D6867",
"^b	c #6B6667",
"/b	c #6E706E",
"(b	c #8F9A8F",
"_b	c #213D25",
":b	c #2A3D2D",
"<b	c #585858",
"[b	c #5C5A5A",
"}b	c #7F7B81",
"|b	c #A7A770",
"1b	c #FAF84A",
"2b	c #EBE93F",
"3b	c #68681F",
"4b	c #111015",
"5b	c #A5A19E",
"6b	c #878180",
"7b	c #434441",
"8b	c #607762",
"9b	c #325938",
"0b	c #102313",
"ab	c #191717",
"bb	c #35302F",
"cb	c #7B7676",
"db	c #312B2B",
"eb	c #A7A2A3",
"fb	c #858181",
"gb	c #9DA49C",
"hb	c #4F6451",
"ib	c #384A3A",
"jb	c #081C0B",
"kb	c #8E908D",
"lb	c #565E56",
"mb	c #727070",
"nb	c #615E61",
"ob	c #88885A",
"pb	c #CFCF59",
"qb	c #C7C655",
"rb	c #937C3B",
"sb	c #876532",
"tb	c #85705C",
"ub	c #7F7C79",
"vb	c #686362",
"wb	c #576057",
"xb	c #717F72",
"yb	c #5A5556",
"zb	c #8C8D8B",
"Ab	c #7C837C",
"Bb	c #849085",
"Cb	c #2E4C32",
"Db	c #557359",
"Eb	c #666B66",
"Fb	c #494741",
"Gb	c #87847E",
"Hb	c #8E847C",
"Ib	c #C2914E",
"Jb	c #CA933D",
"Kb	c #996B30",
"Lb	c #1A1D20",
"Mb	c #232120",
"Nb	c #22201F",
"Ob	c #687168",
"Pb	c #4E5A4F",
"Qb	c #5D765F",
"Rb	c #48654B",
"Sb	c #060E07",
"Tb	c #647C65",
"Ub	c #8D918C",
"Vb	c #7C7676",
"Wb	c #373132",
"Xb	c #342F31",
"Yb	c #A4A1A1",
"Zb	c #B3B0B0",
"`b	c #B2AFAF",
" c	c #504E4E",
".c	c #858A84",
"+c	c #050B05",
"@c	c #4D6950",
"#c	c #757C75",
"$c	c #807670",
"%c	c #B8894A",
"&c	c #C18C3F",
"*c	c #987045",
"=c	c #4A4C4C",
"-c	c #414341",
";c	c #5D6B5E",
">c	c #2D4330",
",c	c #607862",
"'c	c #ACA9AA",
")c	c #93908F",
"!c	c #898A88",
"~c	c #5D755E",
"{c	c #607A63",
"]c	c #303C31",
"^c	c #263027",
"/c	c #7D907E",
"(c	c #A3A3A2",
"_c	c #342F2D",
":c	c #433422",
"<c	c #4D3C2A",
"[c	c #85817A",
"}c	c #8E988E",
"|c	c #677B6A",
"1c	c #728274",
"2c	c #7E8C80",
"3c	c #708272",
"4c	c #637665",
"5c	c #1F2F21",
"6c	c #4A4D4A",
"7c	c #484343",
"8c	c #423C3E",
"9c	c #3D383A",
"0c	c #ABA8A8",
"ac	c #726F6F",
"bc	c #454344",
"cc	c #8E8F8E",
"dc	c #283B2A",
"ec	c #536E56",
"fc	c #A7AAA7",
"gc	c #181717",
"hc	c #0E0C0D",
"ic	c #0C0C0E",
"jc	c #212122",
"kc	c #334335",
"lc	c #1E3721",
"mc	c #273B29",
"nc	c #2C3E2D",
"oc	c #142817",
"pc	c #647A66",
"qc	c #929691",
"rc	c #9F9B9B",
"sc	c #302B2C",
"tc	c #979494",
"uc	c #2F282A",
"vc	c #6D6A6A",
"wc	c #979293",
"xc	c #878787",
"yc	c #738474",
"zc	c #435845",
"Ac	c #3C5A40",
"Bc	c #8F9890",
"Cc	c #999A98",
"Dc	c #8B8E8A",
"Ec	c #8C8E8B",
"Fc	c #8B948B",
"Gc	c #475348",
"Hc	c #2E3D2F",
"Ic	c #627663",
"Jc	c #878584",
"Kc	c #534E4E",
"Lc	c #B8B5B5",
"Mc	c #6C6766",
"Nc	c #807E7F",
"Oc	c #777676",
"Pc	c #6C7E6D",
"Qc	c #223D26",
"Rc	c #211E20",
"Sc	c #8F8D8C",
"Tc	c #82807F",
"Uc	c #3A3435",
"Vc	c #2D2628",
"Wc	c #6A6566",
"Xc	c #9E9B9C",
"Yc	c #9F9C9C",
"Zc	c #342E30",
"`c	c #A4A0A1",
" d	c #242223",
".d	c #2F312F",
"+d	c #6E7E6F",
"@d	c #3A583E",
"#d	c #29422C",
"$d	c #57715A",
"%d	c #535A54",
"&d	c #7E7B7C",
"*d	c #807E7E",
"=d	c #9E9B9B",
"-d	c #595455",
";d	c #4E494B",
">d	c #797675",
",d	c #7F827F",
"'d	c #767F76",
")d	c #607461",
"!d	c #1A271B",
"~d	c #2F4632",
"{d	c #8F9C90",
"]d	c #5E5F5E",
"^d	c #969191",
"/d	c #3E3939",
"(d	c #7E7877",
"_d	c #546455",
":d	c #18341C",
"<d	c #96A297",
"[d	c #6B6E6B",
"}d	c #6D6B6A",
"|d	c #918D8D",
"1d	c #AEABAB",
"2d	c #433F40",
"3d	c #6A6766",
"4d	c #9F9A98",
"5d	c #515952",
"6d	c #6B7E6C",
"7d	c #484546",
"8d	c #747071",
"9d	c #B1AEAE",
"0d	c #322C2E",
"ad	c #494444",
"bd	c #6A6765",
"cd	c #A09A97",
"dd	c #9D9896",
"ed	c #9B9D99",
"fd	c #5F7D62",
"gd	c #8F8C8C",
"hd	c #606D60",
"id	c #192D1C",
"jd	c #29392B",
"kd	c #627564",
"ld	c #868985",
"md	c #322B2E",
"nd	c #4A5D4B",
"od	c #4B664E",
"pd	c #827E7E",
"qd	c #817E7E",
"rd	c #959292",
"sd	c #575354",
"td	c #807D7E",
"ud	c #6B6768",
"vd	c #353032",
"wd	c #A19B99",
"xd	c #494645",
"yd	c #5A695A",
"zd	c #233B26",
"Ad	c #98A198",
"Bd	c #8B8B8A",
"Cd	c #838382",
"Dd	c #9B9899",
"Ed	c #757673",
"Fd	c #828482",
"Gd	c #868F85",
"Hd	c #223B25",
"Id	c #537356",
"Jd	c #94A094",
"Kd	c #262524",
"Ld	c #6E6D6E",
"Md	c #949192",
"Nd	c #4E4B4B",
"Od	c #322C2D",
"Pd	c #393A38",
"Qd	c #677668",
"Rd	c #69806B",
"Sd	c #527156",
"Td	c #021805",
"Ud	c #737472",
"Vd	c #3D403D",
"Wd	c #727071",
"Xd	c #999798",
"Yd	c #949293",
"Zd	c #B3B0B1",
"`d	c #3F423E",
" e	c #162C19",
".e	c #606E61",
"+e	c #8A948A",
"@e	c #667A68",
"#e	c #504E4F",
"$e	c #8E8B8C",
"%e	c #6E6B6B",
"&e	c #4B4647",
"*e	c #8A8687",
"=e	c #949091",
"-e	c #747573",
";e	c #565D57",
">e	c #5C745F",
",e	c #233525",
"'e	c #344B37",
")e	c #546556",
"!e	c #C2BEBE",
"~e	c #332C2F",
"{e	c #3A3537",
"]e	c #979394",
"^e	c #A5A1A2",
"/e	c #080506",
"(e	c #4D574D",
"_e	c #18291A",
":e	c #888A87",
"<e	c #989697",
"[e	c #494446",
"}e	c #464143",
"|e	c #413C3E",
"1e	c #585353",
"2e	c #817E7D",
"3e	c #7A7A79",
"4e	c #6D746F",
"5e	c #788479",
"6e	c #3A413B",
"7e	c #223C26",
"8e	c #345839",
"9e	c #9AA49B",
"0e	c #B8B6B6",
"ae	c #E9E7E7",
"be	c #B1B0B0",
"ce	c #C0BDBD",
"de	c #827E7F",
"ee	c #3D3739",
"fe	c #7E847F",
"ge	c #3F6945",
"he	c #355939",
"ie	c #142616",
"je	c #839283",
"ke	c #929090",
"le	c #9A9899",
"me	c #AFADAD",
"ne	c #848283",
"oe	c #818080",
"pe	c #787877",
"qe	c #A2A6A1",
"re	c #3B6140",
"se	c #2E3B2F",
"te	c #607B62",
"ue	c #555855",
"ve	c #323131",
"we	c #838282",
"xe	c #CDCCCC",
"ye	c #3C3739",
"ze	c #363333",
"Ae	c #4C4C4B",
"Be	c #768A78",
"Ce	c #637B65",
"De	c #101F11",
"Ee	c #5C6D5E",
"Fe	c #595E5A",
"Ge	c #4D4C4D",
"He	c #868485",
"Ie	c #777273",
"Je	c #454443",
"Ke	c #575957",
"Le	c #939D94",
"Me	c #244028",
"Ne	c #2C402F",
"Oe	c #80847F",
"Pe	c #636161",
"Qe	c #ADABAB",
"Re	c #8C8786",
"Se	c #797977",
"Te	c #758276",
"Ue	c #122915",
"Ve	c #1E3220",
"We	c #566857",
"Xe	c #272626",
"Ye	c #D7D5D5",
"Ze	c #353130",
"`e	c #0D0B0B",
" f	c #647E66",
".f	c #223925",
"+f	c #202D21",
"@f	c #1E3120",
"#f	c #7F8B7F",
"$f	c #949593",
"%f	c #868484",
"&f	c #848383",
"*f	c #939191",
"=f	c #959894",
"-f	c #657C67",
";f	c #061108",
">f	c #395B3E",
",f	c #808F80",
"'f	c #CECBCB",
")f	c #9F9B99",
"!f	c #59665A",
"~f	c #385A3D",
"{f	c #385A3C",
"]f	c #142516",
"^f	c #747574",
"/f	c #606260",
"(f	c #979696",
"_f	c #7C7A7B",
":f	c #727271",
"<f	c #5D605D",
"[f	c #5E5F5C",
"}f	c #4D524C",
"|f	c #585B57",
"1f	c #878381",
"2f	c #545753",
"3f	c #7D867E",
"4f	c #4F7052",
"5f	c #637C65",
"6f	c #797B79",
"7f	c #879588",
"8f	c #607C62",
"9f	c #4E7152",
"0f	c #738875",
"af	c #949693",
"bf	c #949C94",
"cf	c #58755B",
"df	c #3F5D42",
"ef	c #636763",
"ff	c #8A978B",
"gf	c #8A978A",
"hf	c #889588",
"if	c #919390",
"jf	c #96A096",
"kf	c #1E3F23",
"lf	c #2B412E",
"mf	c #6C7C6E",
"nf	c #8A8D89",
"of	c #676666",
"pf	c #646263",
"qf	c #656364",
"rf	c #626061",
"sf	c #636162",
"tf	c #70726F",
"uf	c #7E8A7E",
"vf	c #0F2713",
"wf	c #192D1B",
"xf	c #414A42",
"yf	c #757E74",
"zf	c #0D0D0B",
"Af	c #0C0C0A",
"Bf	c #5D645D",
"Cf	c #3B403C",
"Df	c #323E33",
"Ef	c #112514",
"Ff	c #394539",
"Gf	c #758576",
"Hf	c #59635B",
"If	c #616D63",
"Jf	c #535B54",
"Kf	c #5B665C",
"Lf	c #768177",
"Mf	c #454B45",
"Nf	c #162918",
"Of	c #35593A",
"Pf	c #142816",
"Qf	c #345638",
"Rf	c #29462C",
"Sf	c #010B02",
"Tf	c #2D4C31",
"Uf	c #223D25",
"Vf	c #152817",
"                                                                                                                                                                                                                                                                                                                                                                                                    ",
". . . . . . . . . . . . . . . . . . . . . . . . . . . . . . . . . . . . . . . . . . . . . . . . . . . . . . . . . . . . . . . . . . . . . . . . . . . . . . . . . . . . . . . . . . . . . . . . . . . . . . . . . . . . . . . . . . . . . . . . . . . . . . . . . . . . . . . . . . . . . . . . . . . . . . . . . . . . . . . . . . . . . . . . . . . . . . . . . . . . . . . . . . . . . . . . .   ",
". . . . . . . . . . . . . . . . . . . . . . . . . . . . . . . . . . . . . . . . . . . . . . . . . . . . . . . . . . . . . . . . . . . . . . . . . . . . . . . . . . . . . . . . . . . . . . . . . . . . . . . . . . . . . . . . . . . . . . . . . . . . . . . . . . . . . . . . . . . . . . . . . . . . . . . . . . . . . . . . . . . . . . . . . . . . . . . . . . . . . . . . . . . . . . . . .   ",
". . . . . . . . . . . . . . . . . . . . . . . . . . . . . . . . . . . . . . . . . . . . . . . . . . . . . . . . . . . . . . . . . . . . . . . . . . . . . . . . . . . . . . . . . . . . . . . . . . . . . . . . . . . . . . . . . . . . . . . . . . . . . . . . . . . . . . . . . . . . . . . . . . . . . . . . . . . . . . . . . . . . . . . . . . . . . . . . . . . . . . . . . . . . . . . . .   ",
". . . . . . . . . . . . . . . . . . . . . . . . . . . . . . . . . . . . . . . . . . . . . . . . . . . . . . . . . . . . . . . . . . . . . . . . . . . . . . . . . . . . . . . . . . . . . . . . . . . . . . . . . . . . . . . . . . . . . . . . . . . . . . . . . . . . . . . . . . . . . . . . . . . . . . . . . . . . . . . . . . . . . . . . . . . . . . . . . . . . . . . . . . . . . . . . .   ",
". . . . . . . . . . . . . . . . . . . . . . . . . . . . . . . . . . . . . . . . . . . . . . . . . . . . . . . . . . . . . . . . . . . . . . . . . . . . . . . . . . . . . . . . . . . . . . . . . . . . . . . . . . . . . . . . . . . . . . . . . . . . . . . . . . . . . . . . . . . . . . . . . . . . . . . . . . . . . . . . . . . . . . . . . . . . . . . . . . . . . . . . . . . . . . . . .   ",
". . . . . . . . . . . . . . . . . . . . . . . . . . . . . . . . . . . . . . . . . . . . . . . . . . . . . . . . . . . . . . . . . . . . . . . . . . . . . . . . . . . . . . . . . . . . . . . . . . . . . . . . . . . . . . . . . . . . . . . . . . . . . . . . . . . . . . . . . . . . . . . . . . . . . . . . . . . . . . . . . . . . . . . . . . . . . . . . . . . . . . . . . . . . . . . . .   ",
". . . . . . . . . . . . . . . . . . . . . . . . . . . . . . . . . . . . . . . . . . . . . . . . . . . . . . . . . . . . . . . . . . . . . . . . . . . . . . . . . . . . . . . . . . . . . . . . . . . . . . . . . . . . . . . . . . . . . . . . . . . . . . . . . . . . . . . . . . . . . . . . . . . . . . . . . . . . . . . . . . . . . . . . . . . . . . . . . . . . . . . . . . . . . . . . .   ",
". . . . . . . . . . . . . . . . . . . . . . . . . . . . . . . . . . . . . . . . . . . . . . . . . . . . . . . . . . . . . . . . . . . . . . . . . . . . . . . . . . . . . . . . . . . . . . . . . . . . . . . . . . . . . . . . . . . . . . . . . . . . . . . . . . . . . . . . . . . . . . . . . . . . . . . . . . . . . . . . . . . . . . . . . . . . . . . . . . . . . . . . . . . . . . . . .   ",
". . . . . . . . . . . . . . . . . . . . . . . . . . . . . . . . . . . . . . . . . . . . . . . . . . . . . . . . . . . . . . . . . . . . . . . . . . . . . . . . . . . . . . . . . . . . . . . . . . . . . . . . . . . . . . . . . . . . . . . . . . . . . . . . . . . . . . . . . . . . . . . . . . . . . . . . . . . . . . . . . . . . . . . . . . . . . . . . . . . . . . . . . . . . . . . . .   ",
". . . . . . . . . . . . . . . . . . . . . . . . . . . . . . . . . . . . . . . . . . . . . . . . . . . . . . . . . . . . . . . . . . . . . . . . . . . . . . . . . . . . . . . . . . . . . . . . . . . . . . . . . . . . . . . . . . . . . . . . . . . . . . . . . . . . . . . . . . . . . . . . . . . . . . . . . . . . . . . . . . . . . . . . . . . . . . . . . . . . . . . . . . . . . . . . .   ",
". . . . . . . . . . . . . . . . . . . . . . . . . . . . . . . . . . . . . . . . . . . . . . . . . . . . . . . . . . . . . . . . . . . . . . . . . . . . . . . . . . . . . . . . . . . . . . . . . . . . . . . . . . . . . . . . . . . . . . . . . . . . . . . . . . . . . . . . . . . . . . . . . . . . . . . . . . . . . . . . . . . . . . . . . . . . . . . . . . . . . . . . . . . . . . . . .   ",
". . . . . . . . . . . . . . . . . . . . . . . . . . . . . . . . . . . . . . . . . . . . . . . . . . . . . . . . . . . . . . . . . . . . . . . . . . . . . . . . . . . . . . . . . . . . . . . . . . . . . . . . . . . . . . . . . . . . . . . . . . . . . . . . . . . . . . . . . . . . . . . . . . . . . . . . . . . . . . . . . . . . . . . . . . . . . . . . . . . . . . . . . . . . . . . . .   ",
". . . . . . . . . . . . . . . . . . . . . . . . . . . . . . . . . . . . . . . . . . . . . . . . . . . . . . . . . . . . . . . . . . . . . . . . . . . . . . . . . . . . . . . . . . . . . . . . . . . . . . . . . . . . . . . . . . . . . . . . . . . . . . . . . . . . . . . . . . . . . . . . . . . . . . . . . . . . . . . . . . . . . . . . . . . . . . . . . . . . . . . . . . . . . . . . .   ",
". . . . . . . . . . . . . . . . . . . . . . . . . . . . . . . . . . . . . . . . . . . . . . . . . . . . . . . . . . . . . . . . . . . . . . . . . . . . . . . . . . . . . . . . . . . . . . . . . . . . . . . . . . . . . . . . . . . . . . . . . . . . . . . . . . . . . . . . . . . . . . . . . . . . . . . . . . . . . . . . . . . . . . . . . . . . . . . . . . . . . . . . . . . . . . . . .   ",
". . . . . . . . . . . . . . . . . . . . . . . . . . . . . . . . . . . . . . . . . . . . . . . . . . . . . . . . . . . . . . . . . . . . . . . . . . . . . . . . . . . . . . . . . . . . . . . . . . . . . . . . . . . . . . . . . . . . . . . . . . . . . . . . . . . . . . . . . . . . . . . . . . . . . . . . . . . . . . . . . . . . . . . . . . . . . . . . . . . . . . . . . . . . . . . . .   ",
". . . . . . . . . . . . . . . . . . . . . . . . . . . . . . . . . . . . . . . . . . . . . . . . . . . . . . . . . . . . . . . . . . . . . . . . . . . . . . . . . . . . . . . . . . . . . . . . . . . . . . . . . . . . . . . . . . . . . . . . . . . . . . . . . . . . . . . . . . . . . . . . . . . . . . . . . . . . . . . . . . . . . . . . . . . . . . . . . . . . . . . . . . . . . . . . .   ",
". . . . . . . . . . . . . . . . . . . . . . . . . . . . . . . . . . . . . . . . . . . . . . . . . . . . . . . . . . . . . . . . . . . . . . . . . . . . . . . . . . . . . . . . . . . . . . . . . . . . . . . . . . . . . . . . . . . . . . . . . . . . . . . . . . . . . . . . . . . . . . . . . . . . . . . . . . . . . . . . . . . . . . . . . . . . . . . . . . . . . . . . . . . . . . . . .   ",
". . . . . . . . . . . . . . . . . . . . . . . . . . . . . . . . . . . . . . . . . . . . . . . . . . . . . . . . . . . . . . . . . . . . . . . . . . . . . . . . . . . . . . . . . . . . . . . . . . . . . . . . . . . . . . . . . . . . . . . . . . . . . . . . . . . . . . . . . . . . . . . . . . . . . . . . . . . . . . . . . . . . . . . . . . . . . . . . . . . . . . . . . . . . . . . . .   ",
". . . . . . . . . . . . . . . . . . . . . . . . . . . . . . . . . . . . . . . . . . . . . . . . . . . . . . . . . . . . . . . . . . . . . . . . . . . . . . . . . . . . . . . . . . . . . . . . . . . . . . . . . . . . . . . . . . . . . . . . . . . . . . . . . . . . . . . . . . . . . . . . . . . . . . . . . . . . . . . . . . . . . . . . . . . . . . . . . . . . . . . . . . . . . . . . .   ",
". . . . . . . . . . . . . . . . . . . . . . . . . . . . . . . . . . . . . . . . . . . . . . . . . . . . . . . . . . . . . . . . . . . . . . . . . . . . . . . . . . . . . . . . . . . . . . . . . . . . . . . . . . . . . . . . . . . . . . . . . . . . . . . . . . . . . . . . . . . . . . . . . . . . . . . . . . . . . . . . . . . . . . . . . . . . . . . . . . . . . . . . . . . . . . . . .   ",
". . . . . . . . . . . . . . . . . . . . . . . . . . . . . . . . . . . . . . . . . . . . . . . . . . . . . . . . . . . . . . . . . . . . . . . . . . . . . . . . . . . . . . . . . . . . . . . . . . . . . . . . . . . . . . . . . . . . . . . . . . . . . . . . . . . . . . . . . . . . . . . . . . . . . . . . . . . . . . . . . . . . . . . . . . . . . . . . . . . . . . . . . . . . . . . . .   ",
". . . . . . . . . . . . . . . . . . . . . . . . . . . . . . . . . . . . . . . . . . . . . . . . . . . . . . . . . . . . . . . . . . . . . . . . . . . . . . . . . . . . . . . . . . . . . . . . . . . . . . . . . . . . . . . . . . . . . . . . . . . . . . . . . . . . . . . . . . . . . . . . . . . . . . . . . . . . . . . . . . . . . . . . . . . . . . . . . . . . . . . . . . . . . . . . .   ",
". . . . . . . . . . . . . . . . . . . . . . . . . . . . . . . . . . . . . . . . . . . . . . . . . . . . . . . . . . . . . . . . . . . . . . . . . . . . . . . . . . . . . . . . . . . . . . . . . . . . . . . . . . . . . . . . . . . . . . . . . . . . . . . . . . . . . . . . . . . . . . . . . . . . . . . . . . . . . . . . . . . . . . . . . . . . . . . . . . . . . . . . . . . . . . . . .   ",
". . . . . . . . . . . . . . . . . . . . . . . . . . . . . . . . . . . . . . . . . . . . . . . . . . . . . . . . . . . . . . . . . . . . . . . . . . . . . . . . . . . . . . . . . . . . . . . . . . . . . . . . . . . . . . . . . . . . . . . . . . . . . . . . . . . . . . . . . . . . . . . . . . . . . . . . . . . . . . . . . . . . . . . . . . . . . . . . . . . . . . . . . . . . . . . . .   ",
". . . . . . . . . . . . . . . . . . . . . . . . . . . . . . . . . . . . . . . . . . . . . . . . . . . . . . . . . . . . . . . . . . . . . . . . . . . . . . . . . . . . . . . . . . . . . . . . . . . . . . . . . . . . . . . . . . . . . . . . . . . . . . . . . . . . . . . . . . . . . . . . . . . . . . . . . . . . . . . . . . . . . . . . . . . . . . . . . . . . . . . . . . . . . . . . .   ",
". . . . . . . . . . . . . . . . . . . . . . . . . . . . . . . . . . . . . . . . . . . . . . . . . . . . . . . . . . . . . . . . . . . . . . . . . . . . . . . . . . . . . . . . . . . . . . . . . . . . . . . . . . . . . . . . . . . . . . . . . . . . . . . . . . . . . . . . . . . . . . . . . . . . . . . . . . . . . . . . . . . . . . . . . . . . . . . . . . . . . . . . . . . . . . . . .   ",
". . . . . . . . . . . . . . . . . . . . . . . . . . . . . . . . . . . . . . . . . . . . . . . . . . . . . . . . . . . . . . . . . . . . . . . . . . . . . . . . . . . . . . . . . . . . . . . . . . . . . . . . . . . . . . . . . . . . . . . . . . . . . . . . . . . . . . . . . . . . . . . . . . . . . . . . . . . . . . . . . . . . . . . . . . . . . . . . . . . . . . . . . . . . . . . . .   ",
". . . . . . . . . . . . . . . . . . . . . . . . . . . . . . . . . . . . . . . . . . . . . . . . . . . . . . . . . . . . . . . . . . . . . . . . . . . . . . . . . . . . . . . . . . . . . . . . . . . . . . . . . . . . . . . . . . . . . . . . . . . . . . . . . . . . . . . . . . . . . . . . . . . . . . . . . . . . . . . . . . . . . . . . . . . . . . . . . . . . . . . . . . . . . . . . .   ",
". . . . . . . . . . . . . . . . . . . . . . . . . . . . . . . . . . . . . . . . . . . . . . . . . . . . . . . . . . . . . . . . . . . . . . . . . . . . . . . . . . . . . . . . . . . . . . . . . . . . . . . . . . . . . . . . . . . . . . . . . . . . . . . . . . . . . . . . . . . . . . . . . . . . . . . . . . . . . . . . . . . . . . . . . . . . . . . . . . . . . . . . . . . . . . . . .   ",
". . . . . . . . . . . . . . . . . . . . . . . . . . . . . . . . . . . . . . . . . . . . . . . . . . . . . . . . . . . . . . . . . . . . . . . . . . . . . . . . . . . . . . . . . . . . . . . . . . . . . . . . . . . . . . . . . . . . . . . . . . . . . . . . . . . . . . . . . . . . . . . . . . . . . . . . . . . . . . . . . . . . . . . . . . . . . . . . . . . . . . . . . . . . . . . . .   ",
". . . . . . . . . . . . . . . . . . . . . . . . . . . . . . . . . . . . . . . . . . . . . . . . . . . . . . . . . . . . . . . . . . . . . . . . . . . . . . . . . . . . . . . . . . . . . . . . . . . . . . . . . . . . . . . . . . . . . . . . . . . . . . . . . . . . . . . . . . . . . . . . . . . . . . . . . . . . . . . . . . . . . . . . . . . . . . . . . . . . . . . . . . . . . . . . .   ",
". . . . . . . . . . . . . . . . . . . . . . . . . . . . . . . . . . . . . . . . . . . . . . . . . . . . . . . . . . . . . . . . . . . . . . . . . . . . . . . . . . . . . . . . . . . . . . . . . . . . . . . . . . . . . . . . . . . . . . . . . . . . . . . . . . . . . . . . . . . . . . . . . . . . . . . . . . . . . . . . . . . . . . . . . . . . . . . . . . . . . . . . . . . . . . . . .   ",
". . . . . . . . . . . . . . . . . . . . . . . . . . . . . . . . . . . . . . . . . . . . . . . . . . . . . . . . . . . . . . . . . . . . . . . . . . . . . . . . . . . . . . . . . . . . . . . . . . . . . . . . . . . . . . . . . . . . . . . . . . . . . . . . . . . . . . . . . . . . . . . . . . . . . + @ @ @ @ # . . . . . . . . . . . . . . . . . . . . . . . . . . . . . . . . . . . . . .   ",
". . . . . . . . . . . . . . . . . . . . . . . . . . . . . . . . . . . . . . . . . . . . . . . . . . . . . . . . . . . . . . . . . . . . . . . . . . . . . . . . . . . . . . . . . . . . . . . . . . . . . . . . . . . . . . . . . . . . . . . . . . . . . . . . . . . . . . . . . . . . . . . . . . . . $ % & & * * = - . . . . . . . . . . . . . . . . . . . . . . . . . . . . . . . . . . . . .   ",
". . . . . . . . . . . . . . . . . . . . . . . . . . . . . . . . . . . . . . . . . . . . . . . . . . . . . . . . . . . . . . . . . . . . . . . . . . . . . . . . . . . . . . . . . . . . . . . . . . . . . . . . . . . . . . . . . . . . . . . . . . . . . . . . . . . . . . . . . . . . . . . . . . . . ; > , , ' ) ! ~ . . . . . . . . . . . . . . . . . . . . . . . . . . . . . . . . . . . . .   ",
". . . . . . . . . . . . . . . . . . . . . . . . . . . . . . . . . . . . . . . . . . . . . . . . . . . . . . . . . . . . . . . . . . . . . . . . . . . . . . . . . . . . . . . . . . . . . . . . . . . . . . . . . . . . . . . . . . . . . . . . . . . . . . . . . . . . . . . . . . . . . . . . . . . . { ] . . . ^ / ( . . . . . . . . . . . . . . . . . . . . . . . . . . . . . . . . . . . . .   ",
". . . . . . . . . . . . . . . . . . . . . . . . . . . . . . . . . . . . . . . . . . . . . . . . . . . . . . . . . . . . . . . . . . . . . . . . . . . . . . . . . . . . . . . . . . . . . . . . . _ : : < [ } | . . . . . . . . . . . . . . . . . . . . . . . . . . . . . . . . . . . . . . . . . . . . 1 > 2 3 4 5 6 7 8 . . . . . . . . . . . . . . . . . . . . . . . . . . . . . . . . . . . .   ",
". . . . . . . . . . . . . . . . . . . . . . . . . . . . . . . . . . . . . . . . . . . . . . . . . . . . . . . . . . . . . . . . . . . . . . . . . . . . . . . . . . . . . . . . . . . . . . . 9 0 a b . . . c d e f . . . . . . . . . . . . . . . . . . . . . . . . . . . . . . . . . . . . . . g e e h i j k l m n o . : p q r . . . . . . . . . . . . . . . . . . . . . . . . . . . . . . . . .   ",
". . . . . . . . . . . . . . . . . . . . . . . . . . . . . . . . . . . . . . . . . . . . . . . . . . . . . . . . . . . . . . . . . . . . . . . . . . . . . . . . . . . . . . . . . . . . . . s t u v w x y z A B C D . . . . . . . . . . . . . . . . . . . . . . . . . . . . . . . . . . . . . E F u G H I I J K L M N O P Q R S # . . . . . . . . . . . . . . . . . . . . . . . . . . . . . . . .   ",
". . . . . . . . . . . . . . . . . . . . . . . . . . . . . . . . . . . . . . . . . . . . . . . . . . . . . . . . . . . . . . . . . . . . . . . . . . . . . . . . . . . . . . . . . . . . . . T U V W X Y Z `  ...+.@.. . . . . . . . . . . . . . . . . . . . . . . . . . . . . . . . . . . . . #.$.%.&.*.=.-.-.;.>.,.'.).!.~.{.].^.. . . . . . . . . . . . . . . . . . . . . . . . . . . . . . . .   ",
". . . . . . . . . . . . . . . . . . . . . . . . . . . . . . . . . . . . . . . . . . . . . . . . . . . . . . . . . . . . . . . . . . . . . . . . . . . . . . . . . . . . . . . . . . . . . /.(._.:.<.[.}.|.1.2.3.4.5.6.7.8.. . . . . . . . . . . . . . . . . . . . . . . . . . . . . . . . . . 9.0.a.b.c.c.c.d.e.T f.g.h.i.d.j.k.l.m.n.. . . . . . . . . . . . . . . . . . . . . . . . . . . . . .   ",
". . . . . . . . . . . . . . . . . . . . . . . . . . . . . . . . . . . . . . . . . . . . . . . . . . . . . . . . . . . . . . . . . . . . . . . . . . . . . . . . . . . . . . . . . . . . . o.p.q.r.s.[.t.u.v.w.x.y.z.A.B.C.. . . . . . . . . . . . . . . . . . . . . . . . . . . . . . . . . . D.E.F.G.H.I.I.J.K.L.M.C N.O.P.Q.R.S.T.U.. . . . . . . . . . . . . . . . . . . . . . . . . . . . . .   ",
". . . . . . . . . . . . . . . . . . . . . . . . . . . . . . . . . . . . . . . . . . . . V.W.W.W.W.X.. . . . . . . . . . . . . . . . . . . . . . . . . . . . . . . . . . . . . . . . . . . . Y.Z.:.s.`. +.+++.+@+#+$+. %+&+*+=+. . . . . . . . . . . . . . . . . . . . . . . . . . . . . . . -+. ;+>+,+>+'+'+)+!+~+{+]+^+/+(+_+:+<+[+}+. . . . . . . . . . . . . . . . . . . . . . . . . . . . . .   ",
". . . . . . . . . . . . . . . . . . . . . . . . . . . . . . . . . . . . . . . . . . |+1+2+3+4+5+6+7+8+9+0+. . . . . . . . . . . . . . . . . . . . . . . . . . . . . . . . . . . . . . . . . a+b+:.c+d+e+f+g+g+h+i+j+k+l+m+n+o+. . . . . . . . . . . . . . . . . . . . . . . . . . . . . . p+q+r+s+r+t+u+v+_ w+x+] y+z+A+B+C+D+E+F+G+H+. . . . . . . . . . . . . . . . . . . . . . . . . . . . . .   ",
". . . . . . . . . . . . . . . . . . . . . . . . . . . . . . . . . . . . . . . . . I+J+K+L+. . . . . M+N+O+P+. . . . . . . . . . . . . . . . . . . . . . . . . . . . . . . . . . . . . . . . a+b+:.Q+. R+S+T+T+U+V+W+W+X+. Y+Z+`+ @. . . . . . . . . . . . . . . . . . . . . . . . . . .@+@@@#@$@%@. %@&@*@=@-@;@>@,@'@. )@!@~@{@]@^@H+. . . . . . . . . . . . . . . . . . . . . . . . . . . . . .   ",
". . . . . . . . . . . . . . . . . . . . . . . . . . . . . . . . . . . . . . . . . /@(@_@:@<@*.[@}@|@1@2@3@4@5@. . . . . . . . . . . . . . . . . . . . . . . . . . . . . . . . . . . . . . . a+b+:.6@7@8@9@0@a@h+b@c@d@e@y f@g@(@h@f . . . . . . . . . . . . . . . . . . . . . . . . i@j@k@l@m@n@o@p@q@r@s@t@u@v@w@x@y@. z@A@B@C@D@E@F@. . . . . . . . . . . . . . . . . . . . . . . . . . . . . .   ",
". . . . . . . . . . . . . . . . . . . . . . . . . . . . . . . . . . . . . . . . G@H@I@J@K@L@M@N@O@P@Q@R@S@T@U@. . . . . . . . . . . . . . . . . . . . . . . . . . . . . . . . . . . . . . . a+b+:.V@W@X@Y@Z@`@ #.#+#@###$#[.%#&#*#=#. . . . . . . . . . . . . . . . . . . . . . . . -#;#>#,#'#)#!#~#{#]#^#/#(#_#:#<#[#. z@}#|#1#2#3#4#. . . . . . . . . . . . . . . . . . . . . . . . . . . . . .   ",
". . . . . . . . . . . . . . . . . . . . . . . . . . . . . . . . . . . . . 5#6#7#8#9#0#a#b#c#d#e#f#g#h#i#j#k#l#m#n#. . . . . . . . . . . . . . . . . . . . . . . . . . . . . . . . . . . . . a+b+:.o#p#q#r#s#t#u#v#@#w#w#x#[.y#z#A#B#C#C#C#C#C#C#C#C#C#C#C#C#C#D#E#F#G#G#H#H#I#H#J#D#K#L#M#. N#O#P#Q#R#S#T#U#V#W#s X#Y#Z#z@`#.  $.$+$/.. . . . . . . . . . . . . . . . . . . . . . . . . . . . . .   ",
". . . . . . . . . . . . . . . . . . . . . . . . . . . . . . . . . . . . . . @$#$$$%$&$*$=$-$;$>$=$,$=$'$)$!$~${$]$. . . . . . . . . . . . . . . . . . . . . . . . . . . . . . . . . . . . . a+b+:.o#p#^$/$($_$:$<$+#w#w#x#[$}$|$1$2$3$4$4$4$4$5$4$4$4$4$4$3$6$7$8$8$9$~$0$a$b$c$d$e$e$f$g$. h$i$j$k$l$m$n$o$p$q$r$s$Y#Z#z@t$. . . . . . . . . . . . . . . . . . . . . . . . . . . . . . . . . . .   ",
". . . . . . . . . . . . . . . . . . . . . . . . . . . . . . . . . . . . u$v$w$x$. y$z$A$B$C$C$D$E$F$_$G$H$2$. I$J$K$L$. . . . . . . . . . . . . . . . . . . . . . . . . . . . . . . . . . . M$b+:.o#p#^$N$O$P$. _$Q$R$w#x#w#R$S$O$. . . . . . . . . . . . . . . . . . . . . . . . . . . T$%@U$V$W$X$Y$Z$`$ %.%+%@%#%Y#Z#$%%%. . . . . . . . . . . . . . . . . . . . . . . . . . . . . . . . . . .   ",
". . . . . . . . . . . . . . . . . . . . . . . . . . . . . . . . . . . |+&%*%=%-%q#e@;%>%,%O$'%'%'%)%!%~%{%]%^%/%(%_%:%<%. . . . . . . . . . . . . . . . . . . . . . . . . . . . . . . . . [%}%|%1%0#2%3%4%5%$+6%7%z$8%9%w#w#x#0%a%b%c%d%e%f%g%h%h%i%j%k%h%j%k%h%l%m%n%o%o%p%f%q%r%s%t%u%v%%@w%x%y%Y$z%A%B%C%D%q$E%F%G%H%I%J%. . . . . . . . . . . . . . . . . . . . . . . . . . . . . . . . . . .   ",
". . . . . . . . . . . . . . . . . . . . . . . . . . . . . . . . . . K%L%M%N%O%P%Q%R%S%T%U%'%'%'%'%V%W%X%Y%Z%`% &.&+&@&#&$&. . . . . . . . . . . . . . . . . . . . . . . . . . . . . . . . %&&&*&=&-&;&>&,&'&)&!&~&.&. {&]&w#w#]&^&/&(&_&:&<&[&}&|&|&|&|&|&|&|&|&|&|&|&|&|&1&2&3&4&5&6&7&8&. 9&0&a&b&c&d&e&f&g&h&i&j&k&l&m&n&. . . . . . . . . . . . . . . . . . . . . . . . . . . . . . . . . . .   ",
". . . . . . . . . . . . . . . . . . . . . . . . . . . . . . . . . o&p&q&r&s&t&u&2.v&w&x&y&'%'%'%'%'&'&z&,%A&B&C&*.D&E&F&G&H&. . . . . . . . . . . . . . . . . . . . . . . . . . . . . . . %&I&J&K&L&M&N&O&P&)&)&Q&R&_&S&T&9%w#^&^&]&U&V&W&X&Y&Z&. . . . . . . . . . . . . . . . `&>@ *.*+*@*#*$*%*&***=*-*;*>*,*'*)*. . !*. . . . . . . . . . . . . . . . . . . . . . . . . . . . . . . . . . . .   ",
". . . . . . . . . . . . . . . . . . . . . . . . . . . . . . . ~*{*]*^*/*(*_*:*<*[*}*|*1*2*'%'%'%'%'%3*4*5*6*7*U&8*9*0*a*b*c*d*. . . . . . . . . . . . . . . . . . . . . . . . . . . . . . e*f*g*h*i*j*k*B$P&)&)&)&~&l*x m*n*o*R$^&p*q*8*r*I@s*t*e*u*. . . . . . . . . . . . . v*w*x*y*z*A*B*C*D*E*F*G*H*I*J*K*L*M*N*. . . . . . . . . . . . . . . . . . . . . . . . . . . . . . . . . . . . . . .   ",
". . . . . . . . . . . . . . . . . . . . . . . . . . . . . . . O*P*Q*q.0#R*S*T*U*V*W*X*Y*Z*`* =.=+=@=#=$=j*%=&=*===-=;=>=,='=)=!=. . . . . . . . . . . . . . . . . . . . . . . . . . . . . {*~={==&]=;&^=/=P&)&)&)&)&'&(=_=:=q*<=[=^&^&}=|=1=2=3=4=5=6=. . . . . . . . . . . . 7=8=9=0=y a=b=r*c=d=v%e=f=g=h=i=j=~*. . . . . . . . . . . . . . . . . . . . . . . . . . . . . . . . . . . . . . . .   ",
". . . . . . . . . . . . . . . . . . . . . . . . . . . . . . 5#k=l=:&m=&$n=o=p=q=r=s=t=u=v=w=x=y=z=A=B=C=D=E=F=G=R%H=Z%I=J=K=L=M=. . . . . . . . . . . . . . . . . . . . . . . . . . . . . . N=O=P=]=;&k*B$P&)&)&)&)&'&Q=R=S=y.T=U=^&]&^&V=W=X=Y=9$Z=`=. . . . . . . . . . .  -.-W&+-@-#-$- +U&%-&-*-=---. ;->-. . . . . . . . . . . . . . . . . . . . . . . . . . . . . . . . . . . . . . . . . .   ",
". . . . . . . . . . . . . . . . . . . . . . . . . . . . . )*N*,-'-. )-!-~-{-]-^-/-(-_-:-<-[-}-|-1-2-3-Z*4-5-6-U%7-8-9-0-a-. b-c-. )*. . . . . . . . . . . . . . . . . . . . . . . . . . . . d-e-P=]=;&k*B$P&)&)&)&)&f-g-h-i-j-k-l-^&]&]&]&p*8*m-n-o-p-q-. . . . . . . . )*. r-s-. t-o*u-v-w-[*. a$x-y-z-. A-B-. . . . . . . . . . . . . . . . . . . . . . . . . . . . . . . . . . . . . . . . . .   ",
". . . . . . . . . . . . . . . . . . . . . . . . . . . . C-D-E-F-G-H-I-J-v&K-L-/-M-M-M-N-O-4*P-Q-h-R-t#S-T-U-V-.=W-X-Y-Z-`- ;.;+;@;#;$;. . . . . . . . . . . . . . . . . . . . . . . . . . . d-e-P=]=;&k*B$P&)&)&%;&;Q=!%h-B$*;=;-;;;q*]&]&]&l->;,;';);n+!;. . . . . . ~;{;];^;/;(;_;:;<;[;};|;1;2;3;4;5;. 6;7;. . . . . . . . . . . . . . . . . . . . . . . . . . . . . . . . . . . . . . . . . .   ",
". . . . . . . . . . . . . . . . . . . . . . . . . . . . 8;9;Y#0;a;b;c;d;r=r=L-/-M-M-M-/-y=`*w=e;f;(-y&r=g;U-V-.=h;i;j;k;l;m;n;o;p;(@C.q;. . . . . . . . . . . . . . . . . . . . . . . . . . d-e-P=]=;&k*B$P&)&)&r;p#s;t;y$h-h-u;v;. w;^&^&]&x;[=y;4*z;A;B;C;f . . . D;E;F;G;. H;}=I;J;K;L;. M;N;O;P;4;5;. Q;W.. . . . . . . . . . . . . . . . . . . . . . . . . . . . . . . . . . . . . . . . . .   ",
". . . . . . . . . . . . . . . . . . . . . . . . . . . R;S;T;F#Z@U;V;x.W;N-M-L-/-M-M-M-X;Y;s=Z;`;*= >.>_*+>U-V-.=@>4-#>S-$>%>&>*>w =>K+->;>. . . . . . . . . . . . . . . . . . . . . . . . . >>O=,>]=;&k*B$P&)&)&'>)>q#q#!>!>q#F#~>{>]>^>q*/>[=(>_>:><>[>}>|>1>. . 2>3>4>5>6>7>|=8>9>0>a>b>c>d>e>. f>4;5;. g>W.. . . . . . . . . . . . . . . . . . . . . . . . . . . . . . . . . . . . . . . . . .   ",
". . . . . . . . . . . . . . . . . . . . . . . . . . h>i>j>k>l>m>n>o>p>q>r>i-L-/-M-M-(-w&R-<-s>S-G=3-t>u>T-U-V-.=h;A&v>|*A=#>w>x>y>z>A>B>C>. . . . . . . . . . . . . . . . . . . . . . . . 5#D>E>:.]=;&k*B$P&)&)&r;)>q#q#q#q#q#q#F>G>H>I>J>K>L>M>N>c#c#O>G#P>)@. . Q>R>S>T>U>V>W>X>Y>Z>`> ,.,+,@,. +$4;5;. #,W.. . . . . . . . . . . . . . . . . . . . . . . . . . . . . . . . . . . . . . . . . .   ",
". . . . . . . . . . . . . . . . . . . . . . . . $,l%%,&,0#*,=,-,;,>,,,',),!,~,{,&=],~,i-^,M&/,(,,&_,:,[*5-<,[,},6*|,1,U;2,F=3,4,5,6,7,8,9,Y.0,. . . . . . . . . . . . . . . . . . . . . . %&a,b,c,d,e,f,,&g,%;P&r;)>q#q#q#q#q#q#q#q#~&h,i,j,[=k,l,m,n,o,c>p,q,r,s,t,u,v,w,x,y,z,A,d=B,C,D,E,F,G,. +$H,5;. #,W.. . . . . . . . . . . . . . . . . . . . . . . . . . . . . . . . . . . . . . . . . .   ",
". . . . . . . . . . . . . . . . . . . . . . . 5#I,@;J,K,L,M,N,O,P,|-Q,R,S,B=B=T,F=[*U,B=S,V,|,W,X,Y,Z,d=`, 'i;P-B=.'+'R,@'|-!,#'$'A,%'&'*'='D . . . . . . . . . . . . . . . . . . . . . . # -';'>','''X@)'.'!'~'r;)>q#q#q#q#q#q#q#^${']'1,^'/'('_':'<'['}'|'1'2'J,3'c$4'5'6'7'8'9'#'0'a'b'. . . . c'd'e'. f'W.. . . . . . . . . . . . . . . . . . . . . . . . . . . . . . . . . . . . . . . . . .   ",
". . . . . . . . . . . . . . . . . . . . . . . 5#g'A.. .'h'i'X+L-/-/-y=j'k'l'^=m'n'o'p'q',%4-r'9-+>5-s't'k*%={'9'>&u',%&=y=y=U%y=Q=v'w'x'y'z'A'B'C'. . . . . . . . . . . . . . . . . . . . . D'E'F'G'b H'U*_,2%I'J')>q#q#q#q#q#q#q#^$K'>&L'],^$M'_'m,N'O'Q.P'Q'R'S'. T'j,U'V'L,W'X'Y'Z'`' ). . . . .)+)@). #)W.. . . . . . . . . . . . . . . . . . . . . . . . . . . . . . . . . . . . . . . . . .   ",
". . . . . . . . . . . . . . . . . . . . . . . 5#$)%). &)}.=,*)=)-);)j''%S->),)m'B$3,r>};s=w ')')')')Z*)),)P-!)V,$=b%i-'%'%j''%O$~){)])^)/)()_):)<)[). . . . . . . . . . . . . . . . . . . . . . . })|)1),)2)3)I'J')>q#q#q#q#q#(*4)5)6)>&7)8)V%9)0)a)b)c)d)e)f)g)w,h)W%i):;j)k)l)m)2;n)o). . . . . p)q)@). A-W.. . . . . . . . . . . . . . . . . . . . . . . . . . . . . . . . . . . . . . . . . .   ",
". . . . . . . . . . . . . . . . . . . . . . . r)s)t). u)v)i'w)x)x)x)I''%&=f-y&3)y)z)y=|-j''%'%'%'%'%.=y=A)3)B)v>C)D)B$j''%'%'%'%/-S%O$E)V+F). G)H)I). . . . . . . . . . . . . . . . . . . . . . . J)K)1),)2)3)I''>)>q#q#q#q#L)M);&>&>&>&>&>&N)O$O)P)Q)R)S)T)U)V)W)X)Y)Y)N)$+. Z)`) != {*. . . . . +$H,5;. f'W.. . . . . . . . . . . . . . . . . . . . . . . . . . . . . . . . . . . . . . . . . .   ",
". . . . . . . . . . . . . . . . . . . . . . . 5#.!+!. u)@!#!*)-)-)-)/-'%$!N$Q=%!`;&!W-*!/$'%'%'%'%'%+=N$=!-!U;;!*!>!,!'%'%'%'%'&|-'!)!t'!!S+~!{!c-]!^!/!. . . . . . . . . . . . . . . . . . . . . (!_!1),)2)3)I':!X@p#q#q#q#q#)-;&>&>&>&>&>&j)K-<![!}!|!1!2!3!4!5!6!i,6)7!*.8!9!. . . . . . . . . +$4;5;. #,W.. . . . . . . . . . . . . . . . . . . . . . . . . . . . . . . . . . . . . . . . . .   ",
". . . . . . . . . . . . . . . . . . . . . . . 5#0!a!. u)@!b!{-L-L-L-/-'%k'o=t'c!)!d!u'e!f!'%'%'%'%'%:-g!u'h!Q=W*i!1,j!'%'%'%'%k!l!4*l'd=,&m!n!o!p!q!t*r!. . . . . . . . . . . . . . . . . . . . . s!b 1),)2)3)I'~'t!:!F>q#q#q#)-;&>&>&u!2)>&e;v!w!x!y!z!A!B!|+C!D!E!F!G!H!I!J!K!L!. . . . . . . . +$4;5;. #,W.. . . . . . . . . . . . . . . . . . . . . . . . . . . . . . . . . . . . . . . . . .   ",
". . . . . . . . . . . . . . . . . . . . . . . 5#M!N!O!S=P!Q!R!~,S!L-M-y&!,x';&c!f-G=u!l'!,T!/$'%],T!Q,U!^=V!W!8)X!|*Z*T!/$'&'%:$Y!Z!_,`! ~!%.~+~@~#~$~%~&~*~. . . . . . . . . . . . . . . . . . . =~-~_!;~>~2%g,,~)&'~)~q#%.q#)-;&>&u!!~!~~~>%{~]~.'^~$$/~(~_~. F,:~<~[~}~|~1~2~~*. . . . . . . . +$4;5;. #,W.. . . . . . . . . . . . . . . . . . . . . . . . . . . . . . . . . . . . . . . . . .   ",
". . . . . . . . . . . . . . . . . . . . . . . 5#3~4~5~6~7~8~9~[-t;0~a~2%.'P-m'[*j'b~c~d~2%e~{-j'j!f~g~V!u>h~y=Q,+'P-%!%!i~V-j~k~s>l~m'm~M-n~o~x!6)`;p~q~r~s~. . . . . . . . . . . . . . . . . . . t~u~v~w~x~y~g~z~A~)&B~q#%.q#)-;&X!9~9~c;C~D~E~t.F~G~;$H~I~J~. . K~7&L~M~>$N~O~. . . . . . . . . +$4;5;. f'W.. . . . . . . . . . . . . . . . . . . . . . . . . . . . . . . . . . . . . . . . . .   ",
". . . . . . . . . . . . . . . . . . . . . . . . P~Q~R~S~T~U~A$V~,)W~X~>&x'j!&='%'%'%j'Y~:,_,S,y=1->&<-z=Z~y=&=.=U%:-5*;&}*W,5)`~ {')j'y=y=L-Z>~).{W=t'+{@{#{${%{. . . . . . . . . . . . . . . . . &{*{={-{;{B~^=l'>{)&,{q#q#q#u>;&X!'{'{){!{~{P!~{h+{{]{^{/{({_{:{<{[{Q~}{H!. |{1{2{)*. . . . . . +$4;5;. 3{W.. . . . . . . . . . . . . . . . . . . . . . . . . . . . . . . . . . . . . . . . . .   ",
". . . . . . . . . . . . . . . . . . . . . . . . . . 4{5{d-6{7{_;8{9{u)R-O-Y~'%'%'%'%'%W->!U*S,B$7*R-*=Y~.=.=.=.=.=0{O-@>P-G=V,f;b%2*&=&=&=L-a{b{{)])`@c{d{e{f{g{h{. . . . . . . . . . . . . . . . . . i{u%j{B~^=l'>{)&k{q#)-4)l{m{X!'{'{n{!{~{o{~{h+U+p{q{r{s{t{u{*+. v{w{x{y{z{A{B{C{D{. . . . . E{F{5;. S~G{. . . . . . . . . . . . . . . . . . . . . . . . . . . . . . . . . . . . . . . . . .   ",
". . . . . . . . . . . . . . . . . . . . . . . . . . H{I{J{K{e'P$L{M{{)/-N{'%'%'%'%'%'%&=&=Y%2%>&6-O{&=O{&=.=.=.=.=.=&=A)s>^=R-O$l{:>P{Q{.=L-L-/-C)a{R{S{T{V@]=U{V{. . . . . . . . . . . . . . . . . W{X{Y{Z{B~^=l'>{)&k{q#&!_,^=>&`{ ] ].]+]@]@].+#]h+$]@!%]B$&]*]=]. . -]2+;]>],]'])]!]. . . . . ~]{]]]. #,W.. . . . . . . . . . . . . . . . . . . . . . . . . . . . . . . . . . . . . . . . . .   ",
". . . . . . . . . . . . . . . . . . . . . . . . . . . . ^]/ b-%;>~[./])%*!y&O$'%'%'%'%/$(]N$-!U;b%_]_]],.=.=.=.=.=],:]W-)';&4**!l{<]V-|-'%L-L-[]^{N$}]|]T{1]2]3]4]. . . . . . . . . . . . . . . . . 5]6]7]]=X~`;5*8])&B~(*>!^=>&>&!~9]0]a]+].+.+.+b]b]c].+d]9{a{e]f]g]h]. . i]j]k]l]u m]n]. . . . o]k.p]. #,W.. . . . . . . . . . . . . . . . . . . . . . . . . . . . . . . . . . . . . . . . . .   ",
". . . . . . . . . . . . . . . . . . . . . . . . . . . . q]r]s]t]u]v]D)w]J-8)N{M-'%'%'%)!@>>;S,S-o'3-t>j!.=.=.=.=.=N$b%),l~Q,o'>;o=t;/$'%'%L-L-x]y]z]A]B]C~C]D]3]4]. . . . . . . . . . . . . . . . . . E]F]G]H]I'c+I])&J](*>!*$K]>&L]M]N]O]b]b].+.+b].+b]b]P]Q]R]#'S]T]U]V]. W]X]Y]Z]`]M$ ^.^/.. . +^@^p]. #,W.. . . . . . . . . . . . . . . . . . . . . . . . . . . . . . . . . . . . . . . . . .   ",
". . . . . . . . . . . . . . . . . . . . . . . . . . . . 5#G,#^$^%^&^*^z$=^-^A);^>^'%/$,^'^;&m''&)^B)q'Z*_]!^.=+=`*=!~^U;l~F=i~{^u'!,T!/$'%]^{,k;^^u!/^S{(^C]_^3]4]. . . . . . . . . . . . . . . . . . ~*:^<^[^}^|^1^I]k{q#2^*$K]>&!~3^.+.+b]b].+.+b]b].+b]b]#]4^5^y=6^7^8^9^0^a^b^c^t!d^e^f^g^h^. +$i^p]. #,W.. . . . . . . . . . . . . . . . . . . . . . . . . . . . . . . . . . . . . . . . . .   ",
". . . . . . . . . . . . . . . . . . . . . . . . . . . . . . ~*j^k^l^m^Y>n^o^p^U;5),%g~q^c!h-r^U%2*l~+'s^t^x=U%u^t^d=l~m'v^j'z&w^w^q^.'R!j')!d=g~+'x^/]y^z^1]D]A^4]. . . . . . . . . . . . . . . . . . . o.B^F]C^D^E^F^G^<.u>(,>&>&u!H^@]I^b]b]b]b]b]b].+b]+]J^K^S=,%L^M^N^O^P^. Q^R^4,4'c$S^T^U^. V^W^X^. #,W.. . . . . . . . . . . . . . . . . . . . . . . . . . . . . . . . . . . . . . . . . .   ",
". . . . . . . . . . . . . . . . . . . . . . . . . . . . . . . Y^Z^`^M; /./m>+/@/E$#>X!U!u^r=#/.=.=&==!|*p'$/O{%/y)M&,%&='%'%'%j'&/^^<$V!j'W'2)i!n~~,*/=/z^-/}^R~;/. . . . . . . . . . . . . . . . . . . . D{>/,/'/)/!/~/{/X->~u!2)X!]/b]b]b]b]b]b].+b].+b]^///(/_/:/_$'~</[/}/_{|/1/2/3/4/. b*5/6/7/8/9/. #,W.. . . . . . . . . . . . . . . . . . . . . . . . . . . . . . . . . . . . . . . . . .   ",
". . . . . . . . . . . . . . . . . . . . . . . . . . . . . . . . . 0/={N=a/X>b/c/V,d/o=*=Q=L-/-.=.=.=:-e/1,`,f/g/5*f;u^&='%'%'%'%h/&!8{d~[*9'1,i/E=j/*/=/z^1]}^R~;/. . . . . . . . . . . . . . . . . . . . . . . k/l/m/n/o/p/q/r/`~2)3^b]b]b]b].+.+.+b]N]s/t/u/(/v/&))>w/G>x/y/z/A/B/p*C/u&D/E/F/G/H/I/X^. f'W.. . . . . . . . . . . . . . . . . . . . . . . . . . . . . . . . . . . . . . . . . .   ",
". . . . . . . . . . . . . . . . . . . . . . . . . . . . . . . . . J/K/L/M/N/O/n=W+P/X;{,M-M-M-.=.=.=.=A):].'X!Q/X;R/.='%'%'%'%'%'%/$R/`!k*1,S//$'%`**/z$z^T/}^R~;/. . . . . . . . . . . . . . U/V/W/X/X/X/Y/X/Y/Z/`/*@ (.(+(@(#(l':>$(b]b].+.+.+.+.+%(&(*(~~u!X!X!`~1*t;X@=(-(;(>(,(b=b='()(!(~({(](^(/(. Q;W.. . . . . . . . . . . . . . . . . . . . . . . . . . . . . . . . . . . . . . . . . .   ",
". . . . . . . . . . . . . . . . . . . . . . . . . . . . . . . . . . . . ((_(:(a%}$<()%[(}(M-M-.=.=.=+=_]|(k~X!b%T!y&Z~'%'%'%'%'%'%Y%:]h!u!g!`*`*/$`**/y^z^1]}^R~;/. . . . . . . . . . . . . 1(2(3(4(5(6(7(8(7(7(9(:!0(a(b(c(d(e(>;>~f(g(g(h(I^.+b]i(w'z^&$>&u!X!X!u!1,P-3,r#j(}.K>u-k(b=l(x;m(7@n(o(p()-. q(7;. . . . . . . . . . . . . . . . . . . . . . . . . . . . . . . . . . . . . . . . . .   ",
". . . . . . . . . . . . . . . . . . . . . . . . . . . . . . . . . . . . r(s(^@9$>=d~v!`-,&L-/-.=.=.=t(R-u'`,Q,o'3-^^j!&='%'%'%'%8]4*^,d~u^j~t'1,b~`*M,u((^1]}^R~;/. . . . . . . . . . . . 5#v(w(x(&.=.=.y(y(=.y(z(F)A$A(B(C(D(E(F(G(H(I(J(K(L(M(g+N(/]2->&>&u!X!X!u!O(P(Q(R(S(&!T(U(V(W(x#X(Y(Z(I=`(Y#F^.  _._. . . . . . . . . . . . . . . . . . . . . . . . . . . . . . . . . . . . . . . . . .   ",
". . . . . . . . . . . . . . . . . . . . . . . . . . . . . . . . . . . . r)#^+_@_#_!>W=X $_{,M-.=],+=%_U!u!V!O{,!y)`;&_],],'%'%S/k;'^*_z~y=j;^=`;!,_]M,u(=_-/}^R~;/. . . . . . . . . . . -_;_>_,_2]V@h*'_)_!_~_{_Y@#+]_^_K)/_(___:_<_t#[_}_|_u(M(1_2_9~2)>&>&~~3_3_2)4_5_I^I^B]6_d%m(7_1.X(X(b=[=8_9_0_a_b_c_. . . . . . . . . . . . . . . . . . . . . . . . . . . . . . . . . . . . . . . . . . .   ",
". . . . . . . . . . . . . . . . . . . . . . . . . . . . . . . . . . . . . d_v+e_f_g_R-f;}]h_i_j_u^-!k~`,%=,&U%Y~V!V!s>.'k_y=i-.'%!d~S,,&&=:-l~%=d/S=l_v)m_T/n_o_4]. . . . . . . . . . . p_q_Q.r_A*s_t_/'&$u'u_/'v_1,f;|=w_x_y_z_A_B_C_D_a>E_F_J(G_H_X!X!u!I_J_K_K_C~L_o{b].+B]M_t(N_O_P_Q_b=b=]&R_A$`-<@X'S_. . . . . . . . . . . . . . . . . . . . . . . . . . . . . . . . . . . . . . . . . . .   ",
". . . . . . . . . . . . . . . . . . . . . . . . . . . . . . . . . . . . . . # T_U_V_W_X_Y_Z_$'C){-u!|*n~ ~.=.=.=.=:-U!>&`,j_@'u!`_!, ~.=.='%],&/5*2) :B].:T/D]o_4]. . . . . . . . . +:@:#:$:%:W,&:*:x#=:-:K(;:)(>:,:. (>':):!:B(~:{:]:^:#>/:(:_:L{X!X!X!X!::<:~{~{~{~{.+b].+t.K;[:n~}:|:1:w#x#w#]&2:8*u>. _.3:4:)*. . . . . . . . . . . . . . . . . . . . . . . . . . . . . . . . . . . . . . . .   ",
". . . . . . . . . . . . . . . . . . . . . . . . . . . . . . . . . . . . . . . . 5:6:7:L);%F_}]8:9:>;v>Q,.=.=.=.=.=W-6-0:q^j;G=0:t>Q,.=.=.='%'%h/;!^,A]B]T{-/}^R~;/. . . . . . . . . a:b:c:d: ;e:f:g:h:i:j:k:l:m:n:o:p:q:r:A*s:t:u:v:w:x:y:z:H(A::=B:B::=:=<(C:~{~{~{D:E:d]F:|$}]5^/)G:R*-;H:9%w#w#]&%>6)I:J:K:L:!=. . . . . . . . . . . . . . . . . . . . . . . . . . . . . . . . . . . . . . . .   ",
". . . . . . . . . . . . . . . . . . . . . . . . . . . . . . . . . . . . . . . . . M:N:O:P:0#Q:R:S:a{T:M-.=.=.=.=.=.=U:`*%!2-1,A)y&.=.=.=.='%'%],X;^{V:v)W:1]}^R~;/. . . . . . . . X:Y:Z:`: <.<+<>(@<q^h-#<x;$<%<&<*<=<-<;<@-f:><,<'<)<!<~<{<]<P(|]^<^<t.K(|_u(~{~{~{m>/<(<_<X!X!X!:<s;<<[<}<w'w#w#w#w#<=|<a;1<2<3<. . . . . . . . . . . . . . . . . . . . . . . . . . . . . . . . . . . . . . . .   ",
". . . . . . . . . . . . . . . . . . . . . . . . . . . . . . . . . . . . . . . . . . 4<5<6<8!7<8<9<X_0<y&.=.=.=.=.=.=A)h/.'p'g!:]`*],.=.=.='%'%'%'%Y%M,v)C~a<}^R~;/. . . . . . b<c<.,d<v,e<f<.<g</>h<i<u>j<2/k<l<l<l<m<m(r#n<o<p<q<r<s<t<u<v<^~i'w<}$W=x<K(|_!{5_!{|_y<0]z<!~2)2)>&o=}*A<B<C<D<+#E<w#[=[=(>F<(=G<L#H<I<f . . . . . . . . . . . . . . . . . . . . . . . . . . . . . . . . . . . . .   ",
". . . . . . . . . . . . . . . . . . . . . . . . . . . . . . . . . . . . . . . . . . |+J<K<L<M<%.j)N<w;3,&=&=.=.=.=N$;~>;d~j~X~:,O<Q,.=.=.='%'%'%'%`*M,v)(^a<}^R~;/. . . . . . T d>P<Q<R<N@S<*__*]>T<U<U<V<*:W<X<X<Y<Z<`< [X=.[+[F)@[#[$[%[&[*[6,=[5^I-H(-[A:;[>[A:,['[)[)[u!>&>&>&o=![~[^_j~>^{[][^[R$^&y;;;/[([k>_['/q . . . . . . . . . . . . . . . . . . . . . . . . . . . . . . . . . . . . .   ",
". . . . . . . . . . . . . . . . . . . . . . . . . . . . . . . . . . . . . . . . . . . . i@:[<[[[M_p*^>M)F=d;&=.=.=:-:,_,c!}[)'^= {z=.=.=.='%'%'%'%`*K;K(T{|[}^R~;/. . . . 1[2[3[4[5[e'6[7[8[y$9[]_0[a[b[c[d[d[l<m<m<e[f[b=X=F^t!w!z$c{g[j-S'h[*;Z>>^!>i[j['{'{(:(:(:X!X!X!u!>&>&>&o=![!>!>!>k[. <$l[R$w#R$m[n[o[~!^ p[q[r[. . . . . . . . . . . . . . . . . . . . . . . . . . . . . . . . . . . .   ",
". . . . . . . . . . . . . . . . . . . . . . . . . . . . . . . . . . . . . . . . . . . . s[t[u[v[w[x[y[z[A[B[F=u^%!.'h!2,Z*C[D[`,`,h!k~1-E[j''%F[}-G[H[I[J[K[L[R~;/. . . . M[N[O[P[Q[R[S[T[U[9@V[>%W[X[Y[&<Z[d[l<&<+<k<`[ }4,*/1,<*<*.}+}@}](#}$}%}&}*}B~x^=}-};!v/v/v/*=*=;!k);!k)w=t;;}!>!>>} >,}J>'})}1:!}u(~}{}j)]}^}/}(}. . . . . . . . . . . . . . . . . . . . . . . . . . . . . . . . . . .   ",
". . . . . . . . . . . . . . . . . . . . . . . . . . . . . . . . . . . . . . . . . . . . 5#_}:}<}[}}}|}1}2}M^3}!)p'i!4}+=>,Y-!'+=k;U!>&P-o!/='%h/:,p'-!{,5}6}}^7}8}.)G,9}0}a}b}c}d}e}f}[=<=g}^<R%h}q'.<Z<i}j}m<m<=<y;b=k}l}|]K(f(*;m}n}o}p}q}r}s}t}u}'~k[v}w}x}(*y}(*(*;};}!>!>!>z}!>q#!>!>!>!>A}B}}:C}W[M{K(P!~{P!w]_$D}]!E}F}G}. . . . . . . . . . . . . . . . . . . . . . . . . . . . . . . . .   ",
". . . . . . . . . . . . . . . . . . . . . . . . . . . . . . . . . . . . . . . . . . . . . . H}. n}I}g)3+J}K}L}M}o!F)N}O}P}Q}R}+[+[S}T}U}V}x}W'B$,)0:%=)%.>W}'&X}I<Y}Z}`}q+ |.|+|@|#|$|U=%|&|y^*|*/^'=|g<-|i}l<-|;|}=W(>|L(M(,|$('|)|!| $D{~|{|]|^|/|L&'|~!(|_|G>G>G>G>H-G>^$q#q#%.q#!>!>!>!>x})~,^:.k[/]:|<|~{I^.+%]5^[|}|||1|2|@ . . . . . . . . . . . . . . . . . . . . . . . . . . . . . . . .   ",
". . . . . . . . . . . . . . . . . . . . . . . . . . . . . . . . . . . . . . . . . . . . . . . . 3|4|E@5|]=6|7|8|9|0|a|b|c|d|e|f|g|h|('i|j|k|^=E)K-~,l|3,X~m|A<n|o|p|q|L<d,=(r|s|X[)(8>t|@+.+u|;:=:N<v|s>w|x|y|z|A|W(x#>|L(M(b]$(B|)|!|C|. ~*D|E|F|G|H|I|I|J|K|]<]<]<]<x)t!G>%.q#q#q#q#!>;}L|*,S/I'I]n'M|N|9~K(K(@+t.O|P|H[Q|R|].@ . . . . . . . . . . . . . . . . . . . . . . . . . . . . . . . .   ",
". . . . . . . . . . . . . . . . . . . . . . . . . . . . . . . . . . . . . . . . . . . . . . . . . S|T|E#U|K..*{]V|W|X|Y|Z|`| 1.1+1@1('#1$1%1&1}]n~*1=1k+-1-1;1($>1,1'1)1j#!1~1l<k<W(V({1.+c]]1^1W(Z(u)t;/1l<+<w#W(W(W(>|B]b]b]$(B|)|!|C|. . (1_1:1<1#~K)|)[1-&}1}1}1|1)&c%G>%.%.%.q#^$^$^$^$s=~')&P&n'11. >~^<21^<^<=/ +-}. Y{31@ . . . . . . . . . . . . . . . . . . . . . . . . . . . . . . . .   ",
". . . . . . . . . . . . . . . . . . . . . . . . . . . . . . . . . . . . . . . . . . . . . . . . . 41516171819101a1q!b1a1K#S]c1d1i#i#e1O s}f1g1g1j~o'V,k+-1-1;}W@j~`(h1*_w|i1j1m:`[k1l1c]m1n1l[o1p1q1r1s1t1u1H;W(v1w1x1S{u|b]b]$(B|y1z1A1. . . . B1C1D1E1F1G1H1I1T/T/T/T/J1>=<.X_<.X_X_s.s.X_K1P&)&P&n'L1M1>=w M_N1 +y^ +>!g&O131@ . . . . . . . . . . . . . . . . . . . . . . . . . . . . . . . .   ",
". . . . . . . . . . . . . . . . . . . . . . . . . . . . . . . . . . . . . . . . . . . . . . . . . . . . i&P1. Q1R1R1R1S1T1g[U1V1S'W1W1S'{/X1[]~,Y1-1-1-1-1-1-1-1s;Q=. Z1.<m<`1W( 2K(g(@]B]%|R$.2+2+2@2#2$2k+=^=:V(t|P!o{.+b]b]$(B|%2&2*2. . . . . . . . G,=2'>. Z#-2;2. 6@#()&)&)&)&)&)&)&)&)&)&)&P&n'L1M1Z{. >2,2=/=/'2)2[[0*31@ . . . . . . . . . . . . . . . . . . . . . . . . . . . . . . . .   ",
". . . . . . . . . . . . . . . . . . . . . . . . . . . . . . . . . . . . . . . . . . . . . . . . . . . . $ !2~2{27 7 ]2]2^2/2(2_27 ^2:2<2[2}2|23.#>;}-1-1-1-1~[S-Y@y.1222324252^162~{72829202a2;|+2p1b2c2d29@n*w]5,P!~{I^.+e2f2g2*>. h2F,. . . . . . . . G,i2j2k2l2m2T@n2o2p2q2e=e=e=e=r2r2e=e=e=e=e=s2t2M1M1g&u2;!v2v2v2w2x2y2z2^.. . . . . . . . . . . . . . . . . . . . . . . . . . . . . . . .   ",
". . . . . . . . . . . . . . . . . . . . . . . . . . . . . . . . . . . . . . . . . . . . . . . . . . . . A2B2R~C2D2D2E2E2F2G2P*H2F2E2E2F23]I2J2>1K2q#q#!>!>-1L2M2V@N2O2p1[=W(P2M(M(.+Q2=:w#R2S2+2T2U2f~q{.{Z_V2C=_/W2u|b].+X2=:Q_Y2Z2`2 3. . . . . . . . 5#.3+3@3#3$3%3&3*3w,=3-3;3;3;3>3,3;3-3-3-3-3'3)3!3J2)3~3.&{3{3]3n2^3/3(3/.. . . . . . . . . . . . . . . . . . . . . . . . . . . . . . . .   ",
". . . . . . . . . . . . . . . . . . . . . . . . . . . . . . . . . . . . . . . . . . . . . . . . . . . . . . _3[%. . . . . _3%&{*. . . . !]:3<3b1,{K2F>q#A}-^-^[3}3w_|313V(0%23b]33l14353637383p1a29303>;a3}$b3t#8{i'c3d3&|e3H:c2f3g3h3 3. . . . . . . . . . . i3~*. . j3k3l3m37.n3n3n3o3p3q3r3E2n3n3n3n3n3n3n37.7.7.7.s3_)t3. . . . . . . . . . . . . . . . . . . . . . . . . . . . . . . . . . .   ",
". . . . . . . . . . . . . . . . . . . . . . . . . . . . . . . . . . . . . . . . . . . . . . . . . . . . . . . . . . . . . . . . . . . . . u3v3w3b-N|x !>K2x3C} <y3z3A3E<B3C3b]c]D3@#y;E3#2F3S2G3H3I3J3^[d@21K3L3M3q^i_N3=:|$O3H!P3Q3R3S3. . . . . . . . . . . . . . . S3R3T3U3U3V3V3W3J<X3Y3Z3`3 4V3V3V3V3V3V3U3U3.4U3.4+4@4. . . . . . . . . . . . . . . . . . . . . . . . . . . . . . . . . . .   ",
". . . . . . . . . . . . . . . . . . . . . . . . . . . . . . . . . . . . . . . . . . . . . . . . . . . . . . . . . . . . . . . . . . . . . . #4$4%4&4*4!>/). =4-4#2a2;4+#>4@].+b],4'4)4F3F3Y<!4>:~4n>+#=:d@{4=/y^Y S,]4^4w#/4V@(4_4Y/. . . . . . . . . . . . . . . . . . . . . . . . . . . . . . . . . . . . . . . . . . . . . . . . . . . . . . . . . . . . . . . . . . . . . . . . . . . . . . .   ",
". . . . . . . . . . . . . . . . . . . . . . . . . . . . . . . . . . . . . . . . . . . . . . . . . . . . . . . . . . . . . . . . . . . . . . . :4<4[4e$}4p:|4S[14m:Q_k:24v)u|n1l[0234-|e[&<r*V[i+44Z g}T<h'K3=/y^K3a3S(i[L|5464748494. . . . . . . . . . . . . . . . . . . . . . . . . . . . . . . . . . . . . . . . . . . . . . . . . . . . . . . . . . . . . . . . . . . . . . . . . . . . . . .   ",
". . . . . . . . . . . . . . . . . . . . . . . . . . . . . . . . . . . . . . . . . . . . . . . . . . . . . . . . . . . . . . . . . . . . . . 04a4b4`|c4. d4O2#2e4w#44v)v)@!M(%|w#f4S2g4h4':i4j4=^W(E<H;21^<^<=/=/=/k4k4$_l4m4n4o4. . . . . . . . . . . . . . . . . . . . . . . . . . . . . . . . . . . . . . . . . . . . . . . . . . . . . . . . . . . . . . . . . . . . . . . . . . . . . . . . .   ",
". . . . . . . . . . . . . . . . . . . . . . . . . . . . . . . . . . . . . . . . . . . . . . . . . . . . . . . . . . . . . . . . . . . . . . p4q4r4s4W,t4u4v4.2Q_82w4~{x4y492z4v4A4S2#|H::;]_w.B4H:N3C4*|L3^<D41:E4<$1,F4Z]I2G4. . . . . . . . . . . . . . . . . . . . . . . . . . . . . . . . . . . . . . . . . . . . . . . . . . . . . . . . . . . . . . . . . . . . . . . . . . . . . . . . . .   ",
". . . . . . . . . . . . . . . . . . . . . . . . . . . . . . . . . . . . . . . . . . . . . . . . . . . . . . . . . . . . . . . . . . . . . H4I4J4K4L4M4&<N4p*W(O4c]M(~{k1W(w#P4Q4R4S2S4S=d/ }=:44h'4,&$X!w]T4U4W(Q_m-{>V4W4X4Y4. . . . . . . . . . . . . . . . . . . . . . . . . . . . . . . . . . . . . . . . . . . . . . . . . . . . . . . . . . . . . . . . . . . . . . . . . . . . . . . . . .   ",
". . . . . . . . . . . . . . . . . . . . . . . . . . . . . . . . . . . . . . . . . . . . . . . . . . . . . . . . . . . . . . . . . . . . . Z4`4 5.5+5s_@5#5E<%|$5.+%5&5*5)453p1S2q1+<=5-5H(H:l[^4|$2.;5:=y^8%>5,5'5z*s )5!5. . . . . . . . . . . . . . . . . . . . . . . . . . . . . . . . . . . . . . . . . . . . . . . . . . . . . . . . . . . . . . . . . . . . . . . . . . . . . . . . . . . .   ",
". . . . . . . . . . . . . . . . . . . . . . . . . . . . . . . . . . . . . . . . . . . . . . . . . . . . . . . . . . . . . . . . . . . . ~5{5I']5^5/5(5_5:5<5b;u(@+[5@#)4}5e}l<|5>:1525Y(+#>|35v'*(4555]_Q_E<5,O$</657585G,. . . . . . . . . . . . . . . . . . . . . . . . . . . . . . . . . . . . . . . . . . . . . . . . . . . . . . . . . . . . . . . . . . . . . . . . . . . . . . . . . . . .   ",
". . . . . . . . . . . . . . . . . . . . . . . . . . . . . . . . . . . . . . . . . . . . . . . . . . . . . . . . . . . . . . . . . . 9505a5*%b5@*$<Z<c5d5e5|_5_K(f5 }w#g5h4Y<l<#2h5k+i5@#w#j5u(k5l5B:]_!-$#W(m5n5o5p5. . . . . . . . . . . . . . . . . . . . . . . . . . . . . . . . . . . . . . . . . . . . . . . . . . . . . . . . . . . . . . . . . . . . . . . . . . . . . . . . . . . . . . .   ",
". . . . . . . . . . . . . . . . . . . . . . . . . . . . . . . . . . . . . . . . . . . . . . . . . . . . . . . . . . . . . . . . . . q5r591s5t5u5Y!v5w5x5y5z5P,A5%|o1B5*:l<-||=R%C544^4>|D5A]E5F5G521H5J3o^I5Y'J5K5L5. . . . . . . . . . . . . . . . . . . . . . . . . . . . . . . . . . . . . . . . . . . . . . . . . . . . . . . . . . . . . . . . . . . . . . . . . . . . . . . . . . . . . . .   ",
". . . . . . . . . . . . . . . . . . . . . . . . . . . . . . . . . . . . . . . . . . . . . . . . . . . . . . . . . . . . . . . . M5N5O5P5. Q5R5S5T5U5V5W5X5Y5Z5`5w#.2F3Y<e[ 6F<9{P(w#+#.6K(+6X*@6y^#6=:W(S=. $6%6&6. . . . . . . . . . . . . . . . . . . . . . . . . . . . . . . . . . . . . . . . . . . . . . . . . . . . . . . . . . . . . . . . . . . . . . . . . . . . . . . . . . . . . . . .   ",
". . . . . . . . . . . . . . . . . . . . . . . . . . . . . . . . . . . . . . . . . . . . . . . . . . . . . . . . . . . . . . . *6=6-6;6>6,6'6)6!6][-5~6{6]6^6/614a2P4F3(6_6:64,<6[6}6|6K_m_F_^6B]162636z^46A[5666. . . . . . . . . . . . . . . . . . . . . . . . . . . . . . . . . . . . . . . . . . . . . . . . . . . . . . . . . . . . . . . . . . . . . . . . . . . . . . . . . . . . . . . . .   ",
". . . . . . . . . . . . . . . . . . . . . . . . . . . . . . . . . . . . . . . . . . . . . . . . . . . . . . . . . . . . . . 76I+8696E^06a6b6^&=:k1o{K(.+l1@#b=p1Q4S2F3c6,}q^V=@# }B]d6l5e6Q]E~[5W(l:f6O/g6h6i6A.. . . . . . . . . . . . . . . . . . . . . . . . . . . . . . . . . . . . . . . . . . . . . . . . . . . . . . . . . . . . . . . . . . . . . . . . . . . . . . . . . . . . . . . . .   ",
". . . . . . . . . . . . . . . . . . . . . . . . . . . . . . . . . . . . . . . . . . . . . . . . . . . . . . . . . . . . . j6k6l6m6n69:o6p6q6r6s6t6m>Z_u6v6w614x6+2N4y6z6I3I3A6B6|6C:H^/]J;K(C6v6V=g2'|D6E6X{F6G6. . . . . . . . . . . . . . . . . . . . . . . . . . . . . . . . . . . . . . . . . . . . . . . . . . . . . . . . . . . . . . . . . . . . . . . . . . . . . . . . . . . . . . . . .   ",
". . . . . . . . . . . . . . . . . . . . . . . . . . . . . . . . . . . . . . . . . . . . . . . . . . . . . . . . . . . . . H6I6J6,{K6@1L6m-M6N6O6P65}Q6R6S6T6T6Q4U6>:e@A,H5%|j5t|#!l5+6Z_D:H5E<V6W6X_#>x}w/X6Y6Z6. . . . . . . . . . . . . . . . . . . . . . . . . . . . . . . . . . . . . . . . . . . . . . . . . . . . . . . . . . . . . . . . . . . . . . . . . . . . . . . . . . . . . . . . .   ",
". . . . . . . . . . . . . . . . . . . . . . . . . . . . . . . . . . . . . . . . . . . . . . . . . . . . . . . . . . . . . . d>=&`6 7.7e:Q++7@7#7$7o#J>x#63R4S2%7&7*7G=Y>V('4k1o{=7p^A:|]l}+#[=|$-7o#;7q#>7%2,7G+'7)7. . . . . . . . . . . . . . . . . . . . . . . . . . . . . . . . . . . . . . . . . . . . . . . . . . . . . . . . . . . . . . . . . . . . . . . . . . . . . . . . . . . . . . .   ",
". . . . . . . . . . . . . . . . . . . . . . . . . . . . . . . . . . . . . . . . . . . . . . . . . . . . . . . . . . . . . !7~7=&Y%B*j1{7]7^7/7(7_7:7[=A4q1S234<7v-[71:;:}7|71727K^3^+/Y(`[3_N_t;37q<:/A}*)4757677787. . . . . . . . . . . . . . . . . . . . . . . . . . . . . . . . . . . . . . . . . . . . . . . . . . . . . . . . . . . . . . . . . . . . . . . . . . . . . . . . . . . . . . .   ",
". . . . . . . . . . . . . . . . . . . . . . . . . . . . . . . . . . . . . . . . . . . . . . . . . . . . . . . . . . . . . 9707a7g, [W(`5k4b7c7Q%7_'4r1S2S2T2d7e7-1f7W(+#f5g(g7h7i7+]j7w#)(k7J2>{L2L2A}q#q#q#|}-3y*l7#.m7m7m7m7n7o7p79.m7m7m7m7m7q7r7. . . . . . . . . . . . . . . . . . . . . . . . . . . . . . . . . . . . . . . . . . . . . . . . . . . . . . . . . . . . . . . . . . . . . . .   ",
". . . . . . . . . . . . . . . . . . . . . . . . . . . . . . . . . . . . . . . . . . . . . . . . . . . . . . . . . . . . . . s7a7n|t7[$u7 +]>v7`5w7r1$|F3(6x7j<555,y792z7K_A7B7C7D7E7F7=^P_7*0<@~7*L|q#q#q#q#B}8@./G7H7I7I7J7I7J7K7K7L7I7J7I7J7I7M7w3N7. . . . . . . . . . . . . . . . . . . . . . . . . . . . . . . . . . . . . . . . . . . . . . . . . . . . . . . . . . . . . . . . . . . . . .   ",
". . . . . . . . . . . . . . . . . . . . . . . . . . . . . . . . . . . . . . . . . . . . . . . . . . . . . . . . . . . /.O7P7c-Q7!1y<l}^<^<t71.b=#|l<Y<e[R7S7w>Z T792B]U70]V7 ]W7t|X7Y7*;Z7_|1@C#q#q#q#q#q#q#`75% 8.8+8O/O/@8O/O/#8$8@8O/O/O/O/+80;%8&8*8=8. . . . . . . . . . . . . . . . . . . . . . . . . . . . . . . . . . . . . . . . . . . . . . . . . . . . . . . . . . . . . . . . . . . .   ",
". . . . . . . . . . . . . . . . . . . . . . . . . . . . . . . . . . . . . . . . . . . . . . . . . . . . . . . . . . . -8;8>8#)1]!1#!B],8B4v6)453d7m<'8)8!8$'I3Z l[~8-,L_{8 ]F~]8t.V=v6^8/8K2,{F#q#q#L|q#`(u;*)w *,|},^/))~(8F>J]G>s&F#z>F>G>F#(8J]f'_8D-:8. . . . . . . . . . . . . . . . . . . . . . . . . . . . . . . . . . . . . . . . . . . . . . . . . . . . . . . . . . . . . . . . . . . .   ",
". . . . . . . . . . . . . . . . . . . . . . . . . . . . . . . . . . . . . . . . . . . . . . . . . . . . . . . . . . . <8[8}8g$|8!1#!l}18l[28*<-|Z<38484*v&`[`[w158@[6878 ]88A69%M3|}9808a896%:<!7*q#q#^$U~9_j4^,>~b8a3c8^>@<@<U<^>U<8*d8e8^>8*f8^>g8h8i8j8. . . . . . . . . . . . . . . . . . . . . . . . . . . . . . . . . . . . . . . . . . . . . . . . . . . . . . . . . . . . . . . . . . . .   ",
". . . . . . . . . . . . . . . . . . . . . . . . . . . . . . . . . . . . . . . . . . . . . . . . . . . . . . . . . k8l8m8n8. Z#o8p8#!l}1:w#63m<e[q8m<h5G=R-w#W(!}x<r8'{p^p^s8H5W(t8T/u8v8w8x8y8X_A}q#q#:/<!^~![U;v&^<Q%z8A8(>(>(>(>B8L>(>L>L>L>L>C8D8. E8 !T)F8. . . . . . . . . . . . . . . . . . . . . . . . . . . . . . . . . . . . . . . . . . . . . . . . . . . . . . . . . . . . . . . . . .   ",
". . . . . . . . . . . . . . . . . . . . . . . . . . . . . . . . . . . . . . . . . . . . . . . . . . . . . . . . G8H8I8J8K8{&A$L8k[*5Y(o1N4N4g4*<M8a- +^4<;N8-:n*V2,['{O844[$<$O-P8Q8R8S8b'T8U8V8c+W8X8./w=6-s>,&R!h-S,O(C4Y84*b%8~8~8~Z8`8 9.9N,i/}[+9@9#9$9Z]. . . . . . . . . . . . . . . . . . . . . . . . . . . . . . . . . . . . . . . . . . . . . . . . . . . . . . . . . . . . . . . . . .   ",
". . . . . . . . . . . . . . . . . . . . . . . . . . . . . . . . . . . . . . . . . . . . . . . . . . . . . . . %9&9*9=9-9:|}=>5;9>9R_[=a2T2+2,973'9j45,;4%|K(D:;5X!)9[_!9=:@#X~~9{9]9. . . |+^9L~>1/9W8'~o=[-v|(9r=r=r=_9)[:9{,r=/-#/r=_--1X*|*N$<9[9}9|91929^;3949. . . . . . . . . . . . . . . . . . . . . . . . . . . . . . . . . . . . . . . . . . . . . . . . . . . . . . . . . . . . . . . .   ",
". . . . . . . . . . . . . . . . . . . . . . . . . . . . . . . . . . . . . . . . . . . . . . . . . . . . . . 596979899909a9r1[=;%O(Y_b9c9T2d9e9f9|$S(y7g9;:k5h9,[2)d2W+y^36z^P8M~I2i9. . . . j9^;>1G:k9#'A=2%)~(9L-L-L-}*S=l9S,p>m9/-Y1n9V!s^=}^{S%e$~%z[1$o9p9Z)q9r9. . . . . . . . . . . . . . . . . . . . . . . . . . . . . . . . . . . . . . . . . . . . . . . . . . . . . . . . . . . . . . .   ",
". . . . . . . . . . . . . . . . . . . . . . . . . . . . . . . . . . . . . . . . . . . . . . . . . . . . s9t9u9v9@8|}^4R6w9|5A4@#Z(x9y9z9Z<X[d/e@Z T716B]-,A9G~>&&$B9=:j<(9~!C9D9E9F9. . . . G9^;N|>{w!H9j4I9K1]<L-L-L-J9.>C=[;U!)%/-Q/>~K9N-L9M-M-k;M9w2N9h#s}:.O9P9Q9R9. . . . . . . . . . . . . . . . . . . . . . . . . . . . . . . . . . . . . . . . . . . . . . . . . . . . . . . . . . . . .   ",
". . . . . . . . . . . . . . . . . . . . . . . . . . . . . . . . . . . . . . . . . . . . . . . . . . . . S9T9U9(%)~5)##m:V9S2R2m:)(W9Z1e:y|X9b%`@*7Y9N3Z9`9p^X!R%v-H;U< & 0.0+0@0. . . . . /.#0~7$0<.`.}$!>G^I']<L-L-L-L-/-m|`@$=K-s=-}z]q^L9{,M-M-M-C)*$%0Q@&0>^*0=0-0;0. . . . . . . . . . . . . . . . . . . . . . . . . . . . . . . . . . . . . . . . . . . . . . . . . . . . . . . . . . . . .   ",
". . . . . . . . . . . . . . . . . . . . . . . . . . . . . . . . . . . . . . . . . . . . . . . . . . . /.U3>0,0v2^>'0$|T6E3S2U634#|)0!0~0B~}3##H5{0#6S(]0689~,[^07_Y_i-/0(0_0:0<0. . . . . v*[0}0T/<.`.T4t;~,G^]<]<]<]<]<|0^{)!K-$=z]10)!N-{,M-M-M-M-M-Q=>^D)'5##a%--2030. . . . . . . . . . . . . . . . . . . . . . . . . . . . . . . . . . . . . . . . . . . . . . . . . . . . . . . . . . . . .   ",
". . . . . . . . . . . . . . . . . . . . . . . . . . . . . . . . . . . . . . . . . . . . . . . . . . . i@4050. w>607034h4S2S2S2+2S2+28090. ;}b===00a0:|9~9~9~/]`[b=P_. b0={. . . . . . . . s[c0d>N|<.`.'2}*~,S/]<x)x)x)x)]<M-&=t(E)3_{-M-M-M-M-M-M-M-M-/-r=X@h<60i/n-d0r-e0f0. . . . . . . . . . . . . . . . . . . . . . . . . . . . . . . . . . . . . . . . . . . . . . . . . . . . . . . . . . .   ",
". . . . . . . . . . . . . . . . . . . . . . . . . . . . . . . . . . . . . . . . . . . . . . . . . . . g0h0i0. x!(6N4O2h4h4S2S2S2|532j0A5l_*(k0H[![l0,&U~U~m0|:Z1H[]}n0o0p0. . . . . . . . . q0^;'_<.`.^<[;*=!>*>]<]<]<]<a{r0e/};#>j~Z;;!C=.>M-M-M-M-/-j~y]4*K's0t0u0v0w0x0y0e . . . . . . . . . . . . . . . . . . . . . . . . . . . . . . . . . . . . . . . . . . . . . . . . . . . . . . . . . .   ",
". . . . . . . . . . . . . . . . . . . . . . . . . . . . . . . . . . . . . . . . . . . . . . . . . . . i@z0A0. N)g4h4S2h4h4S2+283E3m:=:[$B0T{. . C0M1%2n-n-[[[[. D0E0F0. . . . . . . . . . . q0^;G00<`.T4c;~~f~a{H0L-L-V*_-u=',}])%/-f;p'6*~,r=M-M-r=C)I0X![;%_J0;%K078L0M0N0O0P05#. . . . . . . . . . . . . . . . . . . . . . . . . . . . . . . . . . . . . . . . . . . . . . . . . . . . . . . .   ",
". . . . . . . . . . . . . . . . . . . . . . . . . . . . . . . . . . . . . . . . . . . . . . . . . . . ~*Q0R0. N)g4h4h4h4h4S2T6S0k<|.92T0U0V0G=j~}4/9W0X0Y0Y0Z0`0 a.a+a. . . . . . . . . . . q0^;G00<`.T4@ag~d~h-;7j/V*#ah-x^e~d/M9M-$ad=d/n9s;^{M-^_u=c~d=h!N$n';!`8K;;!x!%a&a *)*. . . . . . . . . . . . . . . . . . . . . . . . . . . . . . . . . . . . . . . . . . . . . . . . . . . . . . . .   ",
". . . . . . . . . . . . . . . . . . . . . . . . . . . . . . . . . . . . . . . . . . . . . . . . . . *a=as -a. N);ah4h48383S2;|;4'4k1B]C~(:>a/:,a(9'a)a!a~a~a{at3]a^aY4. . . . . . . . . . . q0^;G00<`.^<m'^{m'[;>;h/|-Q/>~d=L9~,N{M-.>R/I0j*z])!r=*=m{Z;|(A)+=.=M9M9Z8m5U[/a(a_a:a<a. . . . . . . . . . . . . . . . . . . . . . . . . . . . . . . . . . . . . . . . . . . . . . . . . . . . . . .   ",
". . . . . . . . . . . . . . . . . . . . . . . . . . . . . . . . . . . . . . . . . . . . . . . . . [a}a|a1a2a3a4aV<5a#2h4E36a7a8>9%#621.99~[_8a8{9a0aaaba. . . ca. . . . . . . . . . . . . . q0^;G00<`.'2}*da3,0:g!!,4%*=U!d/{,L-L-M-M-M-!%`@$=eai-&!25u)V%A).=.=/-V*faz^z^k{m-gahaiajaG,. . . . . . . . . . . . . . . . . . . . . . . . . . . . . . . . . . . . . . . . . . . . . . . . . . . . .   ",
". . . . . . . . . . . . . . . . . . . . . . . . . . . . . . . . . . . . . . . . . . . . . . . . . kalamanaoapaqaran^y6saS0S6l[24ta!-^<$>uaH(#(va:)waxaya. . . . . . . . . . . . . . . . . . q0^;G00<`.'2Z,{,k;i-za$=^,#>Aax&/-L-L-M-M-M-h/Baea_9z]#aE=h/|,Ca.=.=&=r=W;m~;1DaY EaM#FaGa!]. . . . . . . . . . . . . . . . . . . . . . . . . . . . . . . . . . . . . . . . . . . . . . . . . . . . .   ",
". . . . . . . . . . . . . . . . . . . . . . . . . . . . . . . . . . . . . . . . . . . . . . . . . HaIaJaKaLaMaNaOaPaQam<+<1.$#u(y^V+k4$>L]1,RaSaTaUaVa. . . . . . . . . . . . . . . . . . . q0^;G00<`.'2Z,{,M-N{Q=[;~~,&/-&=L-L-L-M-M-M-/-r=x&|*~~j~r=y=W!.=.=.=U%y=y=y=k'2.ta&). WaXaYaZa. . . . . . . . . . . . . . . . . . . . . . . . . . . . . . . . . . . . . . . . . . . . . . . . . . . .   ",
". . . . . . . . . . . . . . . . . . . . . . . . . . . . . . . . . . . . . . . . . . . . . . . . . `a bo .b+b@b#b$b%b&b*b=b-b}7~{E~;bF~Q/f!>b=%,b'b)b. . . . . . . . . . . . . . . . . . . . q0^;G00<`.'2Z,{,-^))!bY1r0d=};3,*1L-L-M-M-O$/)~b{b!%G=s^]bs;A).=.=.=U%|-1-^b))d=d=E);$*$#9/b(b_b. . . . . . . . . . . . . . . . . . . . . . . . . . . . . . . . . . . . . . . . . . . . . . . . . . .   ",
". . . . . . . . . . . . . . . . . . . . . . . . . . . . . . . . . . . . . . . . . . . . . . . . . :bE|<b-/[b}b|b1b2b3b4bI3B95bB]O|6buaD[. 7b8b9b0b. . . . . . . . . . . . . . . . . . . . . q0^;ab0<`.'2D[#/~4u!q'N$F=R-p'f~M-bbL-/-/-r=s;[-cb:-_-b%`8{bA)O{y=y=|-n's;_,`;4%dbR%ebfbe='@gbhbib. . . . . . . . . . . . . . . . . . . . . . . . . . . . . . . . . . . . . . . . . . . . . . . . . .   ",
". . . . . . . . . . . . . . . . . . . . . . . . . . . . . . . . . . . . . . . . . . . . . . . . . jb} kblbmbnbobpbqbrbsbtb~~ub)903vbq^O}wbL=xb. . . . . . . . . . . . . . . . . . . . . . . j9^;ab0<`.'2Q/n9l9f~s>m9_-C=f~d~t=X~.>V*G=C=+'f~k~L9^-}*v=q^$ayb*!|--^t;d~g~2,[]-$^,d+E)&!g8zbAbBbCb. . . . . . . . . . . . . . . . . . . . . . . . . . . . . . . . . . . . . . . . . . . . . . . . .   ",
". . . . . . . . . . . . . . . . . . . . . . . . . . . . . . . . . . . . . . . . . . . . . . . . . . )+GaDbEbD}FbGbHbIbJbKbLbMbq2Nb6%`:ObPbQbRb. . . . . . . . . . . . . . . . . . . . . . SbTbUbb50<`.^<9@',d=*!L9M-/-M9L9h-Vbq>*!r=y]m{t^x&L9{,WbM9M9u=U;u'E=Xb&!k*U,YbZb`bT-r'')*=w!U[ c]=.cB'Sbs[. . . . . . . . . . . . . . . . . . . . . . . . . . . . . . . . . . . . . . . . . . . . . . .   ",
". . . . . . . . . . . . . . . . . . . . . . . . . . . . . . . . . . . . . . . . . . . . . . . . . . /.+c@c#cw,z-:,$c%c&c*c=c/*29-c/{/{;c>ccas[. . . . . . . . . . . . . . . . . . . . . . {*,c@.>10<`.^<::0:c~~,M-M-M-M-M-X~0:~^K-i-z)U!k~M9M-M-M-M-/-D=x'1,,&Q,A=l'h!'c9-9-9-9-d})'C4)cx}t&!c~c{c]c. . . . . . . . . . . . . . . . . . . . . . . . . . . . . . . . . . . . . . . . . . . . . . .   ",
". . . . . . . . . . . . . . . . . . . . . . . . . . . . . . . . . . . . . . . . . . . . . . . . . . . . ^c/cX{(c!&_c:c<c[c}cG |c1c2c3c4c5c. . . . . . . . . . . . . . . . . . . . . . . . . 6c^;ab0<`.'2)'z=W-M-M-M-M-M-M-N-n~B$1*>;G=7cx&M-M-M-M-M-M-|(8c,&R-^,V,j!9c0c9-9-9-9-5-ac4'S,7{X (&bcccL+. . . . . . . . . . . . . . . . . . . . . . . . . . . . . . . . . . . . . . . . . . . . . . .   ",
". . . . . . . . . . . . . . . . . . . . . . . . . . . . . . . . . . . . . . . . . . . . . . . . . . . . %&dcecfcgchcicjcE0f_kclcmcnclcoc. . . . . . . . . . . . . . . . . . . . . . . . . {*pcqc'a0<rc!-s;y=_-/-M-M-M-M-M-/-_-t(j*2)!)_-r=M-M-M-M-M-M-sctcB$<-y)!'O{uc0c9-9-9-g;)'d!vcZ*wceb*^. xcBbyczc. . . . . . . . . . . . . . . . . . . . . . . . . . . . . . . . . . . . . . . . . . . . .   ",
". . . . . . . . . . . . . . . . . . . . . . . . . . . . . . . . . . . . . . . . . . . . . . . . . . . . . . AcBcCcDcEcEcFcGc. . . . . . . . . . . . . . . . . . . . . . . . . . . . . . . 5#HcIc#c8,S7d/(,Jcvc{,M-M-M-M-M-Kc~b~bo'G=d=))t=~,M-M-M-M-/-j~o=>)V,G=-!*=V,<,9-9-9-Lc.=,!Mc-}f~f~j*8[NcOcM.PcQc. . . . . . . . . . . . . . . . . . . . . . . . . . . . . . . . . . . . . . . . . . . .   ",
". . . . . . . . . . . . . . . . . . . . . . . . . . . . . . . . . . . . . . . . . . . . . . . . . . . . . . . . . . . . . . . . . . . . . . . . . . . . . . . . . . . . . . . . . . . . . . . . . r-Rco8Sc4-Tc/-_-M-M-/-/-h-',q>)%[]R-~~K9Uc/-M-M-/-|-u=2) {:-Vcz)e;WcT}XcYcYcZ%|-X~u!m{n~ZcH=`cY! d.d+d@d#d. . . . . . . . . . . . . . . . . . . . . . . . . . . . . . . . . . . . . . . . . . .   ",
". . . . . . . . . . . . . . . . . . . . . . . . . . . . . . . . . . . . . . . . . . . . . . . . . . . . . . . . . . . . . . . . . . . . . . . . . . . . . . . . . . . . . . . . . . . . . . . . . $d%dx0&d*d8'Z8~bM9M-r0;7P-A=s^h/*1P-!b=}m|o'R//-Kcs;d~O-d=vc=dA=6*.'-dW*.=3};dg/%=Wcf~:-W!f;fb>dD)d{,d'd)d. . . . . . . . . . . . . . . . . . . . . . . . . . . . . . . . . . . . . . . . . . .   ",
". . . . . . . . . . . . . . . . . . . . . . . . . . . . . . . . . . . . . . . . . . . . . . . . . . . . . . . . . . . . . . . . . . . . . . . . . . . . . . . . . . . . . . . . . . . . . . . . . !d~d{d]d0;;![.^d >y=v>U;s^/d.>M-M-M9_]s;cb^,N$r=};(dZ;t(u>i)%0d!_]I0i!l'i-O{>)_,L':-_]y=y=:]k;*=2.A$J]Q&_d%&. . . . . . . . . . . . . . . . . . . . . . . . . . . . . . . . . . . . . . . . . .   ",
". . . . . . . . . . . . . . . . . . . . . . . . . . . . . . . . . . . . . . . . . . . . . . . . . . . . . . . . . . . . . . . . . . . . . . . . . . . . . . . . . . . . . . . . . . . . . . . . . . :d<d[d1(}dt1|d!'i~v>t'=}J9M-M-M-M-/-!%-5g![*Q=&!|*s>`*1dO{ =.=U%D=x'#'B$2d&!l'g~_]'%'%'%'%v}3d4dD<[*. ,_B-. . . . . . . . . . . . . . . . . . . . . . . . . . . . . . . . . . . . . . . . . .   ",
". . . . . . . . . . . . . . . . . . . . . . . . . . . . . . . . . . . . . . . . . . . . . . . . . . . . . . . . . . . . . . . . . . . . . . . . . . . . . . . . . . . . . . . . . . . . . . . . . . . 5d6d@@{27dX@|d~-d~a~w&L-M-M-M-M-(-*!7c,&,)>;V,7c8d_*9d0d.=.=.=|(z=B$4*^,}*ad:-U:'%'%'%'%v}bdcddd[*. ede>. . . . . . . . . . . . . . . . . . . . . . . . . . . . . . . . . . . . . . . . . .   ",
". . . . . . . . . . . . . . . . . . . . . . . . . . . . . . . . . . . . . . . . . . . . . . . . . . . . . . . . . . . . . . . . . . . . . . . . . . . . . . . . . . . . . . . . . . . . . . . . . . . . 41fd[^r.t&|$]>h-O$M-L-M-M-M-M-M-(-Wbt(l'B)Kcn'gdU-Zb0d.=.=.=.=U%W-8'I_!%j_U%'%'%'%'%'%v}bdcdV;=1. hdid. . . . . . . . . . . . . . . . . . . . . . . . . . . . . . . . . . . . . . . . . .   ",
". . . . . . . . . . . . . . . . . . . . . . . . . . . . . . . . . . . . . . . . . . . . . . . . . . . . . . . . . . . . . . . . . . . . . . . . . . . . . . . . . . . . . . . . . . . . . . . . . . . . 5#jdkdg*ld(&D)j*d+{bJ9M-M-M-M-/-Q-K9_/}*3,G[Z;3,<,Zbmd.=.=U%!)t^A=I0V,k~U,ybF['%'%'%'%v}bdcdV;=1Z#nd. . . . . . . . . . . . . . . . . . . . . . . . . . . . . . . . . . . . . . . . . . .   ",
". . . . . . . . . . . . . . . . . . . . . . . . . . . . . . . . . . . . . . . . . . . . . . . . . . . . . . . . . . . . . . . . . . . . . . . . . . . . . . . . . . . . . . . . . . . . . . . . . . . . . . U.odI/:+. `-]>pd}()!qd!>r=_-}*[-j*V%3,Q/I_Z;gdrdsdqdQ,W!-dk*`~Q,F=))tdud`*vdZ~'%vdscbdwd-,xd. ydzd. . . . . . . . . . . . . . . . . . . . . . . . . . . . . . . . . . . . . . . . . .   ",
". . . . . . . . . . . . . . . . . . . . . . . . . . . . . . . . . . . . . . . . . . . . . . . . . . . . . . . . . . . . . . . . . . . . . . . . . . . . . . . . . . . . . . . . . . . . . . . . . . . . . . . . AdBdCd'9v&u'q/EaT*Y!;^3,d~>)Z;m!!>m'r>g~V,W*Y!Dd3,9{`,O-v= >Wbc!ud-!3,o''!y=}*};v5L{a;EdFdGdHd. . . . . . . . . . . . . . . . . . . . . . . . . . . . . . . . . . . . . . . . . .   ",
". . . . . . . . . . . . . . . . . . . . . . . . . . . . . . . . . . . . . . . . . . . . . . . . . . . . . . . . . . . . . . . . . . . . . . . . . . . . . . . . . . . . . . . . . . . . . . . . . . . . . . . . 2|IdJd+.KdLdXcMdNdu^@>u!A=N$_]],Od0c4-S,;&l'|,V->)>~O-v^K-U%.=@=_]3,j)t'k'n'/]y^/];)PdQdRdSd. . . . . . . . . . . . . . . . . . . . . . . . . . . . . . . . . . . . . . . . . . .   ",
". . . . . . . . . . . . . . . . . . . . . . . . . . . . . . . . . . . . . . . . . . . . . . . . . . . . . . . . . . . . . . . . . . . . . . . . . . . . . . . . . . . . . . . . . . . . . . . . . . . . . . . . /.Tdt UdVdWdXdYdz~!>R- {e~Uc/-.=0dZdU-T*),~^@'Y~&!q>l9<,i)y~U%.=U%o'>;5*o'47v&#+F<`d$:_a0^/.. . . . . . . . . . . . . . . . . . . . . . . . . . . . . . . . . . . . . . . . . . .   ",
". . . . . . . . . . . . . . . . . . . . . . . . . . . . . . . . . . . . . . . . . . . . . . . . . . . . . . . . . . . . . . . . . . . . . . . . . . . . . . . . . . . . . . . . . . . . . . . . . . . . . . . . .  e.e+e@ep|#e)-r'9*v2ea4%M-(-.=W!l!$e%eR%o'p=Z!d!l|'^<]9-T*md.=.=W-&e#>*e=e:$@~-e;e>eYaD;. . . . . . . . . . . . . . . . . . . . . . . . . . . . . . . . . . . . . . . . . . . .   ",
". . . . . . . . . . . . . . . . . . . . . . . . . . . . . . . . . . . . . . . . . . . . . . . . . . . . . . . . . . . . . . . . . . . . . . . . . . . . . . . . . . . . . . . . . . . . . . . . . . . . . . . . . . . ,e'e)e0;@~!e60#'N{M-M-.=.=.=Q{~e'9g;{-q'e;G=_-_*9-+>Z%0d.={e.=],n~]e^eV%/e(e^a>/_e. . . . . . . . . . . . . . . . . . . . . . . . . . . . . . . . . . . . . . . . . . . . .   ",
". . . . . . . . . . . . . . . . . . . . . . . . . . . . . . . . . . . . . . . . . . . . . . . . . . . . . . . . . . . . . . . . . . . . . . . . . . . . . . . . . . . . . . . . . . . . . . . . . . . . . . . . . . . . .3kdL~:e*d*d<ec4/%F[:]y~y~9cU%Y1Q/Z;m'h-k~A=w^[e}e|e.=[eYb1e2e-[&!(&3e4e5e6e. . . . . . . . . . . . . . . . . . . . . . . . . . . . . . . . . . . . . . . . . . . . . . .   ",
". . . . . . . . . . . . . . . . . . . . . . . . . . . . . . . . . . . . . . . . . . . . . . . . . . . . . . . . . . . . . . . . . . . . . . . . . . . . . . . . . . . . . . . . . . . . . . . . . . . . . . . . . . . . . 7e8e9ev%. 0eaebey&X-ceced!W!}*2) {%_7-k)dez)eeO{.=.=:-1$-}z$O|Y@. fegeheie. . . . . . . . . . . . . . . . . . . . . . . . . . . . . . . . . . . . . . . . . . . . . . .   ",
". . . . . . . . . . . . . . . . . . . . . . . . . . . . . . . . . . . . . . . . . . . . . . . . . . . . . . . . . . . . . . . . . . . . . . . . . . . . . . . . . . . . . . . . . . . . . . . . . . . . . . . . . . . . . . . jekef$leme%1neoe5'n!V,sd%=^bw=W-W!R,-}g~X~G=_]U%D[A=^^V[fbpel]qere. . . . . . . . . . . . . . . . . . . . . . . . . . . . . . . . . . . . . . . . . . . . . . . . .   ",
". . . . . . . . . . . . . . . . . . . . . . . . . . . . . . . . . . . . . . . . . . . . . . . . . . . . . . . . . . . . . . . . . . . . . . . . . . . . . . . . . . . . . . . . . . . . . . . . . . . . . . . . . . . . . . . sete,@uevewexe9);${^z)>~Z;)%ye+=.= =_]p>M&q'i-Zcc;|]A:zeAeX{BeCeDe. . . . . . . . . . . . . . . . . . . . . . . . . . . . . . . . . . . . . . . . . . . . . . . . .   ",
". . . . . . . . . . . . . . . . . . . . . . . . . . . . . . . . . . . . . . . . . . . . . . . . . . . . . . . . . . . . . . . . . . . . . . . . . . . . . . . . . . . . . . . . . . . . . . . . . . . . . . . . . . . . . . . . . EeFeGeHe+90e()X@;!|*.'$!(-(-(-.=U%!%:,Ie,,l|9@<6x.JeKeLeMe~*. . . . . . . . . . . . . . . . . . . . . . . . . . . . . . . . . . . . . . . . . . . . . . . . . .   ",
". . . . . . . . . . . . . . . . . . . . . . . . . . . . . . . . . . . . . . . . . . . . . . . . . . . . . . . . . . . . . . . . . . . . . . . . . . . . . . . . . . . . . . . . . . . . . . . . . . . . . . . . . . . . . . . . . NeJ{X{OePe2^Qe0eQ}[*Q=N{L-L-L-(-.=},v^G=Rei'3dX+SeTe=6BbUe. . . . . . . . . . . . . . . . . . . . . . . . . . . . . . . . . . . . . . . . . . . . . . . . . . .   ",
". . . . . . . . . . . . . . . . . . . . . . . . . . . . . . . . . . . . . . . . . . . . . . . . . . . . . . . . . . . . . . . . . . . . . . . . . . . . . . . . . . . . . . . . . . . . . . . . . . . . . . . . . . . . . . . . . . VeY0WeXe*.O@YeU}d;ZeL-L-L-L-(-.=.=_-k'A$T0u)`eWa f.f+f. . . . . . . . . . . . . . . . . . . . . . . . . . . . . . . . . . . . . . . . . . . . . . . . . . . .   ",
". . . . . . . . . . . . . . . . . . . . . . . . . . . . . . . . . . . . . . . . . . . . . . . . . . . . . . . . . . . . . . . . . . . . . . . . . . . . . . . . . . . . . . . . . . . . . . . . . . . . . . . . . . . . . . . . . . . @f#fJ&$f%f&f*fz,a;[(L-L-L-(-U%I0[-9~)23dK,=fJ5-f;f. . . . . . . . . . . . . . . . . . . . . . . . . . . . . . . . . . . . . . . . . . . . . . . . . . . . .   ",
". . . . . . . . . . . . . . . . . . . . . . . . . . . . . . . . . . . . . . . . . . . . . . . . . . . . . . . . . . . . . . . . . . . . . . . . . . . . . . . . . . . . . . . . . . . . . . . . . . . . . . . . . . . . . . . . . . . . U.>f,f>*. 7''fC&b{0~^-^-j_Zcb%21)f>{. !f~f{f]f. . . . . . . . . . . . . . . . . . . . . . . . . . . . . . . . . . . . . . . . . . . . . . . . . . . . . .   ",
". . . . . . . . . . . . . . . . . . . . . . . . . . . . . . . . . . . . . . . . . . . . . . . . . . . . . . . . . . . . . . . . . . . . . . . . . . . . . . . . . . . . . . . . . . . . . . . . . . . . . . . . . . . . . . . . . . . . . Z#*9^f/f(f<,+~_f:f<f[f}f|fW%1f1fs:2f3f. . . . . . . . . . . . . . . . . . . . . . . . . . . . . . . . . . . . . . . . . . . . . . . . . . . . . . . . .   ",
". . . . . . . . . . . . . . . . . . . . . . . . . . . . . . . . . . . . . . . . . . . . . . . . . . . . . . . . . . . . . . . . . . . . . . . . . . . . . . . . . . . . . . . . . . . . . . . . . . . . . . . . . . . . . . . . . . . . . /.4f5f5f<f~'6f7f,.(~8f9f0fafK1V bf2|cfr). . . . . . . . . . . . . . . . . . . . . . . . . . . . . . . . . . . . . . . . . . . . . . . . . . . . . . . .   ",
". . . . . . . . . . . . . . . . . . . . . . . . . . . . . . . . . . . . . . . . . . . . . . . . . . . . . . . . . . . . . . . . . . . . . . . . . . . . . . . . . . . . . . . . . . . . . . . . . . . . . . . . . . . . . . . . . . . . . . 5#. dfefY#2$5.ffy0gfhfE|ifF+67jfkf. . . . . . . . . . . . . . . . . . . . . . . . . . . . . . . . . . . . . . . . . . . . . . . . . . . . . . . . . .   ",
". . . . . . . . . . . . . . . . . . . . . . . . . . . . . . . . . . . . . . . . . . . . . . . . . . . . . . . . . . . . . . . . . . . . . . . . . . . . . . . . . . . . . . . . . . . . . . . . . . . . . . . . . . . . . . . . . . . . . . . . lfmf/bnfofpfqfrfsf&0tfa!ufq)vf. . . . . . . . . . . . . . . . . . . . . . . . . . . . . . . . . . . . . . . . . . . . . . . . . . . . . . . . . .   ",
". . . . . . . . . . . . . . . . . . . . . . . . . . . . . . . . . . . . . . . . . . . . . . . . . . . . . . . . . . . . . . . . . . . . . . . . . . . . . . . . . . . . . . . . . . . . . . . . . . . . . . . . . . . . . . . . . . . . . . . . . wfxfyf]={3zfAfAfy8BfCfDfEf. . . . . . . . . . . . . . . . . . . . . . . . . . . . . . . . . . . . . . . . . . . . . . . . . . . . . . . . . . .   ",
". . . . . . . . . . . . . . . . . . . . . . . . . . . . . . . . . . . . . . . . . . . . . . . . . . . . . . . . . . . . . . . . . . . . . . . . . . . . . . . . . . . . . . . . . . . . . . . . . . . . . . . . . . . . . . . . . . . . . . . . . . FfGfHfIf[ JfA;KfLfMf. . . . . . . . . . . . . . . . . . . . . . . . . . . . . . . . . . . . . . . . . . . . . . . . . . . . . . . . . . . . .   ",
". . . . . . . . . . . . . . . . . . . . . . . . . . . . . . . . . . . . . . . . . . . . . . . . . . . . . . . . . . . . . . . . . . . . . . . . . . . . . . . . . . . . . . . . . . . . . . . . . . . . . . . . . . . . . . . . . . . . . . . . . . NfOfPfQfRf. SfTfUfVf. . . . . . . . . . . . . . . . . . . . . . . . . . . . . . . . . . . . . . . . . . . . . . . . . . . . . . . . . . . . .   ",
". . . . . . . . . . . . . . . . . . . . . . . . . . . . . . . . . . . . . . . . . . . . . . . . . . . . . . . . . . . . . . . . . . . . . . . . . . . . . . . . . . . . . . . . . . . . . . . . . . . . . . . . . . . . . . . . . . . . . . . . . . . . . . . . . . . . . . . . . . . . . . . . . . . . . . . . . . . . . . . . . . . . . . . . . . . . . . . . . . . . . . . . . . . . . . . . .   ",
". . . . . . . . . . . . . . . . . . . . . . . . . . . . . . . . . . . . . . . . . . . . . . . . . . . . . . . . . . . . . . . . . . . . . . . . . . . . . . . . . . . . . . . . . . . . . . . . . . . . . . . . . . . . . . . . . . . . . . . . . . . . . . . . . . . . . . . . . . . . . . . . . . . . . . . . . . . . . . . . . . . . . . . . . . . . . . . . . . . . . . . . . . . . . . . . .   ",
". . . . . . . . . . . . . . . . . . . . . . . . . . . . . . . . . . . . . . . . . . . . . . . . . . . . . . . . . . . . . . . . . . . . . . . . . . . . . . . . . . . . . . . . . . . . . . . . . . . . . . . . . . . . . . . . . . . . . . . . . . . . . . . . . . . . . . . . . . . . . . . . . . . . . . . . . . . . . . . . . . . . . . . . . . . . . . . . . . . . . . . . . . . . . . . . .   ",
". . . . . . . . . . . . . . . . . . . . . . . . . . . . . . . . . . . . . . . . . . . . . . . . . . . . . . . . . . . . . . . . . . . . . . . . . . . . . . . . . . . . . . . . . . . . . . . . . . . . . . . . . . . . . . . . . . . . . . . . . . . . . . . . . . . . . . . . . . . . . . . . . . . . . . . . . . . . . . . . . . . . . . . . . . . . . . . . . . . . . . . . . . . . . . . . .   ",
". . . . . . . . . . . . . . . . . . . . . . . . . . . . . . . . . . . . . . . . . . . . . . . . . . . . . . . . . . . . . . . . . . . . . . . . . . . . . . . . . . . . . . . . . . . . . . . . . . . . . . . . . . . . . . . . . . . . . . . . . . . . . . . . . . . . . . . . . . . . . . . . . . . . . . . . . . . . . . . . . . . . . . . . . . . . . . . . . . . . . . . . . . . . . . . . .   ",
". . . . . . . . . . . . . . . . . . . . . . . . . . . . . . . . . . . . . . . . . . . . . . . . . . . . . . . . . . . . . . . . . . . . . . . . . . . . . . . . . . . . . . . . . . . . . . . . . . . . . . . . . . . . . . . . . . . . . . . . . . . . . . . . . . . . . . . . . . . . . . . . . . . . . . . . . . . . . . . . . . . . . . . . . . . . . . . . . . . . . . . . . . . . . . . . .   ",
". . . . . . . . . . . . . . . . . . . . . . . . . . . . . . . . . . . . . . . . . . . . . . . . . . . . . . . . . . . . . . . . . . . . . . . . . . . . . . . . . . . . . . . . . . . . . . . . . . . . . . . . . . . . . . . . . . . . . . . . . . . . . . . . . . . . . . . . . . . . . . . . . . . . . . . . . . . . . . . . . . . . . . . . . . . . . . . . . . . . . . . . . . . . . . . . .   ",
". . . . . . . . . . . . . . . . . . . . . . . . . . . . . . . . . . . . . . . . . . . . . . . . . . . . . . . . . . . . . . . . . . . . . . . . . . . . . . . . . . . . . . . . . . . . . . . . . . . . . . . . . . . . . . . . . . . . . . . . . . . . . . . . . . . . . . . . . . . . . . . . . . . . . . . . . . . . . . . . . . . . . . . . . . . . . . . . . . . . . . . . . . . . . . . . .   ",
". . . . . . . . . . . . . . . . . . . . . . . . . . . . . . . . . . . . . . . . . . . . . . . . . . . . . . . . . . . . . . . . . . . . . . . . . . . . . . . . . . . . . . . . . . . . . . . . . . . . . . . . . . . . . . . . . . . . . . . . . . . . . . . . . . . . . . . . . . . . . . . . . . . . . . . . . . . . . . . . . . . . . . . . . . . . . . . . . . . . . . . . . . . . . . . . .   ",
". . . . . . . . . . . . . . . . . . . . . . . . . . . . . . . . . . . . . . . . . . . . . . . . . . . . . . . . . . . . . . . . . . . . . . . . . . . . . . . . . . . . . . . . . . . . . . . . . . . . . . . . . . . . . . . . . . . . . . . . . . . . . . . . . . . . . . . . . . . . . . . . . . . . . . . . . . . . . . . . . . . . . . . . . . . . . . . . . . . . . . . . . . . . . . . . .   ",
". . . . . . . . . . . . . . . . . . . . . . . . . . . . . . . . . . . . . . . . . . . . . . . . . . . . . . . . . . . . . . . . . . . . . . . . . . . . . . . . . . . . . . . . . . . . . . . . . . . . . . . . . . . . . . . . . . . . . . . . . . . . . . . . . . . . . . . . . . . . . . . . . . . . . . . . . . . . . . . . . . . . . . . . . . . . . . . . . . . . . . . . . . . . . . . . .   ",
". . . . . . . . . . . . . . . . . . . . . . . . . . . . . . . . . . . . . . . . . . . . . . . . . . . . . . . . . . . . . . . . . . . . . . . . . . . . . . . . . . . . . . . . . . . . . . . . . . . . . . . . . . . . . . . . . . . . . . . . . . . . . . . . . . . . . . . . . . . . . . . . . . . . . . . . . . . . . . . . . . . . . . . . . . . . . . . . . . . . . . . . . . . . . . . . .   ",
". . . . . . . . . . . . . . . . . . . . . . . . . . . . . . . . . . . . . . . . . . . . . . . . . . . . . . . . . . . . . . . . . . . . . . . . . . . . . . . . . . . . . . . . . . . . . . . . . . . . . . . . . . . . . . . . . . . . . . . . . . . . . . . . . . . . . . . . . . . . . . . . . . . . . . . . . . . . . . . . . . . . . . . . . . . . . . . . . . . . . . . . . . . . . . . . .   ",
". . . . . . . . . . . . . . . . . . . . . . . . . . . . . . . . . . . . . . . . . . . . . . . . . . . . . . . . . . . . . . . . . . . . . . . . . . . . . . . . . . . . . . . . . . . . . . . . . . . . . . . . . . . . . . . . . . . . . . . . . . . . . . . . . . . . . . . . . . . . . . . . . . . . . . . . . . . . . . . . . . . . . . . . . . . . . . . . . . . . . . . . . . . . . . . . .   ",
". . . . . . . . . . . . . . . . . . . . . . . . . . . . . . . . . . . . . . . . . . . . . . . . . . . . . . . . . . . . . . . . . . . . . . . . . . . . . . . . . . . . . . . . . . . . . . . . . . . . . . . . . . . . . . . . . . . . . . . . . . . . . . . . . . . . . . . . . . . . . . . . . . . . . . . . . . . . . . . . . . . . . . . . . . . . . . . . . . . . . . . . . . . . . . . . .   ",
". . . . . . . . . . . . . . . . . . . . . . . . . . . . . . . . . . . . . . . . . . . . . . . . . . . . . . . . . . . . . . . . . . . . . . . . . . . . . . . . . . . . . . . . . . . . . . . . . . . . . . . . . . . . . . . . . . . . . . . . . . . . . . . . . . . . . . . . . . . . . . . . . . . . . . . . . . . . . . . . . . . . . . . . . . . . . . . . . . . . . . . . . . . . . . . . .   ",
". . . . . . . . . . . . . . . . . . . . . . . . . . . . . . . . . . . . . . . . . . . . . . . . . . . . . . . . . . . . . . . . . . . . . . . . . . . . . . . . . . . . . . . . . . . . . . . . . . . . . . . . . . . . . . . . . . . . . . . . . . . . . . . . . . . . . . . . . . . . . . . . . . . . . . . . . . . . . . . . . . . . . . . . . . . . . . . . . . . . . . . . . . . . . . . . .   ",
". . . . . . . . . . . . . . . . . . . . . . . . . . . . . . . . . . . . . . . . . . . . . . . . . . . . . . . . . . . . . . . . . . . . . . . . . . . . . . . . . . . . . . . . . . . . . . . . . . . . . . . . . . . . . . . . . . . . . . . . . . . . . . . . . . . . . . . . . . . . . . . . . . . . . . . . . . . . . . . . . . . . . . . . . . . . . . . . . . . . . . . . . . . . . . . . .   ",
". . . . . . . . . . . . . . . . . . . . . . . . . . . . . . . . . . . . . . . . . . . . . . . . . . . . . . . . . . . . . . . . . . . . . . . . . . . . . . . . . . . . . . . . . . . . . . . . . . . . . . . . . . . . . . . . . . . . . . . . . . . . . . . . . . . . . . . . . . . . . . . . . . . . . . . . . . . . . . . . . . . . . . . . . . . . . . . . . . . . . . . . . . . . . . . . .   "};
