/* XPM */
static char *score_frame1[] = {
/* columns rows colors chars-per-pixel */
"182 61 44 1 ",
"  c #000000",
". c #010103",
"X c #30335A",
"o c #4A508C",
"O c #30345B",
"+ c #040408",
"@ c #000001",
"# c #0E0F1A",
"$ c #191B31",
"% c #383D6B",
"& c #505798",
"* c #6169B8",
"= c #40457A",
"- c #06060B",
"; c #020205",
": c #393D6B",
"> c #5F67B5",
", c #222541",
"< c #1A1D32",
"1 c #5C64AF",
"2 c #020204",
"3 c #373B69",
"4 c #5D65B1",
"5 c #212440",
"6 c #1A1C32",
"7 c #5961AB",
"8 c #3E4377",
"9 c #05060B",
"0 c #020203",
"q c #2A2E53",
"w c #474E8C",
"e c #191C32",
"r c #141527",
"t c #454B87",
"y c #30345E",
"u c #040509",
"i c #090A13",
"p c #121323",
"a c #383D6E",
"s c #3C4277",
"d c #484F8E",
"f c #010101",
"g c #1B1E35",
"h c #1B1E36",
/* pixels */
"                                                                                                                                                                                      ",
"                                                                                                                                                                                      ",
"                                                                                                                                                                                      ",
"                                                                                                                                                                                      ",
"                                                                                                                                                                                      ",
"                                                                                                                                                                                      ",
"                                                                                                                                                                                      ",
"                                                                                                                                                                                      ",
"                                                                                                                                                                                      ",
"                                                                                                                                                                                      ",
"                                                                                                                                                                                      ",
"                                                                                                                                                                                      ",
"                                                                                                                                                                                      ",
"                                                                                                                                                                                      ",
"                                                                                                                                                                                      ",
"                                                                                                                                                                                      ",
"                                                                                                                                                                                      ",
"                        .XXoooooooooooooooooooooooooooooooooooooooooooooooooooooooooooooooooooooooooooooooooooooooooooooooooooooooooooooooooooooooooooooooooooO++                     ",
"                        .XXoooooooooooooooooooooooooooooooooooooooooooooooooooooooooooooooooooooooooooooooooooooooooooooooooooooooooooooooooooooooooooooooooooO++                     ",
"                    @###$%%ooooooooooooooooooooooooooooooooooooooooooooooooooooooooooooooooooooooooooooooooooooooooooooooooooooooooooooooooooooooooooooooo&***=--                     ",
"                    ;:::>,,                                                                                                                               <111=--                     ",
"                    ;:::>,,                                                                                                                               <111=--                     ",
"                    ;:::>,,                                                                                                                               <111=--                     ",
"                    ;:::>,,                                                                                                                               <111=--                     ",
"                    ;:::>,,                                                                                                                               <111=--                     ",
"                    ;:::>,,                                                                                                                               <111=--                     ",
"                    ;:::>,,                                                                                                                               <111=--                     ",
"                    ;:::>,,                                                                                                                               <111=--                     ",
"                    2333455                                                                                                                               6777899                     ",
"                    0qqqwee                                                                                                                               rtttyuu                     ",
"                    0qqqwee                                                                                                                               rtttyuu                     ",
"                    0qqqwee                                                                                                                               rtttyuu                     ",
"                    0qqqwee                                                                                                                               rtttyuu                     ",
"                    0qqqwee                                                                                                                               rtttyuu                     ",
"                    0qqqwee                                                                                                                               rtttyuu                     ",
"                    0qqqwee                                                                                                                               rtttyuu                     ",
"                    0qqqwee                                                                                                                               rtttyuu                     ",
"                    0qqqwee                                                                                                                               rtttyuu                     ",
"                    0qqqwee                                                                                                                               rtttyuu                     ",
"                    0qqqwee                                                                                                                               rtttyuu                     ",
"                    0qqqwee                                                                                                                               rtttyuu                     ",
"                    0qqqwee                                                                                                                               rtttyuu                     ",
"                    0qqqwee                                                                                                                               rtttyuu                     ",
"                     iiipqqaaaaaaaaaaaaaaaaaaaaaaaaaaaaaaaaaaaaaaaaaaaaaaaaaaaaaaaaaaaaaaaaaaaaaaaaaaaaaaaaaaaaaaaaaaaaaaaaaaaaaaaaaaaaaaaaaaaaaaaaaaaaaaasdddyuu                     ",
"                        fggqqqqqqqqqqqqqqqqqqqqqqqqqqqqqqqqqqqqqqqqqqqqqqqqqqqqqqqqqqqqqqqqqqqqqqqqqqqqqqqqqqqqqqqqqqqqqqqqqqqqqqqqqqqqqqqqqqqqqqqqqqqqqqqqqqqh;;                     ",
"                        fggqqqqqqqqqqqqqqqqqqqqqqqqqqqqqqqqqqqqqqqqqqqqqqqqqqqqqqqqqqqqqqqqqqqqqqqqqqqqqqqqqqqqqqqqqqqqqqqqqqqqqqqqqqqqqqqqqqqqqqqqqqqqqqqqqqqh;;                     ",
"                                                                                                                                                                                      ",
"                                                                                                                                                                                      ",
"                                                                                                                                                                                      ",
"                                                                                                                                                                                      ",
"                                                                                                                                                                                      ",
"                                                                                                                                                                                      ",
"                                                                                                                                                                                      ",
"                                                                                                                                                                                      ",
"                                                                                                                                                                                      ",
"                                                                                                                                                                                      ",
"                                                                                                                                                                                      ",
"                                                                                                                                                                                      ",
"                                                                                                                                                                                      ",
"                                                                                                                                                                                      ",
"                                                                                                                                                                                      "
};
