/* XPM */
static char *ship_2[] = {
/* columns rows colors chars-per-pixel */
"32 32 21 1 ",
"  c #000000",
". c #1A1A1A",
"X c #333333",
"o c #3C3A3A",
"O c #2B2A43",
"+ c #3E3D62",
"@ c #494778",
"# c #B43427",
"$ c #C32E1E",
"% c #DF3726",
"& c #DF7126",
"* c #E18E23",
"= c #E18546",
"- c #E19D46",
"; c #56558B",
": c #6A69AD",
"> c #7B79A1",
", c #7574C3",
"< c #9D9BC3",
"1 c #B9B7E1",
"2 c #C5C3F0",
/* pixels */
"                                ",
"               XX               ",
"              XO@X              ",
"              XO@X              ",
"              XO@X              ",
"XXX           XO@X           XXX",
"XO@X         XO+@:X         X@:X",
"XO@@X        XO+@:X        XO@:X",
"XO@+:X       XO+@:X       XOO@:X",
"XO@+:X       XO+@:X       XO+@:X",
"XO@+:X  O    XO+@:X   O   XO+@:X",
"XO@+:X  O   XO+++@:X  O   XO+@:X",
"XO@+:X  O   XO+@@@:X  O   XO+@:X",
"XO@+:X O@:  XO+XX@:X O+:  XO+@:X",
"XO@+:X O@:  XO+@@@:X O+:  XO+@:X",
"XO@+:XXO@:XXXO+XX@:XXO+:XXXO+@:X",
"XO@+:X,O@:,,XO+@@@:X,O+:,,XO+@:X",
"XO@+:X;O+:;;XO..oo:X;O+:;;XO+@:X",
"XO@+:XXO+:XXXO..Xo:XXO+:XXXO+@:X",
"XO++:X O+:  XO..Xo:X O+:  XO++:X",
"XO++:X O+:  XO..Xo:X O+:  XO++:X",
"XO++:X OOO  XO....:X OOO  XO++:X",
"XO++:X    XXX@+++@XXX     XO++:X",
"XO++:X   XOO@X@@@X@@:X    XO++:X",
"XO++:X  X><<12XXX><<12X   XO++:X",
"XO++:X  X><112X<X><<12X   XOO+:X",
"XOO+:X  XOO++@X<X++++:X    XOO:X",
"XOOOX   XXXXXOX@XOXXXXX     XXXX",
" XXX     $%=-X@;@X-==$          ",
"         $$&* XXX *&%$          ",
"          #%# $&% %-$           ",
"           #   #   %            "
};
