/* XPM */
static char *ship_3[] = {
/* columns rows colors chars-per-pixel */
"32 32 22 1 ",
"  c None",
". c black",
"X c #17192D",
"o c #222541",
"O c #2A2E51",
"+ c #353961",
"@ c #3D4377",
"# c #414141",
"$ c #943434",
"% c #B83D3D",
"& c #B57630",
"* c #DB4949",
"= c #CB8332",
"- c #CF8E5E",
"; c #E8A06A",
": c #C4CB47",
"> c #DDE54C",
", c #F5FF48",
"< c #4A5191",
"1 c #535B9E",
"2 c #575FA5",
"3 c #636BBB",
/* pixels */
"             XXXXXX             ",
"            Xo11113X            ",
"            Xo11113X            ",
"           Xo<1111<3X           ",
"           Xo<1111<3X           ",
"          Xo<111111<3X          ",
"          Xo<111111<3X          ",
"    XXXX Xo<11111111<3X XXXX    ",
"    XO@X Xo<11111111<3X X@<X    ",
"    XO@XXoO<1######1<<3XX@<X    ",
"    XO@XoOX<1....##1<X<3X@<X    ",
"    XO@XoOX<1.....#1<X<3X@<X    ",
"    XO@XoX@<1.....#1<@X3X@<X    ",
"    XO@XoX@@<.....#<@@X3X@<X    ",
"   XXO@<XXXX<<<<<<<<XXXX@@<XX   ",
"  XoXO@@<<<XXXXXXXXXX@@@@<<X2X  ",
" XoOOXO@@XX2222222222XX<<<X<<2X ",
"XoOOOOXOX+2+<<<<<<<<+2+X<X<<<<2X",
"XoOOOOOX+2+X$$$$%%%*X+2+X<<<<<2X",
"XoOOOOOX+2<$$=&-;;-**<2+X<<<<<2X",
"XoOOOOOX+2<$=&>>,,;;*<2+X<<<<<2X",
"XoOOOOOX+2<$-:>>>>,;*<2+X<<<<<2X",
"XoOOOOOX+2<$=:>>>>,&%<2+X<<<<<2X",
"XoOOOOOX+2<$&&::>,=&%<2+X+<<<<2X",
"XoOOOO+X+2<$$=-===-%%<2+X++<<<2X",
"XoOOO++X+2+X$$$$%%%%X+2+X+++<<2X",
"XoOO++++X+2+<<<<<<<<+2+X+++++<2X",
"XoO++++++X+2222222222+X+++++++2X",
"XXXXXXX+++X++++++++++X+++XXXXXXX",
"       XXX XXXXXXXXXX XXX       ",
"                                ",
"                                "
};
