/* XPM */
static const char *ship_1[] = {
/* columns rows colors chars-per-pixel */
"32 32 23 1 ",
"  c None",
". c #808080",
"X c #A9A9A9",
"o c #1E1C29",
"O c #311C2A",
"+ c #45283C",
"@ c #2B2A43",
"# c #2C2B43",
"$ c #3E3D62",
"% c #6D3F54",
"& c #6D3F5F",
"* c #414062",
"= c #8F2D2D",
"- c #B43427",
"; c #AC3232",
": c #C32E1E",
"> c #DF3726",
", c #CE3A3A",
"< c #E18E23",
"1 c #E18546",
"2 c #E19D46",
"3 c #535283",
"4 c #CECECE",
/* pixels */
"                                ",
"                X               ",
"                X               ",
"               X#X              ",
"               X#X              ",
"   X           X#X           X  ",
"   X    XXXX  X#$3X  XXXX    X  ",
"   X    X=;X  X#$3X  X=;X    X  ",
"  XoX   X=;X  X#$3X  X=;X   XoX ",
"  XoX   X=;X  X#$3X  X=;X   XoX ",
"  XoX   X=;X XoooooX X=;X   XoX ",
"  XoX   X=;,X#$$$$$3X==;X   XoX ",
"  XoX   X=,X#$$$$$$$3X=;X   XoX ",
"  Xo#X X=;,X#$$...$$3X=;,X Xo#X ",
"   Xo#XX=;X#$$.....$$3X=,XXo#*X ",
"   Xo#*X=;X#$$.4...$$3X=,Xo#*X  ",
"    XooX=;X#$..4....$3X=,Xo*X   ",
"   XOXXX=;X#$.4.....$3X=,XXXOX  ",
"   XOOOX=;X#$.4.....$3X=;XOOOX  ",
"   X++OX=;X#$.......$3X=;XO++X  ",
"    X+OOXXX#$.......$3XXXOO+X   ",
"    X++OOOX#$$$$$$$$$3XOOO++X   ",
"    X+++%X X#########X X%+++X   ",
"    X++%X   XXXXXXXXX   X%++X   ",
"    X++%X     XOOOX     X%++X   ",
"    X+%X      X++&X      X%+X   ",
"    X+%X       XXX       X%+X   ",
"    X%X       -2<1-       X%X   ",
"    X%X       -1<2-       X%X   ",
"     XX       :112-        XX   ",
"               -->              ",
"                -               "
};
