/* XPM */
static char * spaceship[] = {
"228 221 9448 3",
"   	c None",
".  	c #000000",
"+  	c #010000",
"@  	c #020001",
"#  	c #030001",
"$  	c #010001",
"%  	c #040103",
"&  	c #050103",
"*  	c #040102",
"=  	c #0A0106",
"-  	c #180410",
";  	c #210817",
">  	c #210917",
",  	c #190611",
"'  	c #0B0207",
")  	c #0E0308",
"!  	c #1F0916",
"~  	c #1C0713",
"{  	c #1B0712",
"]  	c #260A1A",
"^  	c #3E152D",
"/  	c #4C1C38",
"(  	c #4A1D37",
"_  	c #3C172C",
":  	c #240C1A",
"<  	c #0D0307",
"[  	c #070104",
"}  	c #270D1C",
"|  	c #411B31",
"1  	c #401A2F",
"2  	c #3C172D",
"3  	c #3E172E",
"4  	c #321125",
"5  	c #020101",
"6  	c #13040B",
"7  	c #481C35",
"8  	c #6A2B4F",
"9  	c #763059",
"0  	c #6A2C4F",
"a  	c #54233F",
"b  	c #40192E",
"c  	c #280E1C",
"d  	c #250C1A",
"e  	c #3F192E",
"f  	c #582642",
"g  	c #54243F",
"h  	c #542340",
"i  	c #5D2747",
"j  	c #572443",
"k  	c #3E182F",
"l  	c #1B0713",
"m  	c #14050D",
"n  	c #351426",
"o  	c #5D2746",
"p  	c #763259",
"q  	c #77325A",
"r  	c #662A4C",
"s  	c #54243E",
"t  	c #4C2038",
"u  	c #3E192D",
"v  	c #4A1F36",
"w  	c #4F213B",
"x  	c #421B32",
"y  	c #441D35",
"z  	c #592646",
"A  	c #662C4F",
"B  	c #5E2749",
"C  	c #451B35",
"D  	c #230A19",
"E  	c #0F0309",
"F  	c #2E1121",
"G  	c #52233D",
"H  	c #622B4A",
"I  	c #602A49",
"J  	c #491E37",
"K  	c #371629",
"L  	c #381729",
"M  	c #441D32",
"N  	c #492038",
"O  	c #4D213A",
"P  	c #481F36",
"Q  	c #38172A",
"R  	c #220C1B",
"S  	c #260F21",
"T  	c #441C37",
"U  	c #5F284B",
"V  	c #692D52",
"W  	c #5F284A",
"X  	c #461B35",
"Y  	c #290D1D",
"Z  	c #0E0208",
"`  	c #0A0206",
" . 	c #280D1C",
".. 	c #461D34",
"+. 	c #602B49",
"@. 	c #5B2845",
"#. 	c #421C32",
"$. 	c #210B19",
"%. 	c #0D040D",
"&. 	c #1A0A17",
"*. 	c #2F1628",
"=. 	c #401F36",
"-. 	c #452139",
";. 	c #3A1C31",
">. 	c #200E1C",
",. 	c #0C0410",
"'. 	c #0E0413",
"). 	c #250E22",
"!. 	c #401A35",
"~. 	c #5B2748",
"{. 	c #682D51",
"]. 	c #642A4D",
"^. 	c #4B1E39",
"/. 	c #2B0E1F",
"(. 	c #0C0207",
"_. 	c #090205",
":. 	c #230A18",
"<. 	c #40192F",
"[. 	c #572642",
"}. 	c #451C34",
"|. 	c #230C1B",
"1. 	c #09030D",
"2. 	c #02030D",
"3. 	c #0B0B19",
"4. 	c #1B1627",
"5. 	c #2A1E33",
"6. 	c #2E2036",
"7. 	c #251B2E",
"8. 	c #12101F",
"9. 	c #050614",
"0. 	c #030210",
"a. 	c #0E0414",
"b. 	c #230D21",
"c. 	c #3F1A34",
"d. 	c #592546",
"e. 	c #672C51",
"f. 	c #4E1F3C",
"g. 	c #301023",
"h. 	c #11040B",
"i. 	c #1F0915",
"j. 	c #3F182E",
"k. 	c #562540",
"l. 	c #411A30",
"m. 	c #240C1B",
"n. 	c #04020B",
"o. 	c #040411",
"p. 	c #090B1A",
"q. 	c #111526",
"r. 	c #191E31",
"s. 	c #21243A",
"t. 	c #23263C",
"u. 	c #1F2236",
"v. 	c #15192A",
"w. 	c #0D0F1F",
"x. 	c #050616",
"y. 	c #040212",
"z. 	c #0B0313",
"A. 	c #1F0B1E",
"B. 	c #3B1731",
"C. 	c #562444",
"D. 	c #662B4F",
"E. 	c #52213F",
"F. 	c #311124",
"G. 	c #17050E",
"H. 	c #4E203A",
"I. 	c #572541",
"J. 	c #4A1F38",
"K. 	c #270E1E",
"L. 	c #07030D",
"M. 	c #03030F",
"N. 	c #080A19",
"O. 	c #121526",
"P. 	c #1A1E32",
"Q. 	c #20243B",
"R. 	c #232941",
"S. 	c #252A42",
"T. 	c #22273F",
"U. 	c #1D2236",
"V. 	c #16192B",
"W. 	c #0E1021",
"X. 	c #070717",
"Y. 	c #030212",
"Z. 	c #080313",
"`. 	c #1D0A1D",
" + 	c #38162F",
".+ 	c #532342",
"++ 	c #652B4F",
"@+ 	c #562341",
"#+ 	c #38142A",
"$+ 	c #180510",
"%+ 	c #030102",
"&+ 	c #16060E",
"*+ 	c #301222",
"=+ 	c #451B31",
"-+ 	c #4C1F38",
";+ 	c #421B31",
">+ 	c #2B1021",
",+ 	c #100410",
"'+ 	c #01020D",
")+ 	c #080918",
"!+ 	c #111324",
"~+ 	c #1A1D31",
"{+ 	c #242841",
"]+ 	c #262B44",
"^+ 	c #23283F",
"/+ 	c #1E2238",
"(+ 	c #171A2E",
"_+ 	c #101122",
":+ 	c #090819",
"<+ 	c #040313",
"[+ 	c #070312",
"}+ 	c #19081A",
"|+ 	c #34152C",
"1+ 	c #512241",
"2+ 	c #672B50",
"3+ 	c #572342",
"4+ 	c #3C162D",
"5+ 	c #1D0815",
"6+ 	c #17050F",
"7+ 	c #301223",
"8+ 	c #461C33",
"9+ 	c #4A1E36",
"0+ 	c #3E192E",
"a+ 	c #0C040E",
"b+ 	c #02020E",
"c+ 	c #060717",
"d+ 	c #101223",
"e+ 	c #191C2F",
"f+ 	c #20233A",
"g+ 	c #262A43",
"h+ 	c #252A43",
"i+ 	c #232840",
"j+ 	c #1F2439",
"k+ 	c #1A1D30",
"l+ 	c #131425",
"m+ 	c #0B0A1A",
"n+ 	c #070212",
"o+ 	c #160719",
"p+ 	c #301229",
"q+ 	c #4D203D",
"r+ 	c #642A4E",
"s+ 	c #6A2D52",
"t+ 	c #5B2646",
"u+ 	c #3D172E",
"v+ 	c #2E1021",
"w+ 	c #4B2038",
"x+ 	c #53243E",
"y+ 	c #2A101F",
"z+ 	c #0F040F",
"A+ 	c #02020D",
"B+ 	c #060716",
"C+ 	c #0F1122",
"D+ 	c #181B2F",
"E+ 	c #1F2339",
"F+ 	c #242840",
"G+ 	c #242940",
"H+ 	c #202439",
"I+ 	c #191C2E",
"J+ 	c #101121",
"K+ 	c #060616",
"L+ 	c #020210",
"M+ 	c #040211",
"N+ 	c #160618",
"O+ 	c #2E1228",
"P+ 	c #4A1F3B",
"Q+ 	c #5F294B",
"R+ 	c #662C50",
"S+ 	c #401931",
"T+ 	c #1E0816",
"U+ 	c #2F1122",
"V+ 	c #50233C",
"W+ 	c #3B192D",
"X+ 	c #180813",
"Y+ 	c #02010B",
"Z+ 	c #040513",
"`+ 	c #171A2D",
" @ 	c #252942",
".@ 	c #22263C",
"+@ 	c #1B1E31",
"@@ 	c #111323",
"#@ 	c #070817",
"$@ 	c #020211",
"%@ 	c #020110",
"&@ 	c #0F0516",
"*@ 	c #291025",
"=@ 	c #461D39",
"-@ 	c #5C2849",
";@ 	c #632A4E",
">@ 	c #5B2647",
",@ 	c #471C36",
"'@ 	c #0F0308",
")@ 	c #230B19",
"!@ 	c #3D192D",
"~@ 	c #481E36",
"{@ 	c #3A182B",
"]@ 	c #1D0A17",
"^@ 	c #090511",
"/@ 	c #0C0E1E",
"(@ 	c #16192C",
"_@ 	c #1D2237",
":@ 	c #23273F",
"<@ 	c #0D0F20",
"[@ 	c #050615",
"}@ 	c #030211",
"|@ 	c #0D0515",
"1@ 	c #3E1934",
"2@ 	c #582646",
"3@ 	c #692D51",
"4@ 	c #662B4E",
"5@ 	c #4F203B",
"6@ 	c #2F1022",
"7@ 	c #12040B",
"8@ 	c #1A0711",
"9@ 	c #491E36",
"0@ 	c #471D34",
"a@ 	c #351628",
"b@ 	c #1E101F",
"c@ 	c #161729",
"d@ 	c #1C2035",
"e@ 	c #22273E",
"f@ 	c #1F2338",
"g@ 	c #181C2E",
"h@ 	c #101323",
"i@ 	c #090A19",
"j@ 	c #040412",
"k@ 	c #070818",
"l@ 	c #050515",
"m@ 	c #040311",
"n@ 	c #0D0414",
"o@ 	c #220C20",
"p@ 	c #3C1832",
"q@ 	c #5A2648",
"r@ 	c #6C2F55",
"s@ 	c #6C2E53",
"t@ 	c #341327",
"u@ 	c #10030A",
"v@ 	c #240B19",
"w@ 	c #3C172B",
"x@ 	c #461E34",
"y@ 	c #341B2E",
"z@ 	c #231E32",
"A@ 	c #21253C",
"B@ 	c #1F243A",
"C@ 	c #191D30",
"D@ 	c #101424",
"E@ 	c #0A0C1B",
"F@ 	c #0B0D1C",
"G@ 	c #101324",
"H@ 	c #121426",
"I@ 	c #200B1E",
"J@ 	c #3E1A34",
"K@ 	c #5C2749",
"L@ 	c #6E3056",
"M@ 	c #6C2F54",
"N@ 	c #582443",
"O@ 	c #371428",
"P@ 	c #18050F",
"Q@ 	c #0C0206",
"R@ 	c #51233E",
"S@ 	c #2E2137",
"T@ 	c #24263D",
"U@ 	c #262B43",
"V@ 	c #242941",
"W@ 	c #191D31",
"X@ 	c #121525",
"Y@ 	c #0A0B1B",
"Z@ 	c #0D0F1D",
"`@ 	c #1B1F34",
" # 	c #171A2C",
".# 	c #0E1122",
"+# 	c #070918",
"@# 	c #050413",
"## 	c #0A0413",
"$# 	c #3A1731",
"%# 	c #582645",
"&# 	c #6D3054",
"*# 	c #6F3055",
"=# 	c #5D2646",
"-# 	c #3B152B",
";# 	c #1A0611",
"># 	c #301123",
",# 	c #582744",
"'# 	c #48213A",
")# 	c #2D1D31",
"!# 	c #202238",
"~# 	c #21243B",
"{# 	c #121527",
"]# 	c #0B0C1C",
"^# 	c #0C0E1C",
"/# 	c #151829",
"(# 	c #1E2137",
"_# 	c #121627",
":# 	c #0C0F1E",
"<# 	c #080413",
"[# 	c #1A091B",
"}# 	c #37162E",
"|# 	c #562544",
"1# 	c #6B2F53",
"2# 	c #5E2748",
"3# 	c #3F182F",
"4# 	c #1E0815",
"5# 	c #260C1A",
"6# 	c #421A31",
"7# 	c #4F223C",
"8# 	c #39192D",
"9# 	c #201425",
"0# 	c #171B2D",
"a# 	c #1E2338",
"b# 	c #22283E",
"c# 	c #242942",
"d# 	c #21253D",
"e# 	c #1B1F33",
"f# 	c #141628",
"g# 	c #050613",
"h# 	c #0A0C19",
"i# 	c #141727",
"j# 	c #1C2034",
"k# 	c #262A44",
"l# 	c #1F253B",
"m# 	c #191E33",
"n# 	c #111326",
"o# 	c #08091A",
"p# 	c #070412",
"q# 	c #170719",
"r# 	c #32142A",
"s# 	c #522341",
"t# 	c #6A2E53",
"u# 	c #703056",
"v# 	c #5C2647",
"w# 	c #1F0816",
"x# 	c #080204",
"y# 	c #100309",
"z# 	c #321223",
"A# 	c #351528",
"B# 	c #190916",
"C# 	c #0B0A17",
"D# 	c #0E1222",
"E# 	c #161B2D",
"F# 	c #242A42",
"G# 	c #21263D",
"H# 	c #151729",
"I# 	c #0A0B18",
"J# 	c #131525",
"K# 	c #1B1F32",
"L# 	c #272C45",
"M# 	c #272D46",
"N# 	c #292F49",
"O# 	c #2B324D",
"P# 	c #2B334E",
"Q# 	c #272E48",
"R# 	c #1E233B",
"S# 	c #13172A",
"T# 	c #080A1B",
"U# 	c #060413",
"V# 	c #160718",
"W# 	c #301329",
"X# 	c #4C203D",
"Y# 	c #622A4D",
"Z# 	c #682C51",
"`# 	c #60284A",
" $ 	c #481C37",
".$ 	c #220918",
"+$ 	c #030101",
"@$ 	c #341326",
"#$ 	c #431B32",
"$$ 	c #3D182D",
"%$ 	c #260D1D",
"&$ 	c #08030D",
"*$ 	c #01030E",
"=$ 	c #060917",
"-$ 	c #0E1221",
";$ 	c #151A2B",
">$ 	c #1C2135",
",$ 	c #22263D",
"'$ 	c #1D2136",
")$ 	c #15182B",
"!$ 	c #0E0F20",
"~$ 	c #070716",
"{$ 	c #080916",
"]$ 	c #111423",
"^$ 	c #1B1E32",
"/$ 	c #21263C",
"($ 	c #2D3450",
"_$ 	c #313A58",
":$ 	c #343D5C",
"<$ 	c #323B59",
"[$ 	c #2A314E",
"}$ 	c #20253E",
"|$ 	c #14182C",
"1$ 	c #0A0C1D",
"2$ 	c #050513",
"3$ 	c #100616",
"4$ 	c #2B1126",
"5$ 	c #471E39",
"6$ 	c #5E284A",
"7$ 	c #672C4E",
"8$ 	c #4E1F3B",
"9$ 	c #2C0F20",
"0$ 	c #060103",
"a$ 	c #13030C",
"b$ 	c #14040D",
"c$ 	c #0D0207",
"d$ 	c #030002",
"e$ 	c #11030A",
"f$ 	c #321224",
"g$ 	c #481D35",
"h$ 	c #4A1E38",
"i$ 	c #38162C",
"j$ 	c #1C091A",
"k$ 	c #07030F",
"l$ 	c #030311",
"m$ 	c #0C1020",
"n$ 	c #1C1F34",
"o$ 	c #1D2135",
"p$ 	c #161A2C",
"q$ 	c #0E1121",
"r$ 	c #070915",
"s$ 	c #1A1C30",
"t$ 	c #21253B",
"u$ 	c #2C334F",
"v$ 	c #363F60",
"w$ 	c #384264",
"x$ 	c #384263",
"y$ 	c #343D5D",
"z$ 	c #2C3451",
"A$ 	c #212740",
"B$ 	c #161A2E",
"C$ 	c #060614",
"D$ 	c #0E0515",
"E$ 	c #240E22",
"F$ 	c #451C37",
"G$ 	c #632A4D",
"H$ 	c #713157",
"I$ 	c #50203C",
"J$ 	c #2F1023",
"K$ 	c #12040C",
"L$ 	c #250A1A",
"M$ 	c #451833",
"N$ 	c #4B1B37",
"O$ 	c #381228",
"P$ 	c #15040D",
"Q$ 	c #471D35",
"R$ 	c #592544",
"S$ 	c #542443",
"T$ 	c #3E1932",
"U$ 	c #220C1E",
"V$ 	c #0A0412",
"W$ 	c #060715",
"X$ 	c #0D0E1D",
"Y$ 	c #17192B",
"Z$ 	c #141728",
"`$ 	c #080814",
" % 	c #0F1121",
".% 	c #20243A",
"+% 	c #252941",
"@% 	c #272C46",
"#% 	c #292E48",
"$% 	c #2C324E",
"%% 	c #313857",
"&% 	c #353E5F",
"*% 	c #384265",
"=% 	c #3A4467",
"-% 	c #343E5E",
";% 	c #2D3552",
">% 	c #232942",
",% 	c #181C30",
"'% 	c #0C0F20",
")% 	c #060615",
"!% 	c #0D0514",
"~% 	c #230D20",
"{% 	c #401A34",
"]% 	c #5E2949",
"^% 	c #6F3056",
"/% 	c #6D2E54",
"(% 	c #562342",
"_% 	c #331226",
":% 	c #080105",
"<% 	c #0F0209",
"[% 	c #0C0307",
"}% 	c #050102",
"|% 	c #10040A",
"1% 	c #11040A",
"2% 	c #250C1B",
"3% 	c #2B101F",
"4% 	c #461A33",
"5% 	c #6C2B51",
"6% 	c #7E335F",
"7% 	c #712D54",
"8% 	c #491B35",
"9% 	c #1B0612",
"0% 	c #38152A",
"a% 	c #542241",
"b% 	c #61294C",
"c% 	c #582546",
"d% 	c #411A34",
"e% 	c #0B0412",
"f% 	c #090919",
"g% 	c #0C0D1D",
"h% 	c #060817",
"i% 	c #060612",
"j% 	c #0F1120",
"k% 	c #181A2C",
"l% 	c #272B45",
"m% 	c #282E47",
"n% 	c #2C324D",
"o% 	c #303856",
"p% 	c #353E5E",
"q% 	c #3A4466",
"r% 	c #3B4567",
"s% 	c #353F5F",
"t% 	c #2E3654",
"u% 	c #242A44",
"v% 	c #181D32",
"w% 	c #0A0312",
"x% 	c #210C1F",
"y% 	c #3F1A33",
"z% 	c #5C2748",
"A% 	c #6D2F55",
"B% 	c #6D2F54",
"C% 	c #592444",
"D% 	c #381429",
"E% 	c #1F0815",
"F% 	c #2F0F21",
"G% 	c #3A142A",
"H% 	c #371328",
"I% 	c #0D0308",
"J% 	c #2E1222",
"K% 	c #2F1222",
"L% 	c #321324",
"M% 	c #4B1F38",
"N% 	c #582542",
"O% 	c #7C345E",
"P% 	c #9B4275",
"Q% 	c #9C4275",
"R% 	c #7D345E",
"S% 	c #4D1D38",
"T% 	c #1D0714",
"U% 	c #060104",
"V% 	c #1B0613",
"W% 	c #38152B",
"X% 	c #52223F",
"Y% 	c #60294B",
"Z% 	c #5B2747",
"`% 	c #461C38",
" & 	c #270E22",
".& 	c #01010E",
"+& 	c #050514",
"@& 	c #040514",
"#& 	c #030312",
"$& 	c #0C0D1C",
"%& 	c #1F2239",
"&& 	c #272B44",
"*& 	c #2A324C",
"=& 	c #2F3754",
"-& 	c #394365",
";& 	c #394366",
">& 	c #232A43",
",& 	c #161A2D",
"'& 	c #040312",
")& 	c #090312",
"!& 	c #1C0A1C",
"~& 	c #3B1830",
"{& 	c #6E2F55",
"]& 	c #5B2645",
"^& 	c #471B34",
"/& 	c #572341",
"(& 	c #692B4E",
"_& 	c #65294C",
":& 	c #4C1F39",
"<& 	c #29101E",
"[& 	c #1A0712",
"}& 	c #3A172B",
"|& 	c #401B30",
"1& 	c #3F1B30",
"2& 	c #481E35",
"3& 	c #4D1F38",
"4& 	c #632B4B",
"5& 	c #5A2745",
"6& 	c #51223E",
"7& 	c #682D4F",
"8& 	c #8D3D6B",
"9& 	c #A4467C",
"0& 	c #9F4479",
"a& 	c #813561",
"b& 	c #53203E",
"c& 	c #280B1C",
"d& 	c #080104",
"e& 	c #170510",
"f& 	c #361329",
"g& 	c #2B1025",
"h& 	c #110515",
"i& 	c #02010E",
"j& 	c #01020F",
"k& 	c #121324",
"l& 	c #1C1F33",
"m& 	c #2A314C",
"n& 	c #374163",
"o& 	c #364061",
"p& 	c #394364",
"q& 	c #3A4567",
"r& 	c #2A324E",
"s& 	c #111525",
"t& 	c #080919",
"u& 	c #080312",
"v& 	c #1A091C",
"w& 	c #552443",
"x& 	c #6B2E53",
"y& 	c #6F2F55",
"z& 	c #682C4E",
"A& 	c #6B2D51",
"B& 	c #62284A",
"C& 	c #451E35",
"D& 	c #3E1B30",
"E& 	c #451C33",
"F& 	c #3E1A2F",
"G& 	c #341528",
"H& 	c #582643",
"I& 	c #652C4E",
"J& 	c #642C4D",
"K& 	c #4E213C",
"L& 	c #37172B",
"M& 	c #411B32",
"N& 	c #642A4B",
"O& 	c #8C3C6B",
"P& 	c #A4477D",
"Q& 	c #A4467D",
"R& 	c #843764",
"S& 	c #562140",
"T& 	c #2A0C1D",
"U& 	c #090105",
"V& 	c #2E1023",
"W& 	c #4D1F3B",
"X& 	c #4A1E3B",
"Y& 	c #2C1126",
"Z& 	c #04020F",
"`& 	c #02010F",
" * 	c #080717",
".* 	c #131325",
"+* 	c #1D1F34",
"@* 	c #23273E",
"#* 	c #262B45",
"$* 	c #272D47",
"%* 	c #2A304B",
"&* 	c #2E3653",
"** 	c #343C5C",
"=* 	c #384163",
"-* 	c #343D5E",
";* 	c #313957",
">* 	c #303855",
",* 	c #323A59",
"'* 	c #2C3450",
")* 	c #060414",
"!* 	c #060312",
"~* 	c #17071A",
"{* 	c #32142B",
"]* 	c #622A4A",
"^* 	c #361428",
"/* 	c #2C1221",
"(* 	c #3E1D31",
"_* 	c #4A233B",
":* 	c #4D243E",
"<* 	c #4D233C",
"[* 	c #2D1222",
"}* 	c #1D0B17",
"|* 	c #2D1221",
"1* 	c #4E243F",
"2* 	c #5B2B4B",
"3* 	c #502542",
"4* 	c #34172B",
"5* 	c #180915",
"6* 	c #1E0B17",
"7* 	c #3C182D",
"8* 	c #62294A",
"9* 	c #873A66",
"0* 	c #A1457B",
"a* 	c #A5477E",
"b* 	c #8D3B6B",
"c* 	c #612648",
"d* 	c #11040C",
"e* 	c #2C0F21",
"f* 	c #5C2648",
"g* 	c #512140",
"h* 	c #34142B",
"i* 	c #140617",
"j* 	c #0F0D1E",
"k* 	c #18182B",
"l* 	c #1F2238",
"m* 	c #2E3551",
"n* 	c #333C5B",
"o* 	c #374162",
"p* 	c #394264",
"q* 	c #2B314C",
"r* 	c #2C344F",
"s* 	c #2A304C",
"t* 	c #21253A",
"u* 	c #131324",
"v* 	c #0A0A19",
"w* 	c #040413",
"x* 	c #060211",
"y* 	c #2F1329",
"z* 	c #4C223F",
"A* 	c #5A2A4B",
"B* 	c #502743",
"C* 	c #35182C",
"D* 	c #150811",
"E* 	c #140812",
"F* 	c #2B1626",
"G* 	c #41233B",
"H* 	c #4B2944",
"I* 	c #47273F",
"J* 	c #321B2D",
"K* 	c #180C18",
"L* 	c #08060C",
"M* 	c #130F19",
"N* 	c #302237",
"O* 	c #3B2A43",
"P* 	c #33253D",
"Q* 	c #1F1727",
"R* 	c #090811",
"S* 	c #07030A",
"T* 	c #190814",
"U* 	c #361628",
"V* 	c #5E2746",
"W* 	c #853965",
"X* 	c #A2467B",
"Y* 	c #A5467D",
"Z* 	c #602647",
"`* 	c #301022",
" = 	c #290D1E",
".= 	c #38162E",
"+= 	c #1B091A",
"@= 	c #03020F",
"#= 	c #010110",
"$= 	c #070616",
"%= 	c #100F20",
"&= 	c #191B2E",
"*= 	c #323A58",
"== 	c #374161",
"-= 	c #363F5F",
";= 	c #313956",
">= 	c #282E48",
",= 	c #292F48",
"'= 	c #24283F",
")= 	c #1F2136",
"!= 	c #161728",
"~= 	c #06030F",
"{= 	c #170F1D",
"]= 	c #302138",
"^= 	c #3E2D48",
"/= 	c #392C47",
"(= 	c #262033",
"_= 	c #0C0F19",
":= 	c #0B0B15",
"<= 	c #1D1829",
"[= 	c #342841",
"}= 	c #3E304C",
"|= 	c #3A2E49",
"1= 	c #282338",
"2= 	c #141524",
"3= 	c #0E111E",
"4= 	c #191D2E",
"5= 	c #2B2F48",
"6= 	c #333754",
"7= 	c #2F3451",
"8= 	c #24283E",
"9= 	c #151827",
"0= 	c #06070F",
"a= 	c #060308",
"b= 	c #341426",
"c= 	c #562541",
"d= 	c #7E3660",
"e= 	c #9F4579",
"f= 	c #8A3A68",
"g= 	c #602648",
"h= 	c #361227",
"i= 	c #16040E",
"j= 	c #421933",
"k= 	c #5A2546",
"l= 	c #542442",
"m= 	c #3A1830",
"n= 	c #1D0A1C",
"o= 	c #080310",
"p= 	c #090917",
"q= 	c #141627",
"r= 	c #323957",
"s= 	c #2C334E",
"t= 	c #252B42",
"u= 	c #23283E",
"v= 	c #1E1F34",
"w= 	c #161627",
"x= 	c #0C0C1B",
"y= 	c #0E0F1B",
"z= 	c #1A1D2E",
"A= 	c #272D45",
"B= 	c #313754",
"C= 	c #282F47",
"D= 	c #1E2335",
"E= 	c #2E314D",
"F= 	c #353958",
"G= 	c #343957",
"H= 	c #2B304B",
"I= 	c #22273C",
"J= 	c #21263A",
"K= 	c #293048",
"L= 	c #323B58",
"M= 	c #2F3652",
"N= 	c #242A3F",
"O= 	c #151A28",
"P= 	c #080A13",
"Q= 	c #160710",
"R= 	c #311324",
"S= 	c #52223D",
"T= 	c #763359",
"U= 	c #903E6D",
"V= 	c #943E70",
"W= 	c #722E55",
"X= 	c #3F172E",
"Y= 	c #13040C",
"Z= 	c #220919",
"`= 	c #3E172F",
" - 	c #61294B",
".- 	c #411B34",
"+- 	c #230C1F",
"@- 	c #0B0513",
"#- 	c #141729",
"$- 	c #2A304A",
"%- 	c #2D334F",
"&- 	c #1A1E31",
"*- 	c #121626",
"=- 	c #1E2034",
"-- 	c #1A1A2C",
";- 	c #121121",
">- 	c #080715",
",- 	c #1C2231",
"'- 	c #282F45",
")- 	c #323A56",
"!- 	c #384161",
"~- 	c #343D5B",
"{- 	c #2F3851",
"]- 	c #2C334B",
"^- 	c #2E354F",
"/- 	c #333C5A",
"(- 	c #374061",
"_- 	c #333B56",
":- 	c #353D56",
"<- 	c #38425E",
"[- 	c #3A4564",
"}- 	c #3B4667",
"|- 	c #374060",
"1- 	c #2F3854",
"2- 	c #242B42",
"3- 	c #161B2B",
"4- 	c #080B15",
"5- 	c #050308",
"6- 	c #12050E",
"7- 	c #2A0F1F",
"8- 	c #6E2F54",
"9- 	c #8E3E6C",
"0- 	c #A2467C",
"a- 	c #9A4175",
"b- 	c #78315B",
"c- 	c #491B36",
"d- 	c #1C0612",
"e- 	c #1D0715",
"f- 	c #572343",
"g- 	c #221022",
"h- 	c #121223",
"i- 	c #2D344F",
"j- 	c #303956",
"k- 	c #121424",
"l- 	c #090B18",
"m- 	c #0A0D1A",
"n- 	c #1E2236",
"o- 	c #1B1D30",
"p- 	c #141423",
"q- 	c #090812",
"r- 	c #030108",
"s- 	c #10121B",
"t- 	c #232A38",
"u- 	c #2F384B",
"v- 	c #38425B",
"w- 	c #3B4564",
"x- 	c #3C4667",
"y- 	c #3D4867",
"z- 	c #404A66",
"A- 	c #404B66",
"B- 	c #3F4967",
"C- 	c #3E4969",
"D- 	c #444F6C",
"E- 	c #47526F",
"F- 	c #46526F",
"G- 	c #424E6D",
"H- 	c #3E496B",
"I- 	c #3C4769",
"J- 	c #3B4566",
"K- 	c #262D44",
"L- 	c #0C0D18",
"M- 	c #040309",
"N- 	c #0E040D",
"O- 	c #270F1E",
"P- 	c #461D35",
"Q- 	c #6D2F53",
"R- 	c #934070",
"S- 	c #A7487F",
"T- 	c #9F4478",
"U- 	c #7B335D",
"V- 	c #4A1B37",
"W- 	c #180511",
"X- 	c #3B162C",
"Y- 	c #381C32",
"Z- 	c #211B2F",
"`- 	c #282D46",
" ; 	c #282F48",
".; 	c #29304A",
"+; 	c #29304B",
"@; 	c #22273D",
"#; 	c #0A0C18",
"$; 	c #141829",
"%; 	c #232940",
"&; 	c #20253A",
"*; 	c #181A2B",
"=; 	c #0B0C17",
"-; 	c #0B0E15",
";; 	c #202633",
">; 	c #353F53",
",; 	c #424E66",
"'; 	c #47536F",
"); 	c #455170",
"!; 	c #414C6D",
"~; 	c #404B6D",
"{; 	c #455171",
"]; 	c #4C5875",
"^; 	c #4F5B79",
"/; 	c #4D5A78",
"(; 	c #475373",
"_; 	c #485574",
":; 	c #505E7C",
"<; 	c #54617F",
"[; 	c #4A5777",
"}; 	c #445071",
"|; 	c #3F4A6C",
"1; 	c #3C4669",
"2; 	c #384262",
"3; 	c #1B1F31",
"4; 	c #0D0F1A",
"5; 	c #06050C",
"6; 	c #0E040C",
"7; 	c #250D1C",
"8; 	c #6B2E51",
"9; 	c #8F3D6D",
"0; 	c #9E4378",
"a; 	c #7A325C",
"b; 	c #4A1C37",
"c; 	c #1D0713",
"d; 	c #1A0612",
"e; 	c #37142A",
"f; 	c #4C1F3B",
"g; 	c #4C203C",
"h; 	c #3A1D33",
"i; 	c #251E32",
"j; 	c #272C44",
"k; 	c #20263C",
"l; 	c #1E2339",
"m; 	c #22253C",
"n; 	c #0B0C19",
"o; 	c #060712",
"p; 	c #2D3551",
"q; 	c #23293F",
"r; 	c #181D2C",
"s; 	c #343D51",
"t; 	c #47536D",
"u; 	c #52607C",
"v; 	c #53617F",
"w; 	c #4E5B7A",
"x; 	c #485474",
"y; 	c #4C5978",
"z; 	c #576684",
"A; 	c #576583",
"B; 	c #515E7D",
"C; 	c #465272",
"D; 	c #4F5D7B",
"E; 	c #5A6987",
"F; 	c #52607F",
"G; 	c #4C5878",
"H; 	c #3D4769",
"I; 	c #333B59",
"J; 	c #293049",
"K; 	c #1C2134",
"L; 	c #0E111C",
"M; 	c #04040B",
"N; 	c #0D040C",
"O; 	c #220C19",
"P; 	c #401A30",
"Q; 	c #672B4D",
"R; 	c #8B3C6A",
"S; 	c #9E4478",
"T; 	c #943F71",
"U; 	c #753058",
"V; 	c #4C1D38",
"W; 	c #290C1D",
"X; 	c #250D1B",
"Y; 	c #321426",
"Z; 	c #2D1527",
"`; 	c #1E1829",
" > 	c #1E2135",
".> 	c #181C2F",
"+> 	c #131627",
"@> 	c #151626",
"#> 	c #1B1C2F",
"$> 	c #212339",
"%> 	c #22253B",
"&> 	c #141726",
"*> 	c #0B0C18",
"=> 	c #04040C",
"-> 	c #0A0C15",
";> 	c #161928",
">> 	c #1E2438",
",> 	c #2F3753",
"'> 	c #2C344C",
")> 	c #374157",
"!> 	c #54627F",
"~> 	c #596987",
"{> 	c #556382",
"]> 	c #505D7C",
"^> 	c #536180",
"/> 	c #586785",
"(> 	c #5B6B89",
"_> 	c #53607E",
":> 	c #46526E",
"<> 	c #44506C",
"[> 	c #4E5B78",
"}> 	c #586684",
"|> 	c #5B6A89",
"1> 	c #5B6A88",
"2> 	c #586685",
"3> 	c #53607F",
"4> 	c #4D5979",
"5> 	c #455272",
"6> 	c #2A324B",
"7> 	c #1E2337",
"8> 	c #101320",
"9> 	c #05050C",
"0> 	c #080308",
"a> 	c #1E0A16",
"b> 	c #5F2848",
"c> 	c #7E365F",
"d> 	c #903E6E",
"e> 	c #923E6E",
"f> 	c #7F3560",
"g> 	c #5A2343",
"h> 	c #2D0E20",
"i> 	c #0B0307",
"j> 	c #180812",
"k> 	c #170914",
"l> 	c #0F0B17",
"m> 	c #141625",
"n> 	c #181B2E",
"o> 	c #0B0C1A",
"p> 	c #0D0C1A",
"q> 	c #141424",
"r> 	c #1D1E31",
"s> 	c #1F2135",
"t> 	c #1A1D2F",
"u> 	c #0E101C",
"v> 	c #04050C",
"w> 	c #080910",
"x> 	c #171B27",
"y> 	c #272E40",
"z> 	c #2E374F",
"A> 	c #394363",
"B> 	c #3F4A66",
"C> 	c #4A5672",
"D> 	c #596886",
"E> 	c #566483",
"F> 	c #5A6A88",
"G> 	c #4C5773",
"H> 	c #3B445D",
"I> 	c #374058",
"J> 	c #434D67",
"K> 	c #515D7A",
"L> 	c #536280",
"M> 	c #4D5B7A",
"N> 	c #465373",
"O> 	c #404C6D",
"P> 	c #3D486A",
"Q> 	c #2B334D",
"R> 	c #1F2539",
"S> 	c #111522",
"T> 	c #070710",
"U> 	c #060309",
"V> 	c #361528",
"W> 	c #78345C",
"X> 	c #923F6F",
"Y> 	c #9D4377",
"Z> 	c #8E3C6B",
"`> 	c #682A4E",
" , 	c #351126",
"., 	c #020103",
"+, 	c #070208",
"@, 	c #06050E",
"#, 	c #0F121E",
"$, 	c #131625",
"%, 	c #202337",
"&, 	c #24273D",
"*, 	c #1F2237",
"=, 	c #131524",
"-, 	c #090A13",
";, 	c #141722",
">, 	c #272D3E",
",, 	c #394359",
"', 	c #414C68",
"), 	c #424D6C",
"!, 	c #3D4869",
"~, 	c #3C4768",
"{, 	c #434E6E",
"], 	c #556381",
"^, 	c #4F5B77",
"/, 	c #3E475F",
"(, 	c #2B2F43",
"_, 	c #25283B",
":, 	c #30374B",
"<, 	c #414B64",
"[, 	c #4F5C78",
"}, 	c #546281",
"|, 	c #4E5C7B",
"1, 	c #475374",
"2, 	c #414D6E",
"3, 	c #21283D",
"4, 	c #131725",
"5, 	c #180713",
"6, 	c #311425",
"7, 	c #542440",
"8, 	c #7C355E",
"9, 	c #933D6F",
"0, 	c #68294E",
"a, 	c #15040E",
"b, 	c #13030B",
"c, 	c #030103",
"d, 	c #040106",
"e, 	c #040207",
"f, 	c #0A0D18",
"g, 	c #181C2C",
"h, 	c #292F4A",
"i, 	c #20253B",
"j, 	c #1D2131",
"k, 	c #262C3D",
"l, 	c #384056",
"m, 	c #49546F",
"n, 	c #515E7B",
"o, 	c #4F5D7C",
"p, 	c #404B6C",
"q, 	c #434F6F",
"r, 	c #46506A",
"s, 	c #31364B",
"t, 	c #1F1F30",
"u, 	c #181627",
"v, 	c #202032",
"w, 	c #2E3448",
"x, 	c #3F4961",
"y, 	c #4D5A76",
"z, 	c #566583",
"A, 	c #546381",
"B, 	c #4F5C7C",
"C, 	c #485475",
"D, 	c #424E6F",
"E, 	c #3B4668",
"F, 	c #394465",
"G, 	c #2E3652",
"H, 	c #151929",
"I, 	c #080912",
"J, 	c #060207",
"K, 	c #150611",
"L, 	c #2F1224",
"M, 	c #51213D",
"N, 	c #77325B",
"O, 	c #9A4275",
"P, 	c #A94880",
"Q, 	c #702D54",
"R, 	c #3D152C",
"S, 	c #14040C",
"T, 	c #1D0613",
"U, 	c #42162F",
"V, 	c #4D1C39",
"W, 	c #3B142A",
"X, 	c #030104",
"Y, 	c #030106",
"Z, 	c #030208",
"`, 	c #161A2A",
" ' 	c #242A41",
".' 	c #283049",
"+' 	c #333B5A",
"@' 	c #2F374F",
"#' 	c #394259",
"$' 	c #47526C",
"%' 	c #54617E",
"&' 	c #586886",
"*' 	c #566584",
"=' 	c #505E7D",
"-' 	c #4B5777",
";' 	c #596786",
">' 	c #5B6988",
",' 	c #53617E",
"'' 	c #454F68",
")' 	c #323649",
"!' 	c #212130",
"~' 	c #191626",
"{' 	c #171525",
"]' 	c #1E1E30",
"^' 	c #2B3044",
"/' 	c #3D465F",
"(' 	c #4C5974",
"_' 	c #566482",
":' 	c #556482",
"<' 	c #495575",
"[' 	c #3D496B",
"}' 	c #3A4465",
"|' 	c #364060",
"1' 	c #242B41",
"2' 	c #171B2B",
"3' 	c #090C15",
"4' 	c #11050E",
"5' 	c #2B1020",
"6' 	c #4D203B",
"7' 	c #753259",
"8' 	c #964072",
"9' 	c #A6477E",
"0' 	c #9B4176",
"a' 	c #79315B",
"b' 	c #4A1B35",
"c' 	c #1A0511",
"d' 	c #200816",
"e' 	c #230918",
"f' 	c #1F0714",
"g' 	c #2F0E21",
"h' 	c #12030B",
"i' 	c #471933",
"j' 	c #702C54",
"k' 	c #772F5A",
"l' 	c #55203F",
"m' 	c #2C0D1F",
"n' 	c #000003",
"o' 	c #030207",
"p' 	c #080813",
"q' 	c #2E3651",
"r' 	c #353F5E",
"s' 	c #313A55",
"t' 	c #323B56",
"u' 	c #353E5D",
"v' 	c #404C69",
"w' 	c #495672",
"x' 	c #52607D",
"y' 	c #5A6988",
"z' 	c #556281",
"A' 	c #4D5974",
"B' 	c #3F465C",
"C' 	c #2D3143",
"D' 	c #202131",
"E' 	c #181727",
"F' 	c #171526",
"G' 	c #1E1D2F",
"H' 	c #2A2E41",
"I' 	c #3A435A",
"J' 	c #4A5671",
"K' 	c #556380",
"L' 	c #5C6B89",
"M' 	c #4A5776",
"N' 	c #434F70",
"O' 	c #262D45",
"P' 	c #181D2D",
"Q' 	c #0B0D17",
"R' 	c #040308",
"S' 	c #0E050D",
"T' 	c #260F1D",
"U' 	c #461E35",
"V' 	c #702F55",
"W' 	c #954071",
"X' 	c #9E4377",
"Y' 	c #7C335D",
"Z' 	c #020102",
"`' 	c #0C0204",
" ) 	c #250A17",
".) 	c #331023",
"+) 	c #270B1B",
"@) 	c #200815",
"#) 	c #371327",
"$) 	c #391328",
"%) 	c #311224",
"&) 	c #491C36",
"*) 	c #572141",
"=) 	c #511E3C",
"-) 	c #3C142B",
";) 	c #4F1C3A",
">) 	c #6B2950",
",) 	c #602548",
"') 	c #451A32",
")) 	c #361426",
"!) 	c #210A16",
"~) 	c #421730",
"{) 	c #712C54",
"]) 	c #903B6D",
"^) 	c #893867",
"/) 	c #592242",
"() 	c #070711",
"_) 	c #141626",
":) 	c #21273D",
"<) 	c #343E5D",
"[) 	c #434E6D",
"}) 	c #45516F",
"|) 	c #3C4668",
"1) 	c #3E496A",
"2) 	c #445070",
"3) 	c #52617F",
"4) 	c #596887",
"5) 	c #586786",
"6) 	c #576582",
"7) 	c #4C5872",
"8) 	c #3D465C",
"9) 	c #2E3346",
"0) 	c #212333",
"a) 	c #191728",
"b) 	c #171425",
"c) 	c #1C1B2C",
"d) 	c #292C3F",
"e) 	c #394158",
"f) 	c #5A6986",
"g) 	c #515F7E",
"h) 	c #4B5878",
"i) 	c #3E4A6B",
"j) 	c #272F47",
"k) 	c #0D0F1B",
"l) 	c #05040B",
"m) 	c #0C040B",
"n) 	c #240D1C",
"o) 	c #6A2D50",
"p) 	c #A6487E",
"q) 	c #A04479",
"r) 	c #763058",
"s) 	c #40172E",
"t) 	c #050101",
"u) 	c #1D0706",
"v) 	c #250B10",
"w) 	c #0A0205",
"x) 	c #0A0208",
"y) 	c #160510",
"z) 	c #33121B",
"A) 	c #5E253F",
"B) 	c #762F55",
"C) 	c #632749",
"D) 	c #3A142B",
"E) 	c #41172F",
"F) 	c #5F2547",
"G) 	c #4F1E3A",
"H) 	c #2C0F1F",
"I) 	c #190610",
"J) 	c #1E0814",
"K) 	c #381629",
"L) 	c #552440",
"M) 	c #6E2F53",
"N) 	c #803560",
"O) 	c #843763",
"P) 	c #7C335E",
"Q) 	c #732F57",
"R) 	c #562340",
"S) 	c #4B1E37",
"T) 	c #3C152B",
"U) 	c #6C2A51",
"V) 	c #8F3A6C",
"W) 	c #903B6C",
"X) 	c #722D55",
"Y) 	c #3E152E",
"Z) 	c #14040F",
"`) 	c #03050D",
" ! 	c #121523",
".! 	c #394466",
"+! 	c #3F4A6B",
"@! 	c #424D6E",
"#! 	c #4C5979",
"$! 	c #5C6B8A",
"%! 	c #3F4960",
"&! 	c #2F3648",
"*! 	c #222434",
"=! 	c #1A1929",
"-! 	c #181525",
";! 	c #1B192A",
">! 	c #26293B",
",! 	c #373E54",
"'! 	c #47526D",
")! 	c #53607D",
"!! 	c #3F4B6C",
"~! 	c #384162",
"{! 	c #05050B",
"]! 	c #0C040C",
"^! 	c #220C1A",
"/! 	c #8A3B69",
"(! 	c #944071",
"_! 	c #481A34",
":! 	c #170505",
"<! 	c #391512",
"[! 	c #59261F",
"}! 	c #642B2D",
"|! 	c #5A2635",
"1! 	c #4A1D2B",
"2! 	c #3A1424",
"3! 	c #3C162C",
"4! 	c #542339",
"5! 	c #77333D",
"6! 	c #994355",
"7! 	c #AA4A6C",
"8! 	c #943F67",
"9! 	c #6A2B4E",
"0! 	c #3B152D",
"a! 	c #14040E",
"b! 	c #1D0814",
"c! 	c #3C182C",
"d! 	c #39172A",
"e! 	c #602747",
"f! 	c #743057",
"g! 	c #5D2545",
"h! 	c #4D1F39",
"i! 	c #461C34",
"j! 	c #39152A",
"k! 	c #3A162A",
"l! 	c #5C2844",
"m! 	c #813762",
"n! 	c #8E3D6D",
"o! 	c #8B3B6A",
"p! 	c #893A69",
"q! 	c #833763",
"r! 	c #5F2648",
"s! 	c #4F203A",
"t! 	c #622749",
"u! 	c #853664",
"v! 	c #752E58",
"w! 	c #471934",
"x! 	c #1A0512",
"y! 	c #03040C",
"z! 	c #0F1321",
"A! 	c #2B324C",
"B! 	c #475273",
"C! 	c #505D7D",
"D! 	c #576584",
"E! 	c #4D5A7A",
"F! 	c #4B5772",
"G! 	c #424D65",
"H! 	c #455069",
"I! 	c #505D78",
"J! 	c #5B6B8A",
"K! 	c #576683",
"L! 	c #4E5B76",
"M! 	c #404B62",
"N! 	c #31384B",
"O! 	c #242637",
"P! 	c #1B1A2A",
"Q! 	c #252739",
"R! 	c #353B51",
"S! 	c #454F69",
"T! 	c #515F7C",
"U! 	c #536080",
"V! 	c #465173",
"W! 	c #0F131F",
"X! 	c #04050B",
"Y! 	c #090309",
"Z! 	c #1E0A17",
"`! 	c #3E192F",
" ~ 	c #60294A",
".~ 	c #652A4C",
"+~ 	c #0A0202",
"@~ 	c #3F1816",
"#~ 	c #76342D",
"$~ 	c #9D4839",
"%~ 	c #A94E43",
"&~ 	c #9D494A",
"*~ 	c #8D3F44",
"=~ 	c #7C3549",
"-~ 	c #7B3454",
";~ 	c #92415B",
">~ 	c #B05052",
",~ 	c #C65A56",
"'~ 	c #CC5D67",
")~ 	c #B9526F",
"!~ 	c #984268",
"~~ 	c #702E52",
"{~ 	c #431932",
"]~ 	c #1E0715",
"^~ 	c #361427",
"/~ 	c #4D203A",
"(~ 	c #52243E",
"_~ 	c #4E213B",
":~ 	c #5F2945",
"<~ 	c #713152",
"[~ 	c #723154",
"}~ 	c #5A2543",
"|~ 	c #431A32",
"1~ 	c #441C33",
"2~ 	c #51223D",
"3~ 	c #4E213A",
"4~ 	c #451D33",
"5~ 	c #431C33",
"6~ 	c #542341",
"7~ 	c #77365E",
"8~ 	c #72345A",
"9~ 	c #3A172D",
"0~ 	c #351526",
"a~ 	c #79325B",
"b~ 	c #742E57",
"c~ 	c #1A0614",
"d~ 	c #06040C",
"e~ 	c #0E111F",
"f~ 	c #1D2235",
"g~ 	c #4F5C7B",
"h~ 	c #4B5672",
"i~ 	c #3B435B",
"j~ 	c #2F3649",
"k~ 	c #333A4E",
"l~ 	c #414B62",
"m~ 	c #576784",
"n~ 	c #4F5D79",
"o~ 	c #252839",
"p~ 	c #1B1B2B",
"q~ 	c #1A1828",
"r~ 	c #232537",
"s~ 	c #33394E",
"t~ 	c #505D7A",
"u~ 	c #414C6E",
"v~ 	c #111523",
"w~ 	c #0F050D",
"x~ 	c #2F1324",
"y~ 	c #6D2F52",
"z~ 	c #3C162B",
"A~ 	c #0D0202",
"B~ 	c #3A1513",
"C~ 	c #72322B",
"D~ 	c #AB4F40",
"E~ 	c #CF6244",
"F~ 	c #DB6946",
"G~ 	c #D4664A",
"H~ 	c #C75E51",
"I~ 	c #B65365",
"J~ 	c #B25071",
"K~ 	c #C5596B",
"L~ 	c #D76454",
"M~ 	c #E26945",
"N~ 	c #E2694F",
"O~ 	c #D26161",
"P~ 	c #BB546D",
"Q~ 	c #9E456B",
"R~ 	c #7B335A",
"S~ 	c #521F3C",
"T~ 	c #4A1E37",
"U~ 	c #4B2039",
"V~ 	c #401B31",
"W~ 	c #4D213B",
"X~ 	c #662D4C",
"Y~ 	c #672D4C",
"Z~ 	c #53233D",
"`~ 	c #301626",
" { 	c #4C283F",
".{ 	c #5A334E",
"+{ 	c #57334B",
"@{ 	c #48293D",
"#{ 	c #2C1624",
"${ 	c #2D1424",
"%{ 	c #46273E",
"&{ 	c #5B3A56",
"*{ 	c #573954",
"={ 	c #402A3E",
"-{ 	c #1D121E",
";{ 	c #180712",
">{ 	c #401A31",
",{ 	c #461C35",
"'{ 	c #3D162E",
"){ 	c #030308",
"!{ 	c #0D0F1C",
"~{ 	c #1B2032",
"{{ 	c #3A4366",
"]{ 	c #4D5975",
"^{ 	c #3B435C",
"/{ 	c #292C41",
"({ 	c #1F2031",
"_{ 	c #222535",
":{ 	c #2F3547",
"<{ 	c #3F485F",
"[{ 	c #566582",
"}{ 	c #586885",
"|{ 	c #515E7A",
"1{ 	c #444F68",
"2{ 	c #353D51",
"3{ 	c #272A3C",
"4{ 	c #1C1C2C",
"5{ 	c #222235",
"6{ 	c #30364B",
"7{ 	c #475474",
"8{ 	c #2D3550",
"9{ 	c #20273D",
"0{ 	c #161725",
"a{ 	c #210F1C",
"b{ 	c #451D34",
"c{ 	c #8C3C6A",
"d{ 	c #843863",
"e{ 	c #4E1E3A",
"f{ 	c #0C0106",
"g{ 	c #33120F",
"h{ 	c #6E3029",
"i{ 	c #A44B3C",
"j{ 	c #D06245",
"k{ 	c #E8713A",
"l{ 	c #F1772F",
"m{ 	c #EF7631",
"n{ 	c #E36F42",
"o{ 	c #CF645C",
"p{ 	c #C95E67",
"q{ 	c #DA655C",
"r{ 	c #EA6D43",
"s{ 	c #F1712E",
"t{ 	c #EE7033",
"u{ 	c #E06947",
"v{ 	c #CC5E5E",
"w{ 	c #B85272",
"x{ 	c #A24577",
"y{ 	c #290E1D",
"z{ 	c #50223D",
"A{ 	c #210C1A",
"B{ 	c #2A1222",
"C{ 	c #401D35",
"D{ 	c #532743",
"E{ 	c #4B253F",
"F{ 	c #301729",
"G{ 	c #130813",
"H{ 	c #08070B",
"I{ 	c #242028",
"J{ 	c #433A49",
"K{ 	c #5B5064",
"L{ 	c #5B5265",
"M{ 	c #4A4453",
"N{ 	c #2A2832",
"O{ 	c #141319",
"P{ 	c #25202C",
"Q{ 	c #3F394C",
"R{ 	c #564E66",
"S{ 	c #574F68",
"T{ 	c #474256",
"U{ 	c #2B2A37",
"V{ 	c #12121A",
"W{ 	c #130611",
"X{ 	c #1F0C1B",
"Y{ 	c #1D0B1A",
"Z{ 	c #140512",
"`{ 	c #07040D",
" ] 	c #1A1E30",
".] 	c #374062",
"+] 	c #444F70",
"@] 	c #4D5A79",
"#] 	c #5B6B88",
"$] 	c #4E5A76",
"%] 	c #3E465E",
"&] 	c #1D1C2E",
"*] 	c #181526",
"=] 	c #212433",
"-] 	c #2D3346",
";] 	c #3C465C",
">] 	c #556481",
",] 	c #5C6C8A",
"'] 	c #46516A",
")] 	c #373E53",
"!] 	c #282D3E",
"~] 	c #1D1E2E",
"{] 	c #181626",
"]] 	c #191627",
"^] 	c #202133",
"/] 	c #3F4860",
"(] 	c #4E5A75",
"_] 	c #485575",
":] 	c #424D6F",
"<] 	c #3E486B",
"[] 	c #3A4365",
"}] 	c #2E3753",
"|] 	c #2A2A41",
"1] 	c #3B2138",
"2] 	c #8C3B6A",
"3] 	c #511F3C",
"4] 	c #0F0208",
"5] 	c #090201",
"6] 	c #2F100E",
"7] 	c #642A25",
"8] 	c #9F483C",
"9] 	c #CC6044",
"0] 	c #E76F3B",
"a] 	c #F57927",
"b] 	c #FB7E11",
"c] 	c #FA7F13",
"d] 	c #F37D2A",
"e] 	c #E67A43",
"f] 	c #DF774C",
"g] 	c #E87440",
"h] 	c #F2742E",
"i] 	c #F6751F",
"j] 	c #F07222",
"k] 	c #E06A30",
"l] 	c #C45B46",
"m] 	c #AC4D61",
"n] 	c #A04575",
"o] 	c #9D4277",
"p] 	c #66294C",
"q] 	c #491D36",
"r] 	c #51223C",
"s] 	c #3B182D",
"t] 	c #1C0917",
"u] 	c #06030A",
"v] 	c #120B17",
"w] 	c #231728",
"x] 	c #302137",
"y] 	c #2D2237",
"z] 	c #1C192B",
"A] 	c #12131F",
"B] 	c #1C1E25",
"C] 	c #343842",
"D] 	c #515766",
"E] 	c #6A7387",
"F] 	c #6E788C",
"G] 	c #60697B",
"H] 	c #464C5A",
"I] 	c #333441",
"J] 	c #3D3B4D",
"K] 	c #545168",
"L] 	c #65627D",
"M] 	c #676580",
"N] 	c #5D5A73",
"O] 	c #474559",
"P] 	c #2D2C3A",
"Q] 	c #15151E",
"R] 	c #06060B",
"S] 	c #05040E",
"T] 	c #050310",
"U] 	c #03030E",
"V] 	c #070815",
"W] 	c #303754",
"X] 	c #373F61",
"Y] 	c #596784",
"Z] 	c #404962",
"`] 	c #2D3145",
" ^ 	c #171424",
".^ 	c #1A1827",
"+^ 	c #1F2131",
"@^ 	c #2B3143",
"#^ 	c #3B445A",
"$^ 	c #4A556F",
"%^ 	c #55627F",
"&^ 	c #48546D",
"*^ 	c #394257",
"=^ 	c #292E40",
"-^ 	c #1E1F2F",
";^ 	c #181426",
">^ 	c #1D1D2E",
",^ 	c #495576",
"'^ 	c #434E70",
")^ 	c #33334F",
"!^ 	c #442A44",
"~^ 	c #6E3256",
"{^ 	c #903F6E",
"]^ 	c #943F70",
"^^ 	c #742F57",
"/^ 	c #391429",
"(^ 	c #040101",
"_^ 	c #250B09",
":^ 	c #5E2823",
"<^ 	c #9A463A",
"[^ 	c #C75D43",
"}^ 	c #E46E3E",
"|^ 	c #F37629",
"1^ 	c #FA7C16",
"2^ 	c #FE8107",
"3^ 	c #FE850A",
"4^ 	c #FC8A19",
"5^ 	c #F8902A",
"6^ 	c #F49133",
"7^ 	c #F3892F",
"8^ 	c #F57E25",
"9^ 	c #F2761E",
"0^ 	c #E56F1D",
"a^ 	c #CC6121",
"b^ 	c #A24C2D",
"c^ 	c #813A45",
"d^ 	c #833861",
"e^ 	c #984073",
"f^ 	c #994073",
"g^ 	c #803660",
"h^ 	c #572340",
"i^ 	c #38162A",
"j^ 	c #07020D",
"k^ 	c #040510",
"l^ 	c #0E1120",
"m^ 	c #22243A",
"n^ 	c #22263B",
"o^ 	c #202438",
"p^ 	c #252738",
"q^ 	c #373948",
"r^ 	c #515767",
"s^ 	c #6B7689",
"t^ 	c #808EA5",
"u^ 	c #8594AD",
"v^ 	c #7B899F",
"w^ 	c #666F83",
"x^ 	c #55576B",
"y^ 	c #57566D",
"z^ 	c #66647E",
"A^ 	c #71708B",
"B^ 	c #74728E",
"C^ 	c #6D6B86",
"D^ 	c #5E5C74",
"E^ 	c #49485C",
"F^ 	c #333342",
"G^ 	c #1F1E29",
"H^ 	c #03040F",
"I^ 	c #040511",
"J^ 	c #0B0C1B",
"K^ 	c #262D46",
"L^ 	c #546382",
"M^ 	c #596885",
"N^ 	c #525E7B",
"O^ 	c #2F3449",
"P^ 	c #1F1E31",
"Q^ 	c #1C1A2B",
"R^ 	c #1C1A2A",
"S^ 	c #1A1727",
"T^ 	c #191828",
"U^ 	c #1F2030",
"V^ 	c #2A2E40",
"W^ 	c #394157",
"X^ 	c #48536D",
"Y^ 	c #54627D",
"Z^ 	c #55637F",
"`^ 	c #4A5670",
" / 	c #3B455A",
"./ 	c #202031",
"+/ 	c #161223",
"@/ 	c #32384D",
"#/ 	c #3A4566",
"$/ 	c #30324E",
"%/ 	c #3A2841",
"&/ 	c #5C2C4B",
"*/ 	c #5A2443",
"=/ 	c #220A09",
"-/ 	c #582521",
";/ 	c #934238",
">/ 	c #C45C44",
",/ 	c #E16C3E",
"'/ 	c #F1752E",
")/ 	c #F8781B",
"!/ 	c #FB7A12",
"~/ 	c #FD8110",
"{/ 	c #FE8A15",
"]/ 	c #FC9521",
"^/ 	c #FB9D2A",
"// 	c #F9A12F",
"(/ 	c #F89C2E",
"_/ 	c #F38D28",
":/ 	c #E77A22",
"</ 	c #CE651D",
"[/ 	c #A64F1A",
"}/ 	c #73351B",
"|/ 	c #461E28",
"1/ 	c #552340",
"2/ 	c #763159",
"3/ 	c #883A67",
"4/ 	c #331425",
"5/ 	c #1C0916",
"6/ 	c #03020B",
"7/ 	c #040410",
"8/ 	c #0D0F1E",
"9/ 	c #2C3046",
"0/ 	c #3C3E53",
"a/ 	c #52576B",
"b/ 	c #6A7489",
"c/ 	c #7E8CA3",
"d/ 	c #8B9BB4",
"e/ 	c #8D9EB8",
"f/ 	c #8896AF",
"g/ 	c #7C869E",
"h/ 	c #6E728A",
"i/ 	c #6B6A85",
"j/ 	c #706E8B",
"k/ 	c #757490",
"l/ 	c #777591",
"m/ 	c #6C6A86",
"n/ 	c #5F5E77",
"o/ 	c #4D4B61",
"p/ 	c #373647",
"q/ 	c #22222D",
"r/ 	c #090B19",
"s/ 	c #525F7C",
"t/ 	c #444E67",
"u/ 	c #31374B",
"v/ 	c #222334",
"w/ 	c #282B3D",
"x/ 	c #292C3D",
"y/ 	c #242334",
"z/ 	c #1D1B2B",
"A/ 	c #1E1E2E",
"B/ 	c #292C3E",
"C/ 	c #373F54",
"D/ 	c #46526A",
"E/ 	c #596986",
"F/ 	c #566480",
"G/ 	c #4B5871",
"H/ 	c #202232",
"I/ 	c #242638",
"J/ 	c #48546E",
"K/ 	c #51607E",
"L/ 	c #4B5877",
"M/ 	c #3A4464",
"N/ 	c #251D2E",
"O/ 	c #3C1C30",
"P/ 	c #552541",
"Q/ 	c #622A4B",
"R/ 	c #672A4D",
"S/ 	c #572240",
"T/ 	c #341025",
"U/ 	c #351412",
"V/ 	c #78352F",
"W/ 	c #B35441",
"X/ 	c #DC6941",
"Y/ 	c #EF7430",
"Z/ 	c #F6771E",
"`/ 	c #F87618",
" ( 	c #F97A19",
".( 	c #FB851B",
"+( 	c #FC9221",
"@( 	c #FB9D29",
"#( 	c #FBA52E",
"$( 	c #FAA931",
"%( 	c #F7A630",
"&( 	c #EB972C",
"*( 	c #D27B24",
"=( 	c #A8581C",
"-( 	c #763816",
";( 	c #431C12",
">( 	c #190815",
",( 	c #301426",
"'( 	c #49203A",
")( 	c #572745",
"!( 	c #512541",
"~( 	c #37192D",
"{( 	c #1C0B18",
"]( 	c #06020B",
"^( 	c #04040F",
"/( 	c #17192D",
"(( 	c #202339",
"_( 	c #2C3148",
":( 	c #3D4057",
"<( 	c #53586E",
"[( 	c #6A7289",
"}( 	c #7C89A1",
"|( 	c #8898B1",
"1( 	c #8D9DB7",
"2( 	c #8996B0",
"3( 	c #828AA3",
"4( 	c #797B96",
"5( 	c #74728F",
"6( 	c #767490",
"7( 	c #73718E",
"8( 	c #6D6B87",
"9( 	c #615F7A",
"0( 	c #514F65",
"a( 	c #3C3B4C",
"b( 	c #252530",
"c( 	c #0B0A11",
"d( 	c #04050E",
"e( 	c #0B0D1B",
"f( 	c #3E486A",
"g( 	c #46516B",
"h( 	c #222435",
"i( 	c #181628",
"j( 	c #242536",
"k( 	c #313549",
"l( 	c #3B4259",
"m( 	c #3D455C",
"n( 	c #35384C",
"o( 	c #282838",
"p( 	c #1E1C2B",
"q( 	c #1D1D2D",
"r( 	c #272A3B",
"s( 	c #353C51",
"t( 	c #445068",
"u( 	c #515F7B",
"v( 	c #4D5A74",
"w( 	c #3F495F",
"x( 	c #2A2F41",
"y( 	c #333A50",
"z( 	c #434E67",
"A( 	c #505D79",
"B( 	c #586784",
"C( 	c #52607E",
"D( 	c #495573",
"E( 	c #3C4562",
"F( 	c #2C324B",
"G( 	c #0E0E19",
"H( 	c #1B0B15",
"I( 	c #3A182D",
"J( 	c #5E2848",
"K( 	c #7D355E",
"L( 	c #78315A",
"M( 	c #210816",
"N( 	c #3B1617",
"O( 	c #7F3834",
"P( 	c #BC5941",
"Q( 	c #E36E3B",
"R( 	c #F47627",
"S( 	c #F87719",
"T( 	c #F8791C",
"U( 	c #F8811F",
"V( 	c #FA8E23",
"W( 	c #FB9B29",
"X( 	c #F8AB31",
"Y( 	c #EFA530",
"Z( 	c #D7922C",
"`( 	c #AF7123",
" _ 	c #784619",
"._ 	c #401F12",
"+_ 	c #13030F",
"@_ 	c #050411",
"#_ 	c #18101D",
"$_ 	c #26192B",
"%_ 	c #2E1F34",
"&_ 	c #22192A",
"*_ 	c #110E1B",
"=_ 	c #070713",
"-_ 	c #0C0D1B",
";_ 	c #16182B",
">_ 	c #2A2F47",
",_ 	c #393E54",
"'_ 	c #50576C",
")_ 	c #687288",
"!_ 	c #7B889F",
"~_ 	c #8695AE",
"{_ 	c #8B9AB4",
"]_ 	c #8996AF",
"^_ 	c #848DA7",
"/_ 	c #7E819C",
"(_ 	c #797994",
"__ 	c #75738F",
":_ 	c #757390",
"<_ 	c #6F6D89",
"[_ 	c #63627B",
"}_ 	c #525166",
"|_ 	c #3E3D4E",
"1_ 	c #282733",
"2_ 	c #0D0D14",
"3_ 	c #02030A",
"4_ 	c #161A2B",
"5_ 	c #343C5B",
"6_ 	c #363D53",
"7_ 	c #212232",
"8_ 	c #303448",
"9_ 	c #414961",
"0_ 	c #475169",
"a_ 	c #3A3F53",
"b_ 	c #2A2C3C",
"c_ 	c #1F1D2D",
"d_ 	c #25293A",
"e_ 	c #434D65",
"f_ 	c #4F5D78",
"g_ 	c #4E5B77",
"h_ 	c #3D475E",
"i_ 	c #4F5C77",
"j_ 	c #546380",
"k_ 	c #505F7B",
"l_ 	c #4B5876",
"m_ 	c #3D4662",
"n_ 	c #2A3147",
"o_ 	c #080913",
"p_ 	c #130710",
"q_ 	c #36162A",
"r_ 	c #5D2848",
"s_ 	c #461933",
"t_ 	c #1D0614",
"u_ 	c #30101C",
"v_ 	c #6F303C",
"w_ 	c #B0524D",
"x_ 	c #DB6947",
"y_ 	c #F0752E",
"z_ 	c #F7791D",
"A_ 	c #F8801F",
"B_ 	c #F98D24",
"C_ 	c #FA9A29",
"D_ 	c #FAA42D",
"E_ 	c #FBA931",
"F_ 	c #F9AB32",
"G_ 	c #F1A731",
"H_ 	c #DC982D",
"I_ 	c #B57D26",
"J_ 	c #7D541C",
"K_ 	c #432B14",
"L_ 	c #140A10",
"M_ 	c #020313",
"N_ 	c #0E0C1B",
"O_ 	c #221F32",
"P_ 	c #28243B",
"Q_ 	c #28253B",
"R_ 	c #222034",
"S_ 	c #191829",
"T_ 	c #171A2B",
"U_ 	c #1E2237",
"V_ 	c #31334B",
"W_ 	c #474A61",
"X_ 	c #636B82",
"Y_ 	c #79869D",
"Z_ 	c #8796AE",
"`_ 	c #8C9BB4",
" : 	c #7E829D",
".: 	c #797A95",
"+: 	c #767591",
"@: 	c #706E89",
"#: 	c #65647D",
"$: 	c #55536A",
"%: 	c #3F3D4F",
"&: 	c #24232F",
"*: 	c #0E0D14",
"=: 	c #03040B",
"-: 	c #080A17",
";: 	c #566481",
">: 	c #4B5670",
",: 	c #383F55",
"': 	c #1A1829",
"): 	c #3A4257",
"!: 	c #4D5873",
"~: 	c #55637E",
"{: 	c #49546C",
"]: 	c #3B4155",
"^: 	c #2C2D3E",
"/: 	c #211F2E",
"(: 	c #1B1827",
"_: 	c #1B1B2A",
":: 	c #32384C",
"<: 	c #525F7B",
"[: 	c #4F5C79",
"}: 	c #53627F",
"|: 	c #47546E",
"1: 	c #3D4960",
"2: 	c #404C64",
"3: 	c #4A5775",
"4: 	c #3C4664",
"5: 	c #2C344D",
"6: 	c #171423",
"7: 	c #642C4C",
"8: 	c #692D50",
"9: 	c #300F22",
"0: 	c #1D0716",
"a: 	c #532233",
"b: 	c #98454A",
"c: 	c #C95E4D",
"d: 	c #E6703F",
"e: 	c #F27C2E",
"f: 	c #F88B27",
"g: 	c #FA9929",
"h: 	c #FAA32D",
"i: 	c #FBA930",
"j: 	c #FAAB32",
"k: 	c #F2A831",
"l: 	c #E09B2E",
"m: 	c #BA8027",
"n: 	c #855B1D",
"o: 	c #493014",
"p: 	c #190D10",
"q: 	c #050312",
"r: 	c #161526",
"s: 	c #201E32",
"t: 	c #28243C",
"u: 	c #2D2942",
"v: 	c #2D2943",
"w: 	c #28263E",
"x: 	c #222237",
"y: 	c #262A42",
"z: 	c #303249",
"A: 	c #494D62",
"B: 	c #7F8DA5",
"C: 	c #8D9DB6",
"D: 	c #8A97B1",
"E: 	c #848EA8",
"F: 	c #7E839E",
"G: 	c #716F8B",
"H: 	c #67657F",
"I: 	c #57556D",
"J: 	c #414052",
"K: 	c #272632",
"L: 	c #0D0D15",
"M: 	c #010208",
"N: 	c #2A314B",
"O: 	c #495676",
"P: 	c #525F7E",
"Q: 	c #596785",
"R: 	c #525E7A",
"S: 	c #414A62",
"T: 	c #2C2F42",
"U: 	c #1B1929",
"V: 	c #171324",
"W: 	c #292D3F",
"X: 	c #505D77",
"Y: 	c #4B556F",
"Z: 	c #3D4358",
"`: 	c #2E3040",
" < 	c #211F2F",
".< 	c #2F3548",
"+< 	c #4D5A75",
"@< 	c #576482",
"#< 	c #5A6886",
"$< 	c #485570",
"%< 	c #353E53",
"&< 	c #252C3C",
"*< 	c #293244",
"=< 	c #3E4961",
"-< 	c #515E7C",
";< 	c #455271",
">< 	c #3C4666",
",< 	c #292E49",
"'< 	c #2E233C",
")< 	c #4B243F",
"!< 	c #5F2A49",
"~< 	c #632B4A",
"{< 	c #2A0E1E",
"]< 	c #38151E",
"^< 	c #803844",
"/< 	c #B55255",
"(< 	c #D96852",
"_< 	c #EB7B3F",
":< 	c #F59130",
"<< 	c #FAA02D",
"[< 	c #FAA830",
"}< 	c #F4A932",
"|< 	c #E29D2F",
"1< 	c #C08428",
"2< 	c #8C5F1F",
"3< 	c #503515",
"4< 	c #1E1211",
"5< 	c #0A0919",
"6< 	c #151424",
"7< 	c #1F1D31",
"8< 	c #26243B",
"9< 	c #2B2842",
"0< 	c #2E2A45",
"a< 	c #2B2943",
"b< 	c #272740",
"c< 	c #24273E",
"d< 	c #222638",
"e< 	c #383D4E",
"f< 	c #5A6477",
"g< 	c #75829A",
"h< 	c #8494AC",
"i< 	c #8997B0",
"j< 	c #858FAA",
"k< 	c #7F849F",
"l< 	c #7A7B96",
"m< 	c #777691",
"n< 	c #696782",
"o< 	c #59586F",
"p< 	c #434255",
"q< 	c #2A2A37",
"r< 	c #121119",
"s< 	c #030309",
"t< 	c #050611",
"u< 	c #1D2238",
"v< 	c #282F49",
"w< 	c #303957",
"x< 	c #414B6C",
"y< 	c #4A5474",
"z< 	c #535F7D",
"A< 	c #535F7C",
"B< 	c #31364A",
"C< 	c #201F30",
"D< 	c #181425",
"E< 	c #353E52",
"F< 	c #47536B",
"G< 	c #53627E",
"H< 	c #5A6A87",
"I< 	c #4C5871",
"J< 	c #2E3144",
"K< 	c #2D3345",
"L< 	c #4E5B75",
"M< 	c #3B455C",
"N< 	c #222836",
"O< 	c #0E111B",
"P< 	c #131826",
"Q< 	c #283143",
"R< 	c #38425A",
"S< 	c #434F6D",
"T< 	c #313755",
"U< 	c #3A2C48",
"V< 	c #552B49",
"W< 	c #622C4B",
"X< 	c #331224",
"Y< 	c #441830",
"Z< 	c #83385C",
"`< 	c #B14F69",
" [ 	c #D06261",
".[ 	c #E47348",
"+[ 	c #F28B34",
"@[ 	c #F99E2E",
"#[ 	c #F9A730",
"$[ 	c #F4A831",
"%[ 	c #E49E2F",
"&[ 	c #C5882A",
"*[ 	c #916320",
"=[ 	c #583A16",
"-[ 	c #211411",
";[ 	c #060411",
">[ 	c #141223",
",[ 	c #1F1C2F",
"'[ 	c #27233A",
")[ 	c #2A2741",
"![ 	c #2C2943",
"~[ 	c #2D2944",
"{[ 	c #2C2944",
"][ 	c #2A2843",
"^[ 	c #272943",
"/[ 	c #252A41",
"([ 	c #20242E",
"_[ 	c #3C4351",
":[ 	c #5C667A",
"<[ 	c #737E96",
"[[ 	c #7F89A3",
"}[ 	c #7B7C97",
"|[ 	c #777692",
"1[ 	c #75748F",
"2[ 	c #72708C",
"3[ 	c #6A6883",
"4[ 	c #5B5A72",
"5[ 	c #464558",
"6[ 	c #2D2C39",
"7[ 	c #15141C",
"8[ 	c #04040A",
"9[ 	c #050610",
"0[ 	c #101322",
"a[ 	c #272E47",
"b[ 	c #3D4465",
"c[ 	c #434868",
"d[ 	c #4B5270",
"e[ 	c #535E7C",
"f[ 	c #505C79",
"g[ 	c #424B63",
"h[ 	c #191526",
"i[ 	c #292F41",
"j[ 	c #384257",
"k[ 	c #47536C",
"l[ 	c #3A4259",
"m[ 	c #272A3E",
"n[ 	c #1A192B",
"o[ 	c #171325",
"p[ 	c #2E3447",
"q[ 	c #404A62",
"r[ 	c #48536C",
"s[ 	c #323B4D",
"t[ 	c #1B1F2B",
"u[ 	c #080911",
"v[ 	c #050712",
"w[ 	c #131927",
"x[ 	c #21283B",
"y[ 	c #2D354D",
"z[ 	c #353E5B",
"A[ 	c #323755",
"B[ 	c #382B46",
"C[ 	c #4D2742",
"D[ 	c #471C34",
"E[ 	c #2B0E1E",
"F[ 	c #3F152E",
"G[ 	c #742F55",
"H[ 	c #A74975",
"I[ 	c #C55973",
"J[ 	c #D8645B",
"K[ 	c #E76F41",
"L[ 	c #F2802E",
"M[ 	c #F7922A",
"N[ 	c #F39D2D",
"O[ 	c #E69C2E",
"P[ 	c #C88A29",
"Q[ 	c #996921",
"R[ 	c #5A3C16",
"S[ 	c #281811",
"T[ 	c #131121",
"U[ 	c #1D1B2E",
"V[ 	c #262339",
"W[ 	c #2B2740",
"X[ 	c #2B2742",
"Y[ 	c #302F49",
"Z[ 	c #34354D",
"`[ 	c #2C2F48",
" } 	c #252943",
".} 	c #33394F",
"+} 	c #343A4E",
"@} 	c #2A2E3E",
"#} 	c #181A25",
"$} 	c #090B10",
"%} 	c #1B1E27",
"&} 	c #414757",
"*} 	c #60667D",
"=} 	c #747893",
"-} 	c #787995",
";} 	c #6B6985",
">} 	c #5D5B74",
",} 	c #49475C",
"'} 	c #312F3E",
")} 	c #171720",
"!} 	c #0E1020",
"~} 	c #262C45",
"{} 	c #2F3654",
"]} 	c #394161",
"^} 	c #3D4060",
"/} 	c #3F405F",
"(} 	c #444463",
"_} 	c #4B506D",
":} 	c #525D7B",
"<} 	c #586583",
"[} 	c #5B6A87",
"}} 	c #5C6A89",
"|} 	c #222234",
"1} 	c #1E1E2F",
"2} 	c #292E3F",
"3} 	c #363F53",
"4} 	c #404A65",
"5} 	c #2A2F45",
"6} 	c #1B192C",
"7} 	c #151022",
"8} 	c #151021",
"9} 	c #2C3144",
"0} 	c #3E485F",
"a} 	c #3C465B",
"b} 	c #282E3F",
"c} 	c #181A27",
"d} 	c #0B0D19",
"e} 	c #0F1021",
"f} 	c #1B1D31",
"g} 	c #251D31",
"h} 	c #35192D",
"i} 	c #3D172C",
"j} 	c #54203E",
"k} 	c #903D65",
"l} 	c #C05579",
"m} 	c #D8636B",
"n} 	c #E56B48",
"o} 	c #F0712F",
"p} 	c #F57722",
"q} 	c #F28022",
"r} 	c #E78627",
"s} 	c #CC8327",
"t} 	c #9E6A22",
"u} 	c #634218",
"v} 	c #2B1A11",
"w} 	c #070410",
"x} 	c #111020",
"y} 	c #1C1A2D",
"z} 	c #252238",
"A} 	c #2A2740",
"B} 	c #33324C",
"C} 	c #41455C",
"D} 	c #4B5269",
"E} 	c #3C445B",
"F} 	c #2B3048",
"G} 	c #2B2E45",
"H} 	c #3D4257",
"I} 	c #4D5368",
"J} 	c #52596D",
"K} 	c #484C5C",
"L} 	c #343541",
"M} 	c #1C1C24",
"N} 	c #1C1C26",
"O} 	c #3B3B4D",
"P} 	c #595971",
"Q} 	c #6E6D89",
"R} 	c #605E77",
"S} 	c #4B4A5F",
"T} 	c #1A1A24",
"U} 	c #08070F",
"V} 	c #04040E",
"W} 	c #0C0F1D",
"X} 	c #2E3450",
"Y} 	c #373A58",
"Z} 	c #3D3D5B",
"`} 	c #3F3D5B",
" | 	c #403D5C",
".| 	c #444563",
"+| 	c #4B5371",
"@| 	c #54607E",
"#| 	c #4F5B76",
"$| 	c #566581",
"%| 	c #343A50",
"&| 	c #242537",
"*| 	c #434F66",
"=| 	c #4D5A77",
"-| 	c #3B455E",
";| 	c #272A3F",
">| 	c #150F20",
",| 	c #373E55",
"'| 	c #55647F",
")| 	c #4B5771",
"!| 	c #3C455B",
"~| 	c #2B3243",
"{| 	c #1B1E2D",
"]| 	c #0E0E1D",
"^| 	c #0B0718",
"/| 	c #110E20",
"(| 	c #1B1A2E",
"_| 	c #282D47",
":| 	c #1A1D32",
"<| 	c #0F0D1C",
"[| 	c #1C0A17",
"}| 	c #351527",
"|| 	c #4A1F37",
"1| 	c #4D2039",
"2| 	c #381529",
"3| 	c #200716",
"4| 	c #5B2241",
"5| 	c #974063",
"6| 	c #C5586E",
"7| 	c #DD665C",
"8| 	c #EC6E39",
"9| 	c #F57322",
"0| 	c #F4731A",
"a| 	c #E8711C",
"b| 	c #CF6C1F",
"c| 	c #A3601F",
"d| 	c #6B4418",
"e| 	c #2C1B12",
"f| 	c #0D0611",
"g| 	c #100F1F",
"h| 	c #1B192B",
"i| 	c #242137",
"j| 	c #29263F",
"k| 	c #2A2642",
"l| 	c #313049",
"m| 	c #494F65",
"n| 	c #616B81",
"o| 	c #6D7990",
"p| 	c #606B82",
"q| 	c #485066",
"r| 	c #35384F",
"s| 	c #3D4056",
"t| 	c #555A70",
"u| 	c #687188",
"v| 	c #717B91",
"w| 	c #686F83",
"x| 	c #545767",
"y| 	c #3B3B49",
"z| 	c #363544",
"A| 	c #4E4C62",
"B| 	c #63617C",
"C| 	c #767491",
"D| 	c #6D6C87",
"E| 	c #61607A",
"F| 	c #4F4E63",
"G| 	c #373646",
"H| 	c #1C1B26",
"I| 	c #07060E",
"J| 	c #03040D",
"K| 	c #24263E",
"L| 	c #30304B",
"M| 	c #3A3854",
"N| 	c #3E3C59",
"O| 	c #403F5D",
"P| 	c #434564",
"Q| 	c #485170",
"R| 	c #515D7C",
"S| 	c #5B6987",
"T| 	c #3E475E",
"U| 	c #424B64",
"V| 	c #47516C",
"W| 	c #25273A",
"X| 	c #1A1728",
"Y| 	c #333B4F",
"Z| 	c #414C63",
"`| 	c #4B5873",
" 1 	c #4A5873",
".1 	c #3F4A64",
"+1 	c #2D3248",
"@1 	c #140D1F",
"#1 	c #181424",
"$1 	c #353C52",
"%1 	c #586683",
"&1 	c #3E495F",
"*1 	c #2D3446",
"=1 	c #1E2030",
"-1 	c #131021",
";1 	c #0F081B",
">1 	c #110C1E",
",1 	c #171629",
"'1 	c #1A1B30",
")1 	c #17172B",
"!1 	c #0E0D1F",
"~1 	c #06040F",
"{1 	c #160712",
"]1 	c #311426",
"^1 	c #562441",
"/1 	c #612949",
"(1 	c #4C1E39",
"_1 	c #280C1C",
":1 	c #582140",
"<1 	c #923D64",
"[1 	c #BE5572",
"}1 	c #D76361",
"|1 	c #E86D3F",
"11 	c #F17226",
"21 	c #E96F1D",
"31 	c #D2641B",
"41 	c #AC521A",
"51 	c #733916",
"61 	c #391D12",
"71 	c #080410",
"81 	c #060514",
"91 	c #0F0D1D",
"01 	c #232036",
"a1 	c #29263E",
"b1 	c #2B2641",
"c1 	c #302E48",
"d1 	c #444960",
"e1 	c #626C83",
"f1 	c #79879F",
"g1 	c #8392AA",
"h1 	c #7B88A0",
"i1 	c #667087",
"j1 	c #52586E",
"k1 	c #565B72",
"l1 	c #6B738A",
"m1 	c #7D89A1",
"n1 	c #8593AC",
"o1 	c #7E8AA1",
"p1 	c #6C7488",
"q1 	c #56596C",
"r1 	c #504E64",
"s1 	c #6E6C88",
"t1 	c #63617B",
"u1 	c #525066",
"v1 	c #3A394A",
"w1 	c #21202B",
"x1 	c #08090F",
"y1 	c #020308",
"z1 	c #090A17",
"A1 	c #25233A",
"B1 	c #312E49",
"C1 	c #393854",
"D1 	c #404160",
"E1 	c #464C6B",
"F1 	c #4C5877",
"G1 	c #45506A",
"H1 	c #32374D",
"I1 	c #3D455D",
"J1 	c #48536E",
"K1 	c #394057",
"L1 	c #282A3D",
"M1 	c #242839",
"N1 	c #30374A",
"O1 	c #394159",
"P1 	c #2E344A",
"Q1 	c #1E1D30",
"R1 	c #161122",
"S1 	c #444D67",
"T1 	c #202233",
"U1 	c #0F091C",
"V1 	c #0F0A1C",
"W1 	c #0F0C1E",
"X1 	c #0D091B",
"Y1 	c #0A0718",
"Z1 	c #120916",
"`1 	c #291121",
" 2 	c #471E37",
".2 	c #723158",
"+2 	c #7F3661",
"@2 	c #66294D",
"#2 	c #773055",
"$2 	c #A3476B",
"%2 	c #C05867",
"&2 	c #D76552",
"*2 	c #E16B3B",
"=2 	c #D3652C",
"-2 	c #AE5320",
";2 	c #7E3B16",
">2 	c #451E11",
",2 	c #0D0510",
"'2 	c #0E0C1C",
")2 	c #232034",
"!2 	c #29263D",
"~2 	c #2E2C46",
"{2 	c #5D667D",
"]2 	c #76839B",
"^2 	c #8696AF",
"/2 	c #8B9CB5",
"(2 	c #8797AF",
"_2 	c #7A88A0",
":2 	c #6C778E",
"<2 	c #6D758D",
"[2 	c #7B879F",
"}2 	c #8897B0",
"|2 	c #8795AE",
"12 	c #757F95",
"22 	c #5E6377",
"32 	c #55546C",
"42 	c #62607A",
"52 	c #706E8A",
"62 	c #767390",
"72 	c #65637D",
"82 	c #545269",
"92 	c #3C3B4D",
"02 	c #23222E",
"a2 	c #03030A",
"b2 	c #090715",
"c2 	c #25243A",
"d2 	c #33344E",
"e2 	c #3F4561",
"f2 	c #4A5572",
"g2 	c #4B5773",
"h2 	c #383F56",
"i2 	c #222335",
"j2 	c #191527",
"k2 	c #2D3245",
"l2 	c #49546E",
"m2 	c #54617D",
"n2 	c #5C6C8B",
"o2 	c #5A6A89",
"p2 	c #4B5671",
"q2 	c #1C1A2C",
"r2 	c #212434",
"s2 	c #282C3E",
"t2 	c #26293D",
"u2 	c #1E1E31",
"v2 	c #150F22",
"w2 	c #151122",
"x2 	c #424C64",
"y2 	c #323A4D",
"z2 	c #222536",
"A2 	c #0D0A1C",
"B2 	c #0B0719",
"C2 	c #0A0719",
"D2 	c #0C0A1B",
"E2 	c #1E1121",
"F2 	c #3D1B32",
"G2 	c #893A68",
"H2 	c #67294D",
"I2 	c #190510",
"J2 	c #773154",
"K2 	c #9C4561",
"L2 	c #BB565E",
"M2 	c #C65D51",
"N2 	c #B45441",
"O2 	c #853E2E",
"P2 	c #4B221C",
"Q2 	c #1D0A10",
"R2 	c #171627",
"S2 	c #211F33",
"T2 	c #28253D",
"U2 	c #2B2741",
"V2 	c #2A2541",
"W2 	c #2E2B46",
"X2 	c #3F4259",
"Y2 	c #5A637A",
"Z2 	c #738098",
"`2 	c #8391AA",
" 3 	c #8A9AB3",
".3 	c #808EA7",
"+3 	c #77819A",
"@3 	c #777F99",
"#3 	c #828DA6",
"$3 	c #8A99B2",
"%3 	c #8290A8",
"&3 	c #6C778C",
"*3 	c #505669",
"=3 	c #46465A",
"-3 	c #54536A",
";3 	c #66657E",
">3 	c #413F51",
",3 	c #252431",
"'3 	c #0D0C13",
")3 	c #0C0B17",
"!3 	c #1B1C2D",
"~3 	c #2D3148",
"{3 	c #3E4762",
"]3 	c #4C5976",
"^3 	c #363E54",
"/3 	c #2C3043",
"(3 	c #3A4258",
"_3 	c #52617D",
":3 	c #4C5873",
"<3 	c #3D465D",
"[3 	c #2B2E42",
"}3 	c #1D1B2C",
"|3 	c #1E1F30",
"13 	c #404961",
"23 	c #444F67",
"33 	c #343C4F",
"43 	c #242739",
"53 	c #0C0B1B",
"63 	c #1E1224",
"73 	c #411E37",
"83 	c #682D50",
"93 	c #833864",
"03 	c #7B345E",
"a3 	c #1F0715",
"b3 	c #43192F",
"c3 	c #6B2D48",
"d3 	c #924159",
"e3 	c #A44A5E",
"f3 	c #974456",
"g3 	c #6B3044",
"h3 	c #3C1A2F",
"i3 	c #200E1D",
"j3 	c #130E1B",
"k3 	c #171626",
"l3 	c #1F1E32",
"m3 	c #27243B",
"n3 	c #3E4057",
"o3 	c #596178",
"p3 	c #717E96",
"q3 	c #8190A9",
"r3 	c #8999B2",
"s3 	c #8492AB",
"t3 	c #7E89A2",
"u3 	c #787E99",
"v3 	c #787B97",
"w3 	c #7F85A0",
"x3 	c #8590AA",
"y3 	c #818FA7",
"z3 	c #6F7B91",
"A3 	c #50596A",
"B3 	c #323644",
"C3 	c #2D2D3B",
"D3 	c #3E3D4D",
"E3 	c #535167",
"F3 	c #64637C",
"G3 	c #716F8C",
"H3 	c #686681",
"I3 	c #5A5870",
"J3 	c #444256",
"K3 	c #2A2937",
"L3 	c #13131B",
"M3 	c #1B1F30",
"N3 	c #2C334A",
"O3 	c #3D4763",
"P3 	c #546280",
"Q3 	c #31374D",
"R3 	c #202033",
"S3 	c #171224",
"T3 	c #161224",
"U3 	c #1E1D2E",
"V3 	c #2A2D40",
"W3 	c #2E3246",
"X3 	c #2D3246",
"Y3 	c #363E53",
"Z3 	c #262A3B",
"`3 	c #171828",
" 4 	c #0E0C1D",
".4 	c #0B091B",
"+4 	c #170F21",
"@4 	c #351A31",
"#4 	c #592747",
"$4 	c #733158",
"%4 	c #702F56",
"&4 	c #4F203C",
"*4 	c #2D0F20",
"=4 	c #3B1629",
"-4 	c #622944",
";4 	c #81375A",
">4 	c #8A3C63",
",4 	c #7B365D",
"'4 	c #5C2848",
")4 	c #3B1A31",
"!4 	c #231828",
"~4 	c #201E31",
"{4 	c #2A2841",
"]4 	c #2C2843",
"^4 	c #393A53",
"/4 	c #555C72",
"(4 	c #717D94",
"_4 	c #8291AA",
":4 	c #899AB3",
"<4 	c #8897B1",
"[4 	c #8491AB",
"}4 	c #7F8AA4",
"|4 	c #7A809B",
"14 	c #777793",
"24 	c #7A7A96",
"34 	c #7C819B",
"44 	c #717990",
"54 	c #585F72",
"64 	c #343846",
"74 	c #14151E",
"84 	c #14131C",
"94 	c #252430",
"04 	c #3B394A",
"a4 	c #504F64",
"b4 	c #63617A",
"c4 	c #6B6983",
"d4 	c #5C5A72",
"e4 	c #464459",
"f4 	c #2D2D3C",
"g4 	c #1F2232",
"h4 	c #303854",
"i4 	c #3C4565",
"j4 	c #465271",
"k4 	c #505E7B",
"l4 	c #444E68",
"m4 	c #32394F",
"n4 	c #212235",
"o4 	c #1D1C2D",
"p4 	c #282B3E",
"q4 	c #303449",
"r4 	c #202132",
"s4 	c #3C455C",
"t4 	c #4A5771",
"u4 	c #47516B",
"v4 	c #53617D",
"w4 	c #394156",
"x4 	c #191A2A",
"y4 	c #100A1C",
"z4 	c #221025",
"A4 	c #592647",
"B4 	c #692C50",
"C4 	c #12030A",
"D4 	c #602746",
"E4 	c #813660",
"F4 	c #8D3C6B",
"G4 	c #78345D",
"H4 	c #542543",
"I4 	c #331F34",
"J4 	c #29233A",
"K4 	c #2C2841",
"L4 	c #2D2A44",
"M4 	c #2D2A45",
"N4 	c #2F2D48",
"O4 	c #444760",
"P4 	c #636C84",
"Q4 	c #7E8CA5",
"R4 	c #8A9BB4",
"S4 	c #8C9DB6",
"T4 	c #8492AC",
"U4 	c #7F8AA5",
"V4 	c #7A819C",
"W4 	c #777894",
"X4 	c #76738F",
"Y4 	c #757590",
"Z4 	c #6A6A84",
"`4 	c #525267",
" 5 	c #323240",
".5 	c #050408",
"+5 	c #0E0E15",
"@5 	c #383747",
"#5 	c #4E4D61",
"$5 	c #615F77",
"%5 	c #6E6C87",
"&5 	c #6C6A85",
"*5 	c #5B5972",
"=5 	c #444358",
"-5 	c #313449",
";5 	c #2E3550",
">5 	c #45516C",
",5 	c #353C53",
"'5 	c #242539",
")5 	c #181325",
"!5 	c #26293C",
"~5 	c #343B51",
"{5 	c #434C65",
"]5 	c #434E66",
"^5 	c #32374C",
"/5 	c #1F2032",
"(5 	c #292D40",
"_5 	c #353D52",
":5 	c #272B3B",
"<5 	c #242838",
"[5 	c #32394E",
"}5 	c #49526B",
"|5 	c #586580",
"15 	c #5C6A88",
"25 	c #3B4459",
"35 	c #292F40",
"45 	c #1B1C2C",
"55 	c #100E1E",
"65 	c #11091C",
"75 	c #200E23",
"85 	c #3C1933",
"95 	c #713057",
"05 	c #723057",
"a5 	c #592443",
"b5 	c #341225",
"c5 	c #351225",
"d5 	c #622748",
"e5 	c #7E355F",
"f5 	c #78335C",
"g5 	c #5A2847",
"h5 	c #352036",
"i5 	c #2A253B",
"j5 	c #2C2842",
"k5 	c #312F4A",
"l5 	c #444560",
"m5 	c #606881",
"n5 	c #7A88A1",
"o5 	c #8595AE",
"p5 	c #808CA6",
"q5 	c #7B819D",
"r5 	c #777995",
"s5 	c #615F78",
"t5 	c #2C2C39",
"u5 	c #05050A",
"v5 	c #1F1F29",
"w5 	c #353443",
"x5 	c #4C4A5E",
"y5 	c #5F5D75",
"z5 	c #6C6B85",
"A5 	c #616079",
"B5 	c #35384E",
"C5 	c #303753",
"D5 	c #3B4568",
"E5 	c #455071",
"F5 	c #4C5A78",
"G5 	c #373F56",
"H5 	c #1A1628",
"I5 	c #161022",
"J5 	c #1A182A",
"K5 	c #2F354A",
"L5 	c #252A3A",
"M5 	c #12141D",
"N5 	c #12121C",
"O5 	c #2D303D",
"P5 	c #52596A",
"Q5 	c #697288",
"R5 	c #69758F",
"S5 	c #616F8C",
"T5 	c #54627E",
"U5 	c #2C3244",
"V5 	c #1C1E2E",
"W5 	c #110F20",
"X5 	c #10091C",
"Y5 	c #200E22",
"Z5 	c #3C1932",
"`5 	c #703055",
" 6 	c #40182F",
".6 	c #6A2E51",
"+6 	c #532441",
"@6 	c #2C1B2E",
"#6 	c #26253C",
"$6 	c #302C48",
"%6 	c #4E516B",
"&6 	c #666E87",
"*6 	c #79869E",
"=6 	c #808FA7",
"-6 	c #7F8CA5",
";6 	c #7B839D",
">6 	c #777A96",
",6 	c #4C4B5F",
"'6 	c #32313F",
")6 	c #15151D",
"!6 	c #040407",
"~6 	c #0A0A11",
"{6 	c #1D1C26",
"]6 	c #484659",
"^6 	c #5C5B73",
"/6 	c #59576D",
"(6 	c #2C2E40",
"_6 	c #2F3955",
":6 	c #495570",
"<6 	c #3A4159",
"[6 	c #1B1729",
"}6 	c #161123",
"|6 	c #49556F",
"16 	c #212534",
"26 	c #0C0D16",
"36 	c #24272C",
"46 	c #4E535D",
"56 	c #78808E",
"66 	c #8D96A8",
"76 	c #8892A7",
"86 	c #76819A",
"96 	c #63708D",
"06 	c #556480",
"a6 	c #2E3446",
"b6 	c #1E2131",
"c6 	c #111121",
"d6 	c #0D091A",
"e6 	c #1C0C1F",
"f6 	c #37172F",
"g6 	c #572545",
"h6 	c #723157",
"i6 	c #1D0813",
"j6 	c #5A2744",
"k6 	c #1A0E1D",
"l6 	c #151526",
"m6 	c #1C1E32",
"n6 	c #26243D",
"o6 	c #2E2B47",
"p6 	c #373650",
"q6 	c #4B4E66",
"r6 	c #656D84",
"s6 	c #747E97",
"t6 	c #79829B",
"u6 	c #777A95",
"v6 	c #757591",
"w6 	c #4E4D62",
"x6 	c #1A1A23",
"y6 	c #06060C",
"z6 	c #1B1B25",
"A6 	c #31303E",
"B6 	c #6A6882",
"C6 	c #72708D",
"D6 	c #5D5B73",
"E6 	c #464557",
"F6 	c #2D2D3A",
"G6 	c #1A1C28",
"H6 	c #191F31",
"I6 	c #242C44",
"J6 	c #2E3754",
"K6 	c #3D476A",
"L6 	c #515F7D",
"M6 	c #556280",
"N6 	c #3C455D",
"O6 	c #2A2E42",
"P6 	c #1B182A",
"Q6 	c #160F21",
"R6 	c #222336",
"S6 	c #3D465E",
"T6 	c #53607C",
"U6 	c #444F69",
"V6 	c #30374C",
"W6 	c #232633",
"X6 	c #4A4F58",
"Y6 	c #79818D",
"Z6 	c #9DA7B7",
"`6 	c #ACB6C7",
" 7 	c #A5B0C2",
".7 	c #929CB1",
"+7 	c #78849C",
"@7 	c #64728E",
"#7 	c #303749",
"$7 	c #101120",
"%7 	c #0B0818",
"&7 	c #16081B",
"*7 	c #36152E",
"=7 	c #582545",
"-7 	c #5A2544",
";7 	c #3D172D",
">7 	c #200916",
",7 	c #341325",
"'7 	c #481E34",
")7 	c #4F213A",
"!7 	c #280E1E",
"~7 	c #07040F",
"{7 	c #18182C",
"]7 	c #24223A",
"^7 	c #322F49",
"/7 	c #42445A",
"(7 	c #5B6076",
"_7 	c #6E778F",
":7 	c #787F99",
"<7 	c #75728F",
"[7 	c #65637E",
"}7 	c #525167",
"|7 	c #373746",
"17 	c #1B1B24",
"27 	c #07070C",
"37 	c #090911",
"47 	c #2F2E3C",
"57 	c #58566D",
"67 	c #777491",
"77 	c #515066",
"87 	c #363545",
"97 	c #0B0E1D",
"07 	c #1A1F33",
"a7 	c #252C44",
"b7 	c #414E6E",
"c7 	c #495675",
"d7 	c #4C5975",
"e7 	c #3E4760",
"f7 	c #2D3146",
"g7 	c #3B445B",
"h7 	c #414759",
"i7 	c #686F7D",
"j7 	c #959FAE",
"k7 	c #B3BECF",
"l7 	c #BDC8D9",
"m7 	c #B8C3D4",
"n7 	c #A9B4C6",
"o7 	c #959FB3",
"p7 	c #7C889F",
"q7 	c #66748F",
"r7 	c #434D64",
"s7 	c #323A4C",
"t7 	c #202434",
"u7 	c #101220",
"v7 	c #0A0716",
"w7 	c #17081A",
"x7 	c #30132A",
"y7 	c #4B1F3C",
"z7 	c #5F294A",
"A7 	c #481D36",
"B7 	c #250B1A",
"C7 	c #080205",
"D7 	c #16050E",
"E7 	c #451C32",
"F7 	c #491E35",
"G7 	c #230C1A",
"H7 	c #0A030E",
"I7 	c #030310",
"J7 	c #0D0C1E",
"K7 	c #1C1930",
"L7 	c #26233D",
"M7 	c #2D2945",
"N7 	c #3C3C54",
"O7 	c #51546B",
"P7 	c #686F86",
"Q7 	c #7A849C",
"R7 	c #818BA5",
"S7 	c #7E839F",
"T7 	c #797996",
"U7 	c #676680",
"V7 	c #545268",
"W7 	c #373645",
"X7 	c #1C1C27",
"Y7 	c #05050F",
"Z7 	c #1B1A23",
"`7 	c #56546A",
" 8 	c #73718D",
".8 	c #393849",
"+8 	c #1E1E29",
"@8 	c #0F0E18",
"#8 	c #232A41",
"$8 	c #2C3551",
"%8 	c #414D6D",
"&8 	c #3F4963",
"*8 	c #2E3348",
"=8 	c #2B2E43",
"-8 	c #5D6C8B",
";8 	c #51596E",
">8 	c #747B8B",
",8 	c #9CA5B6",
"'8 	c #B7C1D2",
")8 	c #C1CCDD",
"!8 	c #C0CBDC",
"~8 	c #B8C2D3",
"{8 	c #ABB4C6",
"]8 	c #97A1B5",
"^8 	c #7F8AA1",
"/8 	c #697691",
"(8 	c #576682",
"_8 	c #515E79",
":8 	c #222737",
"<8 	c #121422",
"[8 	c #100516",
"}8 	c #290F25",
"|8 	c #4E1F3A",
"18 	c #2C0E20",
"28 	c #301122",
"38 	c #441B32",
"48 	c #0C040F",
"58 	c #0C0A1C",
"68 	c #18152B",
"78 	c #231F39",
"88 	c #36364F",
"98 	c #4A4E65",
"08 	c #646B82",
"a8 	c #7A869E",
"b8 	c #8694AE",
"c8 	c #8997B1",
"d8 	c #838EA8",
"e8 	c #797E98",
"f8 	c #73738E",
"g8 	c #73728D",
"h8 	c #444255",
"i8 	c #252532",
"j8 	c #080815",
"k8 	c #1A1923",
"l8 	c #2A2936",
"m8 	c #3E3C4E",
"n8 	c #74738F",
"o8 	c #706F8A",
"p8 	c #62617A",
"q8 	c #4E4C61",
"r8 	c #393848",
"s8 	c #292836",
"t8 	c #191F33",
"u8 	c #222940",
"v8 	c #424C66",
"w8 	c #31364D",
"x8 	c #140F21",
"y8 	c #2F3348",
"z8 	c #40475A",
"A8 	c #5F6473",
"B8 	c #888F9F",
"C8 	c #A8B1C2",
"D8 	c #B9C3D5",
"E8 	c #C0CADC",
"F8 	c #BEC9DA",
"G8 	c #ADB7C8",
"H8 	c #9AA4B8",
"I8 	c #818CA3",
"J8 	c #6A7792",
"K8 	c #5D6C88",
"L8 	c #212636",
"M8 	c #0F0515",
"N8 	c #250D22",
"O8 	c #461D38",
"P8 	c #682C50",
"Q8 	c #2B0E20",
"R8 	c #2D1020",
"S8 	c #4F223A",
"T8 	c #3F1A2E",
"U8 	c #260E1D",
"V8 	c #0B040D",
"W8 	c #03020E",
"X8 	c #0A081A",
"Y8 	c #18152A",
"Z8 	c #231E38",
"`8 	c #292541",
" 9 	c #2C2B44",
".9 	c #373A50",
"+9 	c #50586D",
"@9 	c #6D798F",
"#9 	c #8C9CB5",
"$9 	c #808DA6",
"%9 	c #6E778E",
"&9 	c #65677F",
"*9 	c #6A6982",
"=9 	c #777592",
"-9 	c #3F3E50",
";9 	c #22212E",
">9 	c #090816",
",9 	c #07070E",
"'9 	c #16151E",
")9 	c #262531",
"!9 	c #3A3A4A",
"~9 	c #6F6E89",
"{9 	c #403E51",
"]9 	c #181D30",
"^9 	c #21283E",
"/9 	c #2A334D",
"(9 	c #323B5A",
"_9 	c #505D7B",
":9 	c #444E69",
"<9 	c #212234",
"[9 	c #161324",
"}9 	c #1D1E2F",
"|9 	c #30364C",
"19 	c #4B5872",
"29 	c #374054",
"39 	c #262B39",
"49 	c #3D4049",
"59 	c #656A76",
"69 	c #8B92A2",
"79 	c #A9B2C4",
"89 	c #BAC4D5",
"99 	c #BFCADB",
"09 	c #AEB8CA",
"a9 	c #9DA7BA",
"b9 	c #8690A7",
"c9 	c #6D7A94",
"d9 	c #5D6C89",
"e9 	c #424D66",
"f9 	c #2E3549",
"g9 	c #1A1D2D",
"h9 	c #431B36",
"i9 	c #652B4E",
"j9 	c #2E1022",
"k9 	c #5F2948",
"l9 	c #5B2745",
"m9 	c #130612",
"n9 	c #02030C",
"o9 	c #090818",
"p9 	c #161328",
"q9 	c #221E36",
"r9 	c #292540",
"s9 	c #2C2A44",
"t9 	c #27263D",
"u9 	c #313548",
"v9 	c #4B5466",
"w9 	c #677487",
"x9 	c #727E93",
"y9 	c #565D6F",
"z9 	c #484A5C",
"A9 	c #545368",
"B9 	c #716F8A",
"C9 	c #626179",
"D9 	c #302F3E",
"E9 	c #161621",
"F9 	c #080713",
"G9 	c #0E0E1A",
"H9 	c #101116",
"I9 	c #06070B",
"J9 	c #0E0E16",
"K9 	c #605F78",
"L9 	c #56546B",
"M9 	c #464458",
"N9 	c #14192A",
"O9 	c #1D2338",
"P9 	c #28304A",
"Q9 	c #313A59",
"R9 	c #455172",
"S9 	c #4D5B79",
"T9 	c #272C3F",
"U9 	c #2B3145",
"V9 	c #424D64",
"W9 	c #272D3C",
"X9 	c #11141B",
"Y9 	c #17191D",
"Z9 	c #3E414A",
"`9 	c #6B717F",
" 0 	c #959EAF",
".0 	c #AFBACB",
"+0 	c #BBC6D7",
"@0 	c #BAC4D6",
"#0 	c #B0BACC",
"$0 	c #9FA9BC",
"%0 	c #8893A8",
"&0 	c #707D96",
"*0 	c #5F6E8A",
"=0 	c #475370",
"-0 	c #333B53",
";0 	c #1F2437",
">0 	c #210B1F",
",0 	c #3E1933",
"'0 	c #672C50",
")0 	c #0A0105",
"!0 	c #77315A",
"~0 	c #220D1E",
"{0 	c #110B19",
"]0 	c #161426",
"^0 	c #211D35",
"/0 	c #29243F",
"(0 	c #26263E",
"_0 	c #1E1F35",
":0 	c #232635",
"<0 	c #383F4C",
"[0 	c #535D6D",
"}0 	c #77859B",
"|0 	c #717D92",
"10 	c #586173",
"20 	c #373B48",
"30 	c #252633",
"40 	c #363646",
"50 	c #4F4E64",
"60 	c #343343",
"70 	c #0A0913",
"80 	c #12131C",
"90 	c #2F323B",
"00 	c #3F424C",
"a0 	c #3A3D46",
"b0 	c #25272D",
"c0 	c #0D0D13",
"d0 	c #201F29",
"e0 	c #353444",
"f0 	c #4B4A5E",
"g0 	c #6D6B85",
"h0 	c #72708B",
"i0 	c #47455A",
"j0 	c #333243",
"k0 	c #0F1323",
"l0 	c #1A2034",
"m0 	c #262E47",
"n0 	c #48546F",
"o0 	c #3F4862",
"p0 	c #171B25",
"q0 	c #181A21",
"r0 	c #343841",
"s0 	c #5B616F",
"t0 	c #838EA0",
"u0 	c #A1ADC0",
"v0 	c #B2BED0",
"w0 	c #BAC6D7",
"x0 	c #BBC5D7",
"y0 	c #B2BCCE",
"z0 	c #A3ADBF",
"A0 	c #8C96AC",
"B0 	c #717D96",
"C0 	c #5D6A86",
"D0 	c #4E5B79",
"E0 	c #303850",
"F0 	c #21263B",
"G0 	c #101222",
"H0 	c #0C0D1A",
"I0 	c #0B0411",
"J0 	c #1D091B",
"K0 	c #37152C",
"L0 	c #532341",
"M0 	c #481C36",
"N0 	c #813461",
"O0 	c #8A3969",
"P0 	c #702E56",
"Q0 	c #451D38",
"R0 	c #27192D",
"S0 	c #231E35",
"T0 	c #29253F",
"U0 	c #2F2B46",
"V0 	c #33304A",
"W0 	c #35334C",
"X0 	c #2B2C42",
"Y0 	c #1E2032",
"Z0 	c #11131E",
"`0 	c #1C2027",
" a 	c #363B47",
".a 	c #60687D",
"+a 	c #565D70",
"@a 	c #3D4150",
"#a 	c #0A0A14",
"$a 	c #181A26",
"%a 	c #333445",
"&a 	c #4D4D62",
"*a 	c #626079",
"=a 	c #6F6D88",
"-a 	c #767590",
";a 	c #72718D",
">a 	c #65647E",
",a 	c #504F65",
"'a 	c #0B0A13",
")a 	c #13131C",
"!a 	c #32343E",
"~a 	c #5C616E",
"{a 	c #747B88",
"]a 	c #717884",
"^a 	c #525761",
"/a 	c #27292E",
"(a 	c #07070B",
"_a 	c #0B0B12",
":a 	c #1D1D27",
"<a 	c #49475B",
"[a 	c #696781",
"}a 	c #58576E",
"|a 	c #403F52",
"1a 	c #232231",
"2a 	c #040515",
"3a 	c #191F32",
"4a 	c #252D46",
"5a 	c #2F3855",
"6a 	c #323743",
"7a 	c #4A515E",
"8a 	c #677184",
"9a 	c #818FA4",
"0a 	c #96A4BA",
"aa 	c #A6B3C7",
"ba 	c #B1BED0",
"ca 	c #B9C5D7",
"da 	c #BDC9DA",
"ea 	c #BCC7D8",
"fa 	c #B5BFD1",
"ga 	c #A4AEC0",
"ha 	c #8792A7",
"ia 	c #67728A",
"ja 	c #4A546F",
"ka 	c #373F59",
"la 	c #2A3049",
"ma 	c #212639",
"na 	c #1F2333",
"oa 	c #08050F",
"pa 	c #1D0A19",
"qa 	c #411B33",
"ra 	c #6C2E51",
"sa 	c #50203B",
"ta 	c #732E57",
"ua 	c #8D3A6B",
"va 	c #833764",
"wa 	c #36213A",
"xa 	c #2A243D",
"ya 	c #2B2843",
"za 	c #414159",
"Aa 	c #494B62",
"Ba 	c #44495C",
"Ca 	c #363B4A",
"Da 	c #1C1F28",
"Ea 	c #0C0D13",
"Fa 	c #21232C",
"Ga 	c #414353",
"Ha 	c #525469",
"Ia 	c #4C4D61",
"Ja 	c #373747",
"Ka 	c #1E1D29",
"La 	c #0A0A13",
"Ma 	c #040711",
"Na 	c #191C29",
"Oa 	c #363749",
"Pa 	c #4C4C62",
"Qa 	c #6E6D88",
"Ra 	c #71708C",
"Sa 	c #686781",
"Ta 	c #545369",
"Ua 	c #21202C",
"Va 	c #0B0914",
"Wa 	c #31333D",
"Xa 	c #5C626D",
"Ya 	c #88909F",
"Za 	c #A0A9B9",
"`a 	c #9DA6B6",
" b 	c #838B98",
".b 	c #5A616A",
"+b 	c #2F3338",
"@b 	c #0A0C0F",
"#b 	c #06050B",
"$b 	c #1B1A24",
"%b 	c #302F3D",
"&b 	c #454457",
"*b 	c #5A586F",
"=b 	c #787692",
"-b 	c #47455B",
";b 	c #272737",
">b 	c #0D0D1B",
",b 	c #040414",
"'b 	c #252D45",
")b 	c #414A60",
"!b 	c #464D5F",
"~b 	c #5E687A",
"{b 	c #79869C",
"]b 	c #8898B0",
"^b 	c #90A1B9",
"/b 	c #98A8BE",
"(b 	c #A4B2C7",
"_b 	c #B0BDD0",
":b 	c #B9C5D6",
"<b 	c #BECADB",
"[b 	c #BCC8D9",
"}b 	c #919AAD",
"|b 	c #6A7286",
"1b 	c #434A62",
"2b 	c #262C44",
"3b 	c #2E344E",
"4b 	c #343C55",
"5b 	c #343C51",
"6b 	c #2B3144",
"7b 	c #1D212F",
"8b 	c #11111C",
"9b 	c #1E0D1B",
"0b 	c #401B32",
"ab 	c #612A49",
"bb 	c #6F2F51",
"cb 	c #52213B",
"db 	c #15040C",
"eb 	c #2D0D20",
"fb 	c #79335C",
"gb 	c #331F36",
"hb 	c #252239",
"ib 	c #2A2941",
"jb 	c #33314A",
"kb 	c #43435A",
"lb 	c #575B71",
"mb 	c #626C80",
"nb 	c #525B6B",
"ob 	c #383E4A",
"pb 	c #242731",
"qb 	c #343342",
"rb 	c #5F5D76",
"sb 	c #5D5C74",
"tb 	c #0F0F19",
"ub 	c #080A15",
"vb 	c #313344",
"wb 	c #49495E",
"xb 	c #615F79",
"yb 	c #535269",
"zb 	c #3D3C4E",
"Ab 	c #100F18",
"Bb 	c #0E0D16",
"Cb 	c #292A35",
"Db 	c #565B67",
"Eb 	c #858D9C",
"Fb 	c #A8B3C2",
"Gb 	c #BAC5D6",
"Hb 	c #B8C4D5",
"Ib 	c #A7B2C1",
"Jb 	c #87909C",
"Kb 	c #5E646D",
"Lb 	c #34383E",
"Mb 	c #131418",
"Nb 	c #07070D",
"Ob 	c #181720",
"Pb 	c #434254",
"Qb 	c #58576D",
"Rb 	c #787693",
"Sb 	c #605E78",
"Tb 	c #46445A",
"Ub 	c #272637",
"Vb 	c #0C0C19",
"Wb 	c #1B2135",
"Xb 	c #51607B",
"Yb 	c #4D556A",
"Zb 	c #657084",
"`b 	c #7D8BA2",
" c 	c #8A9AB2",
".c 	c #8E9EB7",
"+c 	c #8FA0B8",
"@c 	c #97A6BD",
"#c 	c #A3B1C5",
"$c 	c #AFBCCF",
"%c 	c #B8C3D5",
"&c 	c #A7B0C2",
"*c 	c #878EA0",
"=c 	c #5C6275",
"-c 	c #2F3651",
";c 	c #3A4360",
">c 	c #44506D",
",c 	c #414C64",
"'c 	c #292637",
")c 	c #371E32",
"!c 	c #542541",
"~c 	c #692D4F",
"{c 	c #6B2D4D",
"]c 	c #4D1E35",
"^c 	c #13040A",
"/c 	c #431731",
"(c 	c #682C4F",
"_c 	c #3E1A30",
":c 	c #211526",
"<c 	c #1B1C2E",
"[c 	c #2A2A3F",
"}c 	c #3D3E54",
"|c 	c #55596F",
"1c 	c #6C758C",
"2c 	c #7B89A0",
"3c 	c #6D798D",
"4c 	c #566070",
"5c 	c #464A59",
"6c 	c #23222F",
"7c 	c #313142",
"8c 	c #3E3D52",
"9c 	c #3C3B4E",
"0c 	c #100F17",
"ac 	c #24252F",
"bc 	c #525662",
"cc 	c #7E8694",
"dc 	c #A5B0C0",
"ec 	c #C3CEDF",
"fc 	c #C2CEDF",
"gc 	c #BBC6D6",
"hc 	c #A9B3C3",
"ic 	c #8D95A3",
"jc 	c #646B75",
"kc 	c #383B42",
"lc 	c #111216",
"mc 	c #2A2935",
"nc 	c #403F51",
"oc 	c #55546A",
"pc 	c #524F67",
"qc 	c #353446",
"rc 	c #191824",
"sc 	c #060610",
"tc 	c #050410",
"uc 	c #0A0918",
"vc 	c #1A2033",
"wc 	c #232A42",
"xc 	c #546180",
"yc 	c #404A60",
"zc 	c #404858",
"Ac 	c #555D6E",
"Bc 	c #6F7B8E",
"Cc 	c #8190A6",
"Dc 	c #95A4BB",
"Ec 	c #A1AFC4",
"Fc 	c #ADBACD",
"Gc 	c #B1BCCE",
"Hc 	c #A8B1C3",
"Ic 	c #9097A9",
"Jc 	c #6B7082",
"Kc 	c #424659",
"Lc 	c #262942",
"Mc 	c #282C45",
"Nc 	c #343A53",
"Oc 	c #404863",
"Pc 	c #485371",
"Qc 	c #505E7A",
"Rc 	c #454F67",
"Sc 	c #3F3A51",
"Tc 	c #4E2D48",
"Uc 	c #622C4E",
"Vc 	c #632A4B",
"Wc 	c #4D1E37",
"Xc 	c #2E0F1E",
"Yc 	c #461934",
"Zc 	c #722D56",
"`c 	c #722F55",
" d 	c #200B18",
".d 	c #0A080F",
"+d 	c #191A24",
"@d 	c #333444",
"#d 	c #4F5166",
"$d 	c #697087",
"%d 	c #7C88A0",
"&d 	c #8897AF",
"*d 	c #8998B1",
"=d 	c #7F8EA5",
"-d 	c #616779",
";d 	c #65657C",
">d 	c #64627B",
",d 	c #514F64",
"'d 	c #39384A",
")d 	c #262532",
"!d 	c #151620",
"~d 	c #1F1E2E",
"{d 	c #201F2D",
"]d 	c #14131E",
"^d 	c #0C0C15",
"/d 	c #272831",
"(d 	c #4C505C",
"_d 	c #7C8391",
":d 	c #A1ABBA",
"<d 	c #C1CDDE",
"[d 	c #ACB7C6",
"}d 	c #919AA8",
"|d 	c #6A717C",
"1d 	c #3F434A",
"2d 	c #18191E",
"3d 	c #08080D",
"4d 	c #272733",
"5d 	c #3D3C4D",
"6d 	c #535166",
"7d 	c #65637B",
"8d 	c #73718C",
"9d 	c #3B394B",
"0d 	c #201F2A",
"ad 	c #08080E",
"bd 	c #1F1E2A",
"cd 	c #2A2939",
"dd 	c #292737",
"ed 	c #201F2E",
"fd 	c #22293F",
"gd 	c #576685",
"hd 	c #414B63",
"id 	c #292F3A",
"jd 	c #3A3F4A",
"kd 	c #555D6C",
"ld 	c #6D798C",
"md 	c #7F8DA4",
"nd 	c #8C9BB5",
"od 	c #8E9DB7",
"pd 	c #93A2BA",
"qd 	c #98A6BC",
"rd 	c #98A3B6",
"sd 	c #8A92A4",
"td 	c #6C7183",
"ud 	c #47495D",
"vd 	c #292B43",
"wd 	c #252841",
"xd 	c #3D4156",
"yd 	c #54596F",
"zd 	c #5F6780",
"Ad 	c #5E6A85",
"Bd 	c #4E5974",
"Cd 	c #4B455F",
"Dd 	c #56334F",
"Ed 	c #602A4B",
"Fd 	c #52223E",
"Gd 	c #341125",
"Hd 	c #55213F",
"Id 	c #180912",
"Jd 	c #100E13",
"Kd 	c #272A32",
"Ld 	c #454A58",
"Md 	c #626A7E",
"Nd 	c #79859D",
"Od 	c #8594AB",
"Pd 	c #7A869A",
"Qd 	c #707689",
"Rd 	c #6F7187",
"Sd 	c #73728B",
"Td 	c #272635",
"Ud 	c #171622",
"Vd 	c #080817",
"Wd 	c #060512",
"Xd 	c #444852",
"Yd 	c #757C89",
"Zd 	c #9EA7B7",
"`d 	c #C2CDDE",
" e 	c #B0BACA",
".e 	c #949DAB",
"+e 	c #686F7A",
"@e 	c #11131A",
"#e 	c #111119",
"$e 	c #25242F",
"%e 	c #504F63",
"&e 	c #55536B",
"*e 	c #3D3B4E",
"=e 	c #09080E",
"-e 	c #49475D",
";e 	c #47465A",
">e 	c #191E30",
",e 	c #4E5C7A",
"'e 	c #4C5A79",
")e 	c #1D222F",
"!e 	c #101219",
"~e 	c #1F2127",
"{e 	c #373C46",
"]e 	c #525968",
"^e 	c #6A7588",
"/e 	c #8592AA",
"(e 	c #798498",
"_e 	c #656C7E",
":e 	c #464A5C",
"<e 	c #292B42",
"[e 	c #606578",
"}e 	c #7B8195",
"|e 	c #878DA3",
"1e 	c #7F89A0",
"2e 	c #6D7A95",
"3e 	c #5E6D89",
"4e 	c #54637F",
"5e 	c #413D54",
"6e 	c #492A41",
"7e 	c #51233D",
"8e 	c #391529",
"9e 	c #321827",
"0e 	c #2B252F",
"ae 	c #3F444F",
"be 	c #5D6677",
"ce 	c #778398",
"de 	c #8694AD",
"ee 	c #8B9BB3",
"fe 	c #828FA5",
"ge 	c #798396",
"he 	c #72788A",
"ie 	c #717488",
"je 	c #727389",
"ke 	c #74748C",
"le 	c #75738E",
"me 	c #2B2938",
"ne 	c #171723",
"oe 	c #01000F",
"pe 	c #0C0B18",
"qe 	c #343440",
"re 	c #606471",
"se 	c #929BA9",
"te 	c #B2BDCD",
"ue 	c #C4CFE0",
"ve 	c #C3CFE0",
"we 	c #80899A",
"xe 	c #4C5364",
"ye 	c #252A37",
"ze 	c #090C14",
"Ae 	c #030407",
"Be 	c #0F0F16",
"Ce 	c #57566E",
"De 	c #3F3E51",
"Ee 	c #08080F",
"Fe 	c #1E1D27",
"Ge 	c #3A384A",
"He 	c #56556B",
"Ie 	c #454357",
"Je 	c #161C2E",
"Ke 	c #3F4B6B",
"Le 	c #495674",
"Me 	c #44506F",
"Ne 	c #3E4869",
"Oe 	c #3C4767",
"Pe 	c #404B69",
"Qe 	c #414C6A",
"Re 	c #3F4A69",
"Se 	c #3D4768",
"Te 	c #3B4467",
"Ue 	c #4C5879",
"Ve 	c #323B4E",
"We 	c #1A1E2A",
"Xe 	c #080810",
"Ye 	c #0A0B10",
"Ze 	c #1D1F24",
"`e 	c #353943",
" f 	c #4F5664",
".f 	c #687386",
"+f 	c #727E96",
"@f 	c #5B647A",
"#f 	c #41465A",
"$f 	c #2A2D44",
"%f 	c #21253E",
"&f 	c #3B4055",
"*f 	c #606678",
"=f 	c #848B9D",
"-f 	c #9DA5B8",
";f 	c #A7B1C3",
">f 	c #A0AABD",
",f 	c #8995AA",
"'f 	c #6C7891",
")f 	c #505D76",
"!f 	c #394258",
"~f 	c #292939",
"{f 	c #2E1726",
"]f 	c #421B30",
"^f 	c #572440",
"/f 	c #5E2646",
"(f 	c #2E0E20",
"_f 	c #2D0F1F",
":f 	c #421A30",
"<f 	c #4B263C",
"[f 	c #4D3D4D",
"}f 	c #5B5F70",
"|f 	c #748095",
"1f 	c #8C9CB4",
"2f 	c #818EA4",
"3f 	c #7A8498",
"4f 	c #747B8D",
"5f 	c #717687",
"6f 	c #707486",
"7f 	c #707487",
"8f 	c #717489",
"9f 	c #73738B",
"0f 	c #59576E",
"af 	c #434154",
"bf 	c #2C2B3A",
"cf 	c #181723",
"df 	c #01010D",
"ef 	c #0E0D1A",
"ff 	c #373844",
"gf 	c #636775",
"hf 	c #949DAC",
"if 	c #B4BFCF",
"jf 	c #BBC6D8",
"kf 	c #A6B1C3",
"lf 	c #818CA1",
"mf 	c #566078",
"nf 	c #384155",
"of 	c #202635",
"pf 	c #0F111A",
"qf 	c #0C0C14",
"rf 	c #353544",
"sf 	c #6C6A84",
"tf 	c #5A5871",
"uf 	c #424155",
"vf 	c #272734",
"wf 	c #363445",
"xf 	c #4F4D64",
"yf 	c #64627C",
"zf 	c #58566C",
"Af 	c #1E2439",
"Bf 	c #364062",
"Cf 	c #3B4562",
"Df 	c #38425D",
"Ef 	c #2E364E",
"Ff 	c #303954",
"Gf 	c #525F7F",
"Hf 	c #51607C",
"If 	c #2E3649",
"Jf 	c #171A28",
"Kf 	c #0A0C11",
"Lf 	c #333740",
"Mf 	c #4B525F",
"Nf 	c #636E80",
"Of 	c #737F95",
"Pf 	c #5C677E",
"Qf 	c #42495F",
"Rf 	c #2A2E46",
"Sf 	c #22263F",
"Tf 	c #585D71",
"Uf 	c #808799",
"Vf 	c #9FA8B9",
"Wf 	c #B3BDCF",
"Xf 	c #B3BED0",
"Yf 	c #9AA5B7",
"Zf 	c #757F93",
"`f 	c #495266",
" g 	c #10121A",
".g 	c #160911",
"+g 	c #602848",
"@g 	c #743058",
"#g 	c #6D2B51",
"$g 	c #2E0F1F",
"%g 	c #491F36",
"&g 	c #5C2E48",
"*g 	c #654C62",
"=g 	c #6F7085",
"-g 	c #8A99B3",
";g 	c #8490A8",
">g 	c #7C849B",
",g 	c #757B8F",
"'g 	c #717688",
")g 	c #72738B",
"!g 	c #74738E",
"~g 	c #5B5970",
"{g 	c #2E2D3D",
"]g 	c #1A1926",
"^g 	c #0B0B16",
"/g 	c #070613",
"(g 	c #4D505C",
"_g 	c #7C8290",
":g 	c #A1AAB9",
"<g 	c #B6C1D2",
"[g 	c #BFCBDC",
"}g 	c #BAC5D7",
"|g 	c #ABB6C9",
"1g 	c #8F9BB1",
"2g 	c #6F7D96",
"3g 	c #394358",
"4g 	c #252B3A",
"5g 	c #0C0C13",
"6g 	c #6B6984",
"7g 	c #040409",
"8g 	c #191822",
"9g 	c #323040",
"0g 	c #4C4A5F",
"ag 	c #272F48",
"bg 	c #313B58",
"cg 	c #293149",
"dg 	c #23293D",
"eg 	c #333A59",
"fg 	c #1A1E2F",
"gg 	c #2A3144",
"hg 	c #141624",
"ig 	c #30343D",
"jg 	c #454B59",
"kg 	c #53596C",
"lg 	c #535B70",
"mg 	c #40485D",
"ng 	c #2B3047",
"og 	c #484E63",
"pg 	c #6E768A",
"qg 	c #939CAF",
"rg 	c #AEB9CA",
"sg 	c #B5C0D1",
"tg 	c #99A3B3",
"ug 	c #707786",
"vg 	c #3C414D",
"wg 	c #171A22",
"xg 	c #050307",
"yg 	c #1D0A16",
"zg 	c #3A182C",
"Ag 	c #6A2C50",
"Bg 	c #62264A",
"Cg 	c #361127",
"Dg 	c #290E1C",
"Eg 	c #491F35",
"Fg 	c #5A2D47",
"Gg 	c #61475E",
"Hg 	c #68697E",
"Ig 	c #7B889E",
"Jg 	c #8998B0",
"Kg 	c #8C9AB3",
"Lg 	c #8793AD",
"Mg 	c #8087A1",
"Ng 	c #797D95",
"Og 	c #74778C",
"Pg 	c #717487",
"Qg 	c #717388",
"Rg 	c #47475A",
"Sg 	c #30303F",
"Tg 	c #1D1C29",
"Ug 	c #0C0C16",
"Vg 	c #0F0F18",
"Wg 	c #2A2B35",
"Xg 	c #515560",
"Yg 	c #7A818E",
"Zg 	c #9CA5B5",
"`g 	c #BECADA",
" h 	c #ABB7C9",
".h 	c #919EB2",
"+h 	c #72809A",
"@h 	c #5F6E8B",
"#h 	c #282F40",
"$h 	c #12161F",
"%h 	c #09090F",
"&h 	c #464457",
"*h 	c #5E5C75",
"=h 	c #48465C",
"-h 	c #2E2D3C",
";h 	c #12131B",
">h 	c #2F2E3D",
",h 	c #5D5C75",
"'h 	c #2E3552",
")h 	c #181C2D",
"!h 	c #24293F",
"~h 	c #2E344D",
"{h 	c #252A3F",
"]h 	c #161827",
"^h 	c #0A0B16",
"/h 	c #272F49",
"(h 	c #323A4F",
"_h 	c #181B2B",
":h 	c #191A20",
"<h 	c #282933",
"[h 	c #303341",
"}h 	c #323647",
"|h 	c #272B3F",
"1h 	c #1F243B",
"2h 	c #2A3046",
"3h 	c #3F475C",
"4h 	c #5C677B",
"5h 	c #7B879B",
"6h 	c #97A4B8",
"7h 	c #AFBBCD",
"8h 	c #A7B1C1",
"9h 	c #838B99",
"0h 	c #565B66",
"ah 	c #25282E",
"bh 	c #0C0B11",
"ch 	c #331527",
"dh 	c #471E36",
"eh 	c #481F37",
"fh 	c #040002",
"gh 	c #3A172A",
"hh 	c #4C243A",
"ih 	c #473444",
"jh 	c #4F5160",
"kh 	c #677284",
"lh 	c #7C889E",
"mh 	c #838FA7",
"nh 	c #8189A2",
"oh 	c #7C7E99",
"ph 	c #777791",
"qh 	c #717389",
"rh 	c #090813",
"sh 	c #494C58",
"th 	c #737A87",
"uh 	c #98A1B0",
"vh 	c #B0BCCB",
"wh 	c #AEBACD",
"xh 	c #939FB4",
"yh 	c #74829B",
"zh 	c #5E6D8A",
"Ah 	c #3E4960",
"Bh 	c #2A3142",
"Ch 	c #151924",
"Dh 	c #444354",
"Eh 	c #696883",
"Fh 	c #5F5D78",
"Gh 	c #4B495E",
"Hh 	c #312F3F",
"Ih 	c #16161F",
"Jh 	c #050509",
"Kh 	c #13121A",
"Lh 	c #3E3D4F",
"Mh 	c #14151F",
"Nh 	c #292A3B",
"Oh 	c #373A4E",
"Ph 	c #393C50",
"Qh 	c #2E3041",
"Rh 	c #1B1B27",
"Sh 	c #04030E",
"Th 	c #1B2036",
"Uh 	c #262D47",
"Vh 	c #444D65",
"Wh 	c #2B3043",
"Xh 	c #131522",
"Yh 	c #03010F",
"Zh 	c #050210",
"`h 	c #0E0D17",
" i 	c #13121F",
".i 	c #151525",
"+i 	c #383E52",
"@i 	c #565F73",
"#i 	c #6F7C91",
"$i 	c #8392A8",
"%i 	c #94A3BA",
"&i 	c #A3B1C6",
"*i 	c #A4ADBE",
"=i 	c #8A92A0",
"-i 	c #606570",
";i 	c #32353C",
">i 	c #0E0E13",
",i 	c #150711",
"'i 	c #4C213A",
")i 	c #3B182C",
"!i 	c #220B18",
"~i 	c #0B0206",
"{i 	c #311222",
"]i 	c #431B31",
"^i 	c #241922",
"/i 	c #30323C",
"(i 	c #4B515F",
"_i 	c #676E83",
":i 	c #767C95",
"<i 	c #7A7C97",
"[i 	c #787793",
"}i 	c #73728C",
"|i 	c #72738A",
"1i 	c #73738C",
"2i 	c #201F2C",
"3i 	c #0D0D16",
"4i 	c #080711",
"5i 	c #21212B",
"6i 	c #444753",
"7i 	c #6E7481",
"8i 	c #AFBACA",
"9i 	c #B2BDCF",
"0i 	c #99A5BA",
"ai 	c #78859E",
"bi 	c #606E8B",
"ci 	c #596685",
"di 	c #404B63",
"ei 	c #2D3547",
"fi 	c #1A1E28",
"gi 	c #2B2A36",
"hi 	c #434253",
"ii 	c #373546",
"ji 	c #605E76",
"ki 	c #4F4D62",
"li 	c #121323",
"mi 	c #080A16",
"ni 	c #24242F",
"oi 	c #4D4C61",
"pi 	c #505065",
"qi 	c #444357",
"ri 	c #0C0B16",
"si 	c #030410",
"ti 	c #0D1022",
"ui 	c #1B1F35",
"vi 	c #252C45",
"wi 	c #343B4E",
"xi 	c #1D1F2D",
"yi 	c #0A0310",
"zi 	c #130616",
"Ai 	c #18081A",
"Bi 	c #140717",
"Ci 	c #262838",
"Di 	c #444B5C",
"Ei 	c #646F83",
"Fi 	c #7C8AA1",
"Gi 	c #90A0B9",
"Hi 	c #92A1B9",
"Ii 	c #919CB1",
"Ji 	c #83899B",
"Ki 	c #616673",
"Li 	c #373A41",
"Mi 	c #0E0E12",
"Ni 	c #140711",
"Oi 	c #2C1121",
"Pi 	c #441D33",
"Qi 	c #411B30",
"Ri 	c #100409",
"Si 	c #441C31",
"Ti 	c #230C19",
"Ui 	c #0A060A",
"Vi 	c #202029",
"Wi 	c #3F404F",
"Xi 	c #5E5F76",
"Yi 	c #70708B",
"Zi 	c #72748A",
"`i 	c #74728D",
" j 	c #23232F",
".j 	c #101019",
"+j 	c #06050F",
"@j 	c #40434E",
"#j 	c #6B717D",
"$j 	c #8D97A5",
"%j 	c #A0AABB",
"&j 	c #96A2B6",
"*j 	c #63728E",
"=j 	c #4A546C",
"-j 	c #3E4658",
";j 	c #282E39",
">j 	c #0D1015",
",j 	c #060609",
"'j 	c #1B1B23",
")j 	c #373845",
"!j 	c #4D4F60",
"~j 	c #56596B",
"{j 	c #4A4C5B",
"]j 	c #30313C",
"^j 	c #14151A",
"/j 	c #0E0D13",
"(j 	c #262633",
"_j 	c #413F53",
":j 	c #686682",
"<j 	c #616078",
"[j 	c #424153",
"}j 	c #060611",
"|j 	c #525165",
"1j 	c #63627A",
"2j 	c #67667F",
"3j 	c #5D5C73",
"4j 	c #48475B",
"5j 	c #333241",
"6j 	c #0C0E1F",
"7j 	c #171C30",
"8j 	c #414C6B",
"9j 	c #3E4863",
"0j 	c #333A4F",
"aj 	c #222534",
"bj 	c #200B1B",
"cj 	c #34152A",
"dj 	c #3F1932",
"ej 	c #38162D",
"fj 	c #200A1C",
"gj 	c #02030F",
"hj 	c #232431",
"ij 	c #414655",
"jj 	c #616B7D",
"kj 	c #717B90",
"lj 	c #565D6C",
"mj 	c #33373F",
"nj 	c #16161C",
"oj 	c #0E030B",
"pj 	c #421C31",
"qj 	c #290E1E",
"rj 	c #0F0409",
"sj 	c #341425",
"tj 	c #301324",
"uj 	c #1B121C",
"vj 	c #4A495E",
"wj 	c #73738D",
"xj 	c #74728C",
"yj 	c #66647D",
"zj 	c #535268",
"Aj 	c #3C3C4C",
"Bj 	c #0B0B13",
"Cj 	c #3A3C47",
"Dj 	c #5E6471",
"Ej 	c #757E8E",
"Fj 	c #707B91",
"Gj 	c #606E89",
"Hj 	c #66738D",
"Ij 	c #636E84",
"Jj 	c #4F5868",
"Kj 	c #313842",
"Lj 	c #1B1E24",
"Mj 	c #26282F",
"Nj 	c #434956",
"Oj 	c #5C6475",
"Pj 	c #697184",
"Qj 	c #5F6576",
"Rj 	c #474B57",
"Sj 	c #2E3038",
"Tj 	c #292934",
"Uj 	c #66647F",
"Vj 	c #424053",
"Wj 	c #2C2C3B",
"Xj 	c #12121E",
"Yj 	c #020111",
"Zj 	c #262734",
"`j 	c #454558",
" k 	c #605F77",
".k 	c #5F5E76",
"+k 	c #171B30",
"@k 	c #212840",
"#k 	c #2B334B",
"$k 	c #1F2536",
"%k 	c #11121D",
"&k 	c #0E0610",
"*k 	c #200C1B",
"=k 	c #3F1A30",
"-k 	c #5A2644",
";k 	c #652B4D",
">k 	c #200B1D",
",k 	c #070310",
"'k 	c #060511",
")k 	c #191922",
"!k 	c #323440",
"~k 	c #4F5665",
"{k 	c #7D8CA3",
"]k 	c #525B6C",
"^k 	c #2F353F",
"/k 	c #111318",
"(k 	c #0F050C",
"_k 	c #270F1D",
":k 	c #0E0309",
"<k 	c #2B0F1E",
"[k 	c #5C2646",
"}k 	c #50233E",
"|k 	c #3F2A3D",
"1k 	c #454155",
"2k 	c #282835",
"3k 	c #0A0912",
"4k 	c #181822",
"5k 	c #30333F",
"6k 	c #434A59",
"7k 	c #495368",
"8k 	c #606E8C",
"9k 	c #6F7D99",
"0k 	c #7B8BA4",
"ak 	c #7D8CA4",
"bk 	c #707C92",
"ck 	c #566071",
"dk 	c #3D434F",
"ek 	c #3F434F",
"fk 	c #5C6576",
"gk 	c #747F94",
"hk 	c #7E8AA0",
"ik 	c #767F94",
"jk 	c #62697A",
"kk 	c #4F5461",
"lk 	c #4D4E5E",
"mk 	c #555369",
"nk 	c #242331",
"ok 	c #11101D",
"pk 	c #0C0C1C",
"qk 	c #2A2A3A",
"rk 	c #383748",
"sk 	c #252531",
"tk 	c #15151F",
"uk 	c #151A2E",
"vk 	c #333D5C",
"wk 	c #1D2336",
"xk 	c #0E0812",
"yk 	c #3D192F",
"zk 	c #5F2947",
"Ak 	c #793459",
"Bk 	c #7A345B",
"Ck 	c #592645",
"Dk 	c #3F1A32",
"Ek 	c #230D1F",
"Fk 	c #0D0410",
"Gk 	c #1B1D23",
"Hk 	c #353842",
"Ik 	c #505564",
"Jk 	c #646C7E",
"Kk 	c #676F83",
"Lk 	c #565C6E",
"Mk 	c #353946",
"Nk 	c #101419",
"Ok 	c #0B050B",
"Pk 	c #3E1A2E",
"Qk 	c #4A2038",
"Rk 	c #4E203B",
"Sk 	c #673051",
"Tk 	c #573953",
"Uk 	c #554F66",
"Vk 	c #686580",
"Wk 	c #696881",
"Xk 	c #2B2B38",
"Yk 	c #171721",
"Zk 	c #080812",
"`k 	c #1E2434",
" l 	c #2E374A",
".l 	c #3C485F",
"+l 	c #4B5874",
"@l 	c #6B7A95",
"#l 	c #7B8AA4",
"$l 	c #8A9BB3",
"%l 	c #8392AB",
"&l 	c #727F94",
"*l 	c #5D677A",
"=l 	c #5A6275",
"-l 	c #8593AB",
";l 	c #8693AB",
">l 	c #7C869B",
",l 	c #747B8C",
"'l 	c #727689",
")l 	c #73728E",
"!l 	c #67657E",
"~l 	c #15141F",
"{l 	c #090815",
"]l 	c #252534",
"^l 	c #3C3C4E",
"/l 	c #72718C",
"(l 	c #171621",
"_l 	c #14192C",
":l 	c #20263D",
"<l 	c #29314B",
"[l 	c #2A324D",
"}l 	c #1B2236",
"|l 	c #210C1B",
"1l 	c #78345A",
"2l 	c #81385F",
"3l 	c #702F52",
"4l 	c #602948",
"5l 	c #61294A",
"6l 	c #592644",
"7l 	c #431C35",
"8l 	c #260E1F",
"9l 	c #0C050D",
"0l 	c #0A090E",
"al 	c #1C1C22",
"bl 	c #3D3541",
"cl 	c #584A5C",
"dl 	c #5B4B5F",
"el 	c #49394B",
"fl 	c #2B1D2A",
"gl 	c #13060F",
"hl 	c #210C19",
"il 	c #331325",
"jl 	c #5C2545",
"kl 	c #713156",
"ll 	c #672F51",
"ml 	c #53344D",
"nl 	c #4F485E",
"ol 	c #5B5971",
"pl 	c #1C1B27",
"ql 	c #171F2E",
"rl 	c #2B3548",
"sl 	c #3C475F",
"tl 	c #5D6D89",
"ul 	c #687792",
"vl 	c #7987A1",
"wl 	c #717C95",
"xl 	c #6B778F",
"yl 	c #7B89A1",
"zl 	c #8E9EB6",
"Al 	c #909FB7",
"Bl 	c #95A2B7",
"Cl 	c #97A1B3",
"Dl 	c #949BAE",
"El 	c #8C90A6",
"Fl 	c #81829C",
"Gl 	c #57566C",
"Hl 	c #414153",
"Il 	c #181722",
"Jl 	c #121629",
"Kl 	c #1B2035",
"Ll 	c #1C2236",
"Ml 	c #171E30",
"Nl 	c #1E0B19",
"Ol 	c #582544",
"Pl 	c #77345B",
"Ql 	c #803860",
"Rl 	c #6F2F52",
"Sl 	c #4E1F38",
"Tl 	c #3E182D",
"Ul 	c #2E1225",
"Vl 	c #150814",
"Wl 	c #22111E",
"Xl 	c #49263B",
"Yl 	c #673753",
"Zl 	c #633450",
"`l 	c #51273F",
" m 	c #3F1A2F",
".m 	c #351427",
"+m 	c #491F37",
"@m 	c #100209",
"#m 	c #4D1C38",
"$m 	c #7B345D",
"%m 	c #592745",
"&m 	c #3D2237",
"*m 	c #3A3345",
"=m 	c #626078",
"-m 	c #48475A",
";m 	c #323140",
">m 	c #10111B",
",m 	c #293245",
"'m 	c #39445B",
")m 	c #5D6D8A",
"!m 	c #687793",
"~m 	c #76859F",
"{m 	c #7C8AA4",
"]m 	c #6F7C97",
"^m 	c #687691",
"/m 	c #74829E",
"(m 	c #8292AB",
"_m 	c #9CAAC0",
":m 	c #AAB7CA",
"<m 	c #B1BCCD",
"[m 	c #A2AABD",
"}m 	c #9397AD",
"|m 	c #82849D",
"1m 	c #777792",
"2m 	c #515065",
"3m 	c #403F50",
"4m 	c #1A1A25",
"5m 	c #0B0A15",
"6m 	c #0A0C1C",
"7m 	c #0B0E1E",
"8m 	c #080C1B",
"9m 	c #0A0815",
"0m 	c #180817",
"am 	c #301327",
"bm 	c #51223F",
"cm 	c #733258",
"dm 	c #7F3860",
"em 	c #723155",
"fm 	c #11030B",
"gm 	c #4F1F3B",
"hm 	c #62294B",
"im 	c #50213F",
"jm 	c #3D1931",
"km 	c #723355",
"lm 	c #612947",
"mm 	c #4E1F39",
"nm 	c #53223D",
"om 	c #61284A",
"pm 	c #5D2847",
"qm 	c #381328",
"rm 	c #4A1A36",
"sm 	c #712E54",
"tm 	c #441B34",
"um 	c #191520",
"vm 	c #2F2E3B",
"wm 	c #4A495B",
"xm 	c #605E75",
"ym 	c #74718E",
"zm 	c #20202C",
"Am 	c #10101B",
"Bm 	c #273042",
"Cm 	c #384258",
"Dm 	c #657490",
"Em 	c #7685A0",
"Fm 	c #8493AC",
"Gm 	c #8998B2",
"Hm 	c #7E8CA6",
"Im 	c #72809B",
"Jm 	c #606F8C",
"Km 	c #667592",
"Lm 	c #74829D",
"Mm 	c #8895AC",
"Nm 	c #A1ADC1",
"Om 	c #B5C0D2",
"Pm 	c #A4ACC0",
"Qm 	c #9499AF",
"Rm 	c #83869E",
"Sm 	c #787893",
"Tm 	c #3C3C4D",
"Um 	c #686680",
"Vm 	c #2E2E3C",
"Wm 	c #0E0D15",
"Xm 	c #020311",
"Ym 	c #020212",
"Zm 	c #240D20",
"`m 	c #471D38",
" n 	c #7A355D",
".n 	c #6F2F53",
"+n 	c #51203B",
"@n 	c #6B2D53",
"#n 	c #652B4B",
"$n 	c #4A1E35",
"%n 	c #78325B",
"&n 	c #210A17",
"*n 	c #1C0813",
"=n 	c #351226",
"-n 	c #6F2D53",
";n 	c #562240",
">n 	c #311123",
",n 	c #2E0F21",
"'n 	c #51203C",
")n 	c #51213C",
"!n 	c #331427",
"~n 	c #08040A",
"{n 	c #14131B",
"]n 	c #2D2D39",
"^n 	c #474658",
"/n 	c #5D5B71",
"(n 	c #22222F",
"_n 	c #242D3E",
":n 	c #515D75",
"<n 	c #6D7A93",
"[n 	c #818FA9",
"}n 	c #8695AF",
"|n 	c #7F8DA7",
"1n 	c #73819C",
"2n 	c #667591",
"3n 	c #5D6C8A",
"4n 	c #5F6C86",
"5n 	c #768094",
"6n 	c #97A0B1",
"7n 	c #B0BACB",
"8n 	c #C0CCDD",
"9n 	c #BCC7D9",
"0n 	c #A6AEC2",
"an 	c #969BB1",
"bn 	c #8688A0",
"cn 	c #7A7994",
"dn 	c #3B3A4B",
"en 	c #5A596F",
"fn 	c #100416",
"gn 	c #522340",
"hn 	c #552240",
"in 	c #2D0F21",
"jn 	c #4B1E38",
"kn 	c #6B2C52",
"ln 	c #833765",
"mn 	c #6E2E54",
"nn 	c #451B33",
"on 	c #732E56",
"pn 	c #3F192F",
"qn 	c #200A17",
"rn 	c #79335B",
"sn 	c #843864",
"tn 	c #743257",
"un 	c #57233F",
"vn 	c #341324",
"wn 	c #16050D",
"xn 	c #1B0812",
"yn 	c #391629",
"zn 	c #3C192E",
"An 	c #190813",
"Bn 	c #070307",
"Cn 	c #121319",
"Dn 	c #2F2F3B",
"En 	c #484759",
"Fn 	c #5B5A70",
"Gn 	c #6A6881",
"Hn 	c #504E63",
"In 	c #151420",
"Jn 	c #293042",
"Kn 	c #475063",
"Ln 	c #657086",
"Mn 	c #7C8AA2",
"Nn 	c #808EA8",
"On 	c #74839E",
"Pn 	c #677693",
"Qn 	c #5E6E8B",
"Rn 	c #505E79",
"Sn 	c #465068",
"Tn 	c #4F5566",
"Un 	c #727987",
"Vn 	c #97A1AF",
"Wn 	c #B1BCCC",
"Xn 	c #A9B1C4",
"Yn 	c #999EB3",
"Zn 	c #878AA1",
"`n 	c #7A7A94",
" o 	c #4A495D",
".o 	c #6B6A84",
"+o 	c #48485B",
"@o 	c #323141",
"#o 	c #0F0414",
"$o 	c #290F24",
"%o 	c #672C4F",
"&o 	c #270C1B",
"*o 	c #572241",
"=o 	c #79315C",
"-o 	c #5C2445",
";o 	c #250B1B",
">o 	c #431831",
",o 	c #371227",
"'o 	c #1C0613",
")o 	c #260C1B",
"!o 	c #441B31",
"~o 	c #331324",
"{o 	c #371528",
"]o 	c #703054",
"^o 	c #743356",
"/o 	c #773356",
"(o 	c #612845",
"_o 	c #3D172A",
":o 	c #15050C",
"<o 	c #270D1B",
"[o 	c #2F1223",
"}o 	c #150713",
"|o 	c #06040D",
"1o 	c #17171F",
"2o 	c #454354",
"3o 	c #696780",
"4o 	c #282734",
"5o 	c #343947",
"6o 	c #4F5767",
"7o 	c #687488",
"8o 	c #808FA9",
"9o 	c #76849F",
"0o 	c #697794",
"ao 	c #5F6E8C",
"bo 	c #5A6B89",
"co 	c #53607B",
"do 	c #2F3549",
"eo 	c #272936",
"fo 	c #464B54",
"go 	c #717883",
"ho 	c #959FAD",
"io 	c #9BA2B6",
"jo 	c #898DA4",
"ko 	c #7B7C95",
"lo 	c #6E6C86",
"mo 	c #5F5E75",
"no 	c #23222D",
"oo 	c #121219",
"po 	c #08060E",
"qo 	c #140715",
"ro 	c #311428",
"so 	c #4D213C",
"to 	c #5E2948",
"uo 	c #5C2745",
"vo 	c #0D0208",
"wo 	c #2F0E22",
"xo 	c #552540",
"yo 	c #4D2038",
"zo 	c #431C31",
"Ao 	c #4A2039",
"Bo 	c #622A48",
"Co 	c #7A3559",
"Do 	c #5F2744",
"Eo 	c #3B162A",
"Fo 	c #321124",
"Go 	c #5B2443",
"Ho 	c #64294B",
"Io 	c #070411",
"Jo 	c #2D2C38",
"Ko 	c #424152",
"Lo 	c #56556A",
"Mo 	c #67667E",
"No 	c #0E0F18",
"Oo 	c #151520",
"Po 	c #292D39",
"Qo 	c #454C5C",
"Ro 	c #646E82",
"So 	c #748098",
"To 	c #697893",
"Uo 	c #48536B",
"Vo 	c #1E212F",
"Wo 	c #1A1B21",
"Xo 	c #41464F",
"Yo 	c #6E7583",
"Zo 	c #96A0B0",
"`o 	c #B0BCCD",
" p 	c #BFC9DA",
".p 	c #B8C2D4",
"+p 	c #ACB5C8",
"@p 	c #9DA3B8",
"#p 	c #8C8FA6",
"$p 	c #7D7E97",
"%p 	c #72738C",
"&p 	c #74738D",
"*p 	c #444355",
"=p 	c #343443",
"-p 	c #68667F",
";p 	c #393847",
">p 	c #111219",
",p 	c #140713",
"'p 	c #2F1326",
")p 	c #4A1F39",
"!p 	c #5C2746",
"~p 	c #4C1F3A",
"{p 	c #13040D",
"]p 	c #1E0915",
"^p 	c #260D1C",
"/p 	c #280E1D",
"(p 	c #4E233C",
"_p 	c #492138",
":p 	c #3D1A2E",
"<p 	c #220C1D",
"[p 	c #401A32",
"}p 	c #753357",
"|p 	c #753256",
"1p 	c #602846",
"2p 	c #40182C",
"3p 	c #200814",
"4p 	c #6F2C53",
"5p 	c #4A1D38",
"6p 	c #272730",
"7p 	c #3C3C4A",
"8p 	c #545267",
"9p 	c #65647C",
"0p 	c #424154",
"ap 	c #2C2C3A",
"bp 	c #181823",
"cp 	c #09080F",
"dp 	c #313441",
"ep 	c #53596B",
"fp 	c #6C7A93",
"gp 	c #63718E",
"hp 	c #373E52",
"ip 	c #232634",
"jp 	c #06060F",
"kp 	c #100F1A",
"lp 	c #282B3A",
"mp 	c #4C5365",
"np 	c #99A5B9",
"op 	c #B9C4D5",
"pp 	c #AEB7C9",
"qp 	c #9FA6B9",
"rp 	c #8E92A8",
"sp 	c #7F809A",
"tp 	c #767691",
"up 	c #71748A",
"vp 	c #474659",
"wp 	c #313040",
"xp 	c #242430",
"yp 	c #0F0511",
"zp 	c #2A1022",
"Ap 	c #471D37",
"Bp 	c #5B2746",
"Cp 	c #5F2849",
"Dp 	c #50213D",
"Ep 	c #16050F",
"Fp 	c #1B0915",
"Gp 	c #06020A",
"Hp 	c #0C050F",
"Ip 	c #251121",
"Jp 	c #3B1D33",
"Kp 	c #44243C",
"Lp 	c #3D2036",
"Mp 	c #271424",
"Np 	c #100613",
"Op 	c #210B1D",
"Pp 	c #3C1930",
"Qp 	c #582644",
"Rp 	c #713154",
"Sp 	c #7B3559",
"Tp 	c #6F2F4F",
"Up 	c #240A16",
"Vp 	c #321024",
"Wp 	c #5D2445",
"Xp 	c #67284D",
"Yp 	c #120511",
"Zp 	c #0B0B11",
"`p 	c #1E1E26",
" q 	c #373744",
".q 	c #504F62",
"+q 	c #5A5970",
"@q 	c #22232B",
"#q 	c #3B404C",
"$q 	c #5A6374",
"%q 	c #75829C",
"&q 	c #6B7995",
"*q 	c #373F53",
"=q 	c #242836",
"-q 	c #14141F",
";q 	c #0B0A12",
">q 	c #262939",
",q 	c #343A4F",
"'q 	c #5E6B86",
")q 	c #9AA6BA",
"!q 	c #AEBACC",
"~q 	c #AFB9CB",
"{q 	c #A0A7BB",
"]q 	c #7E7F97",
"^q 	c #74758C",
"/q 	c #3B3A4C",
"(q 	c #65637C",
"_q 	c #06060D",
":q 	c #0E0510",
"<q 	c #280F21",
"[q 	c #441C35",
"}q 	c #5A2746",
"|q 	c #552341",
"1q 	c #411830",
"2q 	c #351326",
"3q 	c #4C2039",
"4q 	c #06030C",
"5q 	c #141323",
"6q 	c #231D30",
"7q 	c #2D2239",
"8q 	c #282034",
"9q 	c #0A0B19",
"0q 	c #19081B",
"aq 	c #37162C",
"bq 	c #753255",
"cq 	c #7F375A",
"dq 	c #713050",
"eq 	c #532139",
"fq 	c #2D0E1D",
"gq 	c #080103",
"hq 	c #24091A",
"iq 	c #2B0D1F",
"jq 	c #13040E",
"kq 	c #04030C",
"lq 	c #111224",
"mq 	c #03040E",
"nq 	c #181821",
"oq 	c #343341",
"pq 	c #4E4C5F",
"qq 	c #626077",
"rq 	c #3C404C",
"sq 	c #545C6B",
"tq 	c #717E92",
"uq 	c #8393AC",
"vq 	c #6B7993",
"wq 	c #55607A",
"xq 	c #3B4359",
"yq 	c #242738",
"zq 	c #12131E",
"Aq 	c #292C3B",
"Bq 	c #3A4155",
"Cq 	c #465169",
"Dq 	c #77839B",
"Eq 	c #909BAE",
"Fq 	c #A8B3C4",
"Gq 	c #ABB5C7",
"Hq 	c #969CB1",
"Iq 	c #81849B",
"Jq 	c #74768C",
"Kq 	c #3F3E4F",
"Lq 	c #292935",
"Mq 	c #0A040D",
"Nq 	c #240E1F",
"Oq 	c #441D36",
"Pq 	c #612A4C",
"Qq 	c #6B2B51",
"Rq 	c #4B1C37",
"Sq 	c #08030E",
"Tq 	c #040310",
"Uq 	c #030313",
"Vq 	c #070211",
"Wq 	c #180819",
"Xq 	c #753354",
"Yq 	c #80385C",
"Zq 	c #753252",
"`q 	c #55223B",
" r 	c #4B1B36",
".r 	c #4F1D3A",
"+r 	c #050106",
"@r 	c #090209",
"#r 	c #0A0D19",
"$r 	c #171C2D",
"%r 	c #0E101F",
"&r 	c #14141C",
"*r 	c #4A495C",
"=r 	c #5E5D75",
"-r 	c #4E4E62",
";r 	c #535869",
">r 	c #697487",
",r 	c #8B9CB4",
"'r 	c #808CA4",
")r 	c #6A7287",
"!r 	c #464B5B",
"~r 	c #21232E",
"{r 	c #0D0C16",
"]r 	c #272939",
"^r 	c #373D50",
"/r 	c #5A6887",
"(r 	c #57637C",
"_r 	c #667082",
":r 	c #858E9D",
"<r 	c #A2ACBB",
"[r 	c #9298AD",
"}r 	c #7E8098",
"|r 	c #4D4B60",
"1r 	c #4E4D63",
"2r 	c #2C2B39",
"3r 	c #06070E",
"4r 	c #100512",
"5r 	c #2F1427",
"6r 	c #5E2849",
"7r 	c #883866",
"8r 	c #2E1020",
"9r 	c #411A31",
"0r 	c #270E1D",
"ar 	c #0E040F",
"br 	c #01020E",
"cr 	c #191C30",
"dr 	c #1F233A",
"er 	c #1A1F32",
"fr 	c #080311",
"gr 	c #190819",
"hr 	c #331429",
"ir 	c #52233E",
"jr 	c #703051",
"kr 	c #7F375B",
"lr 	c #773354",
"mr 	c #5A253F",
"nr 	c #341223",
"or 	c #0F0307",
"pr 	c #521E3C",
"qr 	c #7A315B",
"rr 	c #7B315C",
"sr 	c #5B2344",
"tr 	c #290B1D",
"ur 	c #2C344E",
"vr 	c #14141B",
"wr 	c #2C2C37",
"xr 	c #5D5B72",
"yr 	c #73728F",
"zr 	c #70718E",
"Ar 	c #6E718D",
"Br 	c #71718E",
"Cr 	c #757491",
"Dr 	c #777693",
"Er 	c #57586D",
"Fr 	c #6B778B",
"Gr 	c #808FA6",
"Hr 	c #97A5BC",
"Ir 	c #9AA5BA",
"Jr 	c #8C94A7",
"Kr 	c #464A53",
"Lr 	c #22242B",
"Mr 	c #1A1A28",
"Nr 	c #2F3447",
"Or 	c #444E66",
"Pr 	c #363D4D",
"Qr 	c #535A65",
"Rr 	c #7C8491",
"Sr 	c #9DA7B6",
"Tr 	c #B1BBCC",
"Ur 	c #B0B9CB",
"Vr 	c #9EA5B9",
"Wr 	c #84869F",
"Xr 	c #73738A",
"Yr 	c #1C1B25",
"Zr 	c #221120",
"`r 	c #411C33",
" s 	c #7A345D",
".s 	c #421A2F",
"+s 	c #4B1F37",
"@s 	c #0F050F",
"#s 	c #050716",
"$s 	c #252A44",
"%s 	c #1B2033",
"&s 	c #0B0D1D",
"*s 	c #060311",
"=s 	c #2E1227",
"-s 	c #50213C",
";s 	c #6F2F50",
">s 	c #7E375A",
",s 	c #783355",
"'s 	c #5D2641",
")s 	c #381426",
"!s 	c #923C6E",
"~s 	c #531F3D",
"{s 	c #000105",
"]s 	c #090A16",
"^s 	c #020207",
"/s 	c #0F0F17",
"(s 	c #6F708D",
"_s 	c #686F8C",
":s 	c #646E8B",
"<s 	c #676F8C",
"[s 	c #6F728F",
"}s 	c #73738F",
"|s 	c #4A5061",
"1s 	c #5B6778",
"2s 	c #728094",
"3s 	c #8493AA",
"4s 	c #96A4BB",
"5s 	c #A7B3C8",
"6s 	c #B0BBCD",
"7s 	c #ABB5C6",
"8s 	c #97A0AF",
"9s 	c #767C89",
"0s 	c #4E535E",
"as 	c #343849",
"bs 	c #52607B",
"cs 	c #434E65",
"ds 	c #2E3547",
"es 	c #1D212D",
"fs 	c #262930",
"gs 	c #4A4E57",
"hs 	c #727A86",
"is 	c #939BAB",
"js 	c #969CB0",
"ks 	c #888AA2",
"ls 	c #74738C",
"ms 	c #383849",
"ns 	c #4A4A5E",
"os 	c #5C5B72",
"ps 	c #373242",
"qs 	c #41273B",
"rs 	c #632C4B",
"ss 	c #672B4E",
"ts 	c #4B1D37",
"us 	c #2A0C1E",
"vs 	c #240B18",
"ws 	c #41192F",
"xs 	c #4B1E36",
"ys 	c #431B30",
"zs 	c #2C1021",
"As 	c #130511",
"Bs 	c #03020D",
"Cs 	c #1D2034",
"Ds 	c #2B1024",
"Es 	c #6B2D4E",
"Fs 	c #7E365A",
"Gs 	c #7B3558",
"Hs 	c #632945",
"Is 	c #3C1629",
"Js 	c #250A18",
"Ks 	c #451832",
"Ls 	c #79305A",
"Ms 	c #923B6E",
"Ns 	c #8B3868",
"Os 	c #66274C",
"Ps 	c #300F23",
"Qs 	c #0E030A",
"Rs 	c #060812",
"Ss 	c #22283F",
"Ts 	c #414050",
"Us 	c #73748C",
"Vs 	c #686E8B",
"Ws 	c #616C8A",
"Xs 	c #5D6B8A",
"Ys 	c #5F6D8B",
"Zs 	c #656E8B",
"`s 	c #676A86",
" t 	c #5F5E78",
".t 	c #4C4B60",
"+t 	c #2A2D38",
"@t 	c #3E4652",
"#t 	c #5D6879",
"$t 	c #7C889C",
"%t 	c #9AA5B9",
"&t 	c #B1BCCF",
"*t 	c #B2BCCD",
"=t 	c #9CA4B4",
"-t 	c #7C8493",
";t 	c #60687A",
">t 	c #545F78",
",t 	c #455169",
"'t 	c #333B4E",
")t 	c #1E2230",
"!t 	c #0B0C16",
"~t 	c #06070A",
"{t 	c #292C32",
"]t 	c #5B606B",
"^t 	c #868C9D",
"/t 	c #8D92A7",
"(t 	c #81839C",
"_t 	c #727489",
":t 	c #535168",
"<t 	c #48465A",
"[t 	c #4F475C",
"}t 	c #55364E",
"|t 	c #713456",
"1t 	c #6A2D4E",
"2t 	c #4C1E38",
"3t 	c #260B1A",
"4t 	c #311122",
"5t 	c #491D35",
"6t 	c #150612",
"7t 	c #04020D",
"8t 	c #17192C",
"9t 	c #111425",
"0t 	c #070919",
"at 	c #0D0315",
"bt 	c #481D37",
"ct 	c #692D4D",
"dt 	c #7C3659",
"et 	c #662B48",
"ft 	c #5D2443",
"gt 	c #913B6D",
"ht 	c #8D396A",
"it 	c #6B2A50",
"jt 	c #3D152D",
"kt 	c #10030C",
"lt 	c #060711",
"mt 	c #131626",
"nt 	c #03030B",
"ot 	c #23222C",
"pt 	c #3D3C4C",
"qt 	c #565469",
"rt 	c #707089",
"st 	c #72768A",
"tt 	c #717589",
"ut 	c #71728A",
"vt 	c #717089",
"wt 	c #70718D",
"xt 	c #696E8B",
"yt 	c #616B89",
"zt 	c #596582",
"At 	c #545B75",
"Bt 	c #484960",
"Ct 	c #333343",
"Dt 	c #1B1A25",
"Et 	c #262932",
"Ft 	c #4A505E",
"Gt 	c #737B8D",
"Ht 	c #979FB2",
"It 	c #B0B9CC",
"Jt 	c #BEC9DB",
"Kt 	c #B4BFD0",
"Lt 	c #A2ACBD",
"Mt 	c #8A94A7",
"Nt 	c #61718D",
"Ot 	c #47526B",
"Pt 	c #0F111B",
"Qt 	c #02020A",
"Rt 	c #43474F",
"St 	c #979EAF",
"Tt 	c #9FA7BA",
"Ut 	c #9398AE",
"Vt 	c #7F819A",
"Wt 	c #727488",
"Xt 	c #72728B",
"Yt 	c #564D64",
"Zt 	c #56364F",
"`t 	c #662F4E",
" u 	c #55233E",
".u 	c #15050D",
"+u 	c #1D0916",
"@u 	c #06030B",
"#u 	c #030411",
"$u 	c #0B0D1E",
"%u 	c #15182A",
"&u 	c #131728",
"*u 	c #090B1B",
"=u 	c #030111",
"-u 	c #431C34",
";u 	c #662B4A",
">u 	c #7D365A",
",u 	c #7C3558",
"'u 	c #80355E",
")u 	c #8E3B6B",
"!u 	c #12040F",
"~u 	c #323A5A",
"{u 	c #2A314D",
"]u 	c #20253C",
"^u 	c #3A3949",
"/u 	c #535165",
"(u 	c #646579",
"_u 	c #6D7184",
":u 	c #717788",
"<u 	c #6F7486",
"[u 	c #6B6E81",
"}u 	c #65667C",
"|u 	c #65657E",
"1u 	c #72718E",
"2u 	c #6A6E8C",
"3u 	c #626B8A",
"4u 	c #40485F",
"5u 	c #2F3243",
"6u 	c #1A1B26",
"7u 	c #08070D",
"8u 	c #48485A",
"9u 	c #6C6E84",
"0u 	c #8C91A6",
"au 	c #A4ACBF",
"bu 	c #B4BDCF",
"cu 	c #B7C2D3",
"du 	c #94A0B4",
"eu 	c #79859E",
"fu 	c #5D6A85",
"gu 	c #46526B",
"hu 	c #222736",
"iu 	c #04040D",
"ju 	c #6E7580",
"ku 	c #ACB4C7",
"lu 	c #7F8099",
"mu 	c #6D6D86",
"nu 	c #6D6F84",
"ou 	c #6F7285",
"pu 	c #6A6A82",
"qu 	c #676581",
"ru 	c #615F7B",
"su 	c #686582",
"tu 	c #716E8B",
"uu 	c #58566E",
"vu 	c #494256",
"wu 	c #43283B",
"xu 	c #3B182B",
"yu 	c #250E1C",
"zu 	c #100712",
"Au 	c #0D0313",
"Bu 	c #220B1E",
"Cu 	c #3F1A31",
"Du 	c #5E2845",
"Eu 	c #733254",
"Fu 	c #80375F",
"Gu 	c #803561",
"Hu 	c #441832",
"Iu 	c #170410",
"Ju 	c #02050C",
"Ku 	c #101321",
"Lu 	c #333B5B",
"Mu 	c #21273E",
"Nu 	c #1C1C25",
"Ou 	c #363643",
"Pu 	c #4E505F",
"Qu 	c #606474",
"Ru 	c #6B7081",
"Su 	c #6F7586",
"Tu 	c #6A7080",
"Uu 	c #5F6373",
"Vu 	c #525466",
"Wu 	c #72718F",
"Xu 	c #6D708D",
"Yu 	c #636C8A",
"Zu 	c #5D6A89",
"`u 	c #2C3345",
" v 	c #181C27",
".v 	c #06070D",
"+v 	c #0A0910",
"@v 	c #20202B",
"#v 	c #696882",
"$v 	c #9297AD",
"%v 	c #ACB7C9",
"&v 	c #747D92",
"*v 	c #4D5467",
"=v 	c #282D3B",
"-v 	c #0F121C",
";v 	c #0D0F13",
">v 	c #383C44",
",v 	c #676E7A",
"'v 	c #939CAA",
")v 	c #B0BCCC",
"!v 	c #B6C0D2",
"~v 	c #A1A8BC",
"{v 	c #888BA2",
"]v 	c #66657F",
"^v 	c #5D5E74",
"/v 	c #606275",
"(v 	c #686B7D",
"_v 	c #6D7183",
":v 	c #6B6F82",
"<v 	c #64667B",
"[v 	c #5A5972",
"}v 	c #56546E",
"|v 	c #5E5B77",
"1v 	c #6A6784",
"2v 	c #64627D",
"3v 	c #53506C",
"4v 	c #4A4764",
"5v 	c #53516D",
"6v 	c #62607C",
"7v 	c #4A485C",
"8v 	c #3A394B",
"9v 	c #2F2A39",
"0v 	c #261320",
"av 	c #411A2F",
"bv 	c #331225",
"cv 	c #220A18",
"dv 	c #3C192D",
"ev 	c #281324",
"fv 	c #040512",
"gv 	c #080A1A",
"hv 	c #1E0B1C",
"iv 	c #3A192E",
"jv 	c #602B4A",
"kv 	c #592746",
"lv 	c #3A162C",
"mv 	c #190512",
"nv 	c #06040B",
"ov 	c #0E111D",
"pv 	c #475473",
"qv 	c #171C2E",
"rv 	c #181920",
"sv 	c #32343D",
"tv 	c #4B4E5A",
"uv 	c #5D6170",
"vv 	c #65697A",
"wv 	c #5E6371",
"xv 	c #4D515E",
"yv 	c #3A3C48",
"zv 	c #65657F",
"Av 	c #696C88",
"Bv 	c #656D8B",
"Cv 	c #5F6C8A",
"Dv 	c #2E3648",
"Ev 	c #191E2A",
"Fv 	c #080A12",
"Gv 	c #1E1D28",
"Hv 	c #514F66",
"Iv 	c #80819A",
"Jv 	c #9095AA",
"Kv 	c #A2A9BC",
"Lv 	c #919AAB",
"Mv 	c #41454F",
"Nv 	c #1C1E23",
"Ov 	c #111317",
"Pv 	c #31353B",
"Qv 	c #636974",
"Rv 	c #8E97A6",
"Sv 	c #ADB8C7",
"Tv 	c #BDC9D9",
"Uv 	c #888CA2",
"Vv 	c #504F68",
"Wv 	c #44445A",
"Xv 	c #4B4C5F",
"Yv 	c #5A5B6D",
"Zv 	c #636578",
"`v 	c #616378",
" w 	c #56566D",
".w 	c #44425C",
"+w 	c #3A3651",
"@w 	c #45415D",
"#w 	c #585572",
"$w 	c #64627E",
"%w 	c #504D68",
"&w 	c #3A3753",
"*w 	c #322E4C",
"=w 	c #3C3956",
"-w 	c #4F4C68",
";w 	c #605E7B",
">w 	c #12131D",
",w 	c #21212E",
"'w 	c #343445",
")w 	c #434258",
"!w 	c #434157",
"~w 	c #0B0408",
"{w 	c #1D0915",
"]w 	c #431D33",
"^w 	c #3B1C33",
"/w 	c #291D32",
"(w 	c #22233A",
"_w 	c #060714",
":w 	c #0B0815",
"<w 	c #1A1121",
"[w 	c #2E1C31",
"}w 	c #342138",
"|w 	c #2D1E33",
"1w 	c #191220",
"2w 	c #252B43",
"3w 	c #04050F",
"4w 	c #131419",
"5w 	c #2F303A",
"6w 	c #464856",
"7w 	c #515464",
"8w 	c #4A4D5B",
"9w 	c #373A45",
"0w 	c #21232B",
"aw 	c #3D3D4F",
"bw 	c #4F5167",
"cw 	c #575F78",
"dw 	c #5A6784",
"ew 	c #434D66",
"fw 	c #30384B",
"gw 	c #1C212E",
"hw 	c #090B12",
"iw 	c #353445",
"jw 	c #7E7F98",
"kw 	c #AEB8C9",
"lw 	c #B9C3D4",
"mw 	c #9299A9",
"nw 	c #6D737F",
"ow 	c #42464F",
"pw 	c #353941",
"qw 	c #5E646F",
"rw 	c #8B94A2",
"sw 	c #ABB6C6",
"tw 	c #A5ACC0",
"uw 	c #9196AB",
"vw 	c #4F4D67",
"ww 	c #37354E",
"xw 	c #35334A",
"yw 	c #454559",
"zw 	c #505064",
"Aw 	c #4F4E65",
"Bw 	c #43415A",
"Cw 	c #302D49",
"Dw 	c #231E3D",
"Ew 	c #2B2744",
"Fw 	c #3E3A56",
"Gw 	c #4A4761",
"Hw 	c #48455F",
"Iw 	c #393550",
"Jw 	c #272341",
"Kw 	c #221D3D",
"Lw 	c #292544",
"Mw 	c #393552",
"Nw 	c #4C4965",
"Ow 	c #5F5D79",
"Pw 	c #6C6A87",
"Qw 	c #0F0D18",
"Rw 	c #110F1F",
"Sw 	c #201F33",
"Tw 	c #2F2D47",
"Uw 	c #232137",
"Vw 	c #11101E",
"Ww 	c #09030A",
"Xw 	c #1C0915",
"Yw 	c #17060F",
"Zw 	c #421D34",
"`w 	c #432139",
" x 	c #312037",
".x 	c #131729",
"+x 	c #0C0E1B",
"@x 	c #16192A",
"#x 	c #0F121F",
"$x 	c #161829",
"%x 	c #212137",
"&x 	c #25263E",
"*x 	c #23253B",
"=x 	c #272E46",
"-x 	c #0F1220",
";x 	c #05060C",
">x 	c #171922",
",x 	c #2A2D3C",
"'x 	c #383A4D",
")x 	c #343647",
"!x 	c #242631",
"~x 	c #0F1016",
"{x 	c #252533",
"]x 	c #333748",
"^x 	c #455068",
"/x 	c #1E2331",
"(x 	c #17161F",
"_x 	c #4C4A60",
":x 	c #6D6B88",
"<x 	c #7C7D96",
"[x 	c #BEC8D9",
"}x 	c #BCC6D7",
"|x 	c #949CAC",
"1x 	c #737886",
"2x 	c #666C79",
"3x 	c #8992A0",
"4x 	c #AAB5C5",
"5x 	c #B4BED0",
"6x 	c #A6AEC1",
"7x 	c #82849C",
"8x 	c #53516B",
"9x 	c #393650",
"0x 	c #241F3D",
"ax 	c #1D1738",
"bx 	c #231E3B",
"cx 	c #2F2D44",
"dx 	c #38364B",
"ex 	c #37354C",
"fx 	c #211D3C",
"gx 	c #191336",
"hx 	c #1A1436",
"ix 	c #24203C",
"jx 	c #2C2840",
"kx 	c #1E1839",
"lx 	c #1C1739",
"mx 	c #201A3C",
"nx 	c #282443",
"ox 	c #373351",
"px 	c #494763",
"qx 	c #5C5A76",
"rx 	c #6B6986",
"sx 	c #343344",
"tx 	c #1C192E",
"ux 	c #26223F",
"vx 	c #312C4F",
"wx 	c #342F52",
"xx 	c #2D2948",
"yx 	c #211E36",
"zx 	c #210717",
"Ax 	c #38172B",
"Bx 	c #431E35",
"Cx 	c #3E1E35",
"Dx 	c #2A1C30",
"Ex 	c #222136",
"Fx 	c #0C0F1F",
"Gx 	c #131526",
"Hx 	c #1C1F31",
"Ix 	c #4A5576",
"Jx 	c #121524",
"Kx 	c #2D334C",
"Lx 	c #111424",
"Mx 	c #050512",
"Nx 	c #3D475D",
"Ox 	c #202533",
"Px 	c #0E1019",
"Qx 	c #16151F",
"Rx 	c #4A485D",
"Sx 	c #7B7C96",
"Tx 	c #9CA2B6",
"Ux 	c #BFC9DB",
"Vx 	c #C2CCDE",
"Wx 	c #ACB5C7",
"Xx 	c #939AAC",
"Yx 	c #898FA1",
"Zx 	c #A2ACBC",
"`x 	c #C0CBDD",
" y 	c #A7AFC3",
".y 	c #969BB0",
"+y 	c #83859D",
"@y 	c #787892",
"#y 	c #696682",
"$y 	c #55536D",
"%y 	c #3B3853",
"&y 	c #272240",
"*y 	c #1D1739",
"=y 	c #1B1537",
"-y 	c #1B1635",
";y 	c #1D1933",
">y 	c #201D32",
",y 	c #1F1C31",
"'y 	c #1A1630",
")y 	c #191333",
"!y 	c #191334",
"~y 	c #171031",
"{y 	c #140D2A",
"]y 	c #130E24",
"^y 	c #141025",
"/y 	c #16112B",
"(y 	c #272242",
"_y 	c #35314F",
":y 	c #474561",
"<y 	c #5A5874",
"[y 	c #696784",
"}y 	c #3A384D",
"|y 	c #312E48",
"1y 	c #332E50",
"2y 	c #383258",
"3y 	c #39335A",
"4y 	c #363056",
"5y 	c #2E2A4B",
"6y 	c #232039",
"7y 	c #151325",
"8y 	c #05020A",
"9y 	c #140610",
"0y 	c #411C32",
"ay 	c #39172B",
"by 	c #310F23",
"cy 	c #511D3C",
"dy 	c #3E1B31",
"ey 	c #2E1527",
"fy 	c #1A1221",
"gy 	c #19192B",
"hy 	c #202136",
"iy 	c #0D1020",
"jy 	c #272C43",
"ky 	c #4A5677",
"ly 	c #242A40",
"my 	c #15192C",
"ny 	c #090C1C",
"oy 	c #1B1F2C",
"py 	c #384156",
"qy 	c #333C4F",
"ry 	c #232838",
"sy 	c #0E101A",
"ty 	c #04050A",
"uy 	c #13121B",
"vy 	c #5C5B74",
"wy 	c #9AA0B4",
"xy 	c #AAB2C5",
"yy 	c #B7C0D2",
"zy 	c #8E93A8",
"Ay 	c #A1A8BB",
"By 	c #B5BFD0",
"Cy 	c #AAB2C6",
"Dy 	c #989DB3",
"Ey 	c #797893",
"Fy 	c #6A6884",
"Gy 	c #58556F",
"Hy 	c #3F3C56",
"Iy 	c #282441",
"Jy 	c #1E193A",
"Ky 	c #1C1638",
"Ly 	c #1B1536",
"My 	c #181332",
"Ny 	c #120F29",
"Oy 	c #0E0B20",
"Py 	c #0D0A1D",
"Qy 	c #0E0B22",
"Ry 	c #130E29",
"Sy 	c #15102D",
"Ty 	c #0E071F",
"Uy 	c #080417",
"Vy 	c #060415",
"Wy 	c #0B081D",
"Xy 	c #120D29",
"Yy 	c #181232",
"Zy 	c #1B1637",
"`y 	c #1F193C",
" z 	c #262142",
".z 	c #332F4D",
"+z 	c #45425E",
"@z 	c #585672",
"#z 	c #494563",
"$z 	c #413C5F",
"%z 	c #3D385E",
"&z 	c #3C365D",
"*z 	c #3A345B",
"=z 	c #363157",
"-z 	c #2F2B4C",
";z 	c #151327",
">z 	c #070615",
",z 	c #05030B",
"'z 	c #27101E",
")z 	c #471935",
"!z 	c #732D56",
"~z 	c #7F335F",
"{z 	c #702E53",
"]z 	c #341628",
"^z 	c #0A0714",
"/z 	c #10101F",
"(z 	c #23263D",
"_z 	c #2C334D",
":z 	c #191B2D",
"<z 	c #4A5676",
"[z 	c #546181",
"}z 	c #434E6F",
"|z 	c #343C5A",
"1z 	c #323954",
"2z 	c #323952",
"3z 	c #333C57",
"4z 	c #171C31",
"5z 	c #0A0C1E",
"6z 	c #0D101B",
"7z 	c #191E2B",
"8z 	c #222837",
"9z 	c #262B3C",
"0z 	c #1F2433",
"az 	c #11141E",
"bz 	c #05060B",
"cz 	c #111019",
"dz 	c #2B2939",
"ez 	c #444257",
"fz 	c #85879F",
"gz 	c #979DB1",
"hz 	c #A8B0C3",
"iz 	c #A1A9BD",
"jz 	c #8D90A7",
"kz 	c #82839C",
"lz 	c #8F93A9",
"mz 	c #A3AABD",
"nz 	c #ADB5C9",
"oz 	c #9A9FB4",
"pz 	c #878AA2",
"qz 	c #797993",
"rz 	c #5B5973",
"sz 	c #413F58",
"tz 	c #2B2743",
"uz 	c #1C1639",
"vz 	c #191433",
"wz 	c #13102B",
"xz 	c #0B0920",
"yz 	c #060416",
"zz 	c #060418",
"Az 	c #0B071E",
"Bz 	c #0D0920",
"Cz 	c #0C071E",
"Dz 	c #040314",
"Ez 	c #0A071D",
"Fz 	c #110D28",
"Gz 	c #171231",
"Hz 	c #1C1637",
"Iz 	c #1D173A",
"Jz 	c #252041",
"Kz 	c #312D4B",
"Lz 	c #423F5C",
"Mz 	c #55536F",
"Nz 	c #666480",
"Oz 	c #696783",
"Pz 	c #5D5A78",
"Qz 	c #504C6D",
"Rz 	c #454165",
"Sz 	c #3F3A60",
"Tz 	c #3C365E",
"Uz 	c #3B345C",
"Vz 	c #373257",
"Wz 	c #312B4E",
"Xz 	c #26213E",
"Yz 	c #17142B",
"Zz 	c #090817",
"`z 	c #04030B",
" A 	c #11060F",
".A 	c #37162A",
"+A 	c #2D1021",
"@A 	c #170610",
"#A 	c #481935",
"$A 	c #79305B",
"%A 	c #933C6F",
"&A 	c #5B2644",
"*A 	c #04030D",
"=A 	c #070714",
"-A 	c #11101F",
";A 	c #19192A",
">A 	c #1F2035",
",A 	c #080818",
"'A 	c #101221",
")A 	c #1B2034",
"!A 	c #363E5A",
"~A 	c #3D4767",
"{A 	c #434D6A",
"]A 	c #424D6B",
"^A 	c #242B44",
"/A 	c #191F34",
"(A 	c #0E1022",
"_A 	c #090B15",
":A 	c #111320",
"<A 	c #0C0E1A",
"[A 	c #05060E",
"}A 	c #272633",
"|A 	c #434155",
"1A 	c #5A5770",
"2A 	c #726F8C",
"3A 	c #9CA4B8",
"4A 	c #9BA2B7",
"5A 	c #8B8EA6",
"6A 	c #7B7B96",
"7A 	c #7C7C97",
"8A 	c #898CA3",
"9A 	c #9398AC",
"0A 	c #8789A0",
"aA 	c #7B7B95",
"bA 	c #5C5A74",
"cA 	c #45425C",
"dA 	c #2C2945",
"eA 	c #1F193A",
"fA 	c #1C1738",
"gA 	c #1A1534",
"hA 	c #14102D",
"iA 	c #0D0B22",
"jA 	c #060517",
"kA 	c #050415",
"lA 	c #060516",
"mA 	c #050314",
"nA 	c #08061B",
"oA 	c #100C26",
"pA 	c #171131",
"qA 	c #1F1A3B",
"rA 	c #241F40",
"sA 	c #2F2B49",
"tA 	c #403D5A",
"uA 	c #605D7B",
"vA 	c #524E6F",
"wA 	c #464165",
"xA 	c #3F3960",
"yA 	c #3D365E",
"zA 	c #3B355C",
"AA 	c #322D50",
"BA 	c #19162D",
"CA 	c #0A091A",
"DA 	c #05030D",
"EA 	c #190712",
"FA 	c #6A2A50",
"GA 	c #6C2D51",
"HA 	c #491E38",
"IA 	c #2D1123",
"JA 	c #100F1E",
"KA 	c #181829",
"LA 	c #1D1E32",
"MA 	c #171B2E",
"NA 	c #0F1223",
"OA 	c #090A1A",
"PA 	c #0F101F",
"QA 	c #181B2D",
"RA 	c #363F58",
"SA 	c #485470",
"TA 	c #4E5A7A",
"UA 	c #4C5977",
"VA 	c #3B4466",
"WA 	c #394265",
"XA 	c #1A2035",
"YA 	c #0E1123",
"ZA 	c #050412",
"`A 	c #1E1E2A",
" B 	c #56546C",
".B 	c #73708D",
"+B 	c #7E8099",
"@B 	c #8589A0",
"#B 	c #84879E",
"$B 	c #5E5C77",
"%B 	c #2E2A46",
"&B 	c #211C3B",
"*B 	c #15112D",
"=B 	c #0F0B23",
"-B 	c #070618",
";B 	c #08061A",
">B 	c #0F0B25",
",B 	c #16112F",
"'B 	c #1E183B",
")B 	c #221E3F",
"!B 	c #3D3A57",
"~B 	c #504E6A",
"{B 	c #6F6D8A",
"]B 	c #615F7D",
"^B 	c #545071",
"/B 	c #484366",
"(B 	c #403A60",
"_B 	c #3C375E",
":B 	c #3B345D",
"<B 	c #383359",
"[B 	c #332E52",
"}B 	c #292543",
"|B 	c #1A1830",
"1B 	c #0B091A",
"2B 	c #3D1A2F",
"3B 	c #301325",
"4B 	c #1C0814",
"5B 	c #572442",
"6B 	c #321326",
"7B 	c #0D0D1C",
"8B 	c #0E101E",
"9B 	c #2F3755",
"0B 	c #282F46",
"aB 	c #37405B",
"bB 	c #434F6C",
"cB 	c #424E6E",
"dB 	c #1B2137",
"eB 	c #0D0F21",
"fB 	c #5C5972",
"gB 	c #6E6B87",
"hB 	c #74748D",
"iB 	c #76788E",
"jB 	c #75778E",
"kB 	c #4A4861",
"lB 	c #322E49",
"mB 	c #201B3B",
"nB 	c #1A1535",
"oB 	c #16122E",
"pB 	c #0F0C24",
"qB 	c #08071A",
"rB 	c #060518",
"sB 	c #0F0B24",
"tB 	c #16112E",
"uB 	c #221C3E",
"vB 	c #2B2746",
"wB 	c #3B3855",
"xB 	c #4E4C68",
"yB 	c #605E7A",
"zB 	c #6E6C89",
"AB 	c #63607E",
"BB 	c #565272",
"CB 	c #494567",
"DB 	c #403B61",
"EB 	c #3D365F",
"FB 	c #342E52",
"GB 	c #2A2545",
"HB 	c #1D1A33",
"IB 	c #03030C",
"JB 	c #0A030B",
"KB 	c #311526",
"LB 	c #3B172C",
"MB 	c #311023",
"NB 	c #1E0714",
"OB 	c #270C1C",
"PB 	c #461B36",
"QB 	c #170814",
"RB 	c #05030E",
"SB 	c #090918",
"TB 	c #16182A",
"UB 	c #2F3653",
"VB 	c #2E3752",
"WB 	c #384260",
"XB 	c #3E4868",
"YB 	c #272E49",
"ZB 	c #1A1F35",
"`B 	c #0D1021",
" C 	c #040415",
".C 	c #1D1B28",
"+C 	c #72728C",
"@C 	c #4E4B65",
"#C 	c #34314C",
"$C 	c #211C3C",
"%C 	c #1A1536",
"&C 	c #17132F",
"*C 	c #100D26",
"=C 	c #08071B",
"-C 	c #070A18",
";C 	c #090C1A",
">C 	c #070917",
",C 	c #080A18",
"'C 	c #0A0D1B",
")C 	c #0A0E1C",
"!C 	c #0D0A22",
"~C 	c #150F2D",
"{C 	c #1A1435",
"]C 	c #221C3D",
"^C 	c #393653",
"/C 	c #4C4966",
"(C 	c #5E5C79",
"_C 	c #706D8A",
":C 	c #656280",
"<C 	c #575474",
"[C 	c #4A4769",
"}C 	c #423D62",
"|C 	c #3E385F",
"1C 	c #3B355D",
"2C 	c #342F53",
"3C 	c #2B2747",
"4C 	c #1E1B35",
"5C 	c #0F0E21",
"6C 	c #0A030D",
"7C 	c #1B0A16",
"8C 	c #301424",
"9C 	c #5F2748",
"0C 	c #66284C",
"aC 	c #260B1B",
"bC 	c #421A32",
"cC 	c #582543",
"dC 	c #5E2847",
"eC 	c #1B0917",
"fC 	c #06020E",
"gC 	c #1D2035",
"hC 	c #2B314B",
"iC 	c #323C5A",
"jC 	c #1C2137",
"kC 	c #0E1023",
"lC 	c #12121D",
"mC 	c #262533",
"nC 	c #707388",
"oC 	c #656480",
"pC 	c #51516B",
"qC 	c #383852",
"rC 	c #252340",
"sC 	c #1B1636",
"tC 	c #171330",
"uC 	c #110E27",
"vC 	c #09071C",
"wC 	c #080B1A",
"xC 	c #0D1120",
"yC 	c #0E1422",
"zC 	c #0C111F",
"AC 	c #0C101F",
"BC 	c #0E1322",
"CC 	c #0F1524",
"DC 	c #0B0F1D",
"EC 	c #060417",
"FC 	c #0D0921",
"GC 	c #140F2B",
"HC 	c #191434",
"IC 	c #1E183A",
"JC 	c #201B3D",
"KC 	c #282444",
"LC 	c #494762",
"MC 	c #676582",
"NC 	c #5C5B78",
"OC 	c #514E6D",
"PC 	c #474264",
"QC 	c #3F395F",
"RC 	c #353055",
"SC 	c #2D2949",
"TC 	c #201D37",
"UC 	c #110F23",
"VC 	c #0B050E",
"WC 	c #2A1120",
"XC 	c #712F56",
"YC 	c #773059",
"ZC 	c #582141",
"`C 	c #401930",
" D 	c #572441",
".D 	c #5D2846",
"+D 	c #3A172C",
"@D 	c #1F0B19",
"#D 	c #09030F",
"$D 	c #323A57",
"%D 	c #3F496B",
"&D 	c #121528",
"*D 	c #070718",
"=D 	c #161520",
"-D 	c #676782",
";D 	c #54546F",
">D 	c #3C3F59",
",D 	c #292D47",
"'D 	c #21213E",
")D 	c #1E1B3A",
"!D 	c #1B1737",
"~D 	c #171331",
"{D 	c #110E28",
"]D 	c #0A081D",
"^D 	c #0D1220",
"/D 	c #111726",
"(D 	c #121928",
"_D 	c #0C101E",
":D 	c #101524",
"<D 	c #121827",
"[D 	c #0F1423",
"}D 	c #0B081F",
"|D 	c #130E2A",
"1D 	c #1F1A3C",
"2D 	c #272342",
"3D 	c #35324F",
"4D 	c #474560",
"5D 	c #5A5773",
"6D 	c #70728B",
"7D 	c #666880",
"8D 	c #585671",
"9D 	c #484565",
"0D 	c #3F3A5F",
"aD 	c #3A335B",
"bD 	c #221F3A",
"cD 	c #141125",
"dD 	c #1E0D1E",
"eD 	c #6F2E55",
"fD 	c #6A2A4F",
"gD 	c #491A35",
"hD 	c #53223F",
"iD 	c #1F0C19",
"jD 	c #08040E",
"kD 	c #0F1221",
"lD 	c #1F2438",
"mD 	c #3E4968",
"nD 	c #21273F",
"oD 	c #161B2F",
"pD 	c #13121D",
"qD 	c #242330",
"rD 	c #71738A",
"sD 	c #6B6A86",
"tD 	c #595A73",
"uD 	c #3F435C",
"vD 	c #2D314B",
"wD 	c #222540",
"xD 	c #1F1F3A",
"yD 	c #191733",
"zD 	c #121029",
"AD 	c #0B091E",
"BD 	c #030413",
"CD 	c #111725",
"DD 	c #141A29",
"ED 	c #131A29",
"FD 	c #111827",
"GD 	c #101726",
"HD 	c #111625",
"ID 	c #121726",
"JD 	c #101523",
"KD 	c #0D111E",
"LD 	c #120E29",
"MD 	c #1B1638",
"ND 	c #262141",
"OD 	c #585571",
"PD 	c #797A94",
"QD 	c #80839A",
"RD 	c #81879C",
"SD 	c #7B8094",
"TD 	c #6C6F84",
"UD 	c #595973",
"VD 	c #4A4767",
"WD 	c #403B60",
"XD 	c #373157",
"YD 	c #2F2B4D",
"ZD 	c #28203D",
"`D 	c #3B1D37",
" E 	c #220817",
".E 	c #572542",
"+E 	c #431B33",
"@E 	c #260E1E",
"#E 	c #0B040F",
"$E 	c #0B0E1C",
"%E 	c #282E46",
"&E 	c #0A0B15",
"*E 	c #121522",
"=E 	c #202539",
"-E 	c #313952",
";E 	c #414B68",
">E 	c #4D5978",
",E 	c #4E5B7B",
"'E 	c #0B0E1F",
")E 	c #12111C",
"!E 	c #61627C",
"~E 	c #4A4E67",
"{E 	c #333952",
"]E 	c #1D2037",
"^E 	c #15162B",
"/E 	c #0D0B20",
"(E 	c #050516",
"_E 	c #141B29",
":E 	c #111826",
"<E 	c #0D111F",
"[E 	c #09071D",
"}E 	c #252040",
"|E 	c #423E5B",
"1E 	c #55526E",
"2E 	c #686882",
"3E 	c #797C94",
"4E 	c #858CA0",
"5E 	c #8A92A6",
"6E 	c #888FA2",
"7E 	c #7D8296",
"8E 	c #6C7085",
"9E 	c #5B5B75",
"0E 	c #4C4968",
"aE 	c #413C61",
"bE 	c #3D375E",
"cE 	c #3A345C",
"dE 	c #352A4B",
"eE 	c #4B2848",
"fE 	c #662D51",
"gE 	c #5A2645",
"hE 	c #290F21",
"iE 	c #100511",
"jE 	c #2E3451",
"kE 	c #111222",
"lE 	c #0A0C17",
"mE 	c #2F364E",
"nE 	c #31374C",
"oE 	c #3F475F",
"pE 	c #252B45",
"qE 	c #1A1E33",
"rE 	c #1F1F2A",
"sE 	c #31313F",
"tE 	c #63647E",
"uE 	c #4F536C",
"vE 	c #3B4059",
"wE 	c #2F334C",
"xE 	c #0F1022",
"yE 	c #0B0F1E",
"zE 	c #101625",
"AE 	c #131928",
"BE 	c #121826",
"CE 	c #101624",
"DE 	c #171230",
"EE 	c #241F3F",
"FE 	c #2F2B4A",
"GE 	c #413D5A",
"HE 	c #595871",
"IE 	c #82899D",
"JE 	c #8E95A8",
"KE 	c #8890A3",
"LE 	c #7E8397",
"ME 	c #6F7288",
"NE 	c #5D5D77",
"OE 	c #4E4B6A",
"PE 	c #423E62",
"QE 	c #342949",
"RE 	c #462543",
"SE 	c #5F2A4C",
"TE 	c #4A1F3A",
"UE 	c #2C1123",
"VE 	c #161B2C",
"WE 	c #222840",
"XE 	c #2E3553",
"YE 	c #090916",
"ZE 	c #3D4766",
"`E 	c #4A5675",
" F 	c #1E1D2D",
".F 	c #2A2D41",
"+F 	c #2F3856",
"@F 	c #1A2036",
"#F 	c #0E1224",
"$F 	c #0E0E18",
"%F 	c #1D1D28",
"&F 	c #6D6C88",
"*F 	c #5F607B",
"=F 	c #4E506A",
"-F 	c #3C3D56",
";F 	c #2A2C42",
">F 	c #0A0D1C",
",F 	c #141B2A",
"'F 	c #0F0C25",
")F 	c #16122F",
"!F 	c #231E3F",
"~F 	c #2F2A49",
"{F 	c #44435C",
"]F 	c #5E5F75",
"^F 	c #75798D",
"/F 	c #848B9E",
"(F 	c #8D95A7",
"_F 	c #7F8599",
":F 	c #71758A",
"<F 	c #5F6079",
"[F 	c #4F4C6A",
"}F 	c #403B5C",
"|F 	c #322D4D",
"1F 	c #28203B",
"2F 	c #2F192F",
"3F 	c #612A4B",
"4F 	c #6C2E52",
"5F 	c #53213E",
"6F 	c #301024",
"7F 	c #4B1E3A",
"8F 	c #5C2747",
"9F 	c #321425",
"0F 	c #02020C",
"aF 	c #040613",
"bF 	c #3A4565",
"cF 	c #2C3145",
"dF 	c #101326",
"eF 	c #0C0C17",
"fF 	c #1B1B26",
"gF 	c #47465E",
"hF 	c #2F2E42",
"iF 	c #191929",
"jF 	c #070619",
"kF 	c #1D183A",
"lF 	c #2F2B47",
"mF 	c #44435B",
"nF 	c #5D5F74",
"oF 	c #74788C",
"pF 	c #838A9D",
"qF 	c #8B92A5",
"rF 	c #81879A",
"sF 	c #72768C",
"tF 	c #606179",
"uF 	c #312E45",
"vF 	c #1D1A2E",
"wF 	c #2C1225",
"xF 	c #76335A",
"yF 	c #733157",
"zF 	c #2A0E1F",
"AF 	c #491D38",
"BF 	c #5E2747",
"CF 	c #050612",
"DF 	c #303755",
"EF 	c #363E5F",
"FF 	c #323959",
"GF 	c #070814",
"HF 	c #445171",
"IF 	c #343C50",
"JF 	c #27293C",
"KF 	c #28304B",
"LF 	c #1D233B",
"MF 	c #090913",
"NF 	c #191924",
"OF 	c #2A2A38",
"PF 	c #3E3E4F",
"QF 	c #4C4A61",
"RF 	c #302D41",
"SF 	c #171426",
"TF 	c #080618",
"UF 	c #030213",
"VF 	c #101423",
"WF 	c #131827",
"XF 	c #191435",
"YF 	c #1F1A3A",
"ZF 	c #45435C",
"`F 	c #606278",
" G 	c #767B8F",
".G 	c #858B9F",
"+G 	c #8C94A6",
"@G 	c #8991A3",
"#G 	c #82889B",
"$G 	c #72778B",
"%G 	c #5C5D71",
"&G 	c #404152",
"*G 	c #2D2E3C",
"=G 	c #160917",
"-G 	c #2A1024",
";G 	c #4B1F3B",
">G 	c #743259",
",G 	c #6F2F54",
"'G 	c #39142A",
")G 	c #240A1A",
"!G 	c #421931",
"~G 	c #1A0815",
"{G 	c #060510",
"]G 	c #272B3C",
"^G 	c #1C1D2D",
"/G 	c #252638",
"(G 	c #29314C",
"_G 	c #1E243B",
":G 	c #5B5874",
"<G 	c #44415A",
"[G 	c #2A263F",
"}G 	c #16102A",
"|G 	c #0E0921",
"1G 	c #070418",
"2G 	c #050414",
"3G 	c #080B19",
"4G 	c #0F1523",
"5G 	c #151927",
"6G 	c #131624",
"7G 	c #0E0F1E",
"8G 	c #0C0920",
"9G 	c #130F2C",
"0G 	c #181333",
"aG 	c #3D3A55",
"bG 	c #56576F",
"cG 	c #6D6F87",
"dG 	c #7F8299",
"eG 	c #878DA1",
"fG 	c #8A92A5",
"gG 	c #8A91A4",
"hG 	c #727789",
"iG 	c #5C606F",
"jG 	c #484C59",
"kG 	c #150818",
"lG 	c #713158",
"mG 	c #371329",
"nG 	c #3E182E",
"oG 	c #53233E",
"pG 	c #1F0B18",
"qG 	c #09040C",
"rG 	c #181D2F",
"sG 	c #394263",
"tG 	c #0F0F20",
"uG 	c #566382",
"vG 	c #232335",
"wG 	c #33384E",
"xG 	c #2B334F",
"yG 	c #20263E",
"zG 	c #4F4E62",
"AG 	c #6F6D87",
"BG 	c #5E5C78",
"CG 	c #494662",
"DG 	c #322E4A",
"EG 	c #201B39",
"FG 	c #171130",
"GG 	c #0C081F",
"HG 	c #050416",
"IG 	c #171C2B",
"JG 	c #1D202F",
"KG 	c #202231",
"LG 	c #1F2130",
"MG 	c #1A1B2B",
"NG 	c #131222",
"OG 	c #0C0820",
"PG 	c #120E2A",
"QG 	c #171232",
"RG 	c #201C3B",
"SG 	c #312E4A",
"TG 	c #484660",
"UG 	c #82859C",
"VG 	c #878DA2",
"WG 	c #8B92A6",
"XG 	c #8D94A7",
"YG 	c #828A9C",
"ZG 	c #73798A",
"`G 	c #5F6474",
" H 	c #4C505E",
".H 	c #140818",
"+H 	c #260E22",
"@H 	c #3F1933",
"#H 	c #5C2546",
"$H 	c #531F3E",
"%H 	c #220917",
"&H 	c #0A040B",
"*H 	c #1D2036",
"=H 	c #1B1D32",
"-H 	c #4C5771",
";H 	c #374055",
">H 	c #212133",
",H 	c #424C65",
"'H 	c #505C78",
")H 	c #2C3350",
"!H 	c #21202D",
"~H 	c #6D6C86",
"{H 	c #686581",
"]H 	c #54516C",
"^H 	c #3A3652",
"/H 	c #16102D",
"(H 	c #0E0920",
"_H 	c #090C1B",
":H 	c #131A28",
"<H 	c #161C2A",
"[H 	c #1C202F",
"}H 	c #242736",
"|H 	c #282C3C",
"1H 	c #242737",
"2H 	c #131323",
"3H 	c #14112B",
"4H 	c #282541",
"5H 	c #403D59",
"6H 	c #6A6885",
"7H 	c #797794",
"8H 	c #7C7D97",
"9H 	c #878CA2",
"0H 	c #8D95A8",
"aH 	c #8B93A6",
"bH 	c #757C8D",
"cH 	c #626877",
"dH 	c #4E525F",
"eH 	c #150A18",
"fH 	c #3B1730",
"gH 	c #7B325D",
"hH 	c #331024",
"iH 	c #240D1B",
"jH 	c #22253D",
"kH 	c #394056",
"lH 	c #3F475E",
"mH 	c #47546D",
"nH 	c #3A4358",
"oH 	c #1F1E30",
"pH 	c #404A61",
"qH 	c #465273",
"rH 	c #384365",
"sH 	c #02020F",
"tH 	c #0B0B17",
"uH 	c #5E5C73",
"vH 	c #413E59",
"wH 	c #2B2643",
"xH 	c #181132",
"yH 	c #140E29",
"zH 	c #0C071D",
"AH 	c #0D101F",
"BH 	c #1C202E",
"CH 	c #2C3040",
"DH 	c #2C3142",
"EH 	c #2A2E3F",
"FH 	c #0E0D1D",
"GH 	c #050316",
"HH 	c #110F25",
"IH 	c #474460",
"JH 	c #615E7B",
"KH 	c #7C7C96",
"LH 	c #81849C",
"MH 	c #868BA0",
"NH 	c #858C9F",
"OH 	c #777E8F",
"PH 	c #656A7A",
"QH 	c #525664",
"RH 	c #150D19",
"SH 	c #220C1F",
"TH 	c #7C3560",
"UH 	c #863866",
"VH 	c #180610",
"WH 	c #351327",
"XH 	c #441C32",
"YH 	c #290F1E",
"ZH 	c #10050F",
"`H 	c #1C2033",
" I 	c #1D2134",
".I 	c #252C43",
"+I 	c #2F3448",
"@I 	c #2C2E42",
"#I 	c #212334",
"$I 	c #21273C",
"%I 	c #01010F",
"&I 	c #1D1D29",
"*I 	c #31303F",
"=I 	c #65627E",
"-I 	c #56536D",
";I 	c #413E58",
">I 	c #1A142E",
",I 	c #0F0820",
"'I 	c #070317",
")I 	c #0F1322",
"!I 	c #151B2A",
"~I 	c #1B1F2D",
"{I 	c #232534",
"]I 	c #292B3B",
"^I 	c #2C2F40",
"/I 	c #2D3243",
"(I 	c #2D3344",
"_I 	c #2B3042",
":I 	c #1A1C2B",
"<I 	c #100D24",
"[I 	c #25213B",
"}I 	c #5B5774",
"|I 	c #6B6885",
"1I 	c #787792",
"2I 	c #80829B",
"3I 	c #868AA0",
"4I 	c #878FA1",
"5I 	c #7A8092",
"6I 	c #666B7B",
"7I 	c #535765",
"8I 	c #404350",
"9I 	c #160E1A",
"0I 	c #1E0A1D",
"aI 	c #4F223F",
"bI 	c #7D3660",
"cI 	c #743158",
"dI 	c #5C2845",
"eI 	c #471E35",
"fI 	c #2B1120",
"gI 	c #0F050E",
"hI 	c #05030C",
"iI 	c #171929",
"jI 	c #131422",
"kI 	c #525F7D",
"lI 	c #2C2E3F",
"mI 	c #3B4157",
"nI 	c #4A546E",
"oI 	c #171223",
"pI 	c #2B2E41",
"qI 	c #343E5C",
"rI 	c #02010D",
"sI 	c #53506A",
"tI 	c #39364E",
"uI 	c #1D1A2F",
"vI 	c #0B061A",
"wI 	c #040213",
"xI 	c #0F1422",
"yI 	c #1A1E2D",
"zI 	c #222433",
"AI 	c #282A3A",
"BI 	c #2D3142",
"CI 	c #2D3244",
"DI 	c #2C3243",
"EI 	c #202433",
"FI 	c #120D28",
"GI 	c #1C1735",
"HI 	c #2F2B48",
"II 	c #474360",
"JI 	c #5B5875",
"KI 	c #696683",
"LI 	c #7A7B95",
"MI 	c #7F829A",
"NI 	c #85899F",
"OI 	c #8A90A5",
"PI 	c #7C8294",
"QI 	c #6A6F7F",
"RI 	c #555967",
"SI 	c #40434F",
"TI 	c #130E1A",
"UI 	c #1B091B",
"VI 	c #301328",
"WI 	c #672D4F",
"XI 	c #12040A",
"YI 	c #110610",
"ZI 	c #151426",
"`I 	c #1A1B2E",
" J 	c #191A2B",
".J 	c #090914",
"+J 	c #0C0E18",
"@J 	c #404B68",
"#J 	c #201E2D",
"$J 	c #2B2C3D",
"%J 	c #393F54",
"&J 	c #47526A",
"*J 	c #495574",
"=J 	c #2F3853",
"-J 	c #1A1927",
";J 	c #161422",
">J 	c #070612",
",J 	c #161620",
"'J 	c #2B2A38",
")J 	c #57556B",
"!J 	c #55526C",
"~J 	c #39374E",
"{J 	c #1E1B31",
"]J 	c #0C091D",
"^J 	c #1A1D2C",
"/J 	c #212332",
"(J 	c #282939",
"_J 	c #2B2E3F",
":J 	c #2D3041",
"<J 	c #222635",
"[J 	c #161927",
"}J 	c #090519",
"|J 	c #100B24",
"1J 	c #201A3B",
"2J 	c #2E2A48",
"3J 	c #44405C",
"4J 	c #585471",
"5J 	c #676481",
"6J 	c #7A7A95",
"7J 	c #8A90A4",
"8J 	c #8D94A8",
"9J 	c #8890A2",
"0J 	c #7D8495",
"aJ 	c #6C7282",
"bJ 	c #595E6C",
"cJ 	c #454855",
"dJ 	c #120F1B",
"eJ 	c #180919",
"fJ 	c #2D1226",
"gJ 	c #471E38",
"hJ 	c #622A4C",
"iJ 	c #612748",
"jJ 	c #3D162C",
"kJ 	c #180815",
"lJ 	c #0F1020",
"mJ 	c #161A29",
"nJ 	c #2A3249",
"oJ 	c #4F5C7A",
"pJ 	c #181625",
"qJ 	c #191726",
"rJ 	c #1E1D2B",
"sJ 	c #373D51",
"tJ 	c #515F7A",
"uJ 	c #323A4E",
"vJ 	c #25283A",
"wJ 	c #4C5973",
"xJ 	c #3F4A67",
"yJ 	c #2B324A",
"zJ 	c #070810",
"AJ 	c #383749",
"BJ 	c #1F1D2A",
"CJ 	c #05050E",
"DJ 	c #14141E",
"EJ 	c #605E79",
"FJ 	c #110E26",
"GJ 	c #09081B",
"HJ 	c #040315",
"IJ 	c #202332",
"JJ 	c #272938",
"KJ 	c #2B2D3E",
"LJ 	c #2A2F40",
"MJ 	c #191D2B",
"NJ 	c #0A061A",
"OJ 	c #110C25",
"PJ 	c #2A2644",
"QJ 	c #403C58",
"RJ 	c #56526E",
"SJ 	c #65637F",
"TJ 	c #84889E",
"UJ 	c #898FA3",
"VJ 	c #7F8698",
"WJ 	c #6E7483",
"XJ 	c #5A5F6D",
"YJ 	c #484B58",
"ZJ 	c #150816",
"`J 	c #481E39",
" K 	c #803762",
".K 	c #8B3B69",
"+K 	c #712E55",
"@K 	c #411730",
"#K 	c #592643",
"$K 	c #361529",
"%K 	c #1A0916",
"&K 	c #06030D",
"*K 	c #070816",
"=K 	c #080811",
"-K 	c #20263A",
";K 	c #2F3752",
">K 	c #3C4665",
",K 	c #566381",
"'K 	c #4A5571",
")K 	c #1C1B2B",
"!K 	c #191827",
"~K 	c #1D1B2A",
"{K 	c #282837",
"]K 	c #363A4D",
"^K 	c #424E65",
"/K 	c #202234",
"(K 	c #353D53",
"_K 	c #3E4866",
":K 	c #2C334C",
"<K 	c #1E1F28",
"[K 	c #363743",
"}K 	c #4B4C5D",
"|K 	c #22202E",
"1K 	c #12111B",
"2K 	c #525065",
"3K 	c #4E4B66",
"4K 	c #36334E",
"5K 	c #1A1635",
"6K 	c #100E26",
"7K 	c #09081D",
"8K 	c #080819",
"9K 	c #1F2231",
"0K 	c #262938",
"aK 	c #2B2E3D",
"bK 	c #2D3141",
"cK 	c #2B3041",
"dK 	c #272C3C",
"eK 	c #1D2232",
"fK 	c #080C1A",
"gK 	c #020312",
"hK 	c #050313",
"iK 	c #0F0B22",
"jK 	c #15102C",
"kK 	c #1A1434",
"lK 	c #1D1737",
"mK 	c #282342",
"nK 	c #3C3955",
"oK 	c #524F6B",
"pK 	c #63617E",
"qK 	c #83879D",
"rK 	c #888EA2",
"sK 	c #8C93A6",
"tK 	c #8B92A4",
"uK 	c #82899B",
"vK 	c #727888",
"wK 	c #5D6271",
"xK 	c #130814",
"yK 	c #291022",
"zK 	c #4F213D",
"AK 	c #7E345F",
"BK 	c #4E1D39",
"CK 	c #3C182E",
"DK 	c #07030E",
"EK 	c #131724",
"FK 	c #30364A",
"GK 	c #303648",
"HK 	c #282C3D",
"IK 	c #1D1A2A",
"JK 	c #262535",
"KK 	c #34374A",
"LK 	c #434B62",
"MK 	c #455067",
"NK 	c #363E52",
"OK 	c #222637",
"PK 	c #2D3448",
"QK 	c #323342",
"RK 	c #4A4B5C",
"SK 	c #616177",
"TK 	c #6C6C85",
"UK 	c #403E52",
"VK 	c #232230",
"WK 	c #05040C",
"XK 	c #10101A",
"YK 	c #5C5A77",
"ZK 	c #413E5B",
"`K 	c #161330",
" L 	c #0A091D",
".L 	c #0C0E1D",
"+L 	c #171D2B",
"@L 	c #262837",
"#L 	c #2A2D3D",
"$L 	c #2C3041",
"%L 	c #2D3242",
"&L 	c #2B3040",
"*L 	c #202535",
"=L 	c #171E2D",
"-L 	c #0D1221",
";L 	c #09071B",
">L 	c #131027",
",L 	c #1C1831",
"'L 	c #221E3C",
")L 	c #1A1337",
"!L 	c #252141",
"~L 	c #504D69",
"{L 	c #625F7C",
"]L 	c #6E6B88",
"^L 	c #7D7E98",
"/L 	c #82859D",
"(L 	c #888DA2",
"_L 	c #737A8B",
":L 	c #4A4E5B",
"<L 	c #2B2D37",
"[L 	c #17131C",
"}L 	c #24101E",
"|L 	c #602949",
"1L 	c #582342",
"2L 	c #55233F",
"3L 	c #230D1C",
"4L 	c #0B030F",
"5L 	c #01010B",
"6L 	c #201E2F",
"7L 	c #2A2B3C",
"8L 	c #3A4055",
"9L 	c #1C1929",
"0L 	c #242434",
"aL 	c #313448",
"bL 	c #525F7A",
"cL 	c #3E4860",
"dL 	c #31344B",
"eL 	c #3F3F52",
"fL 	c #56566B",
"gL 	c #282736",
"hL 	c #0E0D18",
"iL 	c #0D0D17",
"jL 	c #353545",
"kL 	c #4A4863",
"lL 	c #322F4B",
"mL 	c #1A1636",
"nL 	c #120F28",
"oL 	c #1E2130",
"pL 	c #252736",
"qL 	c #1A1F2F",
"rL 	c #2C2A3D",
"sL 	c #292643",
"tL 	c #1E1939",
"uL 	c #191337",
"vL 	c #37334F",
"wL 	c #605D79",
"xL 	c #7D7D97",
"yL 	c #606574",
"zL 	c #332C39",
"AL 	c #3B1E30",
"BL 	c #4B203A",
"CL 	c #4F213C",
"DL 	c #451B34",
"EL 	c #0D060F",
"FL 	c #0C0F1A",
"GL 	c #29314A",
"HL 	c #384363",
"IL 	c #363C51",
"JL 	c #303246",
"KL 	c #393C51",
"LL 	c #1B1828",
"ML 	c #212031",
"NL 	c #3F4962",
"OL 	c #31354E",
"PL 	c #3E3E52",
"QL 	c #2C2A3A",
"RL 	c #333242",
"SL 	c #49495D",
"TL 	c #5D5B76",
"UL 	c #494660",
"VL 	c #35304C",
"WL 	c #26203F",
"XL 	c #13102A",
"YL 	c #0C0A20",
"ZL 	c #060617",
"`L 	c #161C2B",
" M 	c #242635",
".M 	c #2D3040",
"+M 	c #282D3D",
"@M 	c #48465B",
"#M 	c #53516A",
"$M 	c #4E4C67",
"%M 	c #3F3D58",
"&M 	c #2C2946",
"*M 	c #1B1437",
"=M 	c #34304D",
"-M 	c #4A4762",
";M 	c #5D5B77",
">M 	c #868CA0",
",M 	c #858D9F",
"'M 	c #767D8E",
")M 	c #616474",
"!M 	c #514658",
"~M 	c #552F48",
"{M 	c #52243F",
"]M 	c #461D36",
"^M 	c #2D1627",
"/M 	c #201E30",
"(M 	c #444D66",
"_M 	c #3E455B",
":M 	c #444D64",
"<M 	c #3E485E",
"[M 	c #24283B",
"}M 	c #384158",
"|M 	c #3C4567",
"1M 	c #262A3F",
"2M 	c #2F2F40",
"3M 	c #444254",
"4M 	c #12111D",
"5M 	c #30303E",
"6M 	c #5F5D77",
"7M 	c #4C4962",
"8M 	c #36324E",
"9M 	c #272241",
"0M 	c #181432",
"aM 	c #14102B",
"bM 	c #0D0A21",
"cM 	c #1C1F2E",
"dM 	c #242938",
"eM 	c #1C2130",
"fM 	c #121927",
"gM 	c #0E1320",
"hM 	c #1A1B27",
"iM 	c #4B4A5D",
"jM 	c #63627D",
"kM 	c #56546F",
"lM 	c #43405B",
"mM 	c #201B3C",
"nM 	c #322E4B",
"oM 	c #484460",
"pM 	c #5C5975",
"qM 	c #8B91A5",
"rM 	c #717586",
"sM 	c #625669",
"tM 	c #623954",
"uM 	c #582844",
"vM 	c #46243D",
"wM 	c #312C44",
"xM 	c #4D5B75",
"yM 	c #3F4A61",
"zM 	c #2F364B",
"AM 	c #222639",
"BM 	c #202336",
"CM 	c #2C3248",
"DM 	c #414C65",
"EM 	c #404B6A",
"FM 	c #2C2B38",
"GM 	c #414151",
"HM 	c #323242",
"IM 	c #080710",
"JM 	c #625F7A",
"KM 	c #4E4C65",
"LM 	c #393651",
"MM 	c #0E0C22",
"NM 	c #121625",
"OM 	c #191D2C",
"PM 	c #282B3B",
"QM 	c #2B3142",
"RM 	c #1C2131",
"SM 	c #111724",
"TM 	c #222330",
"UM 	c #5B596F",
"VM 	c #44425D",
"WM 	c #1A1336",
"XM 	c #81889A",
"YM 	c #6D7282",
"ZM 	c #5D5565",
"`M 	c #5D3850",
" N 	c #5F2C49",
".N 	c #3B172B",
"+N 	c #632B4C",
"@N 	c #672E50",
"#N 	c #512A46",
"$N 	c #372E48",
"%N 	c #404B64",
"&N 	c #323A50",
"*N 	c #31384E",
"=N 	c #3D4761",
"-N 	c #45506D",
";N 	c #333B55",
">N 	c #0E101B",
",N 	c #3F3E4E",
"'N 	c #363546",
")N 	c #56556C",
"!N 	c #64617C",
"~N 	c #504E68",
"{N 	c #211B3D",
"]N 	c #121322",
"^N 	c #1C1E2D",
"/N 	c #2B2F3F",
"(N 	c #2C3242",
"_N 	c #292E3E",
":N 	c #232737",
"<N 	c #20212F",
"[N 	c #5C5A71",
"}N 	c #686883",
"|N 	c #474660",
"1N 	c #1A1437",
"2N 	c #2C2846",
"3N 	c #423F5B",
"4N 	c #575570",
"5N 	c #80829A",
"6N 	c #84899E",
"7N 	c #595E6B",
"8N 	c #423F4B",
"9N 	c #412838",
"0N 	c #4B2139",
"aN 	c #2C1020",
"bN 	c #15050E",
"cN 	c #2A233A",
"dN 	c #3D4868",
"eN 	c #3E4963",
"fN 	c #3C465F",
"gN 	c #363F5B",
"hN 	c #05060D",
"iN 	c #3B3B4B",
"jN 	c #1D1D2A",
"kN 	c #282735",
"lN 	c #2B2745",
"mN 	c #100D25",
"nN 	c #0F0F1E",
"oN 	c #252737",
"pN 	c #232736",
"qN 	c #1A1E2C",
"rN 	c #0F1421",
"sN 	c #161823",
"tN 	c #2F2F3D",
"uN 	c #757691",
"vN 	c #70748D",
"wN 	c #666D84",
"xN 	c #595D76",
"yN 	c #494962",
"zN 	c #36344F",
"AN 	c #25203F",
"BN 	c #191437",
"CN 	c #1B1538",
"DN 	c #2A2544",
"EN 	c #403D58",
"FN 	c #65627F",
"GN 	c #6F6C89",
"HN 	c #7C7F97",
"IN 	c #616676",
"JN 	c #434853",
"KN 	c #23262C",
"LN 	c #1A1119",
"MN 	c #2C1120",
"NN 	c #431C32",
"ON 	c #341024",
"PN 	c #732F56",
"QN 	c #63294B",
"RN 	c #471D36",
"SN 	c #220D1D",
"TN 	c #131020",
"UN 	c #3E4967",
"VN 	c #212335",
"WN 	c #191727",
"XN 	c #586887",
"YN 	c #404C67",
"ZN 	c #3B4560",
"`N 	c #45506E",
" O 	c #384361",
".O 	c #141827",
"+O 	c #070811",
"@O 	c #22212F",
"#O 	c #0A0914",
"$O 	c #05040D",
"%O 	c #56536E",
"&O 	c #403E58",
"*O 	c #2E2947",
"=O 	c #141422",
"-O 	c #1F202F",
";O 	c #252838",
">O 	c #292D3E",
",O 	c #181C2A",
"'O 	c #0A0E1B",
")O 	c #060810",
"!O 	c #31313E",
"~O 	c #686880",
"{O 	c #75758E",
"]O 	c #747991",
"^O 	c #6D778D",
"/O 	c #666E85",
"(O 	c #5C5F77",
"_O 	c #4C4C65",
":O 	c #383651",
"<O 	c #262341",
"[O 	c #1B1438",
"}O 	c #3D3955",
"|O 	c #64607D",
"1O 	c #787894",
"2O 	c #787D97",
"3O 	c #71798F",
"4O 	c #5E6677",
"5O 	c #404754",
"6O 	c #20252C",
"7O 	c #0A0A0F",
"8O 	c #10050C",
"9O 	c #240E1B",
"0O 	c #190711",
"aO 	c #803461",
"bO 	c #5F2749",
"cO 	c #3C4663",
"dO 	c #1B1A2B",
"eO 	c #46516C",
"fO 	c #333C52",
"gO 	c #353E57",
"hO 	c #45516E",
"iO 	c #363F5E",
"jO 	c #080A14",
"kO 	c #20202A",
"lO 	c #0D0C17",
"mO 	c #05050D",
"nO 	c #706D88",
"oO 	c #42405A",
"pO 	c #2F2C48",
"qO 	c #231E3E",
"rO 	c #1E193B",
"sO 	c #0A091E",
"tO 	c #0A0917",
"uO 	c #1D1E2D",
"vO 	c #181B29",
"wO 	c #070A19",
"xO 	c #020209",
"yO 	c #25272F",
"zO 	c #484A59",
"AO 	c #6B6F81",
"BO 	c #798195",
"CO 	c #727C90",
"DO 	c #707A8F",
"EO 	c #6A6F87",
"FO 	c #3B3854",
"GO 	c #292542",
"HO 	c #7A7E9A",
"IO 	c #7C85A0",
"JO 	c #6C788D",
"KO 	c #555F70",
"LO 	c #39404C",
"MO 	c #1D2128",
"NO 	c #090A0E",
"OO 	c #230D1A",
"PO 	c #280B1B",
"QO 	c #281025",
"RO 	c #171123",
"SO 	c #3A4462",
"TO 	c #31384C",
"UO 	c #202030",
"VO 	c #2D3042",
"WO 	c #3C4157",
"XO 	c #444C66",
"YO 	c #414B66",
"ZO 	c #222538",
"`O 	c #171628",
" P 	c #24273C",
".P 	c #374059",
"+P 	c #495571",
"@P 	c #0E0E17",
"#P 	c #46435E",
"$P 	c #312D4A",
"%P 	c #080816",
"&P 	c #111220",
"*P 	c #161726",
"=P 	c #151625",
"-P 	c #0C1120",
";P 	c #0B101F",
">P 	c #171A20",
",P 	c #383C45",
"'P 	c #626975",
")P 	c #878E9E",
"!P 	c #8E97A8",
"~P 	c #7E8799",
"{P 	c #737C90",
"]P 	c #72758F",
"^P 	c #62617C",
"/P 	c #514F6A",
"(P 	c #3E3B56",
"_P 	c #191236",
":P 	c #221E3D",
"<P 	c #373350",
"[P 	c #4E4B67",
"}P 	c #61607C",
"|P 	c #71748F",
"1P 	c #7C859F",
"2P 	c #8390AA",
"3P 	c #6D7A8E",
"4P 	c #576171",
"5P 	c #3D4450",
"6P 	c #21252D",
"7P 	c #0A0408",
"8P 	c #3B192C",
"9P 	c #4D223A",
"0P 	c #2A0D1E",
"aP 	c #411930",
"bP 	c #4E203C",
"cP 	c #471F3B",
"dP 	c #2E1F37",
"eP 	c #282B44",
"fP 	c #394262",
"gP 	c #4A5673",
"hP 	c #3A425A",
"iP 	c #1F1F31",
"jP 	c #2A2B3D",
"kP 	c #222337",
"lP 	c #110A1C",
"mP 	c #46526C",
"nP 	c #0B0E1A",
"oP 	c #464559",
"pP 	c #5D5A75",
"qP 	c #34314D",
"rP 	c #251F3F",
"sP 	c #181431",
"tP 	c #131029",
"uP 	c #0D0A20",
"vP 	c #050517",
"wP 	c #0E1321",
"xP 	c #181A20",
"yP 	c #363942",
"zP 	c #88919F",
"AP 	c #A7B1C0",
"BP 	c #B2BDCE",
"CP 	c #AAB4C5",
"DP 	c #80879B",
"EP 	c #757991",
"FP 	c #2D2946",
"GP 	c #4D4D67",
"HP 	c #666C85",
"IP 	c #707C91",
"JP 	c #596475",
"KP 	c #3F4754",
"LP 	c #252932",
"MP 	c #101117",
"NP 	c #5E2A48",
"OP 	c #662C4D",
"PP 	c #52213D",
"QP 	c #5A2344",
"RP 	c #6F2E54",
"SP 	c #612C4E",
"TP 	c #402945",
"UP 	c #333350",
"VP 	c #353D5D",
"WP 	c #475372",
"XP 	c #424C67",
"YP 	c #262A3C",
"ZP 	c #4F5D77",
"`P 	c #414A63",
" Q 	c #30354A",
".Q 	c #150F21",
"+Q 	c #3C445D",
"@Q 	c #07070F",
"#Q 	c #434355",
"$Q 	c #49485D",
"%Q 	c #13131E",
"&Q 	c #302F3F",
"*Q 	c #4B4862",
"=Q 	c #36334F",
"-Q 	c #1F193B",
";Q 	c #191432",
">Q 	c #14102A",
",Q 	c #0D0B21",
"'Q 	c #0C0F1C",
")Q 	c #151926",
"!Q 	c #181B28",
"~Q 	c #161824",
"{Q 	c #02030B",
"]Q 	c #171A1F",
"^Q 	c #32353D",
"/Q 	c #595E69",
"(Q 	c #828A97",
"_Q 	c #A7B0C1",
":Q 	c #BAC5D5",
"<Q 	c #C0CCDC",
"[Q 	c #989FB2",
"}Q 	c #84879F",
"|Q 	c #34344E",
"1Q 	c #50566D",
"2Q 	c #6B768D",
"3Q 	c #7F8DA6",
"4Q 	c #727F95",
"5Q 	c #5D687A",
"6Q 	c #434B59",
"7Q 	c #2B2C36",
"8Q 	c #341B2C",
"9Q 	c #592744",
"0Q 	c #7D375F",
"aQ 	c #8B3C69",
"bQ 	c #3B142B",
"cQ 	c #69294E",
"dQ 	c #803661",
"eQ 	c #6D3156",
"fQ 	c #462C48",
"gQ 	c #343450",
"hQ 	c #363D54",
"iQ 	c #242538",
"jQ 	c #232436",
"kQ 	c #171323",
"lQ 	c #272B3E",
"mQ 	c #333C59",
"nQ 	c #2A314A",
"oQ 	c #4D4C62",
"pQ 	c #333142",
"qQ 	c #444356",
"rQ 	c #4E4C66",
"sQ 	c #282442",
"tQ 	c #14112C",
"uQ 	c #080619",
"vQ 	c #090619",
"wQ 	c #070416",
"xQ 	c #2E2C3B",
"yQ 	c #13151A",
"zQ 	c #2D3139",
"AQ 	c #525862",
"BQ 	c #7E8693",
"CQ 	c #A3ADBC",
"DQ 	c #9AA1B5",
"EQ 	c #8587A0",
"FQ 	c #797894",
"GQ 	c #45435D",
"HQ 	c #1E1A3A",
"IQ 	c #363951",
"JQ 	c #535B72",
"KQ 	c #6D7992",
"LQ 	c #7F8EA6",
"MQ 	c #758398",
"NQ 	c #616B7E",
"OQ 	c #4F4E60",
"PQ 	c #54374E",
"QQ 	c #703355",
"RQ 	c #8B3D68",
"SQ 	c #8E3D6A",
"TQ 	c #321023",
"UQ 	c #5B2947",
"VQ 	c #39233A",
"WQ 	c #2A2B43",
"XQ 	c #536281",
"YQ 	c #1A1A2A",
"ZQ 	c #25293B",
"`Q 	c #3F496A",
" R 	c #101421",
".R 	c #05070F",
"+R 	c #59586E",
"@R 	c #514E68",
"#R 	c #100B23",
"$R 	c #474558",
"%R 	c #2C2E37",
"&R 	c #7A828F",
"*R 	c #9FA8B7",
"=R 	c #C0CADB",
"-R 	c #C1CBDD",
";R 	c #BCC6D8",
">R 	c #9EA4B9",
",R 	c #888AA3",
"'R 	c #5A5873",
")R 	c #47445F",
"!R 	c #33304C",
"~R 	c #231F3E",
"{R 	c #1E1B3B",
"]R 	c #34364F",
"^R 	c #50586F",
"/R 	c #7E8CA4",
"(R 	c #8C9CB6",
"_R 	c #8393AB",
":R 	c #616176",
"<R 	c #63455F",
"[R 	c #78395E",
"}R 	c #893C66",
"|R 	c #773258",
"1R 	c #52203C",
"2R 	c #37172A",
"3R 	c #50243E",
"4R 	c #3C1A2E",
"5R 	c #221423",
"6R 	c #1A1C2F",
"7R 	c #27293E",
"8R 	c #191528",
"9R 	c #393749",
"0R 	c #1E1D2A",
"aR 	c #161521",
"bR 	c #2E2D3E",
"cR 	c #48465D",
"dR 	c #5E5C76",
"eR 	c #3E3B55",
"fR 	c #211C3D",
"gR 	c #0A081C",
"hR 	c #17122F",
"iR 	c #131024",
"jR 	c #292837",
"kR 	c #515462",
"lR 	c #9CA5B4",
"mR 	c #B5BFCF",
"nR 	c #BDC7D9",
"oR 	c #B3BBCE",
"pR 	c #A1A7BB",
"qR 	c #74718F",
"rR 	c #5C5A75",
"sR 	c #4A4862",
"tR 	c #241F3E",
"uR 	c #31334D",
"vR 	c #4D546C",
"wR 	c #68738B",
"xR 	c #8696AE",
"yR 	c #768197",
"zR 	c #616276",
"AR 	c #5F455E",
"BR 	c #73385C",
"CR 	c #853A64",
"DR 	c #773359",
"ER 	c #56223E",
"FR 	c #290D1C",
"GR 	c #311223",
"HR 	c #542641",
"IR 	c #431D34",
"JR 	c #0C060D",
"KR 	c #465270",
"LR 	c #292C40",
"MR 	c #3B455B",
"NR 	c #373F55",
"OR 	c #4F4D61",
"PR 	c #3E3C4F",
"QR 	c #0B0A16",
"RR 	c #26233A",
"SR 	c #3C3954",
"TR 	c #231D3E",
"UR 	c #18142F",
"VR 	c #1A162E",
"WR 	c #1B182D",
"XR 	c #1A152E",
"YR 	c #191331",
"ZR 	c #201D34",
"`R 	c #39374C",
" S 	c #54526A",
".S 	c #6D6A86",
"+S 	c #66667E",
"@S 	c #929BAB",
"#S 	c #B1BBCB",
"$S 	c #B4BECF",
"%S 	c #A3A9BE",
"&S 	c #8D90A8",
"*S 	c #757290",
"=S 	c #4C4A65",
"-S 	c #2D2E49",
";S 	c #495068",
">S 	c #657087",
",S 	c #7A87A0",
"'S 	c #8291A9",
")S 	c #7B879D",
"!S 	c #656E80",
"~S 	c #4D4D5D",
"{S 	c #483247",
"]S 	c #5D2A4B",
"^S 	c #77345C",
"/S 	c #803861",
"(S 	c #56223F",
"_S 	c #582742",
":S 	c #592743",
"<S 	c #0E070F",
"[S 	c #141725",
"}S 	c #252B41",
"|S 	c #373F5C",
"1S 	c #434F6E",
"2S 	c #3E465F",
"3S 	c #1F2132",
"4S 	c #47546C",
"5S 	c #53617C",
"6S 	c #36405F",
"7S 	c #0F1017",
"8S 	c #22212C",
"9S 	c #413F52",
"0S 	c #272636",
"aS 	c #1F1C32",
"bS 	c #383357",
"cS 	c #454162",
"dS 	c #524F6D",
"eS 	c #595771",
"fS 	c #47455F",
"gS 	c #262241",
"hS 	c #1C1737",
"iS 	c #24203D",
"jS 	c #2F2C45",
"kS 	c #35324B",
"lS 	c #26213F",
"mS 	c #1C1539",
"nS 	c #25213C",
"oS 	c #3D3B54",
"pS 	c #757790",
"qS 	c #9BA4B6",
"rS 	c #B6C0D1",
"sS 	c #A5ADC1",
"tS 	c #9094AB",
"uS 	c #7E7F99",
"vS 	c #292442",
"wS 	c #1A1537",
"xS 	c #2B2C47",
"yS 	c #464B63",
"zS 	c #5E677F",
"AS 	c #6A748B",
"BS 	c #636A7F",
"CS 	c #4C505F",
"DS 	c #32323C",
"ES 	c #2A1A28",
"FS 	c #5D2849",
"GS 	c #78345B",
"HS 	c #823963",
"IS 	c #78335A",
"JS 	c #582441",
"KS 	c #341224",
"LS 	c #110309",
"MS 	c #2A0F1E",
"NS 	c #50223B",
"OS 	c #4D2139",
"PS 	c #441D34",
"QS 	c #301A2E",
"RS 	c #26263B",
"SS 	c #2E3347",
"TS 	c #1E1C2F",
"US 	c #3D4765",
"VS 	c #313A56",
"WS 	c #130617",
"XS 	c #160616",
"YS 	c #08020B",
"ZS 	c #57556C",
"`S 	c #3D3B4F",
" T 	c #2D2A43",
".T 	c #322D4F",
"+T 	c #3E395F",
"@T 	c #454164",
"#T 	c #514E6C",
"$T 	c #70718B",
"%T 	c #65667E",
"&T 	c #52526A",
"*T 	c #3A3952",
"=T 	c #4C4A64",
"-T 	c #3C3953",
";T 	c #4D4B65",
">T 	c #615E7A",
",T 	c #787993",
"'T 	c #787D95",
")T 	c #80889C",
"!T 	c #929BAD",
"~T 	c #A6B0C1",
"{T 	c #B7C1D3",
"]T 	c #A8AFC3",
"^T 	c #80809B",
"/T 	c #62607B",
"(T 	c #2A2744",
"_T 	c #272643",
":T 	c #3C3F58",
"<T 	c #494D64",
"[T 	c #44465A",
"}T 	c #16161E",
"|T 	c #210C1D",
"1T 	c #3D1A31",
"2T 	c #753359",
"3T 	c #813961",
"4T 	c #7B355B",
"5T 	c #632948",
"6T 	c #100308",
"7T 	c #491E34",
"8T 	c #612B4A",
"9T 	c #492842",
"0T 	c #332F4A",
"aT 	c #3F496C",
"bT 	c #424B65",
"cT 	c #282D3F",
"dT 	c #4B5875",
"eT 	c #3C4661",
"fT 	c #2C324A",
"gT 	c #2D1126",
"hT 	c #37172D",
"iT 	c #37162B",
"jT 	c #060208",
"kT 	c #5A5971",
"lT 	c #2D2A42",
"mT 	c #312D4E",
"nT 	c #383259",
"oT 	c #3E385E",
"pT 	c #444063",
"qT 	c #4F4C6B",
"rT 	c #5C5976",
"sT 	c #80859B",
"tT 	c #7C8296",
"uT 	c #6E7287",
"vT 	c #57596E",
"wT 	c #403F56",
"xT 	c #4B4863",
"yT 	c #63607C",
"zT 	c #262140",
"AT 	c #393551",
"BT 	c #4E4A66",
"CT 	c #5F5C79",
"DT 	c #6C6B87",
"ET 	c #72768F",
"FT 	c #737C93",
"GT 	c #768096",
"HT 	c #80899D",
"IT 	c #9099AB",
"JT 	c #A3ACBE",
"KT 	c #959AB0",
"LT 	c #53516C",
"MT 	c #2D2A47",
"NT 	c #201C3C",
"OT 	c #0B0410",
"PT 	c #1F0D1B",
"QT 	c #3A182E",
"RT 	c #743358",
"ST 	c #883B65",
"TT 	c #873A64",
"UT 	c #260C19",
"VT 	c #502038",
"WT 	c #6C2E4E",
"XT 	c #703253",
"YT 	c #532B47",
"ZT 	c #352F4A",
"`T 	c #343B5A",
" U 	c #384364",
".U 	c #4A5877",
"+U 	c #343B4F",
"@U 	c #252A3E",
"#U 	c #1F0B1A",
"$U 	c #35152A",
"%U 	c #5E2947",
"&U 	c #08030A",
"*U 	c #4D4C60",
"=U 	c #313140",
"-U 	c #332D51",
";U 	c #3D385F",
">U 	c #433F62",
",U 	c #575572",
"'U 	c #72728D",
")U 	c #7F839A",
"!U 	c #888FA3",
"~U 	c #81889B",
"{U 	c #5E5F74",
"]U 	c #57566F",
"^U 	c #6D6A87",
"/U 	c #54516D",
"(U 	c #403C59",
"_U 	c #37324F",
":U 	c #5C5D76",
"<U 	c #676D84",
"[U 	c #6E788D",
"}U 	c #717C92",
"|U 	c #7E869B",
"1U 	c #8C92A7",
"2U 	c #9EA6B9",
"3U 	c #979DB2",
"4U 	c #84859F",
"5U 	c #55536E",
"6U 	c #42405B",
"7U 	c #15112C",
"8U 	c #0D0610",
"9U 	c #210D1B",
"0U 	c #823862",
"aU 	c #994273",
"bU 	c #883966",
"cU 	c #582241",
"dU 	c #381528",
"eU 	c #56243E",
"fU 	c #652C49",
"gU 	c #5E2946",
"hU 	c #412038",
"iU 	c #2B314D",
"jU 	c #374263",
"kU 	c #343B50",
"lU 	c #45516A",
"mU 	c #424D67",
"nU 	c #39425A",
"oU 	c #1D0B19",
"pU 	c #53233F",
"qU 	c #763357",
"rU 	c #200B17",
"sU 	c #0C030A",
"tU 	c #15161E",
"uU 	c #424052",
"vU 	c #565369",
"wU 	c #5D5971",
"xU 	c #544F64",
"yU 	c #363342",
"zU 	c #191721",
"AU 	c #0D0C18",
"BU 	c #19162B",
"CU 	c #272340",
"DU 	c #312C50",
"EU 	c #3E375E",
"FU 	c #565372",
"GU 	c #6A6A85",
"HU 	c #7C8096",
"IU 	c #848A9D",
"JU 	c #787C90",
"KU 	c #71718B",
"LU 	c #56526F",
"MU 	c #433F5B",
"NU 	c #474860",
"OU 	c #585E72",
"PU 	c #656E81",
"QU 	c #727A92",
"RU 	c #777B94",
"SU 	c #7D7F98",
"TU 	c #8A8DA4",
"UU 	c #9CA3B7",
"VU 	c #AEB6C9",
"WU 	c #9AA0B5",
"XU 	c #8588A0",
"YU 	c #73718F",
"ZU 	c #585570",
"`U 	c #45425D",
" V 	c #0E0B23",
".V 	c #0B050D",
"+V 	c #230E1D",
"@V 	c #8B3D6A",
"#V 	c #56213F",
"$V 	c #240F20",
"%V 	c #121425",
"&V 	c #1F253A",
"*V 	c #29324C",
"=V 	c #4F5E7D",
"-V 	c #556483",
";V 	c #1D1D2F",
">V 	c #384157",
",V 	c #4D5B76",
"'V 	c #3D485F",
")V 	c #2C3445",
"!V 	c #2B3345",
"~V 	c #3A445C",
"{V 	c #272E3F",
"]V 	c #232839",
"^V 	c #333B50",
"/V 	c #363C50",
"(V 	c #252635",
"_V 	c #301427",
":V 	c #4F213E",
"<V 	c #813860",
"[V 	c #743154",
"}V 	c #57243F",
"|V 	c #050409",
"1V 	c #17141D",
"2V 	c #332A39",
"3V 	c #4F3E53",
"4V 	c #58425A",
"5V 	c #4E384E",
"6V 	c #311E2E",
"7V 	c #140710",
"8V 	c #17142A",
"9V 	c #25213D",
"0V 	c #302B4D",
"aV 	c #383257",
"bV 	c #4B4669",
"cV 	c #80869A",
"dV 	c #868DA0",
"eV 	c #82879C",
"fV 	c #666380",
"gV 	c #45415E",
"hV 	c #302C49",
"iV 	c #44485C",
"jV 	c #646B81",
"kV 	c #6F728C",
"lV 	c #747590",
"mV 	c #7C7B96",
"nV 	c #B1BACC",
"oV 	c #8889A2",
"pV 	c #747390",
"qV 	c #484560",
"rV 	c #100C25",
"sV 	c #09071A",
"tV 	c #140716",
"uV 	c #2D1225",
"vV 	c #4C213C",
"wV 	c #75335A",
"xV 	c #873B66",
"yV 	c #4C1C37",
"zV 	c #160715",
"AV 	c #1E253A",
"BV 	c #26283B",
"CV 	c #202534",
"DV 	c #2D3445",
"EV 	c #4C566E",
"FV 	c #465066",
"GV 	c #2F3647",
"HV 	c #141720",
"IV 	c #2A3041",
"JV 	c #47516A",
"KV 	c #171924",
"LV 	c #0F111C",
"MV 	c #212435",
"NV 	c #26283A",
"OV 	c #2D1224",
"PV 	c #481F39",
"QV 	c #723156",
"RV 	c #58233F",
"SV 	c #331223",
"TV 	c #3A1629",
"UV 	c #1B0C18",
"VV 	c #3F1F34",
"WV 	c #623350",
"XV 	c #693655",
"YV 	c #5B2D49",
"ZV 	c #150712",
"`V 	c #151326",
" W 	c #24203B",
".W 	c #2F2A4C",
"+W 	c #423C62",
"@W 	c #4F4B6C",
"#W 	c #605F7A",
"$W 	c #7F8499",
"%W 	c #8A91A5",
"&W 	c #868BA1",
"*W 	c #7D7D98",
"=W 	c #686481",
"-W 	c #484561",
";W 	c #211D3D",
">W 	c #2E2D47",
",W 	c #42435B",
"'W 	c #555770",
")W 	c #666581",
"!W 	c #989DB2",
"~W 	c #AAB3C6",
"{W 	c #A1A7BC",
"]W 	c #8C8EA6",
"^W 	c #7B7A96",
"/W 	c #252140",
"(W 	c #17112F",
"_W 	c #140D26",
":W 	c #271128",
"<W 	c #652C4F",
"[W 	c #833863",
"}W 	c #682B4D",
"|W 	c #7B355E",
"1W 	c #441D37",
"2W 	c #291023",
"3W 	c #140815",
"4W 	c #404C6C",
"5W 	c #31384D",
"6W 	c #404A63",
"7W 	c #2A3043",
"8W 	c #141724",
"9W 	c #262A34",
"0W 	c #474D5B",
"aW 	c #5B6172",
"bW 	c #575C6D",
"cW 	c #3C3F4B",
"dW 	c #17191E",
"eW 	c #121418",
"fW 	c #2B2F39",
"gW 	c #444B5B",
"hW 	c #50596D",
"iW 	c #4B5265",
"jW 	c #353947",
"kW 	c #1B1C24",
"lW 	c #11121E",
"mW 	c #1B1D2D",
"nW 	c #1A1C2D",
"oW 	c #100E1C",
"pW 	c #160815",
"qW 	c #451D37",
"rW 	c #723258",
"sW 	c #311022",
"tW 	c #1F0814",
"uW 	c #2E1223",
"vW 	c #53243F",
"wW 	c #6C3052",
"xW 	c #682E4E",
"yW 	c #4C213B",
"zW 	c #321526",
"AW 	c #070611",
"BW 	c #131023",
"CW 	c #211E38",
"DW 	c #2E2A4A",
"EW 	c #433D63",
"FW 	c #4E4A6B",
"GW 	c #6F7189",
"HW 	c #7D8297",
"IW 	c #878EA1",
"JW 	c #4A4763",
"KW 	c #36324F",
"LW 	c #241E3F",
"MW 	c #54526E",
"NW 	c #64617E",
"OW 	c #969AB0",
"PW 	c #A9B0C4",
"QW 	c #7C7C98",
"RW 	c #393652",
"SW 	c #1B122F",
"TW 	c #321732",
"UW 	c #552445",
"VW 	c #722F54",
"WW 	c #682B4E",
"XW 	c #7F3761",
"YW 	c #491E3A",
"ZW 	c #2E1226",
"`W 	c #1A0918",
" X 	c #121728",
".X 	c #1C2237",
"+X 	c #4C5A74",
"@X 	c #282F41",
"#X 	c #10121F",
"$X 	c #454952",
"%X 	c #707784",
"&X 	c #858D9D",
"*X 	c #7F8797",
"=X 	c #656B78",
"-X 	c #424650",
";X 	c #30323B",
">X 	c #414652",
",X 	c #5B6475",
"'X 	c #6A7589",
")X 	c #667085",
"!X 	c #4F5667",
"~X 	c #333742",
"{X 	c #1C1F26",
"]X 	c #070311",
"^X 	c #1E0A1C",
"/X 	c #542240",
"(X 	c #652B4C",
"_X 	c #642A4A",
":X 	c #39162A",
"<X 	c #060410",
"[X 	c #120F21",
"}X 	c #201D36",
"|X 	c #2D2848",
"1X 	c #4C486A",
"2X 	c #5B5A76",
"3X 	c #6C6E86",
"4X 	c #7C8095",
"5X 	c #8A93A5",
"6X 	c #83869D",
"7X 	c #5E5A77",
"8X 	c #4D4965",
"9X 	c #383451",
"0X 	c #3E3A57",
"aX 	c #524E6B",
"bX 	c #9296AC",
"cX 	c #A6ADC0",
"dX 	c #A6ADC1",
"eX 	c #8F93AB",
"fX 	c #7E7E98",
"gX 	c #1B1231",
"hX 	c #301632",
"iX 	c #532442",
"jX 	c #763158",
"kX 	c #743056",
"lX 	c #833862",
"mX 	c #7D365F",
"nX 	c #321429",
"oX 	c #1D0A1A",
"pX 	c #232B42",
"qX 	c #2D3652",
"rX 	c #596684",
"sX 	c #3A445A",
"tX 	c #40444E",
"uX 	c #6F7581",
"vX 	c #AAB3C4",
"wX 	c #A3ADBE",
"xX 	c #8C94A4",
"yX 	c #6E7482",
"zX 	c #606879",
"AX 	c #748195",
"BX 	c #818FA6",
"CX 	c #6E7A8F",
"DX 	c #535C6C",
"EX 	c #373C48",
"FX 	c #1F212A",
"GX 	c #01000E",
"HX 	c #4D213D",
"IX 	c #341226",
"JX 	c #10030B",
"KX 	c #753158",
"LX 	c #2B0F20",
"MX 	c #070209",
"NX 	c #100E1F",
"OX 	c #1F1C34",
"PX 	c #2B2847",
"QX 	c #413B62",
"RX 	c #4A4669",
"SX 	c #595875",
"TX 	c #6B6C84",
"UX 	c #797E93",
"VX 	c #848B9F",
"WX 	c #8B93A5",
"XX 	c #8C95A7",
"YX 	c #605C79",
"ZX 	c #4F4B67",
"`X 	c #3B3754",
" Y 	c #3C3854",
".Y 	c #615D7A",
"+Y 	c #6C6986",
"@Y 	c #81829B",
"#Y 	c #9195AA",
"$Y 	c #A4ABBE",
"%Y 	c #A8B0C4",
"&Y 	c #9397AE",
"*Y 	c #80819B",
"=Y 	c #514E69",
"-Y 	c #3D3B56",
";Y 	c #1D1836",
">Y 	c #16102C",
",Y 	c #211026",
"'Y 	c #3E1A31",
")Y 	c #662C4C",
"!Y 	c #78325A",
"~Y 	c #7F345F",
"{Y 	c #53203D",
"]Y 	c #6B2D50",
"^Y 	c #813962",
"/Y 	c #4F213F",
"(Y 	c #0E0815",
"_Y 	c #151A2C",
":Y 	c #21283F",
"<Y 	c #232937",
"[Y 	c #424B61",
"}Y 	c #646B7A",
"|Y 	c #9098A7",
"1Y 	c #B0BBCB",
"2Y 	c #939CAC",
"3Y 	c #858C9D",
"4Y 	c #818B9F",
"5Y 	c #8795AC",
"6Y 	c #6F7B90",
"7Y 	c #565F70",
"8Y 	c #3B404D",
"9Y 	c #23252F",
"0Y 	c #291024",
"aY 	c #4E213E",
"bY 	c #813861",
"cY 	c #6E2E52",
"dY 	c #63274A",
"eY 	c #060204",
"fY 	c #200B1A",
"gY 	c #0E0D1C",
"hY 	c #1D1A32",
"iY 	c #2A2645",
"jY 	c #3C355E",
"kY 	c #403961",
"lY 	c #494467",
"mY 	c #565572",
"nY 	c #757A8E",
"oY 	c #8B94A6",
"pY 	c #84899F",
"qY 	c #6C6985",
"rY 	c #625E7A",
"sY 	c #514E6A",
"tY 	c #3D3956",
"uY 	c #4E4966",
"vY 	c #5F5B78",
"wY 	c #7F7F99",
"xY 	c #8E91A8",
"yY 	c #A1A9BC",
"zY 	c #3F3D57",
"AY 	c #2A283F",
"BY 	c #161428",
"CY 	c #0A0715",
"DY 	c #713055",
"EY 	c #461B33",
"FY 	c #431930",
"GY 	c #672A4C",
"HY 	c #7D365E",
"IY 	c #823863",
"JY 	c #703157",
"KY 	c #37162D",
"LY 	c #1F0B1D",
"MY 	c #0C0515",
"NY 	c #0A0A1B",
"OY 	c #1F263B",
"PY 	c #566684",
"QY 	c #0E121A",
"RY 	c #1E2431",
"SY 	c #30394B",
"TY 	c #414D64",
"UY 	c #58647E",
"VY 	c #778095",
"WY 	c #9CA6B8",
"XY 	c #B6C2D3",
"YY 	c #A5AFC0",
"ZY 	c #9EAABC",
"`Y 	c #91A1B9",
" Z 	c #414654",
".Z 	c #2E313D",
"+Z 	c #200B1F",
"@Z 	c #7B355D",
"#Z 	c #692B4D",
"$Z 	c #471B33",
"%Z 	c #2A0B1D",
"&Z 	c #481A35",
"*Z 	c #441831",
"=Z 	c #481E37",
"-Z 	c #3C192F",
";Z 	c #250E1D",
">Z 	c #0D0B1A",
",Z 	c #1B192F",
"'Z 	c #292443",
")Z 	c #332E51",
"!Z 	c #3C355D",
"~Z 	c #3E375F",
"{Z 	c #443F61",
"]Z 	c #4D4D66",
"^Z 	c #5D5F72",
"/Z 	c #6F7485",
"(Z 	c #8990A4",
"_Z 	c #63607D",
":Z 	c #54506D",
"<Z 	c #2C2746",
"[Z 	c #4B4763",
"}Z 	c #5D5A76",
"|Z 	c #8B8EA5",
"1Z 	c #84859E",
"2Z 	c #747290",
"3Z 	c #54536C",
"4Z 	c #252433",
"5Z 	c #0D060C",
"6Z 	c #6A2E50",
"7Z 	c #692E50",
"8Z 	c #3F172D",
"9Z 	c #64294A",
"0Z 	c #813862",
"aZ 	c #3A1730",
"bZ 	c #1F0A1F",
"cZ 	c #0C0516",
"dZ 	c #1D2439",
"eZ 	c #3A4459",
"fZ 	c #030408",
"gZ 	c #0D1018",
"hZ 	c #1C222E",
"iZ 	c #4E5A74",
"jZ 	c #5C6A87",
"kZ 	c #6F7C95",
"lZ 	c #8E9AAF",
"mZ 	c #A9B5C7",
"nZ 	c #B7C3D3",
"oZ 	c #B1BECF",
"pZ 	c #A7B5C9",
"qZ 	c #9AA9C0",
"rZ 	c #91A2BA",
"sZ 	c #8D9EB7",
"tZ 	c #8493AB",
"uZ 	c #768298",
"vZ 	c #484F60",
"wZ 	c #0E0F1D",
"xZ 	c #5F2949",
"yZ 	c #250B19",
"zZ 	c #1E0916",
"AZ 	c #492039",
"BZ 	c #3B1A2F",
"CZ 	c #250F1E",
"DZ 	c #0E060F",
"EZ 	c #04030A",
"FZ 	c #0A0916",
"GZ 	c #383157",
"HZ 	c #342F50",
"IZ 	c #333249",
"JZ 	c #3E404E",
"KZ 	c #535764",
"LZ 	c #8890A1",
"MZ 	c #858A9F",
"NZ 	c #65617E",
"OZ 	c #55526F",
"PZ 	c #433E5B",
"QZ 	c #2F2A48",
"RZ 	c #231D3D",
"SZ 	c #342F4D",
"TZ 	c #494561",
"UZ 	c #898DA3",
"VZ 	c #9CA2B7",
"WZ 	c #BBC5D6",
"XZ 	c #AEB7CA",
"YZ 	c #9BA0B5",
"ZZ 	c #8788A1",
"`Z 	c #272732",
" ` 	c #221822",
".` 	c #411C31",
"+` 	c #672D4E",
"@` 	c #381427",
"#` 	c #5D2645",
"$` 	c #7B355C",
"%` 	c #220C21",
"&` 	c #100617",
"*` 	c #28314A",
"=` 	c #313B59",
"-` 	c #333C50",
";` 	c #1D2330",
">` 	c #0B0E16",
",` 	c #1A1F2B",
"'` 	c #2B3344",
")` 	c #3D475C",
"!` 	c #74819A",
"~` 	c #909BB1",
"{` 	c #B4C0D2",
"]` 	c #A9B6CA",
"^` 	c #9CABC1",
"/` 	c #92A3BA",
"(` 	c #717D93",
"_` 	c #525A6D",
":` 	c #313646",
"<` 	c #3C1830",
"[` 	c #7F3760",
"}` 	c #51213B",
"|` 	c #2A0E1D",
"1` 	c #451E36",
"2` 	c #441E36",
"3` 	c #24101F",
"4` 	c #171529",
"5` 	c #26223D",
"6` 	c #302A49",
"7` 	c #312C4B",
"8` 	c #25243F",
"9` 	c #1B1B2F",
"0` 	c #20222C",
"a` 	c #343740",
"b` 	c #4E525E",
"c` 	c #676D7C",
"d` 	c #7B8293",
"e` 	c #878FA0",
"f` 	c #66637F",
"g` 	c #302C4A",
"h` 	c #1A1438",
"i` 	c #211B3C",
"j` 	c #46435F",
"k` 	c #595672",
"l` 	c #ADB5C8",
"m` 	c #BFCBDB",
"n` 	c #878AA3",
"o` 	c #434151",
"p` 	c #433041",
"q` 	c #5D2D49",
"r` 	c #6E3053",
"s` 	c #622949",
"t` 	c #5A2442",
"u` 	c #250D23",
"v` 	c #110618",
"w` 	c #090718",
"x` 	c #303A58",
"y` 	c #1D212E",
"z` 	c #090A11",
"A` 	c #0A0C14",
"B` 	c #191D28",
"C` 	c #293041",
"D` 	c #4A566F",
"E` 	c #8A95AB",
"F` 	c #A2AEC0",
"G` 	c #B5C1D3",
"H` 	c #AAB8CB",
"I` 	c #9DACC2",
"J` 	c #93A3BB",
"K` 	c #8D9EB6",
"L` 	c #8594AC",
"M` 	c #738097",
"N` 	c #545D71",
"O` 	c #32384A",
"P` 	c #1C091B",
"Q` 	c #803760",
"R` 	c #743155",
"S` 	c #592340",
"T` 	c #351125",
"U` 	c #180611",
"V` 	c #2B1022",
"W` 	c #3C1A30",
"X` 	c #411E34",
"Y` 	c #391A2E",
"Z` 	c #261120",
"`` 	c #0B0712",
"  .	c #21172A",
". .	c #37243E",
"+ .	c #3F2944",
"@ .	c #2C1E35",
"# .	c #130F1F",
"$ .	c #191A21",
"% .	c #31333C",
"& .	c #4B4F5B",
"* .	c #646A78",
"= .	c #798090",
"- .	c #868E9F",
"; .	c #878CA1",
"> .	c #484461",
", .	c #332F4C",
"' .	c #1A1237",
") .	c #43405C",
"! .	c #565370",
"~ .	c #7B7A95",
"{ .	c #ABB3C5",
"] .	c #A0A7BC",
"^ .	c #8A8EA6",
"/ .	c #575268",
"( .	c #583F56",
"_ .	c #6E3758",
": .	c #79355B",
"< .	c #3F182D",
"[ .	c #1D0712",
"} .	c #2F1020",
"| .	c #753257",
"1 .	c #833962",
"2 .	c #431C38",
"3 .	c #280F25",
"4 .	c #120619",
"5 .	c #1C1C2A",
"6 .	c #030306",
"7 .	c #282F3F",
"8 .	c #384357",
"9 .	c #576785",
"0 .	c #6D7B95",
"a .	c #8692A8",
"b .	c #9EAABD",
"c .	c #B7C3D5",
"d .	c #9EACC2",
"e .	c #8D9CB4",
"f .	c #667288",
"g .	c #474F64",
"h .	c #181B30",
"i .	c #0E0916",
"j .	c #190818",
"k .	c #552442",
"l .	c #863A62",
"m .	c #80365E",
"n .	c #612647",
"o .	c #290C1C",
"p .	c #13050E",
"q .	c #270F1F",
"r .	c #38182D",
"s .	c #401C34",
"t .	c #3A1A2F",
"u .	c #160814",
"v .	c #180814",
"w .	c #34162A",
"x .	c #502541",
"y .	c #5A2B4A",
"z .	c #47223D",
"A .	c #2A1326",
"B .	c #16171D",
"C .	c #2D2F37",
"D .	c #626776",
"E .	c #777D8E",
"F .	c #858C9E",
"G .	c #7A7894",
"H .	c #241E3E",
"I .	c #84869E",
"J .	c #A8B1C4",
"K .	c #A2A9BE",
"L .	c #8D91A8",
"M .	c #5A546C",
"N .	c #583F57",
"O .	c #6E3759",
"P .	c #813A61",
"Q .	c #81385E",
"R .	c #692C4C",
"S .	c #441A30",
"T .	c #19060F",
"U .	c #723055",
"V .	c #7C365F",
"W .	c #471D3A",
"X .	c #2A1027",
"Y .	c #14071A",
"Z .	c #0A0617",
"` .	c #0E0F1F",
" ..	c #242B43",
"...	c #525E7C",
"+..	c #48506C",
"@..	c #3B3F59",
"#..	c #2D2C42",
"$..	c #1C1B2A",
"%..	c #090A12",
"&..	c #171B26",
"*..	c #262E3D",
"=..	c #374155",
"-..	c #46536C",
";..	c #838FA6",
">..	c #9DA8BC",
",..	c #AFBACC",
"'..	c #A6B2C5",
")..	c #8C98AD",
"!..	c #4F596E",
"~..	c #32384F",
"{..	c #23273C",
"]..	c #313746",
"^..	c #2E3240",
"/..	c #1D202A",
"(..	c #0D0A13",
"_..	c #180816",
":..	c #823861",
"<..	c #8C3B68",
"[..	c #240D1D",
"}..	c #411D34",
"|..	c #3C1B31",
"1..	c #331629",
"2..	c #37172C",
"3..	c #52233F",
"4..	c #14161B",
"5..	c #2A2C35",
"6..	c #434752",
"7..	c #757B8B",
"8..	c #514F68",
"9..	c #3E3C54",
"0..	c #272540",
"a..	c #BEC8DA",
"b..	c #A5ADC0",
"c..	c #494559",
"d..	c #453045",
"e..	c #5B2C49",
"f..	c #763559",
"g..	c #873B64",
"h..	c #622849",
"i..	c #4F1F39",
"j..	c #702F53",
"k..	c #4B203D",
"l..	c #2E1229",
"m..	c #17081B",
"n..	c #0B0616",
"o..	c #0C0D1E",
"p..	c #161B2E",
"q..	c #222A41",
"r..	c #2D3653",
"s..	c #4C5674",
"t..	c #474B6A",
"u..	c #42425F",
"v..	c #1D1C2C",
"w..	c #0C0B15",
"x..	c #0A0C13",
"y..	c #242B3A",
"z..	c #5C6B88",
"A..	c #7F8CA3",
"B..	c #ADB9CA",
"C..	c #828A9D",
"D..	c #5B6277",
"E..	c #373D54",
"F..	c #363D51",
"G..	c #495164",
"H..	c #535C6E",
"I..	c #4C5464",
"J..	c #1D1D26",
"K..	c #1B0F1C",
"L..	c #38172D",
"M..	c #7B335C",
"N..	c #622649",
"O..	c #35172B",
"P..	c #522440",
"Q..	c #662C4E",
"R..	c #612A4A",
"S..	c #652A4E",
"T..	c #121419",
"U..	c #40444F",
"V..	c #5B5F6D",
"W..	c #717887",
"X..	c #828A9B",
"Y..	c #71708A",
"Z..	c #5C5D72",
"`..	c #44475A",
" +.	c #2B2B43",
".+.	c #1B1337",
"++.	c #282341",
"@+.	c #504C68",
"#+.	c #9094AA",
"$+.	c #A3AABE",
"%+.	c #A7B0C3",
"&+.	c #8E93A9",
"*+.	c #6D6E85",
"=+.	c #2D2B3A",
"-+.	c #261A28",
";+.	c #5C2846",
">+.	c #8D3D6A",
",+.	c #732F55",
"'+.	c #361226",
")+.	c #070103",
"!+.	c #4E213F",
"~+.	c #32132B",
"{+.	c #1A081C",
"]+.	c #0A0516",
"^+.	c #424D6D",
"/+.	c #444E6A",
"(+.	c #444967",
"_+.	c #434160",
":+.	c #413E5C",
"<+.	c #37344F",
"[+.	c #252338",
"}+.	c #121020",
"|+.	c #151A24",
"1+.	c #232A37",
"2+.	c #333C4E",
"3+.	c #505E78",
"4+.	c #7C89A0",
"5+.	c #ACB8C9",
"6+.	c #ADB6C9",
"7+.	c #9299AB",
"8+.	c #6B7083",
"9+.	c #42465B",
"0+.	c #4F586D",
"a+.	c #657185",
"b+.	c #707D91",
"c+.	c #3D404E",
"d+.	c #3D2A3C",
"e+.	c #562844",
"f+.	c #0A0207",
"g+.	c #632A4C",
"h+.	c #75325A",
"i+.	c #4B1D38",
"j+.	c #371429",
"k+.	c #4D1E3A",
"l+.	c #35152B",
"m+.	c #24262E",
"n+.	c #3D404B",
"o+.	c #585C69",
"p+.	c #707685",
"q+.	c #7D7F97",
"r+.	c #7D8196",
"s+.	c #747A8D",
"t+.	c #5F6678",
"u+.	c #444A5E",
"v+.	c #2B2C45",
"w+.	c #4E4A67",
"x+.	c #6B6886",
"y+.	c #726F8D",
"z+.	c #787691",
"A+.	c #8E92A9",
"B+.	c #A2A9BD",
"C+.	c #B3BCCE",
"D+.	c #808797",
"E+.	c #545865",
"F+.	c #272830",
"G+.	c #0F0A11",
"H+.	c #6D3053",
"I+.	c #863B63",
"J+.	c #702F51",
"K+.	c #7F365F",
"L+.	c #542343",
"M+.	c #34152D",
"N+.	c #1B091D",
"O+.	c #0C0617",
"P+.	c #2B344F",
"Q+.	c #363F5D",
"R+.	c #353C57",
"S+.	c #363A54",
"T+.	c #3A3B56",
"U+.	c #403E5A",
"V+.	c #43405E",
"W+.	c #403E5B",
"X+.	c #35324D",
"Y+.	c #232136",
"Z+.	c #070A10",
"`+.	c #121720",
" @.	c #414D63",
".@.	c #4E5C76",
"+@.	c #79879E",
"@@.	c #94A1B5",
"#@.	c #A7B2C4",
"$@.	c #959DAF",
"%@.	c #73788B",
"&@.	c #4A4D61",
"*@.	c #232740",
"=@.	c #363B51",
"-@.	c #50586C",
";@.	c #687388",
">@.	c #7A889F",
",@.	c #8292AA",
"'@.	c #595E71",
")@.	c #5A4158",
"!@.	c #703658",
"~@.	c #703154",
"{@.	c #5D2546",
"]@.	c #62294C",
"^@.	c #3A172E",
"/@.	c #1B0919",
"(@.	c #21232A",
"_@.	c #393D47",
":@.	c #545966",
"<@.	c #6D7382",
"[@.	c #7F8697",
"}@.	c #7E8198",
"|@.	c #84889F",
"1@.	c #848C9E",
"2@.	c #757E91",
"3@.	c #60697C",
"4@.	c #464D61",
"5@.	c #2D2E47",
"6@.	c #5D5976",
"7@.	c #9FA5B9",
"8@.	c #4E535B",
"9@.	c #2A2930",
"0@.	c #291424",
"a@.	c #743357",
"b@.	c #652A48",
"c@.	c #2D0F1E",
"d@.	c #40182E",
"e@.	c #652A4B",
"f@.	c #7C355D",
"g@.	c #391730",
"h@.	c #1E0A1F",
"i@.	c #0E0517",
"j@.	c #0C091A",
"k@.	c #24283D",
"l@.	c #24253A",
"m@.	c #2E2C44",
"n@.	c #3B3651",
"o@.	c #2C273F",
"p@.	c #181527",
"q@.	c #0B0713",
"r@.	c #110A16",
"s@.	c #150B17",
"t@.	c #0E070E",
"u@.	c #0E111A",
"v@.	c #2E3747",
"w@.	c #3F4B61",
"x@.	c #62718D",
"y@.	c #8590A5",
"z@.	c #858FA1",
"A@.	c #707789",
"B@.	c #4F5265",
"C@.	c #2D2F45",
"D@.	c #383D52",
"E@.	c #575D70",
"F@.	c #717A8D",
"G@.	c #828EA3",
"H@.	c #8A99B0",
"I@.	c #8A9AB4",
"J@.	c #7D8BA3",
"K@.	c #696D83",
"L@.	c #644B63",
"M@.	c #6F3758",
"N@.	c #421830",
"O@.	c #441A34",
"P@.	c #3B182F",
"Q@.	c #1F0B1B",
"R@.	c #373A43",
"S@.	c #515662",
"T@.	c #7C8495",
"U@.	c #7B7F94",
"V@.	c #76778F",
"W@.	c #7A7C93",
"X@.	c #83899D",
"Y@.	c #848EA0",
"Z@.	c #768093",
"`@.	c #626B7F",
" #.	c #4A5165",
".#.	c #1E1B39",
"+#.	c #181135",
"@#.	c #B4C0D0",
"##.	c #A0A9B8",
"$#.	c #7F8592",
"%#.	c #575662",
"&#.	c #4D3144",
"*#.	c #682D4E",
"=#.	c #7C365C",
"-#.	c #4E1F37",
";#.	c #17050D",
">#.	c #371427",
",#.	c #5F2746",
"'#.	c #833963",
")#.	c #5A2647",
"!#.	c #220D21",
"~#.	c #0F0617",
"{#.	c #202338",
"]#.	c #2F304A",
"^#.	c #373553",
"/#.	c #2E2E49",
"(#.	c #1F2137",
"_#.	c #121220",
":#.	c #312942",
"<#.	c #3D304B",
"[#.	c #362841",
"}#.	c #25192D",
"|#.	c #0D0715",
"1#.	c #08040D",
"2#.	c #1E0D1C",
"3#.	c #33182B",
"4#.	c #2B1322",
"5#.	c #160812",
"6#.	c #1B202C",
"7#.	c #2C3444",
"8#.	c #3D485D",
"9#.	c #4B5972",
"0#.	c #5F6A84",
"a#.	c #5D647A",
"b#.	c #474C60",
"c#.	c #2E3147",
"d#.	c #23263F",
"e#.	c #373C51",
"f#.	c #5B6073",
"g#.	c #7C8395",
"h#.	c #939DAF",
"i#.	c #9BA9BF",
"j#.	c #92A1BA",
"k#.	c #75839A",
"l#.	c #5D6276",
"m#.	c #513D51",
"n#.	c #592A45",
"o#.	c #52223C",
"p#.	c #401B33",
"q#.	c #0A0B11",
"r#.	c #7D8395",
"s#.	c #6A6E80",
"t#.	c #5F6274",
"u#.	c #676A7D",
"v#.	c #777D8F",
"w#.	c #868FA1",
"x#.	c #798295",
"y#.	c #666F82",
"z#.	c #4E5568",
"A#.	c #36384E",
"B#.	c #221F3C",
"C#.	c #46425E",
"D#.	c #595572",
"E#.	c #9DA5B6",
"F#.	c #797887",
"G#.	c #68485F",
"H#.	c #753358",
"I#.	c #53223C",
"J#.	c #2B0E1D",
"K#.	c #582340",
"L#.	c #79355C",
"M#.	c #120618",
"N#.	c #0E0A18",
"O#.	c #231628",
"P#.	c #3C253E",
"Q#.	c #4C2D4B",
"R#.	c #402742",
"S#.	c #29192D",
"T#.	c #0E0814",
"U#.	c #09050F",
"V#.	c #221324",
"W#.	c #3D213A",
"X#.	c #4E2A47",
"Y#.	c #49243E",
"Z#.	c #38192E",
"`#.	c #220E1C",
" $.	c #35182D",
".$.	c #512440",
"+$.	c #5C2948",
"@$.	c #170712",
"#$.	c #07040C",
"$$.	c #0B0D15",
"%$.	c #191E29",
"&$.	c #293141",
"*$.	c #3B465B",
"=$.	c #4A5871",
"-$.	c #4C5A77",
";$.	c #222740",
">$.	c #565C6F",
",$.	c #9DA6B7",
"'$.	c #AFB9CA",
")$.	c #B4BFD1",
"!$.	c #ABB7CA",
"~$.	c #96A3B9",
"{$.	c #606A7F",
"]$.	c #3F4554",
"^$.	c #2B202C",
"/$.	c #290F22",
"($.	c #06080D",
"_$.	c #191B21",
":$.	c #31343C",
"<$.	c #4A4F5B",
"[$.	c #646A79",
"}$.	c #767C8D",
"|$.	c #797F90",
"1$.	c #505462",
"2$.	c #3F424D",
"3$.	c #5F6472",
"4$.	c #757C8C",
"5$.	c #848C9D",
"6$.	c #7C8598",
"7$.	c #515668",
"8$.	c #34344B",
"9$.	c #302B49",
"0$.	c #575470",
"a$.	c #8687A0",
"b$.	c #A2AABB",
"c$.	c #818192",
"d$.	c #6B5167",
"e$.	c #703356",
"f$.	c #240B1A",
"g$.	c #56233F",
"h$.	c #441C38",
"i$.	c #5D2A49",
"j$.	c #632D4F",
"k$.	c #461F38",
"l$.	c #230E1C",
"m$.	c #532541",
"n$.	c #5F2B4A",
"o$.	c #5B2846",
"p$.	c #471F37",
"q$.	c #421C35",
"r$.	c #582746",
"s$.	c #73325A",
"t$.	c #7D3760",
"u$.	c #1A0914",
"v$.	c #080B12",
"w$.	c #171C27",
"x$.	c #414C67",
"y$.	c #353D58",
"z$.	c #252B44",
"A$.	c #2A3048",
"B$.	c #4C5266",
"C$.	c #747C8E",
"D$.	c #9BA4B5",
"E$.	c #B1BBCD",
"F$.	c #949EB1",
"G$.	c #6D7688",
"H$.	c #434957",
"I$.	c #20242C",
"J$.	c #0D080D",
"K$.	c #270E1C",
"L$.	c #2F1123",
"M$.	c #2A0F23",
"N$.	c #110511",
"O$.	c #07060D",
"P$.	c #16181D",
"Q$.	c #4B4C58",
"R$.	c #606070",
"S$.	c #656374",
"T$.	c #545361",
"U$.	c #373841",
"V$.	c #1D1F25",
"W$.	c #5C616F",
"X$.	c #838A9C",
"Y$.	c #8790A2",
"Z$.	c #777F90",
"`$.	c #5D6273",
" %.	c #3E3F52",
".%.	c #24213B",
"+%.	c #2D2847",
"@%.	c #413D59",
"#%.	c #55516D",
"$%.	c #959AAF",
"%%.	c #8E94A5",
"&%.	c #686A78",
"*%.	c #4F3D4E",
"=%.	c #5D2647",
"-%.	c #2A0D1D",
";%.	c #4B203C",
">%.	c #632A4A",
",%.	c #984274",
"'%.	c #6C3053",
")%.	c #7F3762",
"!%.	c #893C6A",
"~%.	c #833964",
"{%.	c #1F0A17",
"]%.	c #060911",
"^%.	c #262C3B",
"/%.	c #2B304A",
"(%.	c #555D74",
"_%.	c #7E889C",
":%.	c #A4AFC1",
"<%.	c #838A99",
"[%.	c #535965",
"}%.	c #272B33",
"|%.	c #53213F",
"1%.	c #642B4E",
"2%.	c #4D203C",
"3%.	c #2D1125",
"4%.	c #0E0511",
"5%.	c #1D181F",
"6%.	c #3C2F3C",
"7%.	c #513E50",
"8%.	c #564053",
"9%.	c #483546",
"0%.	c #2E212D",
"a%.	c #140C13",
"b%.	c #0A090D",
"c%.	c #1E2027",
"d%.	c #3B3F49",
"e%.	c #717787",
"f%.	c #81899A",
"g%.	c #858D9E",
"h%.	c #585D6C",
"i%.	c #393B4A",
"j%.	c #211F34",
"k%.	c #2B2645",
"l%.	c #83849D",
"m%.	c #9398AD",
"n%.	c #A5AEC0",
"o%.	c #9097A7",
"p%.	c #6A6E7C",
"q%.	c #221A23",
"r%.	c #4E1E39",
"s%.	c #743258",
"t%.	c #A1457A",
"u%.	c #773259",
"v%.	c #5D2745",
"w%.	c #692A4E",
"x%.	c #753159",
"y%.	c #07030B",
"z%.	c #11141F",
"A%.	c #2E3650",
"B%.	c #3C4762",
"C%.	c #535F7A",
"D%.	c #768299",
"E%.	c #9BA6BA",
"F%.	c #B2BECF",
"G%.	c #ACB6C6",
"H%.	c #8E96A5",
"I%.	c #646975",
"J%.	c #32343C",
"K%.	c #121217",
"L%.	c #11040D",
"M%.	c #4E223B",
"N%.	c #51203D",
"O%.	c #4E213D",
"P%.	c #331529",
"Q%.	c #1D0C18",
"R%.	c #422135",
"S%.	c #502942",
"T%.	c #502941",
"U%.	c #3D1B2E",
"V%.	c #280F1C",
"W%.	c #11050C",
"X%.	c #07060B",
"Y%.	c #1B1D24",
"Z%.	c #383B45",
"`%.	c #565B68",
" &.	c #6E7484",
".&.	c #7A8192",
"+&.	c #616775",
"@&.	c #464A56",
"#&.	c #282A34",
"$&.	c #151224",
"%&.	c #181231",
"&&.	c #292444",
"*&.	c #3C3855",
"=&.	c #8B90A5",
"-&.	c #9CA4B6",
";&.	c #BDC7D8",
">&.	c #ADB6C7",
",&.	c #9299AA",
"'&.	c #6D727F",
")&.	c #41444E",
"!&.	c #642B4C",
"~&.	c #50213B",
"{&.	c #210916",
"]&.	c #471C33",
"^&.	c #6E2E50",
"/&.	c #863A63",
"(&.	c #8C3C68",
"_&.	c #823663",
":&.	c #4C1E37",
"<&.	c #843663",
"[&.	c #6C2C51",
"}&.	c #562040",
"|&.	c #6A2B50",
"1&.	c #883867",
"2&.	c #3E172D",
"3&.	c #371529",
"4&.	c #08040B",
"5&.	c #121222",
"6&.	c #171829",
"7&.	c #292E45",
"8&.	c #373F5B",
"9&.	c #46516F",
"0&.	c #64738E",
"a&.	c #7F8CA4",
"b&.	c #96A2B7",
"c&.	c #9EA8BA",
"d&.	c #8F97A7",
"e&.	c #696F7A",
"f&.	c #3C4048",
"g&.	c #0B0B10",
"h&.	c #120610",
"i&.	c #4C203A",
"j&.	c #50223F",
"k&.	c #3F1B31",
"l&.	c #461E36",
"m&.	c #461C32",
"n&.	c #07060A",
"o&.	c #16191E",
"p&.	c #363841",
"q&.	c #545563",
"r&.	c #656576",
"s&.	c #606072",
"t&.	c #4B4B5A",
"u&.	c #30313B",
"v&.	c #18181F",
"w&.	c #0B0617",
"x&.	c #0D071E",
"y&.	c #130C27",
"z&.	c #37344E",
"A&.	c #4A4860",
"B&.	c #6E6E85",
"C&.	c #767B8C",
"D&.	c #8D96A5",
"E&.	c #727785",
"F&.	c #454852",
"G&.	c #0C060C",
"H&.	c #2A1020",
"I&.	c #5D2947",
"J&.	c #1C0712",
"K&.	c #461A32",
"L&.	c #6F2D51",
"M&.	c #833661",
"N&.	c #8A3868",
"O&.	c #772F59",
"P&.	c #4F1D3B",
"Q&.	c #612547",
"R&.	c #2C0D20",
"S&.	c #4A1B36",
"T&.	c #29101F",
"U&.	c #0D0C1C",
"V&.	c #18192A",
"W&.	c #282E42",
"X&.	c #727D95",
"Y&.	c #767F92",
"Z&.	c #676C79",
"`&.	c #3D4048",
" *.	c #16171C",
".*.	c #441B33",
"+*.	c #321325",
"@*.	c #41192E",
"#*.	c #4B1F36",
"$*.	c #1A0813",
"%*.	c #10060E",
"&*.	c #2A1C27",
"**.	c #4D3749",
"=*.	c #62475E",
"-*.	c #60455D",
";*.	c #493347",
">*.	c #291A28",
",*.	c #110815",
"'*.	c #040210",
")*.	c #060214",
"!*.	c #0C061B",
"~*.	c #120C26",
"{*.	c #1B1535",
"]*.	c #201D35",
"^*.	c #2F2D42",
"/*.	c #5E636F",
"(*.	c #858E9B",
"_*.	c #9AA2B3",
":*.	c #767C8B",
"<*.	c #4C505A",
"[*.	c #202228",
"}*.	c #0D070E",
"|*.	c #220A17",
"1*.	c #5A2243",
"2*.	c #431730",
"3*.	c #2E0E21",
"4*.	c #371228",
"5*.	c #270A1B",
"6*.	c #1F0716",
"7*.	c #4D1F3A",
"8*.	c #2B1121",
"9*.	c #100510",
"0*.	c #04020E",
"a*.	c #11121F",
"b*.	c #222738",
"c*.	c #364056",
"d*.	c #495671",
"e*.	c #505C75",
"f*.	c #485062",
"g*.	c #373B45",
"h*.	c #181A1F",
"i*.	c #0C0308",
"j*.	c #622B4B",
"k*.	c #40192D",
"l*.	c #4D1F37",
"m*.	c #371628",
"n*.	c #2C1122",
"o*.	c #682E50",
"p*.	c #7F3B62",
"q*.	c #7E3C61",
"r*.	c #683050",
"s*.	c #280F22",
"t*.	c #100415",
"u*.	c #030110",
"v*.	c #050213",
"w*.	c #130E27",
"x*.	c #1B1330",
"y*.	c #1F1433",
"z*.	c #18102D",
"A*.	c #100D23",
"B*.	c #171625",
"C*.	c #2B2A39",
"D*.	c #424254",
"E*.	c #5D586F",
"F*.	c #514C62",
"G*.	c #373445",
"H*.	c #21212C",
"I*.	c #32333E",
"J*.	c #565966",
"K*.	c #7A7C8C",
"L*.	c #87899A",
"M*.	c #767989",
"N*.	c #50535F",
"O*.	c #26282E",
"P*.	c #0F0B10",
"Q*.	c #1F0C18",
"R*.	c #552641",
"S*.	c #5A2845",
"T*.	c #03020C",
"U*.	c #070813",
"V*.	c #161A26",
"W*.	c #4A5570",
"X*.	c #374057",
"Y*.	c #212736",
"Z*.	c #0C0F15",
"`*.	c #0A040A",
" =.	c #3E172C",
".=.	c #4E2139",
"+=.	c #9C4476",
"@=.	c #93406C",
"#=.	c #833A60",
"$=.	c #692E4D",
"%=.	c #280F23",
"&=.	c #110416",
"*=.	c #05020F",
"==.	c #0D0614",
"-=.	c #1C0F22",
";=.	c #2E1730",
">=.	c #381B38",
",=.	c #321731",
"'=.	c #1F0D1F",
")=.	c #09060E",
"!=.	c #14121A",
"~=.	c #2F2936",
"{=.	c #4D3D50",
"]=.	c #5A445B",
"^=.	c #50384F",
"/=.	c #352335",
"(=.	c #19101C",
"_=.	c #3B2D3D",
":=.	c #634D62",
"<=.	c #715A70",
"[=.	c #624E61",
"}=.	c #130B12",
"|=.	c #1C0B17",
"1=.	c #38192C",
"2=.	c #471C35",
"3=.	c #5A2643",
"4=.	c #080B13",
"5=.	c #181D28",
"6=.	c #3F435B",
"7=.	c #474A64",
"8=.	c #3F4058",
"9=.	c #11111B",
"0=.	c #0E0307",
"a=.	c #3D182C",
"b=.	c #642B4B",
"c=.	c #7A345C",
"d=.	c #974072",
"e=.	c #7C345B",
"f=.	c #7C3559",
"g=.	c #160717",
"h=.	c #1B0A19",
"i=.	c #32162B",
"j=.	c #4D223F",
"k=.	c #5A2848",
"l=.	c #38172C",
"m=.	c #190914",
"n=.	c #1E0C18",
"o=.	c #3A1D30",
"p=.	c #5B2F4A",
"q=.	c #6C3857",
"r=.	c #663252",
"s=.	c #4C233E",
"t=.	c #311429",
"u=.	c #4A223B",
"v=.	c #6A3454",
"w=.	c #73395B",
"x=.	c #62304D",
"y=.	c #472036",
"z=.	c #4B233B",
"A=.	c #0B0306",
"B=.	c #431A31",
"C=.	c #50223C",
"D=.	c #1A0814",
"E=.	c #070308",
"F=.	c #0D0C14",
"G=.	c #2C2032",
"H=.	c #453049",
"I=.	c #523753",
"J=.	c #4B2E48",
"K=.	c #331B2D",
"L=.	c #1B0B16",
"M=.	c #1A0A15",
"N=.	c #361629",
"O=.	c #511F3B",
"P=.	c #5C2541",
"Q=.	c #6D2E50",
"R=.	c #39182D",
"S=.	c #50223E",
"T=.	c #6C2F53",
"U=.	c #50233D",
"V=.	c #37182B",
"W=.	c #753458",
"X=.	c #79365C",
"Y=.	c #692E52",
"Z=.	c #532440",
"`=.	c #682E4F",
" -.	c #763457",
".-.	c #5E2745",
"+-.	c #532540",
"@-.	c #522640",
"#-.	c #070204",
"$-.	c #1D0B18",
"%-.	c #3E1C33",
"&-.	c #592A49",
"*-.	c #612E4F",
"=-.	c #582845",
"--.	c #3D1B30",
";-.	c #210B17",
">-.	c #491C35",
",-.	c #4F223D",
"'-.	c #7F385D",
")-.	c #5F2844",
"!-.	c #2E1122",
"~-.	c #0D0309",
"{-.	c #562440",
"]-.	c #552441",
"^-.	c #562443",
"/-.	c #642B4D",
"(-.	c #210C18",
"_-.	c #692C4E",
":-.	c #863963",
"<-.	c #8E3E6B",
"[-.	c #8A3C69",
"}-.	c #3D172B",
"|-.	c #602847",
"1-.	c #78335B",
"2-.	c #7B355A",
"3-.	c #763355",
"4-.	c #5D2642",
"5-.	c #391427",
"6-.	c #381428",
"7-.	c #321225",
"8-.	c #5C2645",
"9-.	c #220916",
"0-.	c #501F3A",
"a-.	c #793258",
"b-.	c #903D6E",
"c-.	c #692B4F",
"d-.	c #431931",
"e-.	c #63284A",
"f-.	c #612846",
"g-.	c #53213A",
"h-.	c #331222",
"i-.	c #722F57",
"j-.	c #823763",
"k-.	c #702E55",
"l-.	c #4A1C35",
"m-.	c #612649",
"n-.	c #521F3D",
"o-.	c #230A16",
"p-.	c #110308",
"q-.	c #3F162E",
"r-.	c #66284D",
"s-.	c #320F23",
"t-.	c #391329",
"u-.	c #290B1C",
"v-.	c #290C1E",
"w-.	c #250A1B",
"x-.	c #14030D",
"y-.	c #090104",
"                                          .  .  .  .  .  .  .  .  .  .  .  .  .  .  .  .  .  .  .  .  .  .  .  .  .  .  .  .  .  .  .  .  .  .  .  .  .  .  .  .  .  .  .  .  .  .  .  .  .  .  .  .  .  .  .  .  .  .  .  .  .  .  .  .  .  .  .  .  .  .  .  .  .  .  .  .  .  .  .  .  .  .  .  .  .  .  .  .  .  .  .  .  .  .  .  .  .  .  .  .  .  .  .  .  .  .  .  .  .  .  .  .  .  .  .  .  .  .  .  .  .  .  .  .  .  .  .  .  .  .  .  .  .  .  .  .  .  .  .  .  .  .  .  .  .  .  .  .  .  .  .  .  .  .  .  .  .  .  .  .  .  .  .  .  .  .  .  .  .  .  .  .  .  .  .  .  .  .  .  .  .  .  .  .  .  .  .  .  .  .  .  .  .  .  .  .  .  .  .  .  .  .  .  .  .  .  .  .  .  .  .  .  .  .  ",
"                                       .  .  .  .  .  .  .  .  .  .  .  .  .  .  .  .  .  .  .  .  .  .  .  .  .  .  .  .  .  .  .  .  .  .  .  .  .  .  .  .  .  .  .  .  .  .  .  .  .  .  .  .  .  .  .  .  .  .  .  .  .  .  .  .  .  .  .  .  .  .  .  .  .  .  .  .  .  .  .  .  .  .  .  .  .  .  .  .  .  .  .  .  .  .  .  .  .  .  .  .  .  .  .  .  .  .  .  .  .  .  .  .  .  .  .  .  .  .  .  .  .  .  .  .  .  .  .  .  .  .  .  .  .  .  .  .  .  .  .  .  .  .  .  .  .  .  .  .  .  .  .  .  .  .  .  .  .  .  .  .  .  .  .  .  .  .  .  .  .  .  .  .  .  .  .  .  .  .  .  .  .  .  .  .  .  .  .  .  .  .  .  .  .  .  .  .  .  .  .  .  .  .  .  .  .  .  .  .  .  .  .  .  .  .  .  ",
"                                       .  .  .  .  .  .  .  .  .  .  .  .  .  .  .  .  .  .  .  .  .  .  .  .  .  .  .  .  .  .  .  .  .  .  .  .  .  .  .  .  .  .  .  .  .  .  .  .  .  .  .  .  .  .  .  .  .  .  .  .  .  .  .  .  .  .  .  .  .  .  .  .  .  .  .  .  .  .  .  .  .  .  .  .  .  .  .  .  .  .  .  .  .  .  .  .  .  .  .  .  .  .  .  .  .  .  .  .  .  .  .  .  .  .  .  .  .  .  .  .  .  .  .  .  .  .  .  .  .  .  .  .  .  .  .  .  .  .  .  .  .  .  .  .  .  .  .  .  .  .  .  .  .  .  .  .  .  .  .  .  .  .  .  .  .  .  .  .  .  .  .  .  .  .  .  .  .  .  .  .  .  .  .  .  .  .  .  .  .  .  .  .  .  .  .  .  .  .  .  .  .  .  .  .  .  .  .  .  .  .  .  .  .  .  .  ",
"                                    .  .  .  .  .  .  .  .  .  .  .  .  .  .  .  .  .  .  .  .  .  .  .  .  .  .  .  .  .  .  .  .  .  .  .  .  .  .  .  .  .  .  .  .  .  .  .  .  .  .  .  .  .  .  .  .  .  .  .  .  .  .  .  .  .  .  .  .  .  .  .  .  .  .  .  .  .  .  .  .  .  .  .  .  .  .  +  @  #  $  .  .  .  .  $  %  &  *  #  +  .  .  .  .  .  .  .  .  .  .  .  .  .  .  .  .  .  .  .  .  .  .  .  .  .  .  .  .  .  .  .  .  .  .  .  .  .  .  .  .  .  .  .  .  .  .  .  .  .  .  .  .  .  .  .  .  .  .  .  .  .  .  .  .  .  .  .  .  .  .  .  .  .  .  .  .  .  .  .  .  .  .  .  .  .  .  .  .  .  .  .  .  .  .  .  .  .  .  .  .  .  .  .  .  .  .  .  .  .  .  .  .  .  .  .  .  ",
"                                 .  .  .  .  .  .  .  .  .  .  .  .  .  .  .  .  .  .  .  .  .  .  .  .  .  .  .  .  .  .  .  .  .  .  .  .  .  .  .  .  .  .  .  .  .  .  .  .  .  .  .  .  .  .  .  .  .  .  .  .  .  .  .  .  .  .  .  .  .  .  .  .  .  .  .  .  .  .  .  .  .  .  .  .  .  .  .  =  -  ;  >  ,  '  @  .  )  !  !  ~  {  )  .  .  .  .  .  .  .  .  .  .  .  .  .  .  .  .  .  .  .  .  .  .  .  .  .  .  .  .  .  .  .  .  .  .  .  .  .  .  .  .  .  .  .  .  .  .  .  .  .  .  .  .  .  .  .  .  .  .  .  .  .  .  .  .  .  .  .  .  .  .  .  .  .  .  .  .  .  .  .  .  .  .  .  .  .  .  .  .  .  .  .  .  .  .  .  .  .  .  .  .  .  .  .  .  .  .  .  .  .  .  .  .  .  .  .  .  ",
"                              .  .  .  .  .  .  .  .  .  .  .  .  .  .  .  .  .  .  .  .  .  .  .  .  .  .  .  .  .  .  .  .  .  .  .  .  .  .  .  .  .  .  .  .  .  .  .  .  .  .  .  .  .  .  .  .  .  .  .  .  .  .  .  .  .  .  .  .  .  .  .  .  .  .  .  .  .  .  .  .  .  .  .  .  .  .  .  .  ]  ^  /  (  _  :  <  [  }  |  1  2  3  4  ~  &  .  .  .  .  .  .  .  .  .  .  .  .  .  .  .  .  .  .  .  .  .  .  .  .  .  .  .  .  .  .  .  .  .  .  .  .  .  .  .  .  .  .  .  .  .  .  .  .  .  .  .  .  .  .  .  .  .  .  .  .  .  .  .  .  .  .  .  .  .  .  .  .  .  .  .  .  .  .  .  .  .  .  .  .  .  .  .  .  .  .  .  .  .  .  .  .  .  .  .  .  .  .  .  .  .  .  .  .  .  .  .  .  .  .  ",
"                           .  .  .  .  .  .  .  .  .  .  .  .  .  .  .  .  .  .  .  .  .  .  .  .  .  .  .  .  .  .  .  .  .  .  .  .  .  .  .  .  .  .  .  .  .  .  .  .  .  .  .  .  .  .  .  .  .  .  .  .  .  .  .  .  .  .  .  .  .  .  .  .  .  .  .  .  .  .  .  .  .  .  .  .  .  .  .  5  6  7  8  9  0  a  b  c  d  e  f  g  h  i  j  k  l  *  +  .  .  .  .  .  .  .  .  .  .  .  .  .  .  .  .  .  .  .  .  .  .  .  .  .  .  .  .  .  .  .  .  .  .  .  .  .  .  .  .  .  .  .  .  .  .  .  .  .  .  .  .  .  .  .  .  .  .  .  .  .  .  .  .  .  .  .  .  .  .  .  .  .  .  .  .  .  .  .  .  .  .  .  .  .  .  .  .  .  .  .  .  .  .  .  .  .  .  .  .  .  .  .  .  .  .  .  .  .  .  .  .  ",
"                        .  .  .  .  .  .  .  .  .  .  .  .  .  .  .  .  .  .  .  .  .  .  .  .  .  .  .  .  .  .  .  .  .  .  .  .  .  .  .  .  .  .  .  .  .  .  .  .  .  .  .  .  .  .  .  .  .  .  .  .  .  .  .  .  .  .  .  .  .  .  .  .  .  .  .  .  .  .  .  .  .  .  .  .  .  .  .  $  m  n  o  p  q  r  s  t  u  1  v  w  x  y  z  A  B  C  D  [  .  .  .  .  .  .  .  .  .  .  .  .  .  .  .  .  .  .  .  .  .  .  .  .  .  .  .  .  .  .  .  .  .  .  .  .  .  .  .  .  .  .  .  .  .  .  .  .  .  .  .  .  .  .  .  .  .  .  .  .  .  .  .  .  .  .  .  .  .  .  .  .  .  .  .  .  .  .  .  .  .  .  .  .  .  .  .  .  .  .  .  .  .  .  .  .  .  .  .  .  .  .  .  .  .  .  .  .  .  .  .  .  ",
"                     .  .  .  .  .  .  .  .  .  .  .  .  .  .  .  .  .  .  .  .  .  .  .  .  .  .  .  .  .  .  .  .  .  .  .  .  .  .  .  .  .  .  .  .  .  .  .  .  .  .  .  .  .  .  .  .  .  .  .  .  .  .  .  .  .  .  .  .  .  .  .  .  .  .  .  .  .  .  .  .  .  .  .  .  .  .  .  $  E  F  G  H  I  J  K  L  M  N  O  P  Q  R  S  T  U  V  W  X  Y  Z  .  .  .  .  .  .  .  .  .  .  .  .  .  .  .  .  .  .  .  .  .  .  .  .  .  .  .  .  .  .  .  .  .  .  .  .  .  .  .  .  .  .  .  .  .  .  .  .  .  .  .  .  .  .  .  .  .  .  .  .  .  .  .  .  .  .  .  .  .  .  .  .  .  .  .  .  .  .  .  .  .  .  .  .  .  .  .  .  .  .  .  .  .  .  .  .  .  .  .  .  .  .  .  .  .  .  .  .  .  .  .  ",
"                  .  .  .  .  .  .  .  .  .  .  .  .  .  .  .  .  .  .  .  .  .  .  .  .  .  .  .  .  .  .  .  .  .  .  .  .  .  .  .  .  .  .  .  .  .  .  .  .  .  .  .  .  .  .  .  .  .  .  .  .  .  .  .  .  .  .  .  .  .  .  .  .  .  .  .  .  .  .  .  .  .  .  .  .  .  .  .  +  `   . .. +. @. #. $. %. &. *. =. -. ;. >. ,. '. ). !. ~. {. ]. ^. /. (. @  .  .  .  .  .  .  .  .  .  .  .  .  .  .  .  .  .  .  .  .  .  .  .  .  .  .  .  .  .  .  .  .  .  .  .  .  .  .  .  .  .  .  .  .  .  .  .  .  .  .  .  .  .  .  .  .  .  .  .  .  .  .  .  .  .  .  .  .  .  .  .  .  .  .  .  .  .  .  .  .  .  .  .  .  .  .  .  .  .  .  .  .  .  .  .  .  .  .  .  .  .  .  .  .  .  .  .  .  .  ",
"               .  .  .  .  .  .  .  .  .  .  .  .  .  .  .  .  .  .  .  .  .  .  .  .  .  .  .  .  .  .  .  .  .  .  .  .  .  .  .  .  .  .  .  .  .  .  .  .  .  .  .  .  .  .  .  .  .  .  .  .  .  .  .  .  .  .  .  .  .  .  .  .  .  .  .  .  .  .  .  .  .  .  .  .  .  .  .  .  _. :. <. g  [. }. |. 1. 2. 3. 4. 5. 6. 7. 8. 9. 0. a. b. c. d. e. ]. f. g. h. @  .  .  .  .  .  .  .  .  .  .  .  .  .  .  .  .  .  .  .  .  .  .  .  .  .  .  .  .  .  .  .  .  .  .  .  .  .  .  .  .  .  .  .  .  .  .  .  .  .  .  .  .  .  .  .  .  .  .  .  .  .  .  .  .  .  .  .  .  .  .  .  .  .  .  .  .  .  .  .  .  .  .  .  .  .  .  .  .  .  .  .  .  .  .  .  .  .  .  .  .  .  .  .  .  .  .  .  .  ",
"               .  .  .  .  .  .  .  .  .  .  .  .  .  .  .  .  .  .  .  .  .  .  .  .  .  .  .  .  .  .  .  .  .  .  .  .  .  .  .  .  .  .  .  .  .  .  .  .  .  .  .  .  .  .  .  .  .  .  .  .  .  .  .  .  .  .  .  .  .  .  .  .  .  .  .  .  .  .  .  .  .  .  .  .  .  .  .  @  i. j. a  k. l. m. n. o. p. q. r. s. t. u. v. w. x. y. z. A. B. C. e. D. E. F. m  @  .  .  .  .  .  .  .  .  .  .  .  .  .  .  .  .  .  .  .  .  .  .  .  .  .  .  .  .  .  .  .  .  .  .  .  .  .  .  .  .  .  .  .  .  .  .  .  .  .  .  .  .  .  .  .  .  .  .  .  .  .  .  .  .  .  .  .  .  .  .  .  .  .  .  .  .  .  .  .  .  .  .  .  .  .  .  .  .  .  .  .  .  .  .  .  .  .  .  .  .  .  .  .  .  .  .  .  ",
"            .  .  .  .  .  .  .  .  .  .  .  .  .  .  .  .  .  .  .  .  .  .  .  .  .  .  .  .  .  .  .  .  .  .  .  .  .  .  .  .  .  .  .  .  .  .  .  .  .  .  .  .  .  .  .  .  .  .  .  .  .  .  .  .  .  .  .  .  .  .  .  .  .  .  .  .  .  .  .  .  .  .  .  .  .  .  .  *  G. n  H. I. J. K. L. M. N. O. P. Q. R. S. T. U. V. W. X. Y. Z. `.  + .+ ++ D. @+ #+ $+ @  .  .  .  .  .  .  .  .  .  .  .  .  .  .  .  .  .  .  .  .  .  .  .  .  .  .  .  .  .  .  .  .  .  .  .  .  .  .  .  .  .  .  .  .  .  .  .  .  .  .  .  .  .  .  .  .  .  .  .  .  .  .  .  .  .  .  .  .  .  .  .  .  .  .  .  .  .  .  .  .  .  .  .  .  .  .  .  .  .  .  .  .  .  .  .  .  .  .  .  .  .  .  .  .  .  .  ",
"         .  .  .  .  .  .  .  .  .  .  .  .  .  .  .  .  .  .  .  .  .  .  .  .  .  .  .  .  .  .  .  .  .  .  .  .  .  .  .  .  .  .  .  .  .  .  .  .  .  .  .  .  .  .  .  .  .  .  .  .  .  .  .  .  .  .  .  .  .  .  .  .  .  .  .  .  .  .  .  .  .  .  .  .  .  .  .  %+ &+ *+ =+ -+ ;+ >+ ,+ '+ )+ !+ ~+ Q. {+ ]+ ]+ S. ^+ /+ (+ _+ :+ <+ [+ }+ |+ 1+ ++ 2+ 3+ 4+ 5+ %  .  .  .  .  .  .  .  .  .  .  .  .  .  .  .  .  .  .  .  .  .  .  .  .  .  .  .  .  .  .  .  .  .  .  .  .  .  .  .  .  .  .  .  .  .  .  .  .  .  .  .  .  .  .  .  .  .  .  .  .  .  .  .  .  .  .  .  .  .  .  .  .  .  .  .  .  .  .  .  .  .  .  .  .  .  .  .  .  .  .  .  .  .  .  .  .  .  .  .  .  .  .  .  .  .  ",
"      .  .  .  .  .  .  .  .  .  .  .  .  .  .  .  .  .  .  .  .  .  .  .  .  .  .  .  .  .  .  .  .  .  .  .  .  .  .  .  .  .  .  .  .  .  .  .  .  .  .  .  .  .  .  .  .  .  .  .  .  .  .  .  .  .  .  .  .  .  .  .  .  .  .  .  .  .  .  .  .  .  .  .  .  .  .  .  .  6+ 7+ 8+ 9+ 0+ K. a+ b+ c+ d+ e+ f+ {+ g+ ]+ ]+ ]+ h+ i+ j+ k+ l+ m+ <+ n+ o+ p+ q+ r+ s+ t+ u+ ,  %+ +  .  .  .  .  .  .  .  .  .  .  .  .  .  .  .  .  .  .  .  .  .  .  .  .  .  .  .  .  .  .  .  .  .  .  .  .  .  .  .  .  .  .  .  .  .  .  .  .  .  .  .  .  .  .  .  .  .  .  .  .  .  .  .  .  .  .  .  .  .  .  .  .  .  .  .  .  .  .  .  .  .  .  .  .  .  .  .  .  .  .  .  .  .  .  .  .  .  .  .  .  .  .  .  ",
"   .  .  .  .  .  .  .  .  .  .  .  .  .  .  .  .  .  .  .  .  .  .  .  .  .  .  .  .  .  .  .  .  .  .  .  .  .  .  .  .  .  .  .  .  .  .  .  .  .  .  .  .  .  .  .  .  .  .  .  .  .  .  .  .  .  .  .  .  .  .  .  .  .  .  .  .  .  .  .  .  .  .  .  .  .  .  .  .  .  v+ w+ x+ .. y+ z+ A+ B+ C+ D+ E+ F+ h+ ]+ ]+ ]+ ]+ ]+ h+ G+ H+ I+ J+ K+ L+ M+ N+ O+ P+ Q+ R+ t+ S+ T+ 5  .  .  .  .  .  .  .  .  .  .  .  .  .  .  .  .  .  .  .  .  .  .  .  .  .  .  .  .  .  .  .  .  .  .  .  .  .  .  .  .  .  .  .  .  .  .  .  .  .  .  .  .  .  .  .  .  .  .  .  .  .  .  .  .  .  .  .  .  .  .  .  .  .  .  .  .  .  .  .  .  .  .  .  .  .  .  .  .  .  .  .  .  .  .  .  .  .  .  .  .  .  .  .  ",
".  .  .  .  .  .  .  .  .  .  .  .  .  .  .  .  .  .  .  .  .  .  .  .  .  .  .  .  .  .  .  .  .  .  .  .  .  .  .  .  .  .  .  .  .  .  .  .  .  .  .  .  .  .  .  .  .  .  .  .  .  .  .  .  .  .  .  .  .  .  .  .  .  .  .  .  .  .  .  .  .  .  .  .  .  .  .  .  .  @  U+ w+ V+ W+ X+ Y+ Z+ W. `+ /+ ^+ h+ ]+ ]+ ]+ ]+ ]+ ]+ ]+  @ .@ +@ @@ #@ $@ %@ M+ &@ *@ =@ -@ ;@ >@ ,@ /. '@ .  .  .  .  .  .  .  .  .  .  .  .  .  .  .  .  .  .  .  .  .  .  .  .  .  .  .  .  .  .  .  .  .  .  .  .  .  .  .  .  .  .  .  .  .  .  .  .  .  .  .  .  .  .  .  .  .  .  .  .  .  .  .  .  .  .  .  .  .  .  .  .  .  .  .  .  .  .  .  .  .  .  .  .  .  .  .  .  .  .  .  .  .  .  .  .  .  .  .  .  .  .  ",
".  .  .  .  .  .  .  .  .  .  .  .  .  .  .  .  .  .  .  .  .  .  .  .  .  .  .  .  .  .  .  .  .  .  .  .  .  .  .  .  .  .  .  .  .  .  .  .  .  .  .  .  .  .  .  .  .  .  .  .  .  .  .  .  .  .  .  .  .  .  .  .  .  .  .  .  .  .  .  .  .  .  .  .  .  .  .  .  .  5  )@ !@ ~@ {@ ]@ ^@ /@ (@ _@ :@ S. ]+ ]+ ]+ ]+ ]+ ]+ ]+ h+ ^+ /+ (@ <@ [@ $@ }@ }@ M+ |@ b. 1@ 2@ 3@ 4@ 5@ 6@ 7@ @  .  .  .  .  .  .  .  .  .  .  .  .  .  .  .  .  .  .  .  .  .  .  .  .  .  .  .  .  .  .  .  .  .  .  .  .  .  .  .  .  .  .  .  .  .  .  .  .  .  .  .  .  .  .  .  .  .  .  .  .  .  .  .  .  .  .  .  .  .  .  .  .  .  .  .  .  .  .  .  .  .  .  .  .  .  .  .  .  .  .  .  .  .  .  .  .  .  .  .  .  ",
".  .  .  .  .  .  .  .  .  .  .  .  .  .  .  .  .  .  .  .  .  .  .  .  .  .  .  .  .  .  .  .  .  .  .  .  .  .  .  .  .  .  .  .  .  .  .  .  .  .  .  .  .  .  .  .  .  .  .  .  .  .  .  .  .  .  .  .  .  .  .  .  .  .  .  .  .  .  .  .  .  .  .  .  .  .  .  .  .  @  8@ n  9@ 0@ a@ b@ c@ d@ e@ S. ]+ ]+ ]+ ]+ ]+ ]+ ]+ h+ i+ f@ g@ h@ i@ j@ j@ X. k@ l@ m@ n@ o@ p@ q@ r@ s@ @+ t@ u@ $  .  .  .  .  .  .  .  .  .  .  .  .  .  .  .  .  .  .  .  .  .  .  .  .  .  .  .  .  .  .  .  .  .  .  .  .  .  .  .  .  .  .  .  .  .  .  .  .  .  .  .  .  .  .  .  .  .  .  .  .  .  .  .  .  .  .  .  .  .  .  .  .  .  .  .  .  .  .  .  .  .  .  .  .  .  .  .  .  .  .  .  .  .  .  .  .  .  .  .  ",
".  .  .  .  .  .  .  .  .  .  .  .  .  .  .  .  .  .  .  .  .  .  .  .  .  .  .  .  .  .  .  .  .  .  .  .  .  .  .  .  .  .  .  .  .  .  .  .  .  .  .  .  .  .  .  .  .  .  .  .  .  .  .  .  .  .  .  .  .  .  .  .  .  .  .  .  .  .  .  .  .  .  .  .  .  .  .  .  .  $  )  v@ w@ 9@ x@ y@ z@ A@ S. ]+ ]+ ]+ ]+ ]+ ]+ ]+ h+ i+ B@ C@ D@ E@       F@ G@ H@ w. c+ M+ z. I@ J@ K@ L@ M@ N@ O@ P@ #  .  .  .  .  .  .  .  .  .  .  .  .  .  .  .  .  .  .  .  .  .  .  .  .  .  .  .  .  .  .  .  .  .  .  .  .  .  .  .  .  .  .  .  .  .  .  .  .  .  .  .  .  .  .  .  .  .  .  .  .  .  .  .  .  .  .  .  .  .  .  .  .  .  .  .  .  .  .  .  .  .  .  .  .  .  .  .  .  .  .  .  .  .  .  .  .  .  .  ",
".  .  .  .  .  .  .  .  .  .  .  .  .  .  .  .  .  .  .  .  .  .  .  .  .  .  .  .  .  .  .  .  .  .  .  .  .  .  .  .  .  .  .  .  .  .  .  .  .  .  .  .  .  .  .  .  .  .  .  .  .  .  .  .  .  .  .  .  .  .  .  .  .  .  .  .  .  .  .  .  .  .  .  .  .  .  .  .  .  .  @  Q@  . ~@ R@ -. S@ T@ U@ ]+ ]+ ]+ ]+ ]+ ]+ h+ V@ B@ W@ X@ Y@       Z@ V. `@ d@  # .# +# @# ## `. $# %# &# *# =# -# ;# &  .  .  .  .  .  .  .  .  .  .  .  .  .  .  .  .  .  .  .  .  .  .  .  .  .  .  .  .  .  .  .  .  .  .  .  .  .  .  .  .  .  .  .  .  .  .  .  .  .  .  .  .  .  .  .  .  .  .  .  .  .  .  .  .  .  .  .  .  .  .  .  .  .  .  .  .  .  .  .  .  .  .  .  .  .  .  .  .  .  .  .  .  .  .  .  .  .  ",
".  .  .  .  .  .  .  .  .  .  .  .  .  .  .  .  .  .  .  .  .  .  .  .  .  .  .  .  .  .  .  .  .  .  .  .  .  .  .  .  .  .  .  .  .  .  .  .  .  .  .  .  .  .  .  .  .  .  .  .  .  .  .  .  .  .  .  .  .  .  .  .  .  .  .  .  .  .  .  .  .  .  .  .  .  .  .  .  .  .  @  )  ># R@ ,# '# )# !# i+ S. U@ ]+ ]+ ]+ ]+ {+ ~# P. {# ]#       ^# /# (# :@ i+ j+ C@ _# :# B+ <# [# }# |# 1# *# 2# 3# 4# *  .  .  .  .  .  .  .  .  .  .  .  .  .  .  .  .  .  .  .  .  .  .  .  .  .  .  .  .  .  .  .  .  .  .  .  .  .  .  .  .  .  .  .  .  .  .  .  .  .  .  .  .  .  .  .  .  .  .  .  .  .  .  .  .  .  .  .  .  .  .  .  .  .  .  .  .  .  .  .  .  .  .  .  .  .  .  .  .  .  .  .  .  .  .  .  .  ",
".  .  .  .  .  .  .  .  .  .  .  .  .  .  .  .  .  .  .  .  .  .  .  .  .  .  .  .  .  .  .  .  .  .  .  .  .  .  .  .  .  .  .  .  .  .  .  .  .  .  .  .  .  .  .  .  .  .  .  .  .  .  .  .  .  .  .  .  .  .  .  .  .  .  .  .  .  .  .  .  .  .  .  .  .  .  .  .  .  .  _. 5# 6# a  7# 8# 9# 0# a# b# S. U@ ]+ ]+ c# d# e# f# /@ g#    h# i# j# :@ k# ]+ S. i+ l# m# n# o# p# q# r# s# t# u# v# 3  w# x# +  .  .  .  .  .  .  .  .  .  .  .  .  .  .  .  .  .  .  .  .  .  .  .  .  .  .  .  .  .  .  .  .  .  .  .  .  .  .  .  .  .  .  .  .  .  .  .  .  .  .  .  .  .  .  .  .  .  .  .  .  .  .  .  .  .  .  .  .  .  .  .  .  .  .  .  .  .  .  .  .  .  .  .  .  .  .  .  .  .  .  .  .  .  .  ",
".  .  .  .  .  .  .  .  .  .  .  .  .  .  .  .  .  .  .  .  .  .  .  .  .  .  .  .  .  .  .  .  .  .  .  .  .  .  .  .  .  .  .  .  .  .  .  .  .  .  .  .  .  .  .  .  .  .  .  .  .  .  .  .  .  .  .  .  .  .  .  .  .  .  .  .  .  .  .  .  .  .  .  .  .  .  .  .  .  .  y# z# 8+ 0@ A# B# C# D# E# U. e@ c# h+ F# G# d@ H# w. B+    I# J# K# e@ g+ L# M# N# O# P# Q# R# S# T# U# V# W# X# Y# Z# `#  $ .$ +$ .  .  .  .  .  .  .  .  .  .  .  .  .  .  .  .  .  .  .  .  .  .  .  .  .  .  .  .  .  .  .  .  .  .  .  .  .  .  .  .  .  .  .  .  .  .  .  .  .  .  .  .  .  .  .  .  .  .  .  .  .  .  .  .  .  .  .  .  .  .  .  .  .  .  .  .  .  .  .  .  .  .  .  .  .  .  .  .  .  .  .  .  .  .  ",
".  .  .  .  .  .  .  .  .  .  .  .  .  .  .  .  .  .  .  .  .  .  .  .  .  .  .  .  .  .  .  .  .  .  .  .  .  .  .  .  .  .  .  .  .  .  .  .  .  .  .  .  .  .  .  .  .  .  .  .  .  .  .  .  .  .  .  .  .  .  .  .  .  .  .  .  .  .  .  .  .  .  .  .  .  .  .  .  .  .  7@ @$ #$ $$ %$ &$ *$ =$ -$ ;$ >$ G# F+ ,$ '$ )$ !$ ~$    {$ ]$ ^$ /$ h+ L# M# N# ($ _$ :$ <$ [$ }$ |$ 1$ 2$ 3$ 4$ 5$ 6$ s@ 7$ 8$ 9$ `  .  .  .  .  .  .  .  .  .  .  .  .  .  .  .  .  .  .  .  0$ a$ b$ c$ d$ .  .  .  .  .  .  .  .  .  .  .  .  .  .  .  .  .  .  .  .  .  .  .  .  .  .  .  .  .  .  .  .  .  .  .  .  .  .  .  .  .  .  .  .  .  .  .  .  .  .  .  .  .  .  .  .  .  .  .  .  .  .  .  .  .  .  .  .  .  ",
".  .  .  .  .  .  .  .  .  .  .  .  .  .  .  .  .  .  .  .  .  .  .  .  .  .  .  .  .  .  .  .  .  .  .  .  .  .  .  .  .  .  .  .  .  .  .  .  .  .  .  .  .  .  .  .  .  .  .  .  .  .  .  .  .  .  .  .  .  .  .  .  .  .  .  .  .  .  .  .  .  .  .  .  .  .  .  .  .  .  e$ f$ g$ h$ i$ j$ k$ l$ =$ m$ v. n$ f@ o$ p$ q$ #@    r$ @@ s$ t$ S. L# M# N# u$ _$ v$ w$ x$ y$ z$ A$ B$ /@ C$ D$ E$ F$ G$ H$ 3@ I$ J$ K$ @  .  .  +  $  +  .  .  .  .  .  .  .  +  .  $  %+ +  L$ M$ N$ O$ P$ .  .  .  .  .  .  .  .  .  .  .  .  .  .  .  .  .  .  .  .  .  .  .  .  .  .  .  .  .  .  .  .  .  .  .  .  .  .  .  .  .  .  .  .  .  .  .  .  .  .  .  .  .  .  .  .  .  .  .  .  .  .  .  .  .  .  .  .  .  ",
".  .  .  .  .  .  .  .  .  .  .  .  .  .  .  .  .  .  .  .  .  .  .  .  .  .  .  .  .  .  .  .  .  .  .  .  .  .  .  .  .  .  .  .  .  .  .  .  .  .  .  .  .  .  .  .  .  .  .  .  .  .  .  .  .  .  .  .  .  .  .  .  .  .  .  .  .  .  .  .  .  .  .  .  .  .  .  .  .  .  _. 5# Q$ R$ S$ T$ U$ V$ l$ W$ X$ l+ Y$ Z$ q$ N.    `$  % e+ .% +% L# @% #% $% %% &% *% =% =% *% -% ;% >% ,% '% )% !% ~% {% ]% ^% /% (% _% u@ $  :% <% y# [% }% .  .  $  `  |% y# 1% c$ K$ 2% 3% 4% 5% 6% 7% 8% 9% .  .  .  .  .  .  .  .  .  .  .  .  .  .  .  .  .  .  .  .  .  .  .  .  .  .  .  .  .  .  .  .  .  .  .  .  .  .  .  .  .  .  .  .  .  .  .  .  .  .  .  .  .  .  .  .  .  .  .  .  .  .  .  .  .  .  .  .  ",
".  .  .  .  .  .  .  .  .  .  .  .  .  .  .  .  .  .  .  .  .  .  .  .  .  .  .  .  .  .  .  .  .  .  .  .  .  .  .  .  .  .  .  .  .  .  .  .  .  .  .  .  .  .  .  .  .  .  .  .  .  .  .  .  .  .  .  .  .  .  .  .  .  .  .  .  .  .  .  .  .  .  .  .  .  .  .  .  .  .  @  b$ 0% a% b% c% d% ~% e% 0. @# f% g% ]# h%    i% j% k% H+ +% l% @% m% n% o% p% w$ q% r% r% =% *% s% t% u% v% <@ 2$ w% x% y% z% A% B% C% D% E% F% G% H% Y  ,  _. %+ I% :  J% K% L% v+ @$ ~@ M% N% O% P% Q% R% S% T% U% .  .  .  .  .  .  .  .  .  .  .  .  .  .  .  .  .  .  .  .  .  .  .  .  .  .  .  .  .  .  .  .  .  .  .  .  .  .  .  .  .  .  .  .  .  .  .  .  .  .  .  .  .  .  .  .  .  .  .  .  .  .  .  .  .  .  ",
".  .  .  .  .  .  .  .  .  .  .  .  .  .  .  .  .  .  .  .  .  .  .  .  .  .  .  .  .  .  .  .  .  .  .  .  .  .  .  .  .  .  .  .  .  .  .  .  .  .  .  .  .  .  .  .  .  .  .  .  .  .  .  .  .  .  .  .  .  .  .  .  .  .  .  .  .  .  .  .  .  .  .  .  .  .  .  .  .  .  .  *  V% W% X% Y% Z% `%  & e% .& }@ +& @& #& @# $& V. %& {+ && M# m% *& =& y$ x$ q% q% -& -& ;& =% -& v$ t% >& ,& E@ '& )& !& ~& z  {& {& ]& ^& /& (& _& :& {@ <& [& }  }& |& 1& 2& 3& g  4& 5& 6& 7& 8& 9& 0& a& b& c& d& .  .  .  .  .  .  .  .  .  .  .  .  .  .  .  .  .  .  .  .  .  .  .  .  .  .  .  .  .  .  .  .  .  .  .  .  .  .  .  .  .  .  .  .  .  .  .  .  .  .  .  .  .  .  .  .  .  .  .  .  .  .  .  .  .  ",
".  .  .  .  .  .  .  .  .  .  .  .  .  .  .  .  .  .  .  .  .  .  .  .  .  .  .  .  .  .  .  .  .  .  .  .  .  .  .  .  .  .  .  .  .  .  .  .  .  .  .  .  .  .  .  .  .  .  .  .  .  .  .  .  .  .  .  .  .  .  .  .  .  .  .  .  .  .  .  .  .  .  .  .  .  .  .  .  .  .  .  .  .  e& f& E. W  ~. =@ g& h& i& j& $@ l$ X. k& l& :@ ]+ @% m% m& =& :$ n& ;& q% w$ v$ &% o& p& q& -& y$ r& /+ s& t& <+ u& v& }# w& x& y& 7$ z& A& B& M% C& D& Q  1  E& F& G& |& H& I& J& K& L& M& N& O& P& Q& R& S& T& U& .  .  .  .  .  .  .  .  .  .  .  .  .  .  .  .  .  .  .  .  .  .  .  .  .  .  .  .  .  .  .  .  .  .  .  .  .  .  .  .  .  .  .  .  .  .  .  .  .  .  .  .  .  .  .  .  .  .  .  .  .  .  .  .  ",
".  .  .  .  .  .  .  .  .  .  .  .  .  .  .  .  .  .  .  .  .  .  .  .  .  .  .  .  .  .  .  .  .  .  .  .  .  .  .  .  .  .  .  .  .  .  .  .  .  .  .  .  .  .  .  .  .  .  .  .  .  .  .  .  .  .  .  .  .  .  .  .  .  .  .  .  .  .  .  .  .  .  .  .  .  .  .  .  .  .  .  .  .  %+ K$ V& W& W  W  X& Y& h& Z& `& }@  * .* +* @* #* $* %* &* ** =* ;& q% w$ -* ;* >* ,* s% x$ x$ :$ '* ^+ k+ !+ m+ )* !* ~* {* .+ V  *# ]* :& ^* /* (* _* :* <* |  [* }* |* 1* 2* 3* 4* 5* 6* 7* 8* 9* 0* a* b* c* T& d$ .  .  .  .  .  .  .  .  .  .  .  .  .  .  .  .  .  .  .  .  .  .  .  .  .  .  .  .  .  .  .  .  .  .  .  .  .  .  .  .  .  .  .  .  .  .  .  .  .  .  .  .  .  .  .  .  .  .  .  .  .  .  .  ",
".  .  .  .  .  .  .  .  .  .  .  .  .  .  .  .  .  .  .  .  .  .  .  .  .  .  .  .  .  .  .  .  .  .  .  .  .  .  .  .  .  .  .  .  .  .  .  .  .  .  .  .  .  .  .  .  .  .  .  .  .  .  .  .  .  .  .  .  .  .  .  .  .  .  .  .  .  .  .  .  .  .  .  .  .  .  .  .  .  .  .  .  .  .  $  d* e*  $ f* U  g* h* i* .& %@ )* j* k* l* F# N# m* n* o* q% q% p* p% >* P# q* r* o% n* n* =& s* h+ t* s$ u* v* w* x* q# y* z* A* B* C* D* E* F* G* H* I* J* K* L* M* N* O* P* Q* R* S* T* U* V* W* X* Y* b* Z* `* [  .  .  .  .  .  .  .  .  .  .  .  .  .  .  .  .  .  .  .  .  .  .  .  .  .  .  .  .  .  .  .  .  .  .  .  .  .  .  .  .  .  .  .  .  .  .  .  .  .  .  .  .  .  .  .  .  .  .  .  .  .  .  ",
".  .  .  .  .  .  .  .  .  .  .  .  .  .  .  .  .  .  .  .  .  .  .  .  .  .  .  .  .  .  .  .  .  .  .  .  .  .  .  .  .  .  .  .  .  .  .  .  .  .  .  .  .  .  .  .  .  .  .  .  .  .  .  .  .  .  .  .  .  .  .  .  .  .  .  .  .  .  .  .  .  .  .  .  .  .  .  .  .  .  .  .  .  .  .  .  `   =  $ >@ U  1+ .= += @= #= $= %= &= G# m& *= == q% q& p& -= ;= $% >= m% ,= %* O# s* >= @% ]+ '= )= != g% +& i& ~= {= ]= ^= /= (= _= := <= [= }= |= 1= 2= 3= 4= 5= 6= 7= 8= 9= 0= a= X+ b= c= d= e= P& f= g= h= i= %+ .  .  .  .  .  .  .  .  .  .  .  .  .  .  .  .  .  .  .  .  .  .  .  .  .  .  .  .  .  .  .  .  .  .  .  .  .  .  .  .  .  .  .  .  .  .  .  .  .  .  .  .  .  .  .  .  .  .  .  .  ",
".  .  .  .  .  .  .  .  .  .  .  .  .  .  .  .  .  .  .  .  .  .  .  .  .  .  .  .  .  .  .  .  .  .  .  .  .  .  .  .  .  .  .  .  .  .  .  .  .  .  .  .  .  .  .  .  .  .  .  .  .  .  .  .  .  .  .  .  .  .  .  .  .  .  .  .  .  .  .  .  .  .  .  .  .  .  .  .  .  .  .  .  .  .  .  .  .  [  D  j= k= b% l= m= n= o= @= p= q= .% q* n* w$ q% -& v$ r= s= ,= M# L# t= u= .% /+ B@ T. V@ .@ v= w= x= +&    y= z= A= B= B= C= D= 4= s. E= F= G= H= I= J= K= L= == s% M= N= O= P= a= Q= R= S= T= U= P% V= W= X= Y= .  .  .  .  .  .  .  .  .  .  .  .  .  .  .  .  .  .  .  .  .  .  .  .  .  .  .  .  .  .  .  .  .  .  .  .  .  .  .  .  .  .  .  .  .  .  .  .  .  .  .  .  .  .  .  .  .  .  .  .  ",
".  .  .  .  .  .  .  .  .  .  .  .  .  .  .  .  .  .  .  .  .  .  .  .  .  .  .  .  .  .  .  .  .  .  .  .  .  .  .  .  .  .  .  .  .  .  .  .  .  .  .  .  .  .  .  .  .  .  .  .  .  .  .  .  .  .  .  .  .  .  .  .  .  .  .  .  .  .  .  .  .  .  .  .  .  .  .  .  .  .  .  .  .  .  .  .  .  .  `  Z= `= (%  - d. .- +- @- N. #- .% $- ;* v$ x$ v$ *= %- ,= @% L# S. t$ &- Z$ *- 0# U. .% =- -- ;- >-       ,- '- )- == !- ~- {- ]- ^- /- (- (- ~- _- :- <- [- }- q% |- 1- 2- 3- 4- 5- 6- 7- M% 8- 9- 0- a- b- c- d- .  .  .  .  .  .  .  .  .  .  .  .  .  .  .  .  .  .  .  .  .  .  .  .  .  .  .  .  .  .  .  .  .  .  .  .  .  .  .  .  .  .  .  .  .  .  .  .  .  .  .  .  .  .  .  .  .  .  .  ",
".  .  .  .  .  .  .  .  .  .  .  .  .  .  .  .  .  .  .  .  .  .  .  .  .  .  .  .  .  .  .  .  .  .  .  .  .  .  .  .  .  .  .  .  .  .  .  .  .  .  .  .  .  .  .  .  .  .  .  .  .  .  .  .  .  .  .  .  .  .  .  .  .  .  .  .  .  .  .  .  .  .  .  .  .  .  .  .  .  .  .  .  .  .  .  .  .  .  +  0$ e- 4+ f- G$ Z% .- g- h- C@ e@ m% i- j- <$ ;* ($ N# M# L# h+ /$ P. k- l- m- s& &- n- o- p- q- r- s- t- u- v- w- x- }- y- z- A- B- x- q% q% C- D- E- F- G- H- I- J- == j- K- 4= L- M- N- O- P- Q- R- S- T- U- V- d- %+ .  .  .  .  .  .  .  .  .  .  .  .  .  .  .  .  .  .  .  .  .  .  .  .  .  .  .  .  .  .  .  .  .  .  .  .  .  .  .  .  .  .  .  .  .  .  .  .  .  .  .  .  .  .  .  .  .  ",
".  .  .  .  .  .  .  .  .  .  .  .  .  .  .  .  .  .  .  .  .  .  .  .  .  .  .  .  .  .  .  .  .  .  .  .  .  .  .  .  .  .  .  .  .  .  .  .  .  .  .  .  .  .  .  .  .  .  .  .  .  .  .  .  .  .  .  .  .  .  .  .  .  .  .  .  .  .  .  .  .  .  .  .  .  .  .  .  .  .  .  .  .  .  .  .  .  .  .  .  &  W- X- (% b% l= Y- Z- f+ h+ `-  ; .; +; N# m% M# L# U@ @; e# J# #;    #; $; a# %; &; *; =; -; ;; >; ,; '; ); !; ~; {; ]; ^; /; (; ~; ~; _; :; <; :; [; }; |; 1; J- 2; *= m% 3; 4; 5; 6; 7; }. 8; 9; P& 0; a; b; c; 0$ +  .  .  .  .  .  .  .  .  .  .  .  .  .  .  .  .  .  .  .  .  .  .  .  .  .  .  .  .  .  .  .  .  .  .  .  .  .  .  .  .  .  .  .  .  .  .  .  .  .  .  .  .  .  .  .  ",
".  .  .  .  .  .  .  .  .  .  .  .  .  .  .  .  .  .  .  .  .  .  .  .  .  .  .  .  .  .  .  .  .  .  .  .  .  .  .  .  .  .  .  .  .  .  .  .  .  .  .  .  .  .  .  .  .  .  .  .  .  .  .  .  .  .  .  .  .  .  .  .  .  .  .  .  .  .  .  .  .  .  .  .  .  .  .  .  .  .  .  .  .  .  .  .  .  .  .  .  .  .  d; e; f; g; h; i; ,$ ]+ j; V@ k; l; l* m; +% S. @* j# i# n;    o; X@ /+  ; p; n% q; r; ;; s; t; u; v; w; x; (; y; v; z; A; B; (; C; D; z; E; z; F; G; {; |; H; r% 2; I; J; K; L; M; N; O; P; Q; R; S; T; U; V; W; (. .  .  .  .  .  .  .  .  .  .  .  .  .  .  .  .  .  .  .  .  .  .  .  .  .  .  .  .  .  .  .  .  .  .  .  .  .  .  .  .  .  .  .  .  .  .  .  .  .  .  .  .  .  .  .  ",
".  .  .  .  .  .  .  .  .  .  .  .  .  .  .  .  .  .  .  .  .  .  .  .  .  .  .  .  .  .  .  .  .  .  .  .  .  .  .  .  .  .  .  .  .  .  .  .  .  .  .  .  .  .  .  .  .  .  .  .  .  .  .  .  .  .  .  .  .  .  .  .  .  .  .  .  .  .  .  .  .  .  .  .  .  .  .  .  .  .  .  .  .  .  .  .  .  .  .  .  .  .  $  u@ X; Y; Z; `;  > ^+ ^+ /+ .> +> @> #> $> %> '$ &> *> => -> ;> >>  ; ;* p% ** ,> '> )> t; !> E; ~> {> ]> ]> ^> /> (> E; _> :> <> [> }> |> 1> 2> 3> 4> 5> ~; I- r% x$ /- 6> 7> 8> 9> 0> a> 7* b> c> d> e> f> g> h> *  .  .  .  .  .  .  .  .  .  .  .  .  .  .  .  .  .  .  .  .  .  .  .  .  .  .  .  .  .  .  .  .  .  .  .  .  .  .  .  .  .  .  .  .  .  .  .  .  .  .  .  .  .  .  ",
".  .  .  .  .  .  .  .  .  .  .  .  .  .  .  .  .  .  .  .  .  .  .  .  .  .  .  .  .  .  .  .  .  .  .  .  .  .  .  .  .  .  .  .  .  .  .  .  .  .  .  .  .  .  .  .  .  .  .  .  .  .  .  .  .  .  .  .  .  .  .  .  .  .  .  .  .  .  .  .  .  .  .  .  .  .  .  .  .  .  .  .  .  .  .  .  .  .  .  .  .  .  .  $  i> j> k> l> m> l& o$ n> O. o> p> q> r> s> t> u> v> w> x> y> z> /- == -& p& A> B> C> v; ~> (> 1> D> A; E> /> F> |> A; G> H> I> J> K> /> |> 1> /> L> M> N> O> P> r% A> :$ Q> R> S> T> U> T* V> I. W> X> Y> Z> `>  , [  .  .  .  .  .  .  .  .  .  .  .  .  .  .  .  .  .  .  .  .  .  .  .  .  .  .  .  .  .  .  .  .  .  .  .  .  .  .  .  .  .  .  .  .  .  .  .  .  .  .  .  .  .  ",
".  .  .  .  .  .  .  .  .  .  .  .  .  .  .  .  .  .  .  .  .  .  .  .  .  .  .  .  .  .  .  .  .  .  .  .  .  .  .  .  .  .  .  .  .  .  .  .  .  .  .  .  .  .  .  .  .  .  .  .  .  .  .  .  .  .  .  .  .  .  .  .  .  .  .  .  .  .  .  .  .  .  .  .  .  .  .  .  .  .  .  .  .  .  .  .  .  .  .  +  .  .  .  $  ., +, +, @, #, K# 7> C@ G@ C$ I# $, %, &, *, =, -, ;, >, ,, ', ), !, q& ~, {, /; ], D> (> 1> 1> E; E; D> E; F> /> ^, /, (, _, :, <, [, z; |> 1> D> }, |, 1, 2, P> }- p& p% p; 3, 4, 0= U> 5, 6, 7, 8, T- S- 9, 0, G% a, $  .  .  .  .  .  .  .  .  .  .  .  .  .  .  .  .  .  .  .  .  .  .  .  .  .  .  .  .  .  .  .  .  .  .  .  .  .  .  .  .  .  .  .  .  .  .  .  .  .  .  .  ",
".  .  .  .  .  .  .  .  .  .  .  .  .  .  .  .  .  .  .  .  .  .  .  .  .  .  .  .  .  .  .  .  .  .  .  .  .  .  .  .  .  .  .  .  .  .  .  .  .  .  .  .  .  .  .  .  .  .  .  .  .  .  .  .  .  .  .  .  .  .  .  .  .  .  .  .  .  .  .  .  .  .  .  .  .  .  .  .  .  .  .  .  .  .  .  .  .  .  *  b, i= c$ %  c, d, e, M- f, g, %; Q# R. m# G@ _# >$ ,= i- h, i, j, k, l, m, n, o, C; p, q, y; ], D> 1> F> E; E; 1> E; E; E; ~> !> r, s, t, u, v, w, x, y, z, F> 1> D> A, B, C, D, P> E, F, s% G, q; H, I, J, K, L, M, N, O, P, a- Q, R, S, @  .  .  .  .  .  .  .  .  .  .  .  .  .  .  .  .  .  .  .  .  .  .  .  .  .  .  .  .  .  .  .  .  .  .  .  .  .  .  .  .  .  .  .  .  .  .  .  .  .  .  ",
".  .  .  .  .  .  .  .  .  .  .  .  .  .  .  .  .  .  .  .  .  .  .  .  .  .  .  .  .  .  .  .  .  .  .  .  .  .  .  .  .  .  .  .  .  .  .  .  .  .  .  .  .  .  .  .  .  .  .  .  .  .  .  .  .  .  .  .  .  .  .  .  .  .  .  .  .  .  .  .  .  .  .  .  .  $  *  &  @  .  .  .  .  .  .  .  .  $  T, U, V, W, E% X, Y, Z, 4- `,  ' G, <$ >* Q# l# k; .' _$ p% +' G, @' #' $' %' &' *' =' -' M> }, ;' >' E; E; E; E; E; E; E; E; D> ,' '' )' !' ~' {' ]' ^' /' (' _' F> 1> D> :' o, <' D, [' E, }' |' 1- 1' 2' 3' 5- 4' 5' 6' 7' 8' 9' 0' a' b' c' .  .  .  .  .  .  .  .  .  .  .  .  .  .  .  .  .  .  .  .  .  .  .  .  .  .  .  .  .  .  .  .  .  .  .  .  .  .  .  .  .  .  .  .  .  .  .  .  .  .  ",
".  .  .  .  .  .  .  .  .  .  .  .  .  .  .  .  .  .  .  .  .  .  .  .  .  .  .  .  .  .  .  .  .  .  .  .  .  .  .  .  .  .  .  .  .  .  .  .  .  .  .  .  .  .  .  .  .  .  @  %  $  .  .  .  .  .  .  .  .  .  .  .  .  .  .  .  &  Q@ =  &  @  +  .  .  5  E  d' c& e' P$ f' g' c& $+ h' [  %+ c' i' j' k' l' m' n' o' p' H, u= q' r' w$ (- /- s' t' u' o* -& -& w- v' w' x' D> (> y' z; z' E> D> E; E; E; E; E; E; E; E; E; F> E; A; A' B' C' D' E' F' G' H' I' J' K' E; L' E; E> =' M' N' H- E, q% == ;= O' P' Q' R' S' T' U' V' W' S- X' Y' N$ d' %+ .  .  .  .  .  .  .  .  .  .  .  .  .  .  .  .  .  .  .  .  .  .  .  .  .  .  .  .  .  .  .  .  .  .  .  .  .  .  .  .  .  .  .  .  .  .  .  .  ",
".  .  .  .  .  .  .  .  .  .  .  .  .  .  .  .  .  .  .  .  .  .  .  .  .  .  .  .  .  .  .  .  .  .  .  .  .  .  .  .  .  .  .  .  .  .  .  .  .  .  .  .  .  .  .  .  Z' `'  ) .) +) E  @  .  .  .  .  .  .  .  .  .  .  $  .  .  @) #) $) F% v@ h. .  *  8@ %) &) *) =) -) ;) >) ,) ') )) !) P@ ~) {) ]) ^) /) c& n' () _) :) '* <) p& q& r% !, [) }) G- !, |) 1) 2) G; 3) /> 1> 1> E; E; D> D> E; E; E; E; E; E; E; E; 4) 5) ~> (> 1> 6) 7) 8) 9) 0) a) b) c) d) e) m, <; f) (> E; z, g) h) 2) i) E, =% o* _$ j) 3; k) l) m) n) E& o) U= p) q) r) s) U& .  .  .  .  .  .  .  .  .  .  .  .  .  .  .  .  .  .  .  .  .  .  .  .  .  .  .  .  .  .  .  .  .  .  .  .  .  .  .  .  .  .  .  .  .  .  .  .  ",
".  .  .  .  .  .  .  .  .  .  .  .  .  .  .  .  .  .  .  .  .  .  .  .  .  .  .  .  .  .  .  .  .  .  .  .  .  .  .  .  .  .  .  .  .  .  .  .  +  t) u) v) E% b$ w) x) y) z) A) B) C) D) u@ .  .  .  .  .  .  &  (. E  |% E  _. [% E) c* F) G) j. H) I) J) K) L) M) N) O) 9  P) ^) Q) R) S) w@ T) U) V) W) X) Y) Z) `)  ! &; s= :$ w$ .! r% +! 1, ]> 3> w; C; @! }; #! ^> 2> y' 1> E; E; E; E; E; E; E; E; E; E; 1> 1> E; _' x' !> D> $! |> 6) A' %! &! *! =! -! ;! >! ,! '! )! D> |> E; z; F; G; {; !! I- q& ~! <$ J; K; u> {! ]! ^! l. 7$ /! (! a; _! 0$ .  .  .  .  .  .  .  .  .  .  .  .  .  .  .  .  .  .  .  .  .  .  .  .  .  .  .  .  .  .  .  .  .  .  .  .  .  .  .  .  .  .  .  .  .  .  .  .  ",
".  .  .  .  .  .  .  .  .  .  .  .  .  .  .  .  .  .  .  .  .  .  .  .  .  .  .  .  .  .  .  .  .  .  .  .  .  .  .  .  .  .  .  .  .  .  .  +  :! <! [! }! |! 1! 2! 3! 4! 5! 6! 7! 8! 9! 0! a! $  .  .  .  .  b! @$ c! d! 7+ c  )) e! R% f! g! h! i! j! k! v  l! M) m! n! o! p! q! r! #$ 0@ s! t! u! W) v! w! x! y! z! a# A! n* x$ .! q& H- B! C! D! D> E> ]> G; E! 3> 2> E; 1> E; E; E; E; E; E; E; E; E; E; 1> L' y' K' F! G! H! I! /> $! J! K! L! M! N! O! P! -! ;! Q! R! S! T! 5) |> F> z; U! #! V! ~; P> r% x$ /- 6> 7> W! X! Y! Z! `!  ~ H$ .~ -# .  .  .  .  .  .  .  .  .  .  .  .  .  .  .  .  .  .  .  .  .  .  .  .  .  .  .  .  .  .  .  .  .  .  .  .  .  .  .  .  .  .  .  .  .  .  .  .  .  ",
".  .  .  .  .  .  .  .  .  .  .  .  .  .  .  .  .  .  .  .  .  .  .  .  .  .  .  .  .  .  .  .  .  .  .  .  .  .  .  .  .  .  .  .  .  .  .  +~ @~ #~ $~ %~ &~ *~ =~ -~ ;~ >~ ,~ '~ )~ !~ ~~ {~ ]~ [  +  %+ b$ ^~ /~ (~ _~ .. .. :~ <~ [~ }~ |~ 1~ 2~ 6& 7# 3~ 4~ 5~ 6~ x& 7~ 8~ Y% 9~ n) 0~ -+ N& a~ b~ c- c~ d~ e~ f~ .; +' ~! .! q& 1) {; g~ E> E; y' D> D! A, {> 2> E; 1> E; E; E; E; E; E; E; E; E; E; 1> (> 1> _' h~ i~ j~ k~ l~ L! K! (> J! m~ n~ G! k~ o~ p~ -! q~ r~ s~ J> t~ /> 1> E; /> ^> E! N> u~ P> }- p& :$ Q> R> v~ T> w~ x~ 7, y~ Q; z~ .  .  .  .  .  .  .  .  .  .  .  .  .  .  .  .  .  .  .  .  .  .  .  .  .  .  .  .  .  .  .  .  .  .  .  .  .  .  .  .  .  .  .  .  .  .  .  .  .  ",
".  .  .  .  .  .  .  .  .  .  .  .  .  .  .  .  .  .  .  .  .  .  .  .  .  .  .  .  .  .  .  .  .  .  .  .  .  .  .  .  .  .  .  .  .  +  A~ B~ C~ D~ E~ F~ G~ H~ I~ J~ K~ L~ M~ N~ O~ P~ Q~ R~ S~ T& U& 1% L% T~ c= U~ V~ |& W~ X~ Y~ Z~ *+ [& `~  { .{ +{ @{ #{ 6* ${ %{ &{ *{ ={ -{ U> ;{ J% >{ ,{ '{ w# ){ !{ ~{  ; *= o* {{ q& P> 2) w; :' D> E; y' E; D> /> D> E; E; E; E; E; E; E; E; E; E; E; E; 1> (> 1> A; ]{ ^{ /{ ({ _{ :{ <{ A' [{ (> J! }{ |{ 1{ 2{ 3{ 4{ {' a) 5{ 6{ <, [, K! F> F> /> A, |, 7{ 2, P> E, -& p% 8{ 9{ 0{ a{ b{ M) c{ d{ e{ f{ $  .  .  .  .  .  .  .  .  .  .  .  .  .  .  .  .  .  .  .  .  .  .  .  .  .  .  .  .  .  .  .  .  .  .  .  .  .  .  .  .  .  .  .  .  .  .  .  ",
".  .  .  .  .  .  .  .  .  .  .  .  .  .  .  .  .  .  .  .  .  .  .  .  .  .  .  .  .  .  .  .  .  .  .  .  .  .  .  .  .  .  .  .  +  A~ g{ h{ i{ j{ k{ l{ m{ n{ o{ p{ q{ r{ s{ t{ u{ v{ w{ x{ a& S& m' y{ U~ f  z{ A# A{ B{ C{ D{ E{ F{ G{ H{ I{ J{ K{ L{ M{ N{ O{ P{ Q{ R{ S{ T{ U{ V{ S* W{ X{ Y{ Z{ `{ #;  ] M# ;* .] q% q% |) +] @] {> D> E; E; E; E; E; E; E; E; E; E; E; E; E; E; E; E; E; E; 1> L' #] }> $] %] (, &] *] =! =] -] ;] F! >] 1> ,] ~> u; '] )] !] ~] {] ]] ^] w, /] (] 6) F> F> /> A, B, _] :] <] E, [] s% }] |] 1] J& R; T- 2] 3] 4] $  .  .  .  .  .  .  .  .  .  .  .  .  .  .  .  .  .  .  .  .  .  .  .  .  .  .  .  .  .  .  .  .  .  .  .  .  .  .  .  .  .  .  .  .  .  .  .  ",
".  .  .  .  .  .  .  .  .  .  .  .  .  .  .  .  .  .  .  .  .  .  .  .  .  .  .  .  .  .  .  .  .  .  .  .  .  .  .  .  .  .  .  .  5] 6] 7] 8] 9] 0] a] b] c] d] e] f] g] h] i] j] k] l] m] n] o] ^) p] q] S= r] s] t] u] v] w] x] y] z] A] B] C] D] E] F] G] H] I] J] K] L] M] N] O] P] Q] R] S] T] U] V] i# %; W] X] {{ =% r% |; -' }, D> 1> E; E; E; E; E; E; E; E; E; E; E; E; E; E; E; E; E; 1> L' (> Y] [, Z] `] ]' -!  ^ -! .^ +^ @^ #^ $^ %^ F> $! E; %' &^ *^ =^ -^ ]] ;^ >^ (, /] ^, K! E; E; ;' {> ]> ,^ '^ H- |) F, p% )^ !^ ~^ {^ ]^ ^^ /^ .  .  .  .  .  .  .  .  .  .  .  .  .  .  .  .  .  .  .  .  .  .  .  .  .  .  .  .  .  .  .  .  .  .  .  .  .  .  .  .  .  .  .  .  .  .  .  .  .  ",
".  .  .  .  .  .  .  .  .  .  .  .  .  .  .  .  .  .  .  .  .  .  .  .  .  .  .  .  .  .  .  .  .  .  .  .  .  .  .  .  .  .  .  (^ _^ :^ <^ [^ }^ |^ 1^ 2^ 3^ 4^ 5^ 6^ 7^ 8^ 9^ 0^ a^ b^ c^ d^ e^ f^ g^ h^ 0@ i^ t] j^ k^ l^ k+ m^ n^ o^ p^ q^ r^ s^ t^ u^ v^ w^ x^ y^ z^ A^ B^ C^ D^ E^ F^ G^    H^ I^ J^ .> K^ _$ x$ =% =% r% ~; h) L^ D> E; 1> E; E; E; E; E; E; E; E; E; E; E; E; E; E; E; E; L' L' M^ N^ <, O^ P^ ]] a) Q^ R^ S^ T^ U^ V^ W^ X^ Y^ E; ,] y' Z^ `^  / @^ ./ *] +/ t, @/ '] ,' D> E; E; ;' {> =' M' N' H- #/ p% $/ %/ &/ W> p  */ `* c$ #  .  .  .  .  .  .  .  .  .  .  .  .  .  .  .  .  .  .  .  .  .  .  .  .  .  .  .  .  .  .  .  .  .  .  .  .  .  .  .  .  .  .  .  .  .  .  .  ",
".  .  .  .  .  .  .  .  .  .  .  .  .  .  .  .  .  .  .  .  .  .  .  .  .  .  .  .  .  .  .  .  .  .  .  .  .  .  .  .  .  .  .  =/ -/ ;/ >/ ,/ '/ )/ !/ ~/ {/ ]/ ^/ // (/ _/ :/ </ [/ }/ |/ 1/ 2/ 3/ 8, S= 4/ 5/ 6/ 7/ 8/ n> .% i+ S. 9/ 0/ a/ b/ c/ d/ e/ f/ g/ h/ i/ j/ k/ l/ B^ m/ n/ o/ p/ q/       r/ $; e@ p; p% w$ q% =% P> {; |, :' ;' E; E; E; E; E; E; E; E; E; E; E; E; E; E; E; E; 1> L' D> s/ t/ u/ ^] a) ;! v/ w/ x/ y/ z/ T^ A/ B/ C/ D/ u; E/ J! 1> F/ G/ 8) 9) H/ P! I/ ,! J/ !> D> E; E; E; 4) D! K/ L/ q, M/ W] +% N/ O/ P/ Q/ R/ S/ T/ b, @  .  .  .  .  .  .  .  .  .  .  .  .  .  .  .  .  .  .  .  .  .  .  .  .  .  .  .  .  .  .  .  .  .  .  .  .  .  .  .  .  .  .  .  .  .  .  ",
".  .  .  .  .  .  .  .  .  .  .  .  .  .  .  .  .  .  .  .  .  .  .  .  .  .  .  .  .  .  .  .  .  .  .  .  .  .  .  .  .  .  .  U/ V/ W/ X/ Y/ Z/ `/  ( .( +( @( #( $( %( &( *( =( -( ;( >( ,( '( )( !( ~( {( ]( ^( g% /( (( F+ g+ _( :( <( [( }( |( 1( 1( 2( 3( 4( 5( 5( k/ 6( 6( 7( 8( 9( 0( a( b( c( d( e( 0# %; 8{ :$ x$ q% q& f( 2) @] }, /> E; E; E; E; E; E; E; E; E; E; E; E; E; E; 1> (> E; )! g( s~ h( i( ;! j( k( l( m( n( o( p( q~ q( r( s( t( u( D> J! |> 6) v( w( j~ x( y( z( A( B( F> D> /> D> 1> 1> /> C( D( E( F(  ] G( H( I( J( K( L( N$ M( *  .  .  .  .  .  .  .  .  .  .  .  .  .  .  .  .  .  .  .  .  .  .  .  .  .  .  .  .  .  .  .  .  .  .  .  .  .  .  .  .  .  .  .  .  .  .  ",
".  .  .  .  .  .  .  .  .  .  .  .  .  .  .  .  .  .  .  .  .  .  .  .  .  .  .  .  .  .  .  .  .  .  .  .  .  .  .  .  .  .  .  N( O( P( Q( R( S( T( U( V( W( #( $( X( Y( Z( `(  _ ._ +_ @_ #_ $_ %_ %_ &_ *_ =_ -_ ;_ l* F+ U@ >_ ,_ '_ )_ !_ ~_ d/ {_ ]_ ^_ /_ (_ 6( __ __ __ :_ :_ 5( <_ [_ }_ |_ 1_ 2_ 3_ l- 4_ b# u$ 5_ x$ .! #/ !, q, G; v; 2> E; E; E; E; E; E; E; E; E; E; E; E; y' 1> E; !> $' 6_ r~ T^ u, 7_ 8_ 9_ 7) ^, 0_ a_ b_ c_ .^ 4{ d_ k~ e_ f_ /> $! L' K! g_ e_ h_ J> i_ A; F> ~> j_ k_ x' B( (> 1> z, l_ m_ n_ `, o_ p_ q_ r_ 8, 9  s_ t_ d$ .  .  .  .  .  .  .  .  .  .  .  .  .  .  .  .  .  .  .  .  .  .  .  .  .  .  .  .  .  .  .  .  .  .  .  .  .  .  .  .  .  .  .  .  .  .  ",
".  .  .  .  .  .  .  .  .  .  .  .  .  .  .  .  .  .  .  .  .  .  .  .  .  .  .  .  .  .  .  .  .  .  .  .  .  .  .  .  .  .  .  u_ v_ w_ x_ y_ z_ A_ B_ C_ D_ E_ F_ G_ H_ I_ J_ K_ L_ M_ N_ {] O_ P_ Q_ R_ S_ p- T_ U_ F+ ]+ L# V_ W_ X_ Y_ Z_ `_ d/ f/ ^_  : .: +: __ __ __ __ __ :_ 6( __ @: #: $: %: &: *: =: -: /# /$ O# +' == p& q% H; {, L/ 3> z; ~> E; 1> E; E; E; E; E; E; E; E; 1> y' ;: >: ,: Q! ':  ^ =! r( ): !: A; E; ~: {: ]: ^: /: (: _: O! :: l~ L! K! $! $! B( <: (] [: _' E; D> }: |: 1: 2: g_ K! D> ], 3: 4: 5: U. 6: ${ w+ 7: 8: g> 9: y# +  .  .  .  .  .  .  .  .  .  .  .  .  .  .  .  .  .  .  .  .  .  .  .  .  .  .  .  .  .  .  .  .  .  .  .  .  .  .  .  .  .  .  .  .  .  .  ",
".  .  .  .  .  .  .  .  .  .  .  .  .  .  .  .  .  .  .  .  .  .  .  .  .  .  .  .  .  .  .  .  .  .  .  .  .  .  .  .  .  .  .  0: a: b: c: d: e: f: g: h: i: j: k: l: m: n: o: p: q: m+ r: s: t: u: v: w: x: =- H+ F+ ]+ && y: z: A: )_ B: d/ C: D: E: F: .: l/ __ __ __ __ __ __ __ __ 6( __ G: H: I: J: K: L: M: V] +> B@ N: L= o& -& q% ~, 2, O: P: }> E; 1> F> E; E; E; E; E; E; E; E; Q: R: S: T: U: V: V: P! W: 8) X: f) ,] F> Z^ Y: Z: `:  < .^ U: h( .< w( +< 6) 1> 1> Q: @< A; #< E; K' $< %< &< *< =< (' -< w; ;< >< <$ ,< '< )< !< ~< M% {< c$ +  .  .  .  .  .  .  .  .  .  .  .  .  .  .  .  .  .  .  .  .  .  .  .  .  .  .  .  .  .  .  .  .  .  .  .  .  .  .  .  .  .  .  .  .  .  .  .  ",
".  .  .  .  .  .  .  .  .  .  .  .  .  .  .  .  .  .  .  .  .  .  .  .  .  .  .  .  .  .  .  .  .  .  .  .  .  .  .  .  .  .  .  0$ ]< ^< /< (< _< :< << [< j: }< |< 1< 2< 3< 4< m@ 5< 6< 7< 8< 9< 0< 0< a< b< c< G+ U@ ]+ S. i, d< e< f< g< h< i< j< k< l< m< __ __ __ __ __ __ __ __ __ __ 6( :_ G: n< o< p< q< r< s< t< ]$ u< v< w< |' p& .! E, x< y< z< /> F> F> E; E; E; E; E; E; E; E; D> A< t/ B< C< D< +/ q~ o~ E< F< G< H< ,] F> K' I< B' J< t, u, =! v/ K< 8) 7) ;: E; E; E; E; E; K! L< M< N< O< P< Q< R< ', S< +! }- (- T< U< V< W< 1/ X< 0$ .  .  .  .  .  .  .  .  .  .  .  .  .  .  .  .  .  .  .  .  .  .  .  .  .  .  .  .  .  .  .  .  .  .  .  .  .  .  .  .  .  .  .  .  .  .  .  .  .  ",
".  .  .  .  .  .  .  .  .  .  .  .  .  .  .  .  .  .  .  .  .  .  .  .  .  .  .  .  .  .  .  .  .  .  .  .  .  .  .  .  .  .  @  i= Y< Z< `<  [ .[ +[ @[ #[ $[ %[ &[ *[ =[ -[ ;[  * >[ ,[ '[ )[ ![ ~[ {[ ][ ^[  @ S. ]+ L# /[ >$ 9= ([ _[ :[ <[ [[ k< }[ |[ 1[ __ __ __ __ __ __ __ __ __ __ 6( 6( 6( 2[ 3[ 4[ 5[ 6[ 7[ 8[ 9[ 0[ >$ a[ >* s% w$ }' b[ c[ d[ e[ }> E; 1> E; E; E; F> F> E; E; F> 2> f[ g[ 8_ v, h[ D< ~] i[ j[ k[ u; }{ (> F> [{ 7) l[ m[ n[ o[ u, U^ p[ q[ [, K! E; E; E; D> K' r[ s[ t[ u[ v[ w[ x[ y[ z[ ~! -& (- A[ B[ C[ P/ D[ E[ `  @  .  .  .  .  .  .  .  .  .  .  .  .  .  .  .  .  .  .  .  .  .  .  .  .  .  .  .  .  .  .  .  .  .  .  .  .  .  .  .  .  .  .  .  .  .  .  .  .  ",
".  .  .  .  .  .  .  .  .  .  .  .  .  .  .  .  .  .  .  .  .  .  .  .  .  .  .  .  .  .  .  .  .  .  .  .  .  .  .  .  .  .  <% F[ G[ H[ I[ J[ K[ L[ M[ N[ O[ P[ Q[ R[ S[ T] ~$ T[ U[ V[ W[ X[ {[ Y[ Z[ `[  } i+ V@ _( .} +} @} #} $} %} &} *} =} -} |[ 6( __ __ __ __ __ __ __ __ __ __ __ __ __ 6( 6( 7( ;} >} ,} '} )} {! d( !} e# ~} {} u' ]} ^} /} (} _} :} <} E; E; 1> 1> 1> E/ z; B( [} }} Q: K> t/ @/ |} D< b) 1} 2} 3} H! u( /> J! y' T! 4} 5} 6} 7} 8} p~ 9} 0} L! [{ D> E; E; E; A; A' a} b} c} d} #@ e} f} ]+ =& n* o% @% g} h} 1~ 0@ i} 5# <  $  .  .  .  .  .  .  .  .  .  .  .  .  .  .  .  .  .  .  .  .  .  .  .  .  .  .  .  .  .  .  .  .  .  .  .  .  .  .  .  .  .  .  .  .  .  .  .  ",
".  .  .  .  .  .  .  .  .  .  .  .  .  .  .  .  .  .  .  .  .  .  .  .  .  .  .  .  .  .  .  .  .  .  .  .  .  .  .  .  .  .  x! j} k} l} m} n} o} p} q} r} s} t} u} v} w} $= x} y} z} A} X[ X[ B} C} D} E} F} F+ G} H} I} J} K} L} M} N} O} P} Q} __ k/ __ __ __ __ __ __ __ __ __ __ __ __ __ __ __ 6( 6( 7( m/ R} S} F^ T} U} V} W} C@ S. X} Y} Z} `}  | .| +| @| /> E; 1> (> D> ,' #| I! $| 1> $! D> s/ S! %| &| ]] D< q( w/ 2{ *| f_ K! *' =| -| ;| ;^ >| h[ >! ,| $' )! /> E; E; E; F> f) '| )| !| ~| {| ]| ^| /| (| @* _| c# :| <| [| }| || 1| 2| ;# *  .  .  .  .  .  .  .  .  .  .  .  .  .  .  .  .  .  .  .  .  .  .  .  .  .  .  .  .  .  .  .  .  .  .  .  .  .  .  .  .  .  .  .  .  .  .  .  ",
".  .  .  .  .  .  .  .  .  .  .  .  .  .  .  .  .  .  .  .  .  .  .  .  .  .  .  .  .  .  .  .  .  .  .  .  .  .  .  .  .  .  3| 4| 5| 6| 7| 8| 9| 0| a| b| c| d| e| f| +& g| h| i| j| X[ k| l| m| n| o| p| q| r| s| t| u| v| w| x| y| z| A| B| G: 5( :_ __ __ __ __ __ __ __ __ __ __ __ __ __ __ __ __ :_ C| 5( D| E| F| G| H| I| J| e(  # K| L| M| N| O| P| Q| R| }> S| L' E/ u; r, T| U| !: >] F> $! ~> ,' V| 6_ W| X| D< c) >! Y| Z| `|  1 .1 +1 U[ @1 #1 r~ $1 S! |{ %1 E; 1> E; E; F> #] H< [{ v( &1 *1 =1 -1 ;1 >1 ,1 '1 )1 !1 ~1 {1 ]1 ^1 /1 (1 _1 x# .  .  .  .  .  .  .  .  .  .  .  .  .  .  .  .  .  .  .  .  .  .  .  .  .  .  .  .  .  .  .  .  .  .  .  .  .  .  .  .  .  .  .  .  .  .  .  ",
".  .  .  .  .  .  .  .  .  .  .  .  .  .  .  .  .  .  .  .  .  .  .  .  .  .  .  .  .  .  .  .  .  .  .  .  .  .  .  .  .  .  3| :1 <1 [1 }1 |1 11 21 31 41 51 61 71 81 91 ': 01 a1 b1 k| c1 d1 e1 f1 g1 h1 i1 j1 k1 l1 m1 n1 o1 p1 q1 r1 R} s1 6( 6( :_ __ __ __ __ __ __ __ __ __ __ __ __ __ __ __ __ __ :_ 6( 5( <_ t1 u1 v1 w1 x1 y1 z1 ,1 A1 B1 C1 D1 E1 F1 L> D> 1> E; )! G1 H1 d) O^ I1 J' !> 1> ,] F> v; J1 K1 L1 ;! V: P! M1 N1 ,, O1 P1 Q1 7} R1 h( k~ S1 I! K! E; 1> 1> E; E; E; F> 1> H< K! i_ l~ N1 T1 >[ U1 V1 W1 X1 Y1 Z1 `1  2 .2 +2 @2 G% E  .  .  .  .  .  .  .  .  .  .  .  .  .  .  .  .  .  .  .  .  .  .  .  .  .  .  .  .  .  .  .  .  .  .  .  .  .  .  .  .  .  .  .  .  .  .  .  ",
".  .  .  .  .  .  .  .  .  .  .  .  .  .  .  .  .  .  .  .  .  .  .  .  .  .  .  .  .  .  .  .  .  .  .  .  .  .  .  .  .  .  a! U, #2 $2 %2 &2 *2 =2 -2 ;2 >2 ,2 w* '2 a) )2 !2 )[ k| ~2 C} {2 ]2 ^2 /2 (2 _2 :2 <2 [2 }2 1( |2 12 22 32 42 52 C| l/ 6( __ __ __ __ __ __ __ __ __ __ __ __ __ __ __ __ __ __ :_ 62 5( 52 72 82 92 02 2_ a2 b2 F' c2 d2 e2 f2 C( z; E; E; K! g2 h2 i2 j2 ({ k2 E} l2 m2 H< n2 o2 ], p2 l[ d) q2 D< ;! r2 s2 t2 u2 v2 w2 ^] :, x2 i_ 6) E; 1> E; E; E; E; 1> E; E; |> (> B( I! G! y2 z2 6< A2 B2 C2 D2 E2 F2  - W* G2 H2 /^ Z  .  .  .  .  .  .  .  .  .  .  .  .  .  .  .  .  .  .  .  .  .  .  .  .  .  .  .  .  .  .  .  .  .  .  .  .  .  .  .  .  .  .  .  .  .  .  .  ",
".  .  .  .  .  .  .  .  .  .  .  .  .  .  .  .  .  .  .  .  .  .  .  .  .  .  .  .  .  .  .  .  .  .  .  .  .  .  .  .  .  .  .  I2 V- J2 K2 L2 M2 N2 O2 P2 Q2 o. N_ R2 S2 T2 U2 V2 W2 X2 Y2 Z2 `2  3 /2 |( .3 +3 @3 #3 $3 `_ %3 &3 *3 =3 -3 ;3 G: :_ C| 6( __ __ __ __ __ __ __ __ __ __ __ __ __ __ __ __ __ __ :_ 6( __ G: H: I: >3 ,3 '3 ){ )3 !3 ~3 {3 ]3 _' D> 1> E; [{ J' ^3 ^] v2 +/ ({ /3 (3 k[ _3 D> ,] |> _' :3 <3 [3 }3 V: a) c) ': +/ +/ |3 O^ 13 ]{ ;: #< 1> E; E; E; E; 1> 1> /> [{ }> F> (> &' |{ 23 33 43 w= A2 C2 53 63 73 83 93 03 b; E% %+ .  .  .  .  .  .  .  .  .  .  .  .  .  .  .  .  .  .  .  .  .  .  .  .  .  .  .  .  .  .  .  .  .  .  .  .  .  .  .  .  .  .  .  .  .  .  .  ",
".  .  .  .  .  .  .  .  .  .  .  .  .  .  .  .  .  .  .  .  .  .  .  .  .  .  .  .  .  .  .  .  .  .  .  .  .  .  .  .  .  .  .  &  a3 b3 c3 d3 e3 f3 g3 h3 i3 j3 k3 l3 m3 U2 X[ ~[ n3 o3 p3 q3 r3  3 |( s3 t3 u3 v3 w3 x3 y3 z3 A3 B3 C3 D3 E3 F3 52 :_ l/ 6( :_ __ __ __ __ __ __ __ __ __ __ __ __ __ __ __ __ __ 6( 6( :_ G3 H3 I3 J3 K3 L3 k) M3 N3 O3 l_ P3 /> E; F> /> n, z( Q3 R3 S3 T3 U3 V3 ,: '] u( }{ ,] (> A; (] /] W3 t, D< V: R1 R1 1} X3 /, :3 K' D> 1> E; E; E; F> (> 1> B( s/ A' ^, ], y' $! D> u; '] Y3 Z3 `3  4 .4 +4 @4 #4 $4 %4 &4 *4 e$ @  .  .  .  .  .  .  .  .  .  .  .  .  .  .  .  .  .  .  .  .  .  .  .  .  .  .  .  .  .  .  .  .  .  .  .  .  .  .  .  .  .  .  .  .  .  .  ",
".  .  .  .  .  .  .  .  .  .  .  .  .  .  .  .  .  .  .  .  .  .  .  .  .  .  .  .  .  .  .  .  .  .  .  .  .  .  .  .  .  .  .  .  %+ P@ =4 -4 ;4 >4 ,4 '4 )4 !4 ~4 8< {4 ]4 ]4 ^4 /4 (4 _4 :4  3 <4 [4 }4 |4 14 +: 24 34 44 54 64 74 84 94 04 a4 b4 <_ __ C| C| __ __ __ __ __ __ __ __ __ __ __ __ __ __ __ __ __ __ __ 6( :_ 2[ c4 d4 e4 f4 g4  ' h4 i4 j4 w; }, /> E; 1> /> k4 l4 m4 n4 o[ V: o4 p4 6_ 1{ I! }> L' (> B( [, S: q4 r4 b) w2 4{ (, s4 t4 !> #< 1> 1> E; E; E; 1> 1> M^ |{ '] #^ E} u4 x' D> |> D> v4 r[ w4 s2 x4 j* y4 z4 J@ A4 V  B4 /& O@ C4 @  .  .  .  .  .  .  .  .  .  .  .  .  .  .  .  .  .  .  .  .  .  .  .  .  .  .  .  .  .  .  .  .  .  .  .  .  .  .  .  .  .  .  .  .  .  ",
".  .  .  .  .  .  .  .  .  .  .  .  .  .  .  .  .  .  .  .  .  .  .  .  .  .  .  .  .  .  .  .  .  .  .  .  .  .  .  .  .  .  .  .  .  @  6  X< D4 E4 F4 G4 H4 I4 J4 K4 L4 M4 N4 O4 P4 Q4 R4 S4 r3 T4 U4 V4 W4 __ B^ X4 Y4 Z4 `4  5 84 .5 +5 q/ @5 #5 $5 %5 5( C| 6( 6( __ __ __ __ __ __ __ __ __ __ __ __ __ __ __ __ __ __ 6( C| B^ &5 *5 =5 -5 ;5 u' #/ !! C; @] L> /> F> 1> /> T! >5 ,5 '5 )5 R1 c) !5 ~5 {5 i_ K! (> J! /> |{ ]5 ^5 /5 c) (5 l[ m, ,' M^ 1> 1> E; E; E; E; F> D> v4 D/ _5 :5 <5 [5 }5 |5 15 E; z; ,' `^ 25 35 45 55 65 75 85 ~. 95 05 a5 b5 ;# }% .  .  .  .  .  .  .  .  .  .  .  .  .  .  .  .  .  .  .  .  .  .  .  .  .  .  .  .  .  .  .  .  .  .  .  .  .  .  .  .  .  .  .  .  ",
".  .  .  .  .  .  .  .  .  .  .  .  .  .  .  .  .  .  .  .  .  .  .  .  .  .  .  .  .  .  .  .  .  .  .  .  .  .  .  .  .  .  .  .  .  .  .  4] c5 d5 e5 f5 g5 h5 i5 j5 0< W2 k5 l5 m5 n5 |(  3 o5 p5 q5 r5 k/ __ B^ __ __ @: s5 E^ t5 V{ u5 L: v5 w5 x5 y5 z5 B^ C| C| 6( __ __ __ __ __ __ __ __ __ __ __ __ __ __ __ __ __ 6( l/ l/ G: A5 S} B5 C5 -= }' D5 H- E5 F5 v; z; E; F> &' C( t; G5 !5 H5 I5 J5 W| s~ l~ v( [{ (> n2 D> <: H! $1 K5 (3 X^ x' /> 1> 1> E; E; E; E; E; y' A; A' #^ L5 M5 N5 O5 P5 Q5 R5 S5 E; /> T5 )| <3 U5 V5 W5 X5 Y5 Z5 c% B% `5 b>  6 {  .  .  .  .  .  .  .  .  .  .  .  .  .  .  .  .  .  .  .  .  .  .  .  .  .  .  .  .  .  .  .  .  .  .  .  .  .  .  .  .  .  .  .  .  ",
".  .  .  .  .  .  .  .  .  .  .  .  .  .  .  .  .  .  .  .  .  .  .  .  .  .  .  .  .  .  .  .  .  .  .  .  .  .  .  .  .  .  .  .  .  .  .  .  _. j. N& .6 +6 @6 R_ #6 9< M4 $6 C1 %6 &6 *6 =6 -6 ;6 >6 k/ 5( __ __ :_ C| 5( s1 s5 ,6 '6 )6 !6 ~6 {6 '6 ]6 ^6 ;} 7( C| C| 6( __ __ __ __ __ __ __ __ __ __ __ __ __ __ __ __ 6( C| B^ c4 /6 J: (6 C= _6 |' -& r% <] N' L/ C( A; E; 1> D> !> :6 <6 L1 [6 }6 X| r~ u/ x, :3 >] o2 ,] ~> v4 |6 l4 m, u; B( E; E; E; E; E; E; E; y' E; A; :3 l, 16 26 36 46 56 66 76 86 96 E; M^ 06 (' 0} a6 b6 c6 d6 e6 f6 g6 {& h6 /1 j. ,  .  .  .  .  .  .  .  .  .  .  .  .  .  .  .  .  .  .  .  .  .  .  .  .  .  .  .  .  .  .  .  .  .  .  .  .  .  .  .  .  .  .  .  ",
".  .  .  .  .  .  .  .  .  .  .  .  .  .  .  .  .  .  .  .  .  .  .  .  .  .  .  .  .  .  .  .  .  .  .  .  .  .  .  .  .  .  .  .  .  .  .  &  i6 e  f  j6 #. k6 l6 m6 n6 a< M4 o6 p6 q6 r6 s6 t6 u6 v6 B^ B^ __ __ :_ 6( C| :_ <_ t1 w6 w5 x6 y6 x1 z6 A6 5[ I3 B6 C6 C| C| 6( __ __ __ __ __ __ __ __ __ __ __ __ __ __ __ 6( 5( %5 D6 E6 F6 G6 H6 I6 J6 s% w$ =% K6 D, M' L6 z, D> 1> D> M6 g2 N6 O6 P6 Q6 ]] R6 O^ S6 t4 K' F> ,] E; >] )! !> B( [} 1> E; E; E; E; E; E; E; y' D> T6 U6 V6 W6 X6 Y6 Z6 `6  7 .7 +7 @7 [} /> ;: L! l~ #7 g4 $7 %7 &7 *7 =7 *# *# -7 ;7 >7 _. .  .  .  .  .  .  .  .  .  .  .  .  .  .  .  .  .  .  .  .  .  .  .  .  .  .  .  .  .  .  .  .  .  .  .  .  .  .  .  .  .  ",
".  .  .  .  .  .  .  .  .  .  .  .  .  .  .  .  .  .  .  .  .  .  .  .  .  .  .  .  .  .  .  .  .  .  .  .  .  .  .  .  .  .  .  .  .  .  *  I) ,7 '7 )7 P; !7 ~7 Y@ {7 ]7 9< {[ ![ ^7 /7 (7 _7 :7 W4 :_ <7 __ __ __ __ __ 6( C| :_ 52 [7 }7 |7 17 27 37 {6 47 p< 57 H3 2[ 62 67 6( __ __ __ __ __ __ __ __ __ __ __ __ __ __ :_ 2[ H3 77 87 17 -, 97 07 a7 &* p% w$ q% I- b7 c7 B; _' D> 1> E; >] d7 e7 f7 &] I5 D< ^] X3 g7 m, G< ~> |> E; M^ M^ E; 1> 1> E; E; E; E; E; E; E; 1> (> #< n, t/ h7 i7 j7 k7 l7 m7 n7 o7 p7 q7 1> 5) [{ i_ r7 s7 t7 u7 v7 w7 x7 y7 z7 83 8* A7 B7 C7 .  .  .  .  .  .  .  .  .  .  .  .  .  .  .  .  .  .  .  .  .  .  .  .  .  .  .  .  .  .  .  .  .  .  .  .  .  .  .  .  ",
".  .  .  .  .  .  .  .  .  .  .  .  .  .  .  .  .  .  .  .  .  .  .  .  .  .  .  .  .  .  .  .  .  .  .  .  .  .  .  .  .  .  .  .  .  *  D7 U+ E7 F7 $$ G7 H7 I7 J7 K7 L7 ]4 M7 c1 N7 O7 P7 Q7 R7 S7 T7 C| 6( C| :_ __ __ __ 6( C| :_ 2[ U7 V7 W7 X7 Y7 ~6 Z7 t5 >3 `7 H: G: :_ C| 6( __ __ __ __ __ __ __ __ __ __ __ __ __ :_  8 3[ $: .8 +8 @8       07 #8 $8 y$ x$ q% ~, %8 <' ]> :' D> 1> E; z, g_ &8 *8 Q1 T3 o[ ]' =8 l[ `^ j_ 4) E; E; E; E; E; E; E; E; E; E; E; E; E; 1> ,] -8 /> ^, ;8 >8 ,8 '8 )8 !8 ~8 {8 ]8 ^8 /8 }} D> (8 _8 23 33 :8 <8 )% [8 }8 F$ z7 8- 7$ |8 18 Q@ .  .  .  .  .  .  .  .  .  .  .  .  .  .  .  .  .  .  .  .  .  .  .  .  .  .  .  .  .  .  .  .  .  .  .  .  .  .  .  ",
".  .  .  .  .  .  .  .  .  .  .  .  .  .  .  .  .  .  .  .  .  .  .  .  .  .  .  .  .  .  .  .  .  .  .  .  .  .  .  .  .  .  .  .  $  S, 28 38 2& $$ m. 48 M. 58 68 78 k| M7 W2 88 98 08 a8 b8 c8 d8 e8 f8 g8 6( C| :_ __ __ __ 6( l/ l/ G: s5 h8 i8 j8       k8 l8 m8 E3 F3 52 :_ l/ 6( __ __ __ __ __ __ __ __ __ __ __ __ :_ n8 o8 p8 q8 r8 s8          t8 u8 P# n* x$ .! E, p, 7{ g~ ], /> 1> F> z; [: v8 w8 v, }6 x8 G' y8 J> n, /> E; E; E; E; E; E; E; E; E; E; E; E; E; 1> (> 1> K' J/ z8 A8 B8 C8 D8 E8 F8 ~8 G8 H8 I8 J8 K8 D> K! <: '] s; L8 u7 +& M8 N8 O8 G$ H$ P8 8$ Q8 )  $  .  .  .  .  .  .  .  .  .  .  .  .  .  .  .  .  .  .  .  .  .  .  .  .  .  .  .  .  .  .  .  .  .  .  .  .  .  ",
".  .  .  .  .  .  .  .  .  .  .  .  .  .  .  .  .  .  .  .  .  .  .  .  .  .  .  .  .  .  .  .  .  .  .  .  .  .  .  .  .  .  .  .  |% R8 2& S8 T8 U8 V8 W8 X8 Y8 Z8 `8 {[ ~[  9 .9 +9 @9 g1 #9 d/ $9 %9 &9 *9 2[ :_ C| 6( __ __ 6( =9 l/ @: >} -9 ;9 >9 0.    ,9 '9 )9 !9 a4 b4 <_ __ C| C| :_ __ __ __ __ __ __ __ __ __ __ 62 C| :_ ~9 b4 }_ {9             ]9 ^9 /9 (9 o* ;& D5 |; C; w; A, /> S| F> }> _9 :9 .} <9 [9 }9 |9 U6 s/ /> E; E; E; E; E; E; E; E; E; E; E; E; E; E; E; z, 19 29 39 49 59 69 79 89 99 F8 D8 09 a9 b9 c9 d9 4) 2> n, e9 f9 g9 i@ m@ a. ). h9 z7 s@ i9 8$ j9 E  +  .  .  .  .  .  .  .  .  .  .  .  .  .  .  .  .  .  .  .  .  .  .  .  .  .  .  .  .  .  .  .  .  .  .  .  .  ",
".  .  .  .  .  .  .  .  .  .  .  .  .  .  .  .  .  .  .  .  .  .  .  .  .  .  .  .  .  .  .  .  .  .  .  .  .  .  .  .  .  .  .  .  l  <. k9 l9 Q  m9 n9 o9 p9 q9 r9 {[ s9 {4 t9 u9 v9 w9 c/ i< n1 x9 y9 z9 A9 #: B9 6( l/ 6( C| C| :_ o8 C9 S} D9 E9 F9 G9 74 H9 I9 J9 q/ @5 q8 K9 8( 5( C| C| :_ __ __ __ __ __ __ __ __ __ __ 6( C| :_ @: #: L9 M9             N9 O9 P9 Q9 o& -& D5 +! R9 S9 P3 /> E; 1> /> T! g( _5 T9 U9 S6 A' ;: #< E; E; E; E; E; E; E; E; E; E; E; E; E; E; &' s/ V9 W9 X9 Y9 Z9 `9  0 .0 +0 F8 F8 @0 #0 $0 %0 &0 *0 ;' F; =0 -0 ;0 q$ K+ m@ e% >0 ,0 =7 '0 ]. W& 9$ )0 .  .  .  .  .  .  .  .  .  .  .  .  .  .  .  .  .  .  .  .  .  .  .  .  .  .  .  .  .  .  .  .  .  .  .  .  ",
".  .  .  .  .  .  .  .  .  .  .  .  .  .  .  .  .  .  .  .  .  .  .  .  .  .  .  .  .  .  .  .  .  .  .  .  .  .  .  .  .  .  .  .  9% b; !0 05 ^. ~0 {0 ]0 ^0 /0 {[ W2 M4 (0 _0 :0 <0 [0 &3 }0 |0 10 20 30 40 50 [_ @: __ |[ |[ C| 52 [_ #5 60 H| 70 80 90 00 a0 b0 c0 L: d0 e0 f0 y5 g0 B^ C| C| 6( __ __ __ __ __ __ __ __ __ __ 6( C| 6( h0 M] 57 i0 j0    j8 +# k0 l0 m0 w< o& -& =% 1) E5 F5 v; }> E; 1> &' x' n0 o0 q[ p2 !> #< 1> E; E; E; E; E; E; E; E; E; E; E; E; E; E; /> |{ x2 ~| p0 q0 r0 s0 t0 u0 v0 w0 F8 F8 x0 y0 z0 A0 B0 C0 D0 ', E0 F0 `+ G0 H0 F9 I0 J0 K0 L0 83 i9 M0 i= @  .  .  .  .  .  .  .  .  .  .  .  .  .  .  .  .  .  .  .  .  .  .  .  .  .  .  .  .  .  .  .  .  .  .  .  ",
".  .  .  .  .  .  .  .  .  .  .  .  .  .  .  .  .  .  .  .  .  .  .  .  .  .  .  .  .  .  .  .  .  .  .  .  .  .  .  .  .  .  .  .  b$ V- N0 O0 P0 Q0 R0 S0 T0 ]4 U0 V0 W0 X0 Y0 Z0 `0  a P5 .a +a @a +8 #a $a %a &a *a =a -a |[ ;a >a ,a p/ G^ 'a )a !a ~a {a ]a ^a /a (a _a :a  5 <a D6 ;} 7( C| 6( 62 __ __ __ __ __ __ __ __ __ 6( C| l/ C| C6 [a }a |a 1a 3. l$ 2a m$ 3a 4a 5a s% -& =% f( N' L/ F; z; E; |> D> ], t~ f[ !> Q: 1> 1> E; E; E; E; E; E; E; E; E; E; E; E; E; E; #< K' F! <3 :{ 6a 7a 8a 9a 0a aa ba ca da F8 ea fa ga ha ia ja ka la ^+ /$ ma na c} L- oa pa qa  ~ ra sa i= @  .  .  .  .  .  .  .  .  .  .  .  .  .  .  .  .  .  .  .  .  .  .  .  .  .  .  .  .  .  .  .  .  .  .  .  ",
".  .  .  .  .  .  .  .  .  .  .  .  .  .  .  .  .  .  .  .  .  .  .  .  .  .  .  .  .  .  .  .  .  .  .  .  .  .  .  .  .  .  .  .  `  ^  ta ua va #4 wa xa ya U0 W0 za Aa Ba Ca Da Ea Fa Ga Ha Ia Ja Ka La Ma Na Oa Pa s5 Qa Ra Sa Ta v1 Ua J9 Va Wa Xa Ya Za `a  b .b +b @b #b $b %b &b *b n< C6 6( C| 6( __ __ __ __ __ __ __ __ __ :_ C| =9 =b 2[ *a -b ;b >b %@ %@ ,b '% 3a 'b =& p% w$ =% K6 D, M' g) z, ~> F> E; /> }> D> E; 1> E; E; E; E; E; E; E; E; E; E; E; E; E; E; E; 1> M^ Z^ 19 )b !b ~b {b ]b ^b /b (b _b :b <b !8 [b 09 }b |b 1b F( 2b M# 3b 4b 5b 6b 7b 8b 9b 0b ab bb cb db 5  .  .  .  .  .  .  .  .  .  .  .  .  .  .  .  .  .  .  .  .  .  .  .  .  .  .  .  .  .  .  .  .  .  .  .  ",
".  .  .  .  .  .  .  .  .  .  .  .  .  .  .  .  .  .  .  .  .  .  .  .  .  .  .  .  .  .  .  .  .  .  .  .  .  .  .  .  .  .  .  .  &  eb /) fb f5 H4 gb hb ib jb kb lb 08 mb nb ob pb qb w6 rb sb ,6 60 Ka tb ub    vb wb 4[ xb yb zb &: Ab Bb Cb Db Eb Fb Gb Hb Ib Jb Kb Lb Mb Nb Ob 6[ Pb Qb U7 G3 :_ l/ 6( __ __ __ __ __ __ __ __ :_ C| Rb =9 B9 Sb Tb Ub Vb `& }@ Y. 2a k0 Wb a7 G, <) w$ =% H; @! O: =' z, D> 1> E; E; E; D> D> D> E; E; E; D> 2> A; }> D> E; 1> E; E; E; E; (> (> M^ Xb r[ Yb Zb `b  c .c +c @c #c $c :b da %c &c *c =c R! h+ M# -c ;c >c n0 ,c k~ 'c )c !c ~c {c ]c ^c 5  .  .  .  .  .  .  .  .  .  .  .  .  .  .  .  .  .  .  .  .  .  .  .  .  .  .  .  .  .  .  .  .  .  .  .  ",
".  .  .  .  .  .  .  .  .  .  .  .  .  .  .  .  .  .  .  .  .  .  .  .  .  .  .  .  .  .  .  .  .  .  .  .  .  .  .  .  .  .  .  .  u@ /c 7% fb (c _c :c <c [c }c |c 1c !_ 2c 3c 4c 5c a4 xb 8( %5 *a #5 p/ 6c N5       7c 8c =5 9c s8 )a 0c ac bc cc dc w0 ec fc gc hc ic jc kc lc R] '9 mc nc oc ;3 B9 6( l/ C| :_ __ __ __ __ __ __ 6( =9 =9 2[ z^ pc qc rc sc tc uc 5<  *       vc wc p; y$ w$ =% 1; !; _; :; _' Q: E; y' E; D! ^> }, }> E; E; z; xc L6 P: {> /> E; 1> E; E; E; 1> E; 6) A' yc zc Ac Bc Cc $3 #9 .c Dc Ec Fc Gc Hc Ic Jc Kc Lc Mc Nc Oc Pc o, j_ Qc Rc Sc Tc Uc Vc Wc Xc 0$ $  .  .  .  .  .  .  .  .  .  .  .  .  .  .  .  .  .  .  .  .  .  .  .  .  .  .  .  .  .  .  .  .  .  .  .  ",
".  .  .  .  .  .  .  .  .  .  .  .  .  .  .  .  .  .  .  .  .  .  .  .  .  .  .  .  .  .  .  .  .  .  .  .  .  .  .  .  .  .  .  .  a$ Yc Zc `c R)  d .d +d @d #d $d %d &d *d =d Bc -d ;d %5 __ C| B9 >d ,d 'd )d !d       ~d y/ {d ]d ^d /d (d _d :d Hb <d ec ec <d +0 [d }d |d 1d 2d 3d L3 4d 5d 6d 7d 52 :_ C| 62 __ __ __ __ __ 6( l/ C| 8d H: 82 9d 0d ad Bb bd cd dd ed          3a fd u$ n* =* q% |) ~; 7{ g~ ], /> D> z, C! <' M' P: D! gd ^> #! x; <' M> }, 2> E; 1> E; E; E; K! [, hd #7 id jd kd ld md }2 nd od pd qd rd sd td ud vd wd xd yd zd Ad f) E; K! Bd Cd Dd Ed Fd *4 c$ @  .  .  .  .  .  .  .  .  .  .  .  .  .  .  .  .  .  .  .  .  .  .  .  .  .  .  .  .  .  .  .  .  .  .  .  .  ",
".  .  .  .  .  .  .  .  .  .  .  .  .  .  .  .  .  .  .  .  .  .  .  .  .  .  .  .  .  .  .  .  .  .  .  .  .  .  .  .  .  .  .  .  (. Gd Hd h^ l. Id Jd Kd Ld Md Nd ~_ #9 #9 Od Pd Qd Rd Sd 6( 67 62 B9 z^ V7 zb Td Ud    Vd o9 ~$ Wd X7 Xd Yd Zd ~8 )8 `d )8 !8 `d `d l7  e .e +e r0 @e 8[ #e $e 04 %e *a =a 5( C| 6( __ __ __ :_ l/ =9  8 H3 &e *e Ua _a =e 02 04 -e ;e 92             >e b# Q> (9 o* -& D5 |; N> ,e v; }, ]> (; !! O> x; w; o, -' 2) +! p, ;< 'e ^> z; E; 1> E; E; K' m, s; )e !e ~e {e ]e ^e `b <4 nd  3 /e (e _e :e <e Lc xd [e }e |e 1e 2e 3e 4e X^ 5e 6e 7e S) 8e W; P$ @  .  .  .  .  .  .  .  .  .  .  .  .  .  .  .  .  .  .  .  .  .  .  .  .  .  .  .  .  .  .  .  .  .  .  .  ",
".  .  .  .  .  .  .  .  .  .  .  .  .  .  .  .  .  .  .  .  .  .  .  .  .  .  .  .  .  .  .  .  .  .  .  .  .  .  .  .  .  .  .  .  [  D  j. -+ E& 9e 0e ae be ce de d/ ee &d fe ge he ie je ke le 6( 6( 2[ M] L9 {9 me ne =_ `& oe pe qe re se te `d ue `d !8 99 !8 fc ve da hc we xe ye ze Ae Be q/ @5 q8 $5 %5 le C| 6( :_ :_ C| =9 B^ 3[ Ce De 94 _a Ee Fe Ge V7 t1 *a He Ie             Je k; *& <$ (- ;& D5 Ke ); Le Le Me Ne =% q& Oe Pe Qe Re Se Te r% 1) {; Ue F; z; E; 1> E; ], |6 Ve We Xe Ye Ze `e  f .f 2c h< q3 +f @f #f $f %f &f *f =f -f ;f >f ,f 'f )f !f ~f {f ]f ^f /f 3] (f [  .  .  .  .  .  .  .  .  .  .  .  .  .  .  .  .  .  .  .  .  .  .  .  .  .  .  .  .  .  .  .  .  .  .  .  ",
".  .  .  .  .  .  .  .  .  .  .  .  .  .  .  .  .  .  .  .  .  .  .  .  .  .  .  .  .  .  .  .  .  .  .  .  .  .  .  .  .  .  .  .  %+ S, _f :f -+ <f [f }f |f Z_ #9 1f Z_ 2f 3f 4f 5f 6f 7f 8f 9f le 6( 6( 8d [a 0f af bf cf `$ df ef ff gf hf if `d ue `d !8 99 !8 `d `d jf kf lf mf nf of pf {! qf 0d rf f0 y5 g0 7( C| C| C| =9 __ sf tf uf vf Bb ,9 k8 wf xf yf B9 B9 M] zf i0                Af v< _$ Bf q% r% J- Cf Df z[ p% .] (- /- -c Ef Ff :$ .] -& r% 1) +] h) Gf z, ~> F> M^ Hf z( If Jf () Kf ~e Lf Mf Nf Of p3 Pf Qf Rf Sf w8 Tf Uf Vf Wf +0 Xf Yf Zf `f W9  g .g U* +g @g #g ^  c$ .  .  .  .  .  .  .  .  .  .  .  .  .  .  .  .  .  .  .  .  .  .  .  .  .  .  .  .  .  .  .  .  .  .  .  ",
".  .  .  .  .  .  .  .  .  .  .  .  .  .  .  .  .  .  .  .  .  .  .  .  .  .  .  .  .  .  .  .  .  .  .  .  .  .  .  .  .  .  .  .  .  %+ e$ $g %g &g *g =g t^ C: .c -g ;g >g ,g 'g 6f 6f 6f 6f ie )g !g 6( +:  8 c4 ~g &b {g ]g ^g /g b( (g _g :g <g [g `d `d )8 )8 !8 }g |g 1g 2g K' :6 3g 4g pf 8[ 5g :a  5 <a D6 6g 7( =9 Rb :_ C^ >} M9 K3 #e 7g 8g 9g 0g Sb =a 6( l/ 2[ [a *b ,} 'd             Af ag j- |' o& bg cg dg U@ ($ eg *= m& H+ fg Af P9 ,* (- -& r% P> q, [; =' z, D> 1> D> u( Z| gg hg tc    Ze ig jg kg lg mg _( F+ ng og pg qg rg l7 !8 sg tg ug vg wg xg yg zg 5& Ag Bg Cg w) .  .  .  .  .  .  .  .  .  .  .  .  .  .  .  .  .  .  .  .  .  .  .  .  .  .  .  .  .  .  .  .  .  .  .  ",
".  .  .  .  .  .  .  .  .  .  .  .  .  .  .  .  .  .  .  .  .  .  .  .  .  .  .  .  .  .  .  .  .  .  .  .  .  .  .  .  .  .  .  .  .  +  [  Dg Eg Fg Gg Hg Ig Jg Kg Lg Mg Ng Og Pg 6f 6f 6f 6f 7f Qg )g !g 6( l/ B^ &5 >} Rg Sg Tg Ug Vg Wg Xg Yg Zg te `g fc ec )8 w0  h .h +h @h /> P3 :3 h_ #h $h Ae %h 17 %b &h ~g c4 B^ :_ s1 *h =h -h ;h R] Q] >h -e ,h m/ B^ 6( =9 C| 8d n< d4 f0 9c             O9 a[ 'h G, O' )h u7 `, !h 3b ~h {h ]h ^h 8/ `@ /h _$ (- -& q& !, D, O: =' z, E; (> K! |6 (h _h +&       :h <h [h }h |h 1h 2h 3h 4h 5h 6h 7h w0 m7 8h 9h 0h ah bh X+ ch dh eh k  18 Y= @  .  .  .  .  .  .  .  .  .  .  .  .  .  .  .  .  .  .  .  .  .  .  .  .  .  .  .  .  .  .  .  .  .  .  .  ",
".  .  .  .  .  .  .  .  .  .  .  .  .  .  .  .  .  .  .  .  .  .  .  .  .  .  .  .  .  .  .  .  .  .  .  .  .  .  .  .  .  .  .  .  .  fh !) gh t  hh ih jh kh lh mh nh oh ph ke je Pg 6f 6f 6f 6f 7f qh )g __ 6( C| 5( D| n/ f0 60 +8 Bb rh q/ sh th uh vh <b ve <b wh xh yh zh 5) E; y' K! g_ Ah Bh Ch X! 5; Ob 6[ Dh 0f H: Eh Fh Gh Hh Ih Jh Kh bf e4 ^6 6g C6 __ __ 6( C| C| 7( 6g ^6 S} Lh             '$ A@ i, g, P= u5 Mh Nh Oh Ph Qh Rh 37 Sh .# Th Uh o% v$ -& r% H; 2, <' =' z, /> v4 Vh Wh Xh m@ Yh Zh S] `h  i .i Y$ f@ +i @i #i $i %i &i |g *i =i -i ;i >i ,i 6, b{ 'i )i !i _. $  .  .  .  .  .  .  .  .  .  .  .  .  .  .  .  .  .  .  .  .  .  .  .  .  .  .  .  .  .  .  .  .  .  .  .  .  ",
".  .  .  .  .  .  .  .  .  .  .  .  .  .  .  .  .  .  .  .  .  .  .  .  .  .  .  .  .  .  .  .  .  .  .  .  .  .  .  .  .  .  .  .  .  ~i {i ]i 0@ 0~ ^i /i (i _i :i <i [i k/ le }i |i ie 6f 6f 6f Pg ie 1i le __ 6( l/ :_ =a *a #5 G| 2i 3i 4i 5i 6i 7i hf 8i +0 9i 0i ai bi 2> ci E; 1> F> z; [, di ei fi $} Nb '9 gi hi He 4[ r1 ii k8 Jh Ab s8 J3 tf 3[ 2[ __ __ __ __ :_ C| C| B^ C^ ji ki Lh             li j% mi s< +5 ni a( oi pi qi >h H| ri si ti ui vi J6 s% p& q% H; @! x; w; g_ H! wi xi ri yi zi Ai Bi w} o. ~$ c6 Ci Di Ei Fi r3 Gi Hi Ii Ji Ki Li Mi Ni Oi Pi w+ Qi  . c$ +  .  .  .  .  .  .  .  .  .  .  .  .  .  .  .  .  .  .  .  .  .  .  .  .  .  .  .  .  .  .  .  .  .  .  .  .  .  ",
".  .  .  .  .  .  .  .  .  .  .  .  .  .  .  .  .  .  .  .  .  .  .  .  .  .  .  .  .  .  .  .  .  .  .  .  .  .  .  .  .  .  .  .  +  Ri )) Si !@ Ti Ui Vi Wi Xi Yi +: 6( __ __ le 1i Zi ie 6f 6f ie )g `i le __ __ 6( =9 :_ B9 >d r1 .8  j .j +j T} @j #j $j %j &j }( *j D> /> #< E; 1> 1> E; A; |{ =j -j ;j >j ,j 'j )j !j ~j {j ]j ^j /j (j _j Ce :j G3 __ __ __ __ __ __ :_ 6( l/ __ %5 <j }_ [j          +& w* 0. }j X7 @5 |j 1j 2j 3j 4j 5j 2i 8b    6j 7j wc &* p% w$ q& I- +! 8j 9j 0j aj @8 ,2 bj cj dj ej fj ~= gj 3. hj ij jj Ig *d d/ %3 kj lj mj nj oj 5' pj w+ ]i qj u@ .  .  .  .  .  .  .  .  .  .  .  .  .  .  .  .  .  .  .  .  .  .  .  .  .  .  .  .  .  .  .  .  .  .  .  .  .  .  .  ",
".  .  .  .  .  .  .  .  .  .  .  .  .  .  .  .  .  .  .  .  .  .  .  .  .  .  .  .  .  .  .  .  .  .  .  .  .  .  .  .  .  .  .  .  +  rj sj g$ A7 tj uj P] vj t1 j/ :_ __ __ __ __ B^ wj )g Qg Qg |i xj le __ __ __ :_ C| l/ 6( G: yj zj Aj i8 )a Bj ]d Cj Dj Ej Fj Gj E; E; E; E; E; E; E; E; E; bi Hj Ij Jj Kj Lj Mj Nj Oj Pj Qj Rj Sj Tj -9 L9 Uj j/ 5( __ __ __ __ __ __ __ __ 6( l/ 6( @: 1j E3 Vj Wj Xj o. `& Yj I# Zj `j  k B9 __ %5 .k f0 87 ;9 N5       +k @k z$ -% p& F, == L= #k $k %k &k *k =k -k ;k >@ d% >k ,k 'k )k !k ~k ^e v^ {k z3 ]k ^k /k (k _k P; t  #$ v+ :k $  .  .  .  .  .  .  .  .  .  .  .  .  .  .  .  .  .  .  .  .  .  .  .  .  .  .  .  .  .  .  .  .  .  .  .  .  .  .  .  ",
".  .  .  .  .  .  .  .  .  .  .  .  .  .  .  .  .  .  .  .  .  .  .  .  .  .  .  .  .  .  .  .  .  .  .  .  .  .  .  .  .  .  .  .  .  ~i <k :& [k }k |k 1k ,h %5 B^ 6( __ __ __ __ __ 5( g8 )g )g wj B^ __ __ __ __ __ :_ 6( l/ 6( A^ 2j He nc 2k 74 3k 4k 5k 6k 7k +< :' F> (> 1> E; D> /> D> 8k 9k 0k ak bk ck dk ek fk gk hk ik jk kk lk Qb >a <_ 7( :_ __ __ __ __ __ __ __ __ __ 6( l/ :_ B9 yj mk |_ nk ok Wd }@ pk qk 4j C9 Ra |[ 6( =a s5 oi rk sk tk       uk @k '* vk <) 5a 'b wk    xk X{ yk zk Ak Bk s@ Ck Dk Ek Fk %h Gk Hk Ik Jk Kk Lk Mk Nk Ok m. Pk Qk .. 28 P$ $  .  .  .  .  .  .  .  .  .  .  .  .  .  .  .  .  .  .  .  .  .  .  .  .  .  .  .  .  .  .  .  .  .  .  .  .  .  .  .  .  ",
".  .  .  .  .  .  .  .  .  .  .  .  .  .  .  .  .  .  .  .  .  .  .  .  .  .  .  .  .  .  .  .  .  .  .  .  .  .  .  .  .  .  .  .  .  5  !) Rk 8: Sk Tk Uk Vk g8 m< +: __ __ __ __ __ __ __ B^ !g !g __ __ __ __ __ __ __ __ 6( l/ 6(  8 Wk Qb [j Xk Yk Zk I# `k  l .l +l [{ 1> (> E; D> &' d9 @l #l }2 $l %l &l *l =l x9 -l  c ;l >l ,l 'l |i 8d )l 5( __ __ __ __ __ __ __ __ __ __ __ C| C| :_ G: !l oc |_ (j ~l {l    ]l ^l Ta 2j /l l/ 6( @: b4 a4 !9 vf (l       _l :l <l [l 'b }l       |l 9~ J( 1l 2l 3l 4l 5l 6l 7l 8l 9l 0l al bl cl dl el fl gl hl {@ w+ 0@ il I) $  .  .  .  .  .  .  .  .  .  .  .  .  .  .  .  .  .  .  .  .  .  .  .  .  .  .  .  .  .  .  .  .  .  .  .  .  .  .  .  .  .  ",
".  .  .  .  .  .  .  .  .  .  .  .  .  .  .  .  .  .  .  .  .  .  .  .  .  .  .  .  .  .  .  .  .  .  .  .  .  .  .  .  .  .  .  .  +  _. F% jl kl ll ml nl *a @: 1[ 6( 6( __ __ __ __ __ __ __ __ __ __ __ __ __ __ __ __ __ __ 6( C| C|  8 c4 ol &b 47 pl @8    ql rl sl `| K' E; 1> E; tl ul vl n1 d/ C: r3 B: wl xl yl |( zl Al Bl Cl Dl El Fl [i B^ B^ __ __ __ __ __ __ __ __ __ __ :_ 6( l/ 6( 2[ [a Gl J: >h             Hl zj >d 52 l/ l/ G: 72 E3 5d s8 Il       Jl Kl Ll Ml       Nl i$ Ol Pl Ql Rl Sl Tl H. o  i  f; Ul Vl Wl Xl Yl Zl `l  m .m F& +m ~@ .m {  &  .  .  .  .  .  .  .  .  .  .  .  .  .  .  .  .  .  .  .  .  .  .  .  .  .  .  .  .  .  .  .  .  .  .  .  .  .  .  .  .  .  .  ",
".  .  .  .  .  .  .  .  .  .  .  .  .  .  .  .  .  .  .  .  .  .  .  .  .  @  4] @m fh .  .  .  .  .  .  .  .  .  .  .  .  .  .  .  @  ]~ #m r) $m %m &m *m ki =m %5 B^ 6( :_ __ __ __ __ __ __ __ __ __ __ __ __ __ __ __ __ __ __ :_ C| l/ B^ &5 D6 -m ;m bd >m       ,m 'm |6 %' D> )m !m ~m %l *d {_  3 ~_ {m ]m ^m /m (m zl _m :m <m G8 [m }m |m 1m 5( B^ 5( __ __ __ __ __ __ __ __ __ __ 6( C| C|  8 3[ I3 <a .8             De 2m *a =a 6( C| 2[ H: oc 3m Xk 4m 5m    6m 7m 8m 9m 0m am bm cm dm em S) :. fm `* gm hm b% im jm  2 +. km lm mm nm om pm W~ K) 4# 0$ .  .  .  .  .  .  .  .  .  .  .  .  .  .  .  .  .  .  .  .  .  .  .  .  .  .  .  .  .  .  .  .  .  .  .  .  .  .  .  .  .  .  .  ",
".  .  .  .  .  .  .  .  .  .  .  .  .  .  .  .  .  .  +  +  +  .  .  .  .  i= qm -) +) Z  @  .  .  .  .  .  .  .  .  .  .  .  .  .  $  c' rm W= sm tm 9b um vm wm xm C^ ym 6( 6( __ __ __ __ __ __ __ __ __ __ __ __ __ __ __ __ __ __ 6( C| C| __ %5 .k f0 60 zm Am       Bm Cm t; F/ Dm Em Fm Gm {_ r3 ~_ Hm Im Dm Jm Km Lm Mm Nm Om F8 +0 y0 Pm Qm Rm Sm 7( 7( B^ __ __ __ __ __ __ __ __ __ __ :_ C| l/ B^ 6g D6 ,6 Lh             Tm q8 $5 %5 :_ C|  8 Um 57 Pb Vm pl Wm    Xm Ym n@ Zm `m 4@  n .n +n :. }% @  E  {< 8$ ]. @n D. 1# &# #n $n w@ */ %n B4 P- &n [  +  .  .  .  .  .  .  .  .  .  .  .  .  .  .  .  .  .  .  .  .  .  .  .  .  .  .  .  .  .  .  .  .  .  .  .  .  .  .  .  .  .  .  .  ",
".  .  .  .  .  .  .  .  .  .  .  .  .  .  .  .  .  )  *n ,  6  (. %+ .  [  =n H2 -n ;n >n y# $  .  .  .  .  .  .  .  .  .  .  .  .  .  &  ,n 'n )n !n {1 ~n {n ]n ^n /n c4  8 6( 6( __ __ __ __ __ __ __ __ __ __ __ __ __ __ __ __ __ __ :_ C| l/ __ s1 A5 w6 G| (n N5       _n )> :n <n [n d/ 1( -g }n |n 1n 2n 3n y' E/ 4n 5n 6n 7n F8 8n 9n Wf 0n an bn cn B^  8 B^ __ __ __ __ __ __ __ __ __ __ __ C| C| B^ C^ ji #5 Lh             dn ,6 *h &5 n8 C| 7( c4 en &b Sg G^ 0c    `& fn g& gn B% $4 hn Y  0$ .  .  $  E  in jn kn ln ln mn nn :. T% S% on F) H% u@ +  .  .  .  .  .  .  .  .  .  .  .  .  .  .  .  .  .  .  .  .  .  .  .  .  .  .  .  .  .  .  .  .  .  .  .  .  .  .  .  .  .  .  .  .  ",
".  .  .  .  .  .  .  .  .  .  .  .  .  .  .  +  Q@ {< pn c! ^~ v+ 6+ +$ qn S) rn sn tn un vn wn @  .  .  .  .  .  .  .  .  .  .  .  .  .  xn yn #. zn J% An Bn Cn Dn En Fn Gn h0 6( C| 6( __ __ __ __ __ __ __ __ __ __ __ __ __ __ __ __ __ :_ 6( l/ 6( 52 [_ Hn v1 i8 In       Jn Kn Ln Mn $3 #9 }2 Nn On Pn Qn F> B( Rn Sn Tn Un Vn Wn F8 8n l7 fa Xn Yn Zn `n n8 7( 5( __ __ __ __ __ __ __ __ __ __ 6( C| C| 5( %5 *a u1 J:             rk  o ^6 .o B^ C| le &5 3j +o @o w1 r<    #o $o q+ I& %o h! &o )  $  .  .  +  `  /. *o Y' =o -o ;o 0$ U& T& >o ,o 'o %  .  .  .  .  .  .  .  .  .  .  .  .  .  .  .  .  .  .  .  .  .  .  .  .  .  .  .  .  .  .  .  .  .  .  .  .  .  .  .  .  .  .  .  .  .  ",
".  .  .  .  .  .  .  .  .  .  .  .  .  .  +  _. )o #$ P/ J. .. !o ~o 5# {o S= 7$ ]o ^o /o (o _o :o +  .  .  .  .  .  .  .  .  .  .  .  .  rj <o Q  ~@ Q$ [o }o |o 1o ]n 2o /6 3o h0 :_ 6( __ __ __ __ __ __ __ __ __ __ __ __ __ __ __ __ __ __ __ 6( l/ 6( G: z^ zj 92 4o Il Ug    5o 6o 7o Fi s3 8o 9o 0o ao bo D> co t/ do eo fo go ho .0 l7 8n F8 '8 {8 io jo ko n8 7( B^ __ __ !g __ __ __ __ __ __ __ :_ C| =9 :_ <_ b4 E3 h8             Ja Rg o< n<  8 l/ __ lo mo f0 z| no oo po qo ro so to uo 9@ 9$ )  .  .  .  .  vo wo N$ V-  , `  .  .  @  _. _. %+ .  .  .  .  .  .  .  .  .  .  .  .  .  .  .  .  .  .  .  .  .  .  .  .  .  .  .  .  .  .  .  .  .  .  .  .  .  .  .  .  .  .  .  .  .  .  ",
".  .  .  .  .  .  .  .  .  .  .  .  .  +  _. i. ;7 w  xo 1~ Si yo v  zo 0@ 1| U' Ao Bo Co /o Do Eo I) @  .  .  .  .  .  .  .  .  .  .  .  5  S, Fo Go Ho x  X{ Io       Jo Ko Lo Mo B9 :_ :_ :_ __ __ __ __ __ __ __ __ __ __ __ __ __ __ __ __ __ __ 6( C| 6( 2[ U7 He -9 K3 Il No Oo Po Qo Ro So yh To ao 1> &' T5 Uo wi Vo 3i Wo Xo Yo Zo `o da )8  p .p +p @p #p $p k/ )l B^ 1i %p 1i &p !g __ __ __ __ __ :_ C| l/ 6( B9 yj $: *p             =p M9 57 -p 2[ l/ 6( =a <j oi ;p ni >p l) ,p 'p )p l9 !p ~p F. {p $  .  .  $  vo I2 i= ~i $  .  .  .  .  .  .  .  .  .  .  .  .  .  .  .  .  .  .  .  .  .  .  .  .  .  .  .  .  .  .  .  .  .  .  .  .  .  .  .  .  .  .  .  .  .  .  .  .  .  .  .  .  ",
".  .  .  .  .  .  .  .  .  .  .  .  .  }% ]p K) 9@ 9@ }& ^p /p c! Qk (p _p :p U8 <p [p /1 }p |p 1p 2p 3p x# +  .  .  .  .  .  .  .  .  .  $  a, ^  4p a~ 5p pa 7/ l$       6p 7p 8p 9p @: __ 6( 6( __ __ __ __ __ __ __ __ __ __ __ __ __ __ __ __ __ __ 6( l/ 6( 8d Wk Qb 0p ap bp cp )6 dp ep )_ fp gp 1> /> }: &^ hp ip Am jp kp lp mp 5n np 9i [b 8n [g op pp qp rp sp tp wj qh ie up 1i !g __ __ __ __ __ __ __ 6( l/ 6( G: H: 57 vp             wp [j oc z^ G: l/ 6( @: b4 %e !9 xp V{ 5; yp zp Ap Bp Cp Dp t@ Ep [  +  .  $  d$ @  +  .  .  .  .  .  .  .  .  .  .  .  .  .  .  .  .  .  .  .  .  .  .  .  .  .  .  .  .  .  .  .  .  .  .  .  .  .  .  .  .  .  .  .  .  .  .  .  .  .  .  .  .  .  ",
".  .  .  .  .  .  .  .  .  .  .  .  %  9% ^~ || ~@ Q  Fp Gp Hp Ip Jp Kp Lp Mp Np yi Op Pp Qp Rp Sp Tp ]c Up d$ .  .  .  .  .  .  .  .  $  @  u@ Vp Wp Xp G% Yp si [@ ~$ 7/ Zp `p  q .q b4 =a B^ 6( 6( __ __ __ __ __ __ __ __ __ __ __ __ __ __ __ __ __ __ 6( C| 6( `i c4 +q &b -h :a @q #q $q z3 %q &q *0 T5 J/ *q =q -q ;q tk >q ,q r, 'q }( )q !q w0 8n !8 Gb ~q {q rp ]q ^q Pg 6f Pg |i wj __ __ __ __ __ __ __ __ 6( C| 6( 2[ Um o< E^ /q             nc }_ >d 52 6( C| B9 (q E3 5d 4d L3 _q :q <q [q }q  ~ |q 1q +) w) .  .  .  .  .  .  .  .  .  .  .  .  .  .  .  .  .  .  .  .  .  .  .  .  .  .  .  .  .  .  .  .  .  .  .  .  .  .  .  .  .  .  .  .  .  .  .  .  .  .  .  .  .  .  .  .  .  .  ",
".  .  .  .  .  .  .  .  .  .  .  @  6+ 2q Q$ 3q )i A{ 4q b+ #@ 5q 6q 7q 8q u, 9q l$ x* 0q aq -k bq cq dq eq fq gq .  .  .  .  .  .  *  c$ U& 5  ~i hq iq jq kq r/ C+ lq F@ mq 8[ nq oq pq qq lo B^ 6( 6( :_ __ __ __ __ __ __ __ __ __ __ __ __ __ __ __ __ __ 6( C| l/ B^ &5 3j <a |7 rq sq tq y3 uq #l vq wq xq yq zq 37    Aq Bq Cq s/ D> *j Dq Eq Fq Hb 8n <d w0 Gq Hq Iq Jq Pg 6f Pg |i `i __ __ __ __ __ __ __ __ __ 6( C| 6( C6 3[ 4[ f0 a(             De u1 *a =a 6( C| 2[ H: $: Kq Lq )6 _q Mq Nq Oq Pq u# Qq Rq c; .  .  .  .  .  .  .  .  .  .  .  .  .  .  .  .  .  .  .  .  .  .  .  .  .  .  .  .  .  .  .  .  .  .  .  .  .  .  .  .  .  .  .  .  .  .  .  .  .  .  .  .  .  .  .  .  .  .  ",
".  .  .  .  .  .  .  .  .  .  #  G. z# Q$ :& 0+ 7; Sq Tq k@ G@ .> (( c< %> P. s& p. Uq Vq Wq cj I. Xq Yq Zq `q Xc '@ +  .  .  .  @  ]   r .r -) -  +r @r M; #r $r j+ l; g@ %r k^ 8[ &r Dn *r xm g0 `i 6( 6( __ __ __ __ __ __ __ __ __ __ __ __ __ __ __ __ __ n8 n8 C| =9 :_ %5 =r -r ;r >r Cc $l ,r }2 'r )r !r ~r I| {r ]r ^r Cq v4 /r y' [{ (r _r :r <r <g [g ea +p [r }r ke Qg Pg 8f 1i le __ __ __ __ __ __ __ __ __ __ __ C| C| 7( 6g 3j |r Lh             92 1r K9 %5 :_ l/  8 H3 zf Pb 2r )} 3r 4r 5r 6r +2 7r Xp m' .  .  .  .  .  .  .  .  .  .  .  .  .  .  .  .  .  .  .  .  .  .  .  .  .  .  .  .  .  .  .  .  .  .  .  .  .  .  .  .  .  .  .  .  .  .  .  .  .  .  .  .  .  .  .  .  .  .  ",
".  .  .  .  .  .  .  .  .  5  1% 8r 38 -+ 9r 0r ar br k@ d+ cr dr F+ h+ V@ A@ er +> 6m 2$ fr gr hr ir jr kr lr mr nr or @  .  0$ M( pr qr rr sr tr n' a2 #; g@ t= ur r* 2b e#  % 9[ l) vr wr E6 xr sf  8 C| 6( __ __ __ __ __ __ __ __ __ __ __ __ __ __ __ yr zr Ar Br Cr Dr g8 2j Er 54 Fr Gr $l ^b Hr Ir Jr Yo Kr Lr Mr Nr Or N^ E; $! D> i_ %! Pr Qr Rr Sr Tr Ur Vr Wr m< g8 )g Xr 1i !g __ __ __ le le __ __ __ __ __ __ __ :_ C| C| 5( g0 rb q8 -9             /q S} =r &5 __ =9 B^ B6 *b &b 47 Yr Zr `r i9  s 9  j} d' .  .  .  .  .  .  .  .  .  .  .  .  .  .  .  .  .  .  .  .  .  .  .  .  .  .  .  .  .  .  .  .  .  .  .  .  .  .  .  .  .  .  .  .  .  .  .  .  .  .  .  .  .  .  .  .  .  .  ",
".  .  .  .  .  .  .  .  .  u@ Dg .s +s l. 5' @s 2. #s C+ D+ E+ i+ $s #* ]+ V@ /$ %s Z$ &s +& *s i* =s -s ;s >s ,s 's )s G. 5  a3 #m rr !s N0 ~s e' {s ]s 4_ F# ,> p% -= o% a[ >$ @@ o; ^s /s mc Dh en B6 2[ :_ 6( __ &p 1i &p !g __ __ :_ :_ __ __ __ __ yr (s _s :s <s [s }s =a  k -r |s 1s 2s 3s 4s 5s 6s 7s 8s 9s 0s as N6 L! B( $! E; bs cs ds es fs gs hs is js ks m< 2[  8 B^ !g le __ __ __ !g `i ls &p __ __ __ __ __ __ __ 6( C| l/ __ %5 *a 0( |a             ms ns os 6g B^ =9 __ z5 3j -m ps qs rs M) ss ts us w) .  .  .  .  .  .  .  .  .  .  .  .  .  .  .  .  .  .  .  .  .  .  .  .  .  .  .  .  .  .  .  .  .  .  .  .  .  .  .  .  .  .  .  .  .  .  .  .  .  .  .  .  .  .  .  .  .  .  ",
".  .  .  .  .  .  .  .  &  vs ws xs ys zs As Bs 9. !} `+ a# ^+ g+ ]+ ]+ ]+ ]+ c# ,$ Cs #- &s 2a y. fn Ds M% Es Fs Gs Hs Is Js Ks Ls Ms Ns Os Ps Qs Rs /# Ss G, -= -& [] == ;* v< _@ X@ r$ a2 5g $e Ts /6 3o h0 :_ 1[ Us |i )g wj !g __ 6( 6( :_ __ __ B^ (s Vs Ws Xs Ys Zs `s  t .t =p +t @t #t $t %t &t [b [b *t =t -t ;t >t [{ y' E; v4 ,t 't )t !t ~t {t ]t ^t /t (t )l G3  8 __ __ __ __ __ __ &p 9f _t |i wj le __ __ __ __ 6( 6( :_ 6( l/ 6( @: b4 :t h8             40 <t *b B6 7( =9 1[ %5 D^ [t }t |t 1t 2t 3t =  +  .  .  .  .  .  .  .  .  .  .  .  .  .  .  .  .  .  .  .  .  .  .  .  .  .  .  .  .  .  .  .  .  .  .  .  .  .  .  .  .  .  .  .  .  .  .  .  .  .  .  .  .  .  .  .  .  .  .  ",
".  .  .  .  .  .  .  $  K$ 4t 5t ]i U+ 6t 7t Z+ w. 8t U_ @* S. ]+ ]+ ]+ ]+ ]+ ]+  @ ,$ ^$ 9t 0t Uq Yj at  & bt ct dt Gs et ft b~ gt ht it jt kt lt mt :) 8{ u' [] =% =% ;& (- *= %* B@ +> {$ nt qf ot pt qt !l rt Us st tt 8f ut vt h0 5( 6( 6( :_ B^ wt xt yt 15 F> H< zt At Bt Ct Dt H9 Et Ft Gt Ht It l7 )8 Jt Kt Lt Mt p3 Nt D> u; Ot 2{ 16 Pt Qt :h Rt ]a St Tt Ut Vt 6( )l B^ __ :_ 6( __ &p 9f Wt 7f Pg qh Xt g8 B^ 6( l/ l/ __ 2[ 52 ym l/ C| G: yj mk p<             87 5[ 57 H3  8 |[ )l yj Yt Zt `t  u `* E  $  .  .  .  .  .  .  .  .  .  .  .  .  .  .  .  .  .  .  .  .  .  .  .  .  .  .  .  .  .  .  .  .  .  .  .  .  .  .  .  .  .  .  .  .  .  .  .  .  .  .  .  .  .  .  .  .  .  .  .  ",
".  .  .  .  .  .  .  $  .u f$ 0@ d! +u @u #u $u %u '$ :@ S. ]+ ]+ ]+ ]+ ]+ ]+ ]+ S. e@ d@ &u *u w* Yj =u at >0 -u ;u >u ,u 'u )u ua j' F[ !u d( k- &; s= :$ p* q& =% =% =% -& (- ~u {u ]u %u l- nt cp d0 ^u /u (u _u 'g :u <u [u }u |u z5  8 6( :_ 1u 2u 3u 15 >' ~> ;: A' 4u 5u 6u 7u Zp sk 8u 9u 0u au bu 9n 8n 99 cu n7 du eu fu gu 5b hu #, iu ;h 49 ju uh *t .p ku Qm lu k/ 5( 6( C| :_ 2[ mu nu ou 6f <u nu pu 3[ 8(  8 C| 6( 52 qu ru su tu C| l/ 2[ Um uu 5[                0p He 2j B9 C^ >} vu wu V+ 5t X< *n x# +  .  .  .  .  .  .  .  .  .  .  .  .  .  .  .  .  .  .  .  .  .  .  .  .  .  .  .  .  .  .  .  .  .  .  .  .  .  .  .  .  .  .  .  .  .  .  .  .  .  .  .  .  .  .  .  .  .  .  ",
".  .  .  .  .  .  .  .  ~i <k ]i xu yu zu o> Z$ d@ G# h+ ]+ ]+ ]+ ]+ ]+ ]+ ]+ U@ i+ E+ D+ G@ #@ #& }@ }@ }@ Au Bu Cu Du Eu Fu Gu 0, Hu Iu Ju Ku a# A! 5_ =* q% q& H; P> H; q% -& .] Lu P# Mu p$ m- iu Nb Nu Ou Pu Qu Ru Su Tu Uu Vu a4 ol [a 2[ Wu Xu Yu Zu |> /r ;: v( %! `u  v .v +v @v /q 82 #v }r $v au *t +0 !8 99 op %v o7 &v *v =v -v a2 ;v >v ,v 'v )v 99 )8 !v ~v {v Sm :_ C| :_ j/ ]v ^v /v (v _v :v <v [v }v |v 1v G3 52 2v 3v 4v 5v 6v <_ C| =9  8 [a *b 7v 8v          f4 92 a4 sb *5 O] 9v 0v {o ;+ av bv E% `  .  .  .  .  .  .  .  .  .  .  .  .  .  .  .  .  .  .  .  .  .  .  .  .  .  .  .  .  .  .  .  .  .  .  .  .  .  .  .  .  .  .  .  .  .  .  .  .  .  .  .  .  .  .  .  .  .  .  ",
".  .  .  .  .  .  .  .  &  cv _  E7 dv ev h[ ^$ /$ +% ]+ ]+ ]+ ]+ ]+ ]+ ]+ U@ V@ 1h ~+ 9t 6m fv I^ )+ gv k@ w* ,k hv iv P/ jv kv lv mv nv ov U. .; <$ =* ;& =% P> 2) pv {; 1) q% -& ~! ** '* i+ qv ^# J| {! rv sv tv uv vv wv xv yv =p [j He zv Av Bv Cv }} y' A; g_ l~ Dv Ev Fv y6 Gv rk Hv t1 s1 -a Iv Jv Kv 7n 89  p 99 Gb `6 Lv `9 Mv Nv Ov Pv Qv Rv Sv Tv <d F8 y0 Vr Uv cn 6( 6( 52 B| Vv Wv Xv Yv Zv `v  w .w +w @w #w $w 9( %w &w *w =w -w ;w s1 :_ =9 B^ c4 d4 Gh J]       >w ,w 'w )w !w {g {n ~w {w il :f !o ^~ >7 d& $  .  .  .  .  .  .  .  .  .  .  .  .  .  .  .  .  .  .  .  .  .  .  .  .  .  .  .  .  .  .  .  .  .  .  .  .  .  .  .  .  .  .  .  .  .  .  .  .  .  .  .  .  .  .  .  .  ",
".  .  .  .  .  .  .  .  @  i= *4 0+ ]w ^w /w (w V@ U@ ]+ ]+ ]+ ]+ ]+ ]+ U@ V@ ]u P. {# ]#       n; O. f# 9t /@ _w :w <w [w }w |w 1w I, ov ~{  ; *= o* q% q% !, 2) M> P: o, (; |; r% -& =* y$ G, 2w k+ %r 3w s< 4w 5w 6w 7w 8w 9w 0w T} s8 aw bw cw dw L' (> B( A( ew fw gw hw R] T} iw 1r 42 %5  8 g8 6( jw rp Tt kw lw F8 99 89 7s mw nw ow pw qw rw sw ea 8n l7 bu tw uw Vt tp __ G: [7 vw ww ]4 xw yw zw Aw Bw Cw Dw Ew Fw Gw Hw Iw Jw Kw Lw Mw Nw Ow Pw __ =9 5( &5 D^ |r dn 6c Qw Rw Sw Tw B1 Uw Vw v> Ww Xw 7+ e  6# K) :  [% .  .  .  .  .  .  .  .  .  .  .  .  .  .  .  .  .  .  .  .  .  .  .  .  .  .  .  .  .  .  .  .  .  .  .  .  .  .  .  .  .  .  .  .  .  .  .  .  .  .  .  .  .  .  .  .  ",
".  .  .  .  .  .  .  .  @  &  Yw tj Zw `w  x #6 c# ]+ ]+ ]+ ]+ ]+ ]+ ]+ V@ A@ e# .x &s       +x Z$ j# /+ n$ @x u7 #x $x %x &x *x C@ &> 3; =x ;* == q% q% ~, q, @] ], /> A; B; C, p, r% -& w$ p% =& ~} e# -x t< ;x >x ,x 'x )x !x ~x Ee -q {x ]x )b L< 6) Q: bs ^x Y| /x -> y6 (x 5j _x Sb :x B^ __ B^  8 __ <x El -f G8 ~8 [x !8 }x kw |x 1x 2x 3x 4x [b <d da 5x 6x Ut 7x |[ 5( G: Uj 8x 9x 0x ax bx cx dx ex L4 fx gx hx ix jx jx ix kx lx mx nx ox px qx rx 5( =9 :_ C^ rb 0g sx {d tx ux vx wx xx yx T[ jp U> ;{ K% e  |  K  X; h. 5  .  .  .  .  .  .  .  .  .  .  .  .  .  .  .  .  .  .  .  .  .  .  .  .  .  .  .  .  .  .  .  .  .  .  .  .  .  .  .  .  .  .  .  .  .  .  .  .  .  .  .  .  .  .  ",
".  .  .  .  .  .  .  e$ zx a3 :  Ax Bx Cx Dx Ex @* h+ ]+ ]+ ]+ ]+ ]+ +% /$ j# #- Fx [@    I# Gx j# :@ c# e@ U_ Hx 3; U_ ^+ U@ S. i,  > u= ;5 -= -& q& I- :] y; }, D> 1> E; D! g) Ix !; |) ;& w$ -= >* M# >$ Jx u> H, u= 3b Kx I= Lx Mx Y7 Z0 Vo U5 Nx )| L! D/ _5 Ox Px ){ Qx >h Rx *h m/ 7( :_ __ __ B^  8 !g Sx jo Tx ku '8 Ux Vx l7 Wx Xx Yx Zx m7 fc `x !v  y .y +y @y n8 2[ #y $y %y &y *y =y -y ;y >y ,y 'y )y !y ~y {y ]y ^y /y )y =y *y mx (y _y :y <y [y 7( =9 :_ =a s5 oi }y |y 1y 2y 3y 4y 5y 6y 7y /g 8y 9y y+ W+ 0y ay 0r 7@ %+ .  .  .  .  .  .  .  .  .  .  .  .  .  .  .  .  .  .  .  .  .  .  .  .  .  .  .  .  .  .  .  .  .  .  .  .  .  .  .  .  .  .  .  .  .  .  .  .  .  .  .  .  .  ",
".  .  .  .  .  .  .  by cy =) i! C& dy ey fy gy hy c< S. ]+ ]+ ]+ S. @; >$ %u iy c+    ]s k- &- ,$ g+ ~} ]+ U@ jy A= `- `- M# h+ A@ u. @* s= y$ p& 1; 2, L/ ^> /> E; 1> E; E; 2> 3> ky u~ |) ;& w$ |' j- v< /$ ;0 ly u$ +' /- u$ :l my ny    4; oy ~| py ;] qy ry sy ty uy bf i0 vy 6g 7( __ __ __ __ __ B^  8 B^ (_ ks wy xy yy F8 F8 Ur wy zy Ay By l7 lw Cy Dy bn Ey __ 2[ Fy Gy Hy Iy Jy Ky Ly My Ny Oy Py Qy Ry Sy {y Ty Uy Vy Wy Xy Yy Zy *y `y  z .z +z @z :j C6 C| C| @: >d $y #z $z %z &z *z =z -z ix ;z >z ,z ,i 'z Q  V~ 7* R8 G. %+ .  .  .  .  .  .  .  .  .  .  .  .  .  .  .  .  .  .  .  .  .  .  .  .  .  .  .  .  .  .  .  .  .  .  .  .  .  .  .  .  .  .  .  .  .  .  .  .  .  .  .  .  ",
".  .  .  .  .  .  0$ )z !z ~z {z ir ]z B# ^z /z n[ hy (z S. ]+ h+ e@ '$ (@ W. #@    {$ G0 cr t$ y: L# M#  ; _z ,> >* M= O# $* e@ j# :z +@  ' 'h |- p, <z v; /> E; E; E; E; >' E; 2> [z Ue }z |) ;& w$ |' |z 1z 2z 3z -= -& p& p% G, >% 4z 5z    6z 7z 8z 9z 0z az bz cz dz ez tf 3[ 2[ :_ __ __ __ __ __ __ B^  8 )l @y fz gz hz y0 y0 iz jz kz lz mz nz Xn oz pz qz :_ C6 6g rz sz tz kx uz Ky vz wz xz yz '& zz Az Bz Cz Uy y. }@ Dz Ez Fz Gz Hz Iz `y Jz Kz Lz Mz Nz G3 C| C| 2[ Oz Pz Qz Rz Sz Tz Uz Vz Wz Xz Yz Zz `z  A yu .A |& $$ +A @A &  .  .  .  .  .  .  .  .  .  .  .  .  .  .  .  .  .  .  .  .  .  .  .  .  .  .  .  .  .  .  .  .  .  .  .  .  .  .  .  .  .  .  .  .  .  .  .  .  .  .  .  ",
".  .  .  .  .  +  ~i #A $A %A O) &A Y; m9 *A =A -A ;A >A t. F+ :@ /+ ,& C+ ,A    =_ 'A I+ .%  @ && @% #% s= ;= r' |' :$ =& ,= f@ $x u7 Jx )A A= !A }) g) 2> E; 1> E; E; E; >' >' E; ;' [z #! +] K6 ;& }' ~A Pe {A ]A Ke I- r% p& s% J6 ^A /A (A    _A u> :A <A [A /s }A |A 1A #y 2A __ 6( __ __ __ __ __ __ __ B^  8  8 @y Rm [r 3A 4A 5A 6A 6( 7A 8A }m 9A 0A aA __ 7( m/ bA cA dA eA uz fA gA hA iA jA }@ %@ Y. kA lA mA y. }@ $@ $@ <+ nA oA pA =y Iz qA rA sA tA 3v $w 52 :_ 6(  8 m/ uA vA wA xA yA zA 2y AA Jw BA CA DA %. O; A# Qi Pk [o EA U% .  .  .  .  .  .  .  .  .  .  .  .  .  .  .  .  .  .  .  .  .  .  .  .  .  .  .  .  .  .  .  .  .  .  .  .  .  .  .  .  .  .  .  .  .  .  .  .  .  .  ",
".  .  .  .  .  .  fh e' rm FA GA o  HA IA @s 2. C$ JA KA LA l* '$ MA NA OA       PA QA H+ +% l% L# >= n% o% p% p& q% =* I; $- n- =, h#    4_ N= RA SA <; Q: E; E; E; E; E; E; E; E; >' ;' {> TA E5 +! +! 2) UA D; w; _; @! !, VA WA v$ o% Uh XA YA j@ l$ ZA I7 }j `A 9d  B n< .B :_ 6( __ __ __ __ __ __ __ __ __ B^  8  8 -a +B @B #B `n )l  8 __ `n lu Iv cn 6(  8 8( $B Hw %B &B *y fA gA *B =B -B #& $@ $@ $@ #& #& #& }@ #& #& l$ L+ Y. ;B >B ,B Ly Iz 'B )B xx !B ~B 6v {B __ 6( 7( :x ]B ^B /B (B _B :B <B [B }B |B 1B *A ]!  d ch 1& 2B 3B 4B _. @  .  .  .  .  .  .  .  .  .  .  .  .  .  .  .  .  .  .  .  .  .  .  .  .  .  .  .  .  .  .  .  .  .  .  .  .  .  .  .  .  .  .  .  .  .  .  .  .  ",
".  .  .  .  .  .  .  +  P@ G% (  5B >@ 6' 6B ,p 2. 2$ 7B l+ %u Z$ NA p.       8B  # l* G+ ]+ @% m% A! 9B y$ x$ VA q& ~! ,* $- o^ $x %r    vc 0B aB bB /; P3 Q: E; E; E; E; E; E; E; E; E; D> E> o, _] (; #! ^> z; z, =' c7 cB H; Te -& (- w< /h dB eB Uq L+ L+ {l ;9 {9 fB gB 62 l/ C| :_ __ __ __ __ __ __ __ __ __ __ B^ g8 hB iB jB 1i 8d B^ n8 1[ l/ l/ k/ B^ =a 9( kB lB mB lx fA nB oB pB qB <+ #& w* Z+ j@ }@ Y. #& w* +& [@ 9. j@ L+ $@ rB sB tB hx uz 'B uB vB wB xB yB :x 5( 6( 5( zB AB BB CB DB EB :B 3y FB GB HB J7 IB JB }* KB D& #. LB MB NB fh .  .  .  .  .  .  .  .  .  .  .  .  .  .  .  .  .  .  .  .  .  .  .  .  .  .  .  .  .  .  .  .  .  .  .  .  .  .  .  .  .  .  .  .  .  .  .  ",
".  .  .  .  .  .  .  .  $  )  OB PB f* 6r K& ch QB RB ZA SB F@ *u k@ w* k^ X$ TB U_ F+ ]+ L# m% N: ,> :$ o* q% q% A> :$ UB N# e@ K# /# QA u8 VB WB XB 2) @] {> ;' E; E; E; E; E; E; E; E; E; D> z, F; =' ^> z; E; D> z, L6 [; }z !, =% {{ .] ,* YB ZB `B  C %@ >- .C ii 0( #: G: :_ 6( 6( __ __ __ __ __ __ __ __ __ __ !g +C qh Pg Pg qh }i !g __ __ 6( C| :_ 52 B| @C #C $C *y Ky %C &C *C =C w* l$ +& -C ;C >C Z+ '& [@ ,C 'C )C 'C >C w* $@ }@ jA !C ~C {C uz 'B ]C GB ^C /C (C Pw B^ C| <7 _C :C <C [C }C |C 1C 3y 2C 3C 4C 5C @_ 6C 7C 8C J. 9C 0C #m P$ +  .  .  .  .  .  .  .  .  .  .  .  .  .  .  .  .  .  .  .  .  .  .  .  .  .  .  .  .  .  .  .  .  .  .  .  .  .  .  .  .  .  .  .  .  .  .  ",
".  .  .  .  .  .  .  .  .  @  vo aC bC cC dC 2~ .A eC fC @= j@ w* #& w* ,C Z$ gC :@ ]+ @% _| N: &* n* o* ;& q% w$ u' ,> hC `- U@ /$  > *, J; iC x$ r% |; _] F; /> E; E; E; E; E; E; E; E; E; 1> E; /> z; /> E; 1> 1> E; *' K/ L/ 2) 1) r% {{ =* (9 <l jC kC l@ Mx lC mC a( }_ yf <_ 5( 6( 6( __ __ __ __ __ __ __ __ __ &p |i nC 6f 6f ie 9f le __ 6( C| 62 G3 oC pC qC rC *y lx sC tC uC vC <+ $@ w* wC xC yC zC ;C #@ wC AC BC CC BC DC ,C @& I7 }@ EC FC GC HC Ky IC JC KC ox LC qx ;} B^ C| <7 j/ MC NC OC PC QC &z *z RC SC TC UC @_ VC WC X% XC YC ZC a$ .  .  .  .  .  .  .  .  .  .  .  .  .  .  .  .  .  .  .  .  .  .  .  .  .  .  .  .  .  .  .  .  .  .  .  .  .  .  .  .  .  .  .  .  .  .  .  ",
".  .  .  .  .  .  .  .  .  .  $  _. cv `C  D .D ir +D @D #D W8 l$ M+ )% %r C@ A@ g+ L# $* +; m* Lu .] ;& q% p* p% >* A! m% L# ]+ :@ U_ n- m% $D 2; E, cB h) }, /> E; E; E; E; E; E; E; E; E; E; 1> E; E; 1> 1> E; E; 1> y' z; 3) y; {; %D r% q% =* n* r& 1h &D *D    =D mC r8 ki *a s1 B^ 6( 6( __ __ __ __ __ __ __ __ !g 9f 8f 7f 7f _t 1i le :_ C| C|  8 -D ;D >D ,D 'D )D !D ~D {D ]D ,b }@ w* N. ^D /D (D /D BC _D xC :D /D <D /D [D _D N. +& }@ }@ kA }D |D )y Hz Iz 1D 2D 3D 4D 5D Oz 2[ :_ +: Y4 6D 7D 8D 9D 0D &z aD 4y 5y bD cD dD yk [k eD fD gD [  .  .  .  .  .  .  .  .  .  .  .  .  .  .  .  .  .  .  .  .  .  .  .  .  .  .  .  .  .  .  .  .  .  .  .  .  .  .  .  .  .  .  .  .  .  .  .  ",
".  .  .  .  .  .  .  .  .  .  .  .  [  4# 3! hD dC ^1 F& iD jD b+ }@ B+ kD k+ /$ h+ M# $- p; <$ (- -& q% p& -= %% O# >= @% L#  @ dr )h ;> lD N: ~- mD x; =' z, D> E; E; E; E; E; E; E; E; E; E; E; 1> L' |> Q: K' !> /> F> 1> /> L> 'e C; |; |) q% w$ y$ u$ nD oD       pD qD p/ .t .k C^ B^ l/ 6( 6( __ __ __ __ __ __ <7 `i )g qh rD 1i !g __ 62 6( 5( sD tD uD vD $s wD xD yD zD AD kA }@ BD -C ^D CD DD DD ED FD GD HD ID <D (D (D /D JD KD r/ +& }@ $@ ,b ]D LD My MD Iz `y ND .z +z OD qu 2[ PD QD RD SD TD UD VD WD &z *z XD YD ZD `D %# ;k [k 1q  E $  .  .  .  .  .  .  .  .  .  .  .  .  .  .  .  .  .  .  .  .  .  .  .  .  .  .  .  .  .  .  .  .  .  .  .  .  .  .  .  .  .  .  .  .  .  .  .  ",
".  .  .  .  .  .  .  .  .  .  .  .  .  %+ T% j! M, o  .E +E @E #E '+ Z+ $E H# Cs b# %E ($ <$ (- [] VA [] v$ ;* $% >= M# L#  @ Q. n> 3= &E *E =E -E ;E >E }, D> E; E; E; E; E; E; E; E; E; E; E; E; (> (> ;' n, J/ g( [: A; F> F> &' }, ,E N> p, |) q% p* p% 'h >% 7j 'E    )E Ua w5 *r D^ &5  8 6( l/ 6( __ __ __ __ __ __ __ !g 1i 1i &p __ __ __ __ G: !E ~E {E `- h+ T. ]E ^E /E (E #& '& k@ zC CD ED _E DD ED (D (D (D (D (D (D (D (D :E JD <E ;C [@ l$ L+ Dz [E Fz Gz Zy Iz `y }E Kz |E 1E 2E 3E 4E 5E 6E 7E 8E 9E 0E aE bE cE XD dE eE fE 8; h  18 [  +  .  .  .  .  .  .  .  .  .  .  .  .  .  .  .  .  .  .  .  .  .  .  .  .  .  .  .  .  .  .  .  .  .  .  .  .  .  .  .  .  .  .  .  .  .  .  .  ",
".  .  .  .  .  .  .  .  .  .  .  .  .  .  @  i= @$ M, J( gE [q hE iE M. 9. 8/ /# U. O' =& -= -& r% J- x$ Lu jE N# L# L# S. t$ k+ kE o; nt lE Hx mE ;E D0 :' D> S| E; E; E; E; E; E; E; E; E; E; F> (> D> x' z( s( nE oE !: ;: 1> F> &' L^ g~ 7{ O> I- =% p& -= =& pE qE '%    tb rE sE 5[ 4[ c4  8 6( 6( 6( __ __ __ __ __ __ __ __ le __ __ __ __ __ G: tE uE vE wE y: dr .> xE X. #& #& B+ yE zE AE DD DD ED AE (D (D (D (D (D (D (D (D (D BE CE xC E@ K+ #& 0. Uq =C oA DE Ly Iz `y EE FE GE HE up IE Jr JE KE LE ME NE OE PE &z XD QE RE SE s+ hm jn *4 e$ +  .  .  .  .  .  .  .  .  .  .  .  .  .  .  .  .  .  .  .  .  .  .  .  .  .  .  .  .  .  .  .  .  .  .  .  .  .  .  .  .  .  .  .  .  .  .  ",
".  .  .  .  .  .  .  .  .  .  .  .  .  .  .  fh Y= J$ W& `# W  TE UE :q U] g# W} VE WE XE -= F, q& VA =* n* jE ,= L# S. m; ^$ k- YE nt mi X@ i, M= ZE `E C( z; D> E; E; E; E; E; E; E; E; E; E; F> E; K' J1 y( v/  F .F E} F! K' E; |> 4) :' o, _] 2, H; =% WA v$ +F Uh @F #F    $F %F >h *p /6 [a 8d 6( C| :_ __ __ __ __ __ __ __ __ __ __ __ __ :_ B^ &F *F =F -F ;F ^$ !+ k@ #& }@ +& >F [D AE ,F ED ED (D (D (D (D (D (D (D (D (D (D (D (D FD CE -$ >F B+ j@ 0. Y. ;B 'F )F sC *y 'B !F ~F {F ]F ^F /F Jr (F KE _F :F <F [F }F |F 1F 2F 5$ 3F 95 4F 5F `* e$ $  .  .  .  .  .  .  .  .  .  .  .  .  .  .  .  .  .  .  .  .  .  .  .  .  .  .  .  .  .  .  .  .  .  .  .  .  .  .  .  .  .  .  .  .  .  ",
".  .  .  .  .  .  .  .  .  .  .  .  .  .  .  .  .  7@ 6F 7F 8F r_ _~ 9F m9 0F aF l^ e# M# o% o& ;& Te [] |' *= u$ M# e@ e# Gx z1    ]s i# j+ $- +' bF cB L/ C( }> E; E; E; E; E; E; E; E; E; E; E; /> |{ hd cF o4 #1 ;! L1 K1 |6 Z^ E; 1> ~> E> =' <' @! !, r% -& o& w< /h dB dF    eF fF ap J: He -p h0 :_ C| :_ __ __ __ __ __ __ __ __ __ __ __ 6( l/ :_ Q}  t gF hF iF v* #& %@ }@ [@ :# HD DD DD ED (D (D (D (D (D (D (D (D (D (D (D (D (D (D FD :D -$ $E #@ ZA }@ Y. jF sB tB {C uz kF ]C lF mF nF oF pF qF Jr KE rF sF tF kB uF vF k6 wF O8 I& xF yF N@ bv ~i .  .  .  .  .  .  .  .  .  .  .  .  .  .  .  .  .  .  .  .  .  .  .  .  .  .  .  .  .  .  .  .  .  .  .  .  .  .  .  .  .  .  .  .  .  ",
".  .  .  .  .  .  .  .  .  .  .  .  .  .  .  .  .  .  (. zF AF !p BF /~ !n >( DA CF 'A j# M# DF EF -& q% F, (- FF +; B@ Z$ x=    GF mt 7> $- *= (- -& I- HF g~ A; /r E; E; E; E; E; E; E; E; E; E; M^ u; ^x IF d_ p~ b) ;! JF ,! $' v4 D> 1> ~> *' g) [; }z f( r% ;& == Q9 KF LF Jl    MF NF OF PF A9 yj 52 :_ C| 6( __ __ __ __ __ __ __ __ __ __ :_ C| =9 G3 2v QF RF SF TF UF Yj $@ +& $E VF WF AE AE (D (D (D (D (D (D (D (D (D (D (D (D (D (D (D <D HD z! W} N. +& $@ }@ EC !C Sy XF Ky Ky YF M7 ZF `F  G .G qF +G @G #G $G %G &G *G )} =G -G ;G A  >G ,G a5 'G i= .  .  .  .  .  .  .  .  .  .  .  .  .  .  .  .  .  .  .  .  .  .  .  .  .  .  .  .  .  .  .  .  .  .  .  .  .  .  .  .  .  .  .  .  ",
".  .  .  .  .  .  .  .  .  .  .  .  .  .  .  .  .  .  $  vo )G !G N% dC 2~ K  ~G @u {G j% P. a7 UB p% -& q& -& p% u$ B@ Lx =A i% VF '$  ; $D (- WA ;& f( (; B; }> E; E; E; E; E; E; E; E; E; f) E; F> B( I! ]5 IF ]G ^G b) ]] /G R! r, <: /> 1> y' z; C( h) }; 1) r% ;& =* (9 (G _G .x       Il 4o a( Hv t1 <_ __ C| 6( :_ __ __ __ __ __ __ __ __ __ 6( 7( ;} :G <G [G }G |G 1G Uq Y. 2G 3G AC 4G <D (D (D (D (D (D (D (D (D (D (D (D (D (D (D (D (D (D AE 5G 5G 6G 7G X. m@ }@ EC 8G 9G 0G hx MD ux aG bG cG dG eG fG +G gG #G hG iG jG       kG  & h9 6r lG V' -7 mG d' NB c' d& +  .  .  .  .  .  .  .  .  .  .  .  .  .  .  .  .  .  .  .  .  .  .  .  .  .  .  .  .  .  .  .  .  .  .  .  .  .  .  .  ",
".  .  .  .  .  .  .  .  .  .  .  .  .  .  .  .  .  .  .  +  C7 cv nG L) .D oG )i pG qG Y7 Z@ rG F# m* p% p* sG :$ P# /$ V. tG !+ `@ $* ;= |- -& q% H; }; w; uG D> E; E; E; E; E; 1> 1> E; /> K! Q: |> (> B( A( 1{ Y3 !] }9 *] ~' vG wG t/ |{ B( 1> y' z; 3) #! E5 %D D5 q% x$ n* xG yG |$       ~l nk r8 zG *a AG B^ C| C| :_ __ __ __ __ __ __ __ __ B^ :x BG CG DG EG FG Ry GG HG #& w* B+ ;C xC CD (D (D (D (D (D (D (D (D (D (D (D (D (D (D (D (D ED IG JG KG LG MG NG uc '& 0. kA OG PG QG RG SG TG Fh o8 Sx UG VG WG XG qF YG ZG `G  H       .H +H @H d. s@ s@ #H e{ $H #m %H d$ .  .  .  .  .  .  .  .  .  .  .  .  .  .  .  .  .  .  .  .  .  .  .  .  .  .  .  .  .  .  .  .  .  .  .  .  .  .  .  ",
".  .  .  .  .  .  .  .  .  .  .  .  .  .  .  .  .  .  .  .  +  [  b! _  a  dC L) 0+ hl &H d( $E 0# ^+ ($ <$ /- {} $- F+ *H 8t =H 2w >* |' -& q% I- N' @] {> D> E; E; E; E; E; F> (> (> %1 |{ -H #| _' |> (> /> u( '] ;H 35 t, *] *] >H s, ,H 'H }> 1> y' /> L> @] C; |; |) q% w$ vk )H @k B$ OA 7/ G9 !H 87 ,6 ji ~H B^ C| 6( :_ __ __ __ __ __ __ __ 2[ {H ]H ^H Dw hx !y /H (H yz '& j@ [@ _H l^ HD <D (D (D (D (D (D (D (D (D (D (D (D (D (D (D :H <H [H }H lp |H 1H }9 2H Zz l$ $@ kA Ez 3H 4H 5H 8D 6H __ 7H 8H UG 9H WG 0H aH /F bH cH dH       eH Zm fH w& %o /% XC gH 4p hH *  .  .  .  .  .  .  .  .  .  .  .  .  .  .  .  .  .  .  .  .  .  .  .  .  .  .  .  .  .  .  .  .  .  .  .  .  .  .  .  ",
".  .  .  .  .  .  .  .  .  .  .  .  .  .  .  .  .  .  .  .  .  .  %  ~  8e M, .D .E pj iH JB y! E@ V. ]u =x %* #% _| g+ jH gC .% +; 5_ p* q% ~, :] #! }, ;' >' E; E; E; E; F> (> (> B( 'H x2 kH lH h~ K' E; (> D> _3 mH nH @^ r4 u, D< oH y8 pH L! A; F> 1> /> }, w; qH p, |) =% rH -% P# O9 eB 0. sH tH Ka 60  o uH sf 7( 6( 6( 6( __ __ __ __ __ __ 2[ Oz 8D vH wH ax xH yH zH mA #& @& t& AH VF :E (D (D (D (D (D (D (D (D (D (D (D (D (D (D :H <H BH :0 Aq CH DH EH yq MG FH @# L+ }@ GH HH A} IH JH j/ C| =9 Sm KH LH MH qF 0H Jr NH OH PH QH       RH SH }# im e. TH UH Q) b5 x# +  .  .  .  .  .  .  .  .  .  .  .  .  .  .  .  .  .  .  .  .  .  .  .  .  .  .  .  .  .  .  .  .  .  .  .  .  .  .  ",
".  .  .  .  .  .  .  .  .  .  .  .  .  .  .  .  .  .  .  .  .  .  .  @  VH WH I$ .D N% XH YH ZH IB -: O. k+ !# (z y: S. .@ `H  I .I >* |- r% @! h) ^> /> >' E; E; E; E; 1> (> L' D> Qc ,H +I W| @I l( Y: %^ E; $! E; G< |6 !| -] #I a) D< U3 `] S6 A' [{ F> 1> D> A, |, (; O> I- #/ == &* $I G0 l$ %I sH tH &I *I O] d4 c4  8 6( 6( 6( __ __ __ __ __ B^ <_ =I -I ;I X[ >I ,I 'I Y. #& B+ F@ )I /D (D (D (D (D (D (D (D (D (D (D (D (D (D (D (D !I ~I {I ]I ^I /I (I _I d_ :I $& w* Yj Y. EC <I [I vH }I |I .B 6( l/ 1I 6A 2I 3I gG 0H 0H 4I 5I 6I 7I 8I    9I 0I h* aI M@ bI cI Rk Y  ~i $  .  .  .  .  .  .  .  .  .  .  .  .  .  .  .  .  .  .  .  .  .  .  .  .  .  .  .  .  .  .  .  .  .  .  .  .  .  ",
".  .  .  .  .  .  .  .  .  .  .  .  .  .  .  .  .  .  .  .  .  .  .  .  *  Y= v+ h! .D dI eI fI gI hI _w X$ w= LA t$ m; s> iI jI fg .I ;= XB M' }, /> E; E; E; E; E; 1> (> (> D> kI J> s, R3 ': G' lI mI nI %' ~> L' 1> K' F! <3 .< z2 ': oI c) pI s4 F! K' ~> F> &' L^ B, _] cB }- qI J; ~{ k) @= 0. =u rI MF 4m C3 h8 0f [a 8d 6( C| 6( __ __ __ __ 6( __ 52 Uj sI tI uI vI wI Yj Y. #@ 97 xI CD (D (D (D (D (D (D (D (D (D (D (D (D (D AE DD yI zI AI lI BI CI DI !] EI 6G c+ Y. Y. GH Az FI GI HI II JI KI G: __ C| =b LI MI NI OI 0H 0H 6E PI QI RI SI    TI UI VI g; WI cm 3@ I$ Fo G. d$ .  .  .  .  .  .  .  .  .  .  .  .  .  .  .  .  .  .  .  .  .  .  .  .  .  .  .  .  .  .  .  .  .  .  .  .  ",
".  .  .  .  .  .  .  .  .  .  .  .  .  .  .  .  .  .  .  .  .  .  .  .  .  $  XI +A A7 -k .D 3q 6, YI 0F fv pk ZI `I o-  J c6 .J +J 4= #k @J D; /> 1> 1> E; E; E; E; 1> (> 4) )! r, .} n4 ]] V: ~' #J $J %J &J T6 D> (> E; _' A' %! N1 yq P! b) ;! !5 e) `^ 06 E; F> &' :' =' *J mD =J >> L; 3r L: Ud -J ;J >J sc ,J 'J J: )J H: G: 6( l/ 6( __ __ __ C| l/ B^ 3[ !J ~J {J ]J Dz Yj Y. +& N. AH VF /D <D (D (D (D (D (D (D (D (D (D (D ED !I ^J /J (J _J :J /I DH 2} <J [J i@ Y. Yj wI }J |J ,B {C 1J 2J 3J 4J 5J j/ 5( 6( |[ 6J Vt NI 7J 8J 0H 9J 0J aJ bJ cJ    dJ eJ fJ gJ hJ >G cI iJ jJ Y= .  .  .  .  .  .  .  .  .  .  .  .  .  .  .  .  .  .  .  .  .  .  .  .  .  .  .  .  .  .  .  .  .  .  .  .  ",
".  .  .  .  .  .  .  .  .  .  .  .  .  .  .  .  .  .  .  .  .  .  .  .  .  .  .  ~i /. 7  &A !p _~ G& kJ Bs o. v* j% kE lJ uc kq Xe mJ nJ B> oJ z; E; 1> E; E; E; F> |> E; <; '! ~5 &| ]] -! {] pJ qJ rJ Nh sJ Sn tJ /> (> 1> [{ y, di uJ d_ p~ V: X| vJ #' wJ [{ E; H< D> :' @] xJ yJ 2' zJ c0 Vi sE AJ j0 BJ T> CJ DJ 4o Lh Ta yj B9 __ 6( :_ __ __ C| :_ {B EJ TG U0 ;y FJ GJ HJ Ym Y. 2a t& 8/ VF /D <D (D (D (D (D (D (D (D (D (D DD r; IJ JJ KJ :J /I DH LJ <5 MJ ^# '& Yj Y. mA NJ OJ DE Ly Ky IC PJ QJ RJ SJ {B 5( 6( m< `n lu TJ UJ Jr 0H gG VJ WJ XJ YJ       ZJ -G `J A   K .K +K @K P$ .  .  .  .  .  .  .  .  .  .  .  .  .  .  .  .  .  .  .  .  .  .  .  .  .  .  .  .  .  .  .  .  .  .  .  ",
".  .  .  .  .  .  .  .  .  .  .  .  .  .  .  .  .  .  .  .  .  .  .  .  .  .  .  .  w) v@ 6# #K dC 2~ $K %K &K si W$ #@ *K tc =K 6G -K ;K >K (; g) D! /r E; E; E; E; E; ,K 'K h2 r~ a) u, 4{ ({ U^ )K !K ~K {K ]K Or A( %1 1> (> K! [, ^K IF 9z p~ [9 /K (K |6 ], E; 1> E; E> @] _K :K )A Xh <K [K }K He Hv J] |K ^g @, 1K i8 /q 2K >d @: __ C| 6( :_ :_ G3 SJ 3K 4K Dw 5K )F 6K 7K  C Ym Ym ,b 8K :# )I /D <D (D (D (D (D (D AE ED ED r; 9K 0K aK bK /I /I cK dK eK ID fK w* gK }@ hK TF iK jK kK lK =y fA mK nK oK pK zB 7( C| m< cn jw qK rK sK JE tK uK vK wK jG    '9 xK yK zK  n T; AK BK 'o .  .  .  .  .  .  .  .  .  .  .  .  .  .  .  .  .  .  .  .  .  .  .  .  .  .  .  .  .  .  .  .  .  .  .  ",
".  .  .  .  .  .  .  .  .  .  .  .  .  .  .  .  .  .  .  .  .  .  .  .  .  .  .  .  +  ~i cv nG 1/ dC h  CK @D DK sH l$ 7/    EK -K Q> :$ }' p, <' F; /> E; E; E; E; /> <: x2 k2 ;! S3 U3 B/ FK GK HK A/ q~ IK JK KK LK #| K! (> |> }> Rn MK NK s2 OK PK /] $] 6) E; E; 2> g) (; >K ;= $* _, QK RK SK TK #v o< UK VK ^d WK XK 6c r8 zG *a AG B^ 6( 6( B^ :x YK ZK Ew Jy =y nB `K uC  L HG Y. Ym Dz k@ .L )I zE <D (D (D (D (D AE DD +L )t @L #L $L %L %L &L dK *L =L /D -L fK [@ #& }@ ,b ;L >L ,L ix 'L MD )L !L &w ~L {L ]L 7( :_ l/ (_ ^L /L (L sK 0H aH YG _L Qu :L <L [L }L -u |L mn 1L Vp Z  .  .  .  .  .  .  .  .  .  .  .  .  .  .  .  .  .  .  .  .  .  .  .  .  .  .  .  .  .  .  .  .  .  .  .  ",
".  .  .  .  .  .  .  .  .  .  .  .  .  .  .  .  .  .  .  .  .  .  .  .  .  .  .  .  .  +  *  E% 2  2L b> cC 9r 3L 4L 5L => *E lD *& ~- A> r% f( {; B, z, E; E; E; E; /> s/ S! ,q I/ 6L 7L 8L Or ]5 !f _I +^ q~ 9L 0L aL oE (' [{ 1> |> }{ bL D/ (3 (K cL I< Z^ D> 1> D> }, <z p, }' s% W] dL eL fL sf +: 1[ &5 ol J3 gL hL s< iL zm jL ,6 ji C^ B^ C| :_ 52 6v kL lL Dw IC Ky mL tC nL AD HG Y. Yj <+ X. F@ BC HD <D (D (D (D AE IG oL pL ,x CH %L /I &L dK L8 qL ,F (D /D BC >F x. #& l$    c_ rL tI 4K sL tL uL Kw vL 3K wL m/ .B :_ l/ Ey xL UG eG WG 0H aH /F bH yL cJ zL AL BL CL DL *4 e$ $  .  .  .  .  .  .  .  .  .  .  .  .  .  .  .  .  .  .  .  .  .  .  .  .  .  .  .  .  .  .  .  .  .  .  .  ",
".  .  .  .  .  .  .  .  .  .  .  .  .  .  .  .  .  .  .  .  .  .  .  .  .  .  .  .  .  .  .  &  9% j! |q Q/ ]& 5~ U8 EL FL wk GL /- HL r% P> @! O: g) z; E; E; E; E; D> _' g_ ew IL JL KL }5 v4 %' )| a} CI H/ =! LL ML X3 NL f_ B( 1> 1> M^ v4 `| n0 ]{ !> D> 1> 1> D> 3) 7{ 1) -& o& r= OL PL V7 Um __ Rb :_ C^ >} M9 QL pD iu #a Gv RL SL sb sf B^ C| 5( C^ TL UL VL WL 'B uz sC My XL YL jA Y. Yj Uq ZL >F kD HD <D (D AE `L JG  M b_ .M BI /I cK +M L8 qL ,F AE AE AE <D [D DC +#    z6 87 @M #M $M %M &M Jy *M Kw =M -M ;M |I C6 :_ l/ [i KH LH >M qF JE Jr ,M 'M )M !M ~M {M 6# !i [% $  .  .  .  .  .  .  .  .  .  .  .  .  .  .  .  .  .  .  .  .  .  .  .  .  .  .  .  .  .  .  .  .  .  .  .  .  ",
".  .  .  .  .  .  .  .  .  .  .  .  .  .  .  .  .  .  .  .  .  .  .  .  .  .  .  .  .  .  .  .  d$ ,  j! hD b> gE ]M ^M /M  ; iC x$ q& P> 2, <' :; :' D> E; E; E; E; F> F> z, ^, (M _M :M _8 E; (> [{ wJ <M ds r2 =! n[ [M }M 19 (8 E; 1> 1> M^ >] <; _' /> S| 1> E; D> :' M> +] |M :$ O# 1M 2M 3M Qb [a  8 l/ :_ =a s5 Rx -h 4M iu La fF 5M vp os 6g  8 C| __ %5 6M 7M 8M 9M 1D *y Zy 0M aM bM -B Y. $@ Uq K+ E@ l^ :D <D !I cM :0 ]I ^I %L DI cK !] dM eM !I (D (D AE DD DD fM zE gM hM sE iM rb Sa jM kM lM HI qA uL mM nM oM pM 1v 2A :_ +: 1I Sx 2I 3I qM 0H Jr /F rM sM tM uM `C 8@ %+ .  .  .  .  .  .  .  .  .  .  .  .  .  .  .  .  .  .  .  .  .  .  .  .  .  .  .  .  .  .  .  .  .  .  .  .  .  ",
".  .  .  .  .  .  .  .  .  .  .  .  .  .  .  .  .  .  .  .  .  .  .  .  .  .  .  .  .  .  .  .  .  d$ b$ F. I$ i9  ~ vM wM ;= 2; E, !, u~ x; o, _' Q: E; E; E; E; E; 1> (> M^ n, H! m( yc L< Q: n2 J! A; xM yM zM AM BM CM DM |{ M^ F> E; 1> E; D> D> D> E; E; E; E; E; D> A, y; EM )- u= iI 4m FM GM He H: 2[ C| 6( <_ 42 oi HM E9 a2 IM bp C3 h8 0f n<  8 l/ 6( =a JM KM LM nx mM kF Zy vz 3H MM jF <+ $@ Y. (E p. xC NM OM aj PM CH /I /I QM !] ry RM 3- AE (D (D (D AE DD ,F (D SM TM 3m UM ~H n8 Ra :j 8D VM SG Kw WM IC HI +z 5D :j G: <7 C| 1m LI MI MH qM sd XM YM ZM `M  N _~ H) e$ $  .  .  .  .  .  .  .  .  .  .  .  .  .  .  .  .  .  .  .  .  .  .  .  .  .  .  .  .  .  .  .  .  .  .  .  .  ",
".  .  .  .  .  .  .  .  .  .  .  .  .  .  .  .  .  .  .  .  .  .  .  .  .  .  .  .  .  .  .  .  .  .  @  @A .N +N @N #N $N r= x$ ~, O> 7{ |, {> D> E; E; E; E; E; E; 1> #< Z^ p2 s4 u/ k~ V9 I! 2> J! (> m~ f_ %N &N *N =N g_ z; 1> F> E; E; E; E; E; E; E; E; E; E; E; E; /> P: -N ;N ;0 >N Nb L3 1_ ,N V7 (q B9 +: C| G: yf r1 'N H| jp CJ E9 'J J: )N U7 8d =9 C| 52 !N ~N %y PJ {N Iz Ky HC *B pB qB <+ $@ Ym l@ p. ]N ^N Ci /N /I (I (N _N :N eM `L DD AE (D (D (D (D ED ,F ED CD <N %: [N =a =9 |[ ;a }N tD |N #C Dw 1N kF 2N 3N 4N M] 52 <7 6( |[ 6J 5N 6N XM vK 7N 8N 9N 0N M% 0+ aN bN $  .  .  .  .  .  .  .  .  .  .  .  .  .  .  .  .  .  .  .  .  .  .  .  .  .  .  .  .  .  .  .  .  .  .  .  ",
".  .  .  .  .  .  .  .  .  .  .  .  .  .  .  .  .  .  .  .  .  .  .  .  .  .  .  .  .  .  .  .  .  @  6  `* 2t ]* r_ `w cN +; :$ dN C; |, A, D> y' E; /r 1> 1> 1> F> E; _' A' %] (, ({ _{ j~ yc (] K! J! ,] /> y, eN fN =0 }, |> (> F> E; E; E; E; E; E; E; E; E; E; E; D> z, =' }) gN ly 6G hN 7g r< b( iN 2m >d o8 6( C| A^ !l zj .8 jN 4i CJ ]d kN -9 Ta z^ G: C| l/ G: [7 8x Fw lN {N Iz Ky kK oB mN ;L mA }@ Y. l@ nN p~ oN _J DH DI _N pN qN P< ID AE AE ED (D (D ED DD DD <D rN sN tN ,6 1j B9 +: uN vN wN xN yN zN AN BN CN DN EN 1E FN GN ym :_ l/ 6J HN ,g IN JN KN LN MN !@ NN T8 U+ ;# &  .  .  .  .  .  .  .  .  .  .  .  .  .  .  .  .  .  .  .  .  .  .  .  .  .  .  .  .  .  .  .  .  .  .  ",
".  .  .  .  .  .  .  .  .  .  .  .  .  .  .  .  .  .  .  .  .  .  .  .  .  .  .  .  .  .  .  .  .  Z  ON Wp PN QN RN SN TN _@ q' UN L/ }, D> |> y' A; !> ;: D> (> |> E; P3 J/ s( VN [9 WN zI Nr T| wJ 6) |> XN D; YN ZN `N g) 5) F> E; E; E; E; E; E; E; E; E; E; E; D> z; 3) L/ cB  O q' b# .O +O R' +5 no r8 #5 <j =a 6( C| 2[ Um L9 zb @O #O $O 1K i8 /q 2m yf 52 C| =9 2[ M] %O &O *O ]C Iz Ky nB )F 6K ]D kA Y. Y. Vd =O -O ;O >O !] hu ,O 8/ ny -L /D AE ,F ED ED ED DD <D 4G 'O )O )6 !O %e ~O {O ]O 44 ^O /O (O _O :O <O CN [O mK }O oK |O s1 7( C| 1O 2O 3O 4O 5O 6O 7O 8O 9O d! b{ ]i f$ 0O [  +  .  .  .  .  .  .  .  .  .  .  .  .  .  .  .  .  .  .  .  .  .  .  .  .  .  .  .  .  .  .  .  .  ",
".  .  .  .  .  .  .  .  .  .  .  .  .  .  .  .  .  .  .  .  .  .  .  .  .  .  .  .  .  .  .  .  .  y# W, it aO bO cj zi %7 8t ,= cO @] D! 1> 1> ;: ]{ $' F! v4 D> F> F> K! y, N6 V3 dO o[ T^ 7_ CI !| -H )! -< eO fO 2h gO hO L6 z; D> E; E; E; E; E; E; E; E; E; E; D> :' |, {; 1) }' iO UB G+ `, jO s< 5g kO z| ,6 rb C^ __ =9 7( 3[ uu UK nk lO mO XK 6c .8 ki *a nO C| =9  8 n< 4N oO pO qO rO lx %C `K {D sO HG }@ l$ tO =O uO r2 EI vO ^# ,b ,b wO xC /D ED ,F ,F ,F AE CC DC *K xO 7O yO zO AO 7E BO CO DO %9 EO <F vw FO GO Ky 1N ND &w %w JH :x v6 HO IO Nd JO KO LO MO NO w~ OO K  #$ ;+ b= i. _. .  .  .  .  .  .  .  .  .  .  .  .  .  .  .  .  .  .  .  .  .  .  .  .  .  .  .  .  .  .  .  .  ",
".  .  .  .  .  .  .  .  .  .  .  .  .  .  .  .  .  .  .  .  .  .  .  .  .  .  .  .  .  .  .  .  .  }% PO 3] _& 6~ jm QO RO n$ N: SO <' ^> 2> ], h~ i~ TO W^ '] <: /> (> o2 _' F! E} (, ]' *] u, UO VO WO XO YO ,5 ZO `O  P .P +P P3 D> E; E; E; E; E; E; E; E; E; E; Q: ], @] +] Ne r% [] |' >* a7 )h ^h y1 ~6 :a 5j E^ D6 &5 B^ =9 5( ;} *5 J3 Td @8 8[ @P zm 87 ,6 R} %5 :_ =9 B^ ;} rz #P $P EE rO lx mL ~D Ny AD yz }@ l$ %P &P *P =P >b w* %@ %@ w* wO -P /D ED DD (D CC ;P >C    R] >P ,P 'P )P 6n !P ~P {P 3O ]P Q} ^P /P (P Ew *y _P :P <P [P }P |P 1P 2P Fm `b 3P 4P 5P 6P Ye 7P O; 8P 9P Qk ^* 6+ .  .  .  .  .  .  .  .  .  .  .  .  .  .  .  .  .  .  .  .  .  .  .  .  .  .  .  .  .  .  .  .  ",
".  .  .  .  .  .  .  .  .  .  .  .  .  .  .  .  .  .  .  .  .  .  .  .  .  .  .  .  .  .  .  .  .  .  (. 0P aP bP 6~ cP dP eP DF fP !; [; D; gP hP p4 U^ s2 NK 23 Rn B( J! J! A; y, cL cF iP u, ]] ~d jP q4 *8 kP T3 lP }9 m4 mP ,' /> E; E; E; E; E; E; E; E; E; E; D> A; =' x; !; H; r% q% == ;* M# >e nP 8[ cp T} 5M 5[ +q 3[ B^ =9 :_ C^ >} oP bf pD nt #a +8 F^ 7v D^ g0 __ =9 5( &5 pP UL qP rP 'B uz =y sP tP uP vP $@ l$ ~$ v* p= @# }@ }@ }@ }@ w* -C wP <D WF CE DC >C si    xP yP Xa zP AP BP CP  0 DP EP k/ )l s1 2v ]H EN FP YF hx $C qP GP HP Nd u^  3 }2 B: IP JP KP LP MP }* |& NP OP PP aC .  .  .  .  .  .  .  .  .  .  .  .  .  .  .  .  .  .  .  .  .  .  .  .  .  .  .  .  .  .  .  .  ",
".  .  .  .  .  .  .  .  .  .  .  .  .  .  .  .  .  .  .  .  .  .  .  .  .  .  .  .  .  .  .  .  .  .  .  ~i Gd QP RP SP TP UP VP w$ |) @! WP XP O^ Q^ >| dO YP IF ^K ZP K! (> (> z; [, `P  Q >H u, {] 4{ U^ A/ )5 .Q T^ (5 +Q :3 ;: E; E; E; E; E; E; E; E; E; E; E; E; Q: :' ]> *J @! f( |) q% ~! L=  ; ~{ k) 8[ @Q 4k C3 #Q /6 [a  8 =9 :_ Qa K9 $Q f4 %Q jp La fF &Q ;e [N c4 le l/ __ 8( 6M *Q =Q 9M -Q lx Zy ;Q >Q ,Q rB #& }@ '& #& }@ '& @# @# '& }@ Z+ 'Q )Q !Q ~Q lE {Q .v ]Q ^Q /Q (Q _Q :Q <Q +0 `6 [Q }Q Sm n8 7( <_ [7 kM lM pO qA _P fx |Q 1Q 2Q 3Q r3 #9 r3 y3 4Q 5Q 6Q 7Q 8Q 9Q 0Q aQ `c =n d$ .  .  .  .  .  .  .  .  .  .  .  .  .  .  .  .  .  .  .  .  .  .  .  .  .  .  .  .  .  .  .  ",
".  .  .  .  .  .  .  .  .  .  .  .  .  .  .  .  .  .  .  .  .  .  .  .  .  .  .  .  .  .  .  .  .  .  .  Q@ bQ cQ dQ eQ fQ gQ :$ x$ I- N' `E eO hQ iQ )5 +/ dO vJ y2 l~ xM [{ (> $! /> f[ v8 @/ jQ q~ D< b) kQ 8} S_ lQ K1 J1 v4 D> E; E; E; E; E; E; E; E; E; E; E; E; E; D> E> B; `E {, 1) |) q& x$ mQ nQ wk #, X! {! )} F6 [j L9 H: 2[ +: :_ <_ 42 oQ pQ Oo `z =K NF C3 qQ *b *9 B^ l/ __ s1 9( rQ Iw sQ mx Iz Hz vz tQ Qy uQ Uq %@ %@ Y. yz vQ }J wQ @#    nq xQ 60 wp bd Ea yQ zQ AQ BQ CQ lw )8 fc <d ea 09 DQ EQ FQ n8 7( 52 M] 8D GQ SG $C gx HQ IQ JQ KQ LQ r3 #9  3 g1 MQ NQ OQ PQ QQ RQ SQ W= TQ 0$ .  .  .  .  .  .  .  .  .  .  .  .  .  .  .  .  .  .  .  .  .  .  .  .  .  .  .  .  .  .  .  ",
".  .  .  .  .  .  .  .  .  .  .  .  .  .  .  .  .  .  .  .  .  .  .  .  .  .  .  .  .  .  .  .  .  .  +  (. >n a5 8- UQ VQ WQ &* |- !; y; XQ ,' m, ,| iQ )5 }6 YQ yq :, %! wJ ;: o2 $! D> s/ S! 0j I/ U: +/ 8} a) ZQ ,! u4 <: /> 1> 1> E; E; E; E; E; E; E; E; E; E; E; 1> 1> E; A; P: -' +] `Q |) #/ HL ~- Q> >>  R .R hN nq FM 3m V7 9p o8 C| C| 52 yf r1 'N Rh mO _q ,J FM hi +R c4 B^ l/ <7 <_ B| @R %y PJ {N IC Ky HC *B pB qB <+ Y. EC Az #R |J Bz X8    47 $R }_ ,a |_ Lq %R 46 &R *R cu =R )8 )8 )8 -R ;R Tr >R ,R FQ 5( B^ G: :j 'R )R !R ~R CN {R ]R ^R xl /R *d C: (R _R Of :R <R [R }R |R 1R d- @  .  .  .  .  .  .  .  .  .  .  .  .  .  .  .  .  .  .  .  .  .  .  .  .  .  .  .  .  .  .  .  ",
".  .  .  .  .  .  .  .  .  .  .  .  .  .  .  .  .  .  .  .  .  .  .  .  .  .  .  .  .  .  .  .  .  .  &  [& 2R Ao 3R 4R 5R 6R a7 z[ }) C( XN y' M6 :6 e) 7R 8R .Q a) z2 .< <3 )| K' F> ,] 4) x' $' 6_ vJ X| ]] Q! s( ^x |{ }> E; 1> E; E; E; E; E; E; E; E; E; E; E; E; E; 1> 1> E; z; F; h) +] +! |) q& p& u' O# _@ e~ V}    )k mc pt 2m [_ 52 C| l/ 2[ z^ :t 9R 0R R* mO aR bR cR dR i/ 7( C| :_ j/ [7 8x eR lN fR Iz MD HC *B <I gR uQ GG Fz tB hR Ry iR jR *p [N [a U7 0f *r kR {a lR mR !8 )8 !8 !8 !8 )8 -R nR oR pR 5A 6A n8 qR C6 [y rR sR 4K tR WM Jy uR vR wR Mn |( 1( xR yR zR AR BR CR DR ER FR vo @  .  .  .  .  .  .  .  .  .  .  .  .  .  .  .  .  .  .  .  .  .  .  .  .  .  .  .  .  .  .  ",
".  .  .  .  .  .  .  .  .  .  .  .  .  .  .  .  .  .  .  .  .  .  .  .  .  .  .  .  .  .  .  .  .  $  m  GR 7e HR IR T' JR ov J= !A KR C( &' |> 1> :' F! i~ LR P6 I5 u, #I -] MR |6 G< E; J! y' !> X^ NR s2 !5 %| z( f[ 6) E; 1> E; E; E; E; E; E; E; E; E; E; E; E; E; E; E; 1> 1> E; 2> U! Ue {; !! I- r% ~! 5a u8 _# W$ 7/    (x 4d ^u OR =m =a 6( C| C6 H3  B PR @O QR 55 RR SR ~B yB m/  8 6( 62 G: Uj $y EN 2J TR *y hx 0G UR VR WR XR YR {C Ly ;Q ZR `R  S n< !g __ .S +S hG @S #S 99 `d )8 !8 99 99 !8 )8 )8 F8 $S %S &S 7A C| *S C6 ;} $B =S :O &y *M Ky -S ;S >S ,S 'S )S !S ~S {S ]S ^S /S tn (S ># e$ +  .  .  .  .  .  .  .  .  .  .  .  .  .  .  .  .  .  .  .  .  .  .  .  .  .  .  .  .  .  ",
".  .  .  .  .  .  .  .  .  .  .  .  .  .  .  .  .  .  .  .  .  .  .  .  .  .  .  .  .  .  .  .  .  5  [& gh _S :S ]w T' <S [S }S |S 1S E! }, &' |> |> 6) ]{ 2S O6 h| I5 {] 3S @^ !f 4S 5S D> $! y' M6 $^ <3 l[ ew ^, 6) E; 1> E; E; E; E; E; E; E; E; E; E; E; E; E; E; E; E; E; S| 1> y' 5) ^> E! N> !; }- 6S '* Mu _# [@ '& @=    7S 8S W7 0g .k C^ __ C|  8 3[ *b 9S 0S aS lN bS cS dS Ow Fy 2[ 6( C| 2[ H3 eS fS =Q gS lx hS iS jS kS |y lS IC mS Hz nS oS 4N 6H :_ Rb +: pS RD qS $S [g <d )8 !8 99 99 99 !8 !8 )8 F8 rS sS tS uS C| *S  8 m/ EJ vw %y vS CN wS xS yS zS AS BS CS DS ES Dk FS GS HS IS JS KS LS $  .  .  .  .  .  .  .  .  .  .  .  .  .  .  .  .  .  .  .  .  .  .  .  .  .  .  .  .  ",
".  .  .  .  .  .  .  .  .  .  .  .  .  .  .  .  .  .  .  .  .  .  .  .  .  .  .  .  .  .  .  .  .  $  E  MS E& NS OS PS QS RS q' !- +! 5> #! ^> 5) 1> |> D! g_ Z] SS TS I5 -! |3 V^ 29 ,t bs D> $! >' ,K ^, F! A( [{ E; 1> E; E; E; E; E; E; E; E; E; E; E; E; E; E; E; E; E; E; E; E; F> F> &' {> o, WP US VS 2w P.    ## WS Ai XS YS _a Gv 5j *r 3j sf B^ =b __ 6g ZS `S  T .T 3y +T @T #T ;M Oz G: :_ C| k/ $T %T &T *T Jw &y 4K )R @R =T -T DN -Q CN Kw 4K ;T >T ]L k/ ,T 'T )T !T ~T sg l7 !8 )8 !8 99 99 99 99 )8 )8 99 {T ]T }m ^T C| 5( 7( s1 /T /P eR (T Ky _P _T :T <T [T 5M }T EL |T 1T Bp 2T 3T 4T 5T Is 6T .  .  .  .  .  .  .  .  .  .  .  .  .  .  .  .  .  .  .  .  .  .  .  .  .  .  .  .  ",
".  .  .  .  .  .  .  .  .  .  .  .  .  .  .  .  .  .  .  .  .  .  .  .  .  .  .  .  .  .  .  .  .  .  .  C7 5# 7T :~ 8T 9T 0T 5_ F, 1; aT }; h) F; 2> |> |> 2> A( bT  Q oH oI V: ~] cT Y3 23 A( /> |> 1> }> _' B( E; 1> E; E; E; F> E; E; D> f) 1> 1> 1> 1> E; D> /> ~> 1> 1> 1> B( 6) z; E; (> y' E> dT eT fT %,       j$ gT hT iT pG jT Ee x6 A6 vp kT 6g __ +: Qa +q UK lT mT nT 1C oT pT qT rT qu {B Cr 8H sT tT uT vT wT -T xT TL Nz yT 8x (P PJ IC Ky zT AT BT CT DT ET FT GT HT IT JT y0 ea !8 )8 !8 99 99 99 !8 )8 )8 !8 lw Cy KT Fl =9 5( 7( <_ 2v LT EN MT qA uL NT 4H 8< S_ j8 0F OT PT QT Qp RT ST TT 9! -# h' .  .  .  .  .  .  .  .  .  .  .  .  .  .  .  .  .  .  .  .  .  .  .  .  .  .  .  ",
".  .  .  .  .  .  .  .  .  .  .  .  .  .  .  .  .  .  .  .  .  .  .  .  .  .  .  .  .  .  .  .  .  .  .  %  UT VT WT XT YT ZT `T  U =% D5 1) N' .U g) z; y' |> /> n, l4 @/ >H S3 +/ o4 YP +U e_ I! }> 1> E; D> f) E; E; E; E; E; (> 1> /> ;: ;: /> (> ,] |> K! ,' L6 :' E; |> M^ T6 +< y, P3 H< $! K! `^ e) @U       #U $U ir %U f  c! a> &U Ee nq F6 *p }a [a lo (q *U =U s: GO -U nT 1C ;U >U 0E ,U pK 'U )U !U gG ~U tt {U ]U Sb ^U 2[ <_ 2v /U (U 2N *y 1N rP _U xT :U <U [U }U GT |U 1U 2U Ur }x )8 )8 !8 99 99 99 !8 )8 )8 !8 op Wx 3U 4U Rb 5( B^ {B SJ 5U 6U HI 1J 1N Hz -y 7U uP HG M. 8U 9U L& P/ 0U aU bU cU d' .  .  .  .  .  .  .  .  .  .  .  .  .  .  .  .  .  .  .  .  .  .  .  .  .  .  .  ",
".  .  .  .  .  .  .  .  .  .  .  .  .  .  .  .  .  .  .  .  .  .  .  .  .  .  .  .  .  .  .  .  .  .  +$ VH dU eU fU gU hU m3 iU n* jU q% r% P> }z O: =' z, y' }} D> s/ G1 kU jQ )5 R1 =! o~ IF lU x' Q: E; E; E; E; E; E; E; 1> (> D> v4 :3 F! bs }{ (> /> L! 1{ mU `| A, 2> v4 X^ M< nU t; v4 A; _8 g[ u/       oU $U pU [~ qU Y~ )7 V> rU sU 5; tU U{ uU vU wU xU yU zU AU BU CU DU 2y zA EU aE CB FU GU HU !U 0H aH IU JU rD KU C| l/ B^ s1 =I LU MU HI qA 1N Kw !R NU OU PU &3 QU RU SU TU UU pp Gb !8 )8 !8 99 99 99 99 !8 )8 !8 x0 VU WU XU FQ :_ YU j/ M] ZU `U DG Dw Ky =y HC jK  V ;B #u .V +V y  cm @V E4 #V ]~ .  .  .  .  .  .  .  .  .  .  .  .  .  .  .  .  .  .  .  .  .  .  .  .  .  .  .  ",
".  .  .  .  .  .  .  .  .  .  .  .  .  .  .  .  .  .  .  .  .  .  .  .  .  .  .  .  .  .  .  .  .  .  _. ># H. dI k.  m $V %V &V *V <$ o* ;& =% H; @! _] =V -V E; |> 4) ,' X^ 6_ iQ V: 8} ;V K5 e9 k4 }> E; E; E; E; E; E; F> 1> ~> ,' &^ s4 >V ^K L! ,' ,V 'V )V !V ~V +P D0 J/ !f {V ]V ^V e_ X^ x2 /V (V    &. _V :V 8- <V [V }V 3& 0@ c! YH 6- |V 1V 2V 3V 4V 5V 6V 7V e, j8 8V 9V 0V aV zA Tz DB bV (C up cV 7J Jr aH dV eV +B KH FQ l/ ym GN fV 4J gV hV mM 1N NT l| iV +a jV kV lV m< mV ks wy +p D8 99 )8 !8 99 99 99 99 !8 )8 -R nR nV @p oV FQ pV 5( G: :j 'R qV qP AN kF Ky kK tB rV sV tV uV vV wV xV q  yV I2 .  .  .  .  .  .  .  .  .  .  .  .  .  .  .  .  .  .  .  .  .  .  .  .  .  .  .  ",
".  .  .  .  .  .  .  .  .  .  .  .  .  .  .  .  .  .  .  .  .  .  .  .  .  .  .  .  .  .  .  .  .  .  E  `C /1 7& gn 'p zV z1 N9 AV P9 _$ (- -& q% ~, !; x; g~ :' ~> (> E; K' :6 e) >! dO BV h2 J/ v; D> E; E; E; E; 1> F> F> f) K' |6 W^ {V CV DV yc EV FV GV HV Ch IV T| JV 4u CI KV LV MV 6{ s~ W3 NV    &. OV PV A  W> QV RV SV TV 9+ S= ~@ zs gl UV VV WV XV YV y  zs ZV M- i% `V  W .W =z cE Tz +W @W #W rD $W 6E Jr +G %W &W 7x *W Ey 6( B^ _C =W 5D -W =M ;W )L Jy >W ,W 'W )W 52 B^ 6( aA bn !W ~W .p 99 )8 )8 !8 99 99 99 !8 )8 )8 nR y0 {W ]W ^W 5( 5( 2[ 3[ rR -M =Q /W kF CN {C (W _W :W Q0 <W /S [W }W T) y# .  .  .  .  .  .  .  .  .  .  .  .  .  .  .  .  .  .  .  .  .  .  .  .  .  .  .  ",
".  .  .  .  .  .  .  .  .  .  .  .  .  .  .  .  .  .  .  .  .  .  .  .  .  .  .  .  .  .  .  .  .  .  fm {~ A& |W {. 1W 2W 3W    N9 AV ag j- |' -& q% 1; 4W (; |, L^ 4) (> F> >] F! g7 5W G5 H! n, /> y' D> A; K! E/ (> 1> F> M^ |{ 6W 7W 8W -> 9W 0W aW bW cW dW eW fW gW hW iW jW kW 5g lW mW nW @> oW pW yK qW hJ rW *# hD sW 6T tW X- ^1 o  P- uW ch vW wW xW c= yW 5~ zW 7C qG AW BW CW DW 4y cE EB EW FW BG GW HW IW aH Jr fG VG /L ^L Ey -a B^ 52 #y pM JW KW LW CN Jy dA %M MW NW s1 B^ l/ cn +y OW PW '8 F8 )8 )8 !8 99 99 99 !8 )8 )8 F8 5x mz &S QW :_ 5( 2[ ;} $B =S RW 2D Iz [O {C SW TW UW Pl c> VW G) W; :% .  .  .  .  .  .  .  .  .  .  .  .  .  .  .  .  .  .  .  .  .  .  .  .  .  .  .  ",
".  .  .  .  .  .  .  .  .  .  .  .  .  .  .  .  .  .  .  .  .  .  .  .  .  .  .  .  .  .  .  .  .  .  E  -# WW [W XW A  YW ZW `W     X .X K^ 5a s% p* =% |) p, C; E! XQ &' |> F> z, L! t; |6 |{ B( F> D> ,' +< +X v4 }{ #] 1> D> u( %N @X #X xP $X %X &X *X =X -X ;X >X ,X 'X )X !X ~X {X J9 =_ 2G Y. ]X ^X Pp FS rW y& /X j9 w) .  0$ )G bC -s H. w  -7 (X _X sa :X M& W~ Ao L& [| U> <X [X }X |X RC *z Tz +W 1X 2X 3X 4X dV aH Jr 5X VG 6X SU (_ l/ B^ G: 1v 7X 8X 9X /W [O *y PJ 0X aX 6v ]L ym 6( qz kz bX cX rS F8 )8 )8 !8 99 99 99 !8 )8 )8  p yy dX eX fX C| 5( C6 m/ EJ $M %y DN eA hx gX hX iX h6 tn jX W= N$ 3| d$ .  .  .  .  .  .  .  .  .  .  .  .  .  .  .  .  .  .  .  .  .  .  .  .  .  .  ",
".  .  .  .  .  .  .  .  .  .  .  .  .  .  .  .  .  .  .  .  .  .  .  .  .  .  .  .  .  .  .  .  .  .  d& OB +n kX lX mX {. X# nX oX       vc pX qX r' w$ q% |) +! {; #! v; /> F> F> m~ j_ K' rX 1> E/ C( mP sX 3g ,t Xb }{ (> |> z, `| Cm 9z tX uX Vn vX wX xX yX XJ zX AX BX /R CX DX EX FX 26 M. GX )& +H HX B% W> +g IX JX .  .  .  &  d; U+ 2t R/ KX A& h! H) VH LX x  7# U~ 2R pG MX IB NX OX PX 2C 3y Tz QX RX SX TX UX VX WX XX aH rK qK jw cn l/ !g A^ |I YX ZX `X mK Ky CN 2D  Y ~L .Y +Y 2[ :_ [i @Y #Y $Y bu l7 )8 )8 !8 99 99 99 !8 )8 )8 99 {T %Y &Y *Y C| 5( 7( :x ru =Y -Y tz ;Y >Y ,Y 'Y l9 )Y !Y ~Y {Y e' @  .  .  .  .  .  .  .  .  .  .  .  .  .  .  .  .  .  .  .  .  .  .  .  .  .  .  ",
".  .  .  .  .  .  .  .  .  .  .  .  .  .  .  .  .  .  .  .  .  .  .  .  .  .  .  .  .  .  .  .  .  .  $  _. >7 ') ]Y 0U ^Y M@ /Y |+ *k (Y $E _Y :Y p; <) x$ q% r% 1) 2) UA F; m~ F> F> E/ D> S| ~> G< mP uJ N< <Y s[ ^K Rn }{ J! (> _' F! [Y }Y |Y 1Y F8 Gb 79 2Y 3Y 4Y 5Y #9 d/ %3 6Y 7Y 8Y 9Y Am Tq z. 0Y aY H$ bY cY ') I) .  .  .  .  &  fm ~) cQ L( dY IX eY .  E  MS #$ W~  2 q_ fY N- $O gY hY iY [B 3y jY kY lY mY 7D nY uK @G +G oY !U pY Vt 6J m< __ 2[ qY rY sY tY }B *y Ky ND AT uY vY |I C6 1[ 1I wY xY yY y0 ea !8 )8 !8 99 99 99 !8 !8 )8 99 lw xy OW (t =9 5( 7( zB pK LT zY AY BY CY }* {@ k. .n DY EY I) +  .  .  .  .  .  .  .  .  .  .  .  .  .  .  .  .  .  .  .  .  .  .  .  .  .  .  ",
".  .  .  .  .  .  .  .  .  .  .  .  .  .  .  .  .  .  .  .  .  .  .  .  .  .  .  .  .  .  .  .  .  .  .  .  @  NB FY GY HY IY JY l= KY LY MY NY &u OY P# vk x$ {{ r% f( N' .U g) PY D> E; E; E; m~ y, ,, Ox -; QY RY SY TY i_ %1 L' |> <} UY VY WY XY <d )8 89 kw YY ZY Hr `Y .c R4 g1 &l $q  Z .Z       +Z y% Q/ @Z HY #Z $Z :. &  .  .  .  .  %Z &Z l' *Z c; .  .  @  )  !i ay =Z )p -Z ;Z ]! nt >Z ,Z 'Z )Z 3y !Z ~Z {Z ]Z ^Z /Z VJ KE +G +G (Z pY MI LI 1m 1[  8 8( _Z :Z (U <Z *y 1N AN _U [Z }Z Fy 2[ :_ |[ $p |Z Vr #0 }x !8 )8 !8 99 99 99 99 !8 )8 !8 @0 +p Dy 1Z Rb 2Z 5( {B SJ 3Z 8c 4Z /s 5Z /* z{ 6Z 7Z aP Yw .  .  .  .  .  .  .  .  .  .  .  .  .  .  .  .  .  .  .  .  .  .  .  .  .  .  .  ",
".  .  .  .  .  .  .  .  .  .  .  .  .  .  .  .  .  .  .  .  .  .  .  .  .  .  .  .  .  .  .  .  .  .  .  .  .  +  b$ 8Z 9Z HY 0Z rW g6 aZ bZ cZ m+ _# dZ <l iC n& ;& D5 P> q, O: =' E> D> E; E; }> y, eZ Ox hw fZ gZ hZ ds w( iZ A; |> |> jZ kZ lZ mZ op 99 =R +0 nZ oZ pZ qZ rZ sZ R4 tZ uZ NQ vZ    wZ n@ A. jm xZ ,4 Ql cY 5t yZ w) +  .  .  *  u@ c' P$ &  .  .  .  .  x# zZ .A  2 AZ BZ CZ DZ EZ FZ BU CU AA GZ XD HZ IZ JZ KZ Tu 0J LZ +G +G (Z MZ 5N Sx 1I 6(  8 s1 NZ OZ PZ QZ qA )L RZ SZ TZ :G KI G: n8 l/ xL UZ VZ pp WZ !8 )8 )8 !8 99 99 99 !8 )8 !8 x0 XZ YZ ZZ FQ :_ 5( 52 72 :t 5d `Z  ` .` k9 +` N% f$ I% .  .  .  .  .  .  .  .  .  .  .  .  .  .  .  .  .  .  .  .  .  .  .  .  .  .  .  ",
".  .  .  .  .  .  .  .  .  .  .  .  .  .  .  .  .  .  .  .  .  .  .  .  .  .  .  .  .  .  .  .  .  .  .  .  .  .  @  wn @` #` $` HS wV z  p@ %` &` o9 G@ .X *` =` o* ;& r% P> cB <' ]> :' /> E; f) !> 4S -` ;` ze X! >` ,` '` )` 7) ;: E; E; @h !` ~` kf sg l7 99 `g +0 {` ]` ^` /` sZ 1f g1 (` _` :` ]$ @# )& 0I <` Bp xF [` em }` |` %+ .  .  .  .  .  .  .  .  .  .  .  .  @  zZ $K 1` 2` ~( 3` YI M- {l 4` 5` 6` 7` 8` 9` 0` a` b` c` d` e` +G Jr gG MH (t KH [i 6( B^ <_ f` 4J gV g` mM h` i` $P j` k` 5J _C 5( l/ mV ks WU l` op m` )8 )8 99 99 99 99 !8 )8 !8 ea nV @p n` (_ :_ B^ 52 z^ Ta o` p` q` r` s` <. ,  $  .  .  .  .  .  .  .  .  .  .  .  .  .  .  .  .  .  .  .  .  .  .  .  .  .  .  .  ",
".  .  .  .  .  .  .  .  .  .  .  .  .  .  .  .  .  .  .  .  .  .  .  .  .  .  .  .  .  .  .  .  .  .  .  .  .  .  .  @  db c5 t` DR 0U W> 6$ !. u` v` w` NA )A ag x` (- -& =% I- %8 x; g~ ], &' 1> H< 4e t; qy y` z` ){ A` B` C`  / D` !> /> E/ @h ]m E` F` Xf ea 99 <b ea G` H` I` J` K` L` M` N` O` Z$ gv BD [+ P` ej gE 7' Q` R` S` T` C4 @  .  .  .  .  .  .  .  .  .  .  .  U% U` V` W` X` Y` Z` YI o' ``   .. .+ .@ .# .Fv $ .% .& .* .= .- .+G XG %W ; .7x 8H Ey 6( B^ 52 5J 5D > ., .fR ' .-Q sA ) .! .fV _C 5( +: ~ .bn !W { ..p 99 )8 !8 99 99 99 99 !8 )8 )8 nR y0 ] .^ .6J :_ 5( G: #: / .( ._ .: ._X < .[ .+$ .  .  .  .  .  .  .  .  .  .  .  .  .  .  .  .  .  .  .  .  .  .  .  .  .  .  .  ",
".  .  .  .  .  .  .  .  .  .  .  .  .  .  .  .  .  .  .  .  .  .  .  .  .  .  .  .  .  .  .  .  .  .  .  .  .  .  .  .  @  c$ } .un | .1 . n Y# 2 .3 .4 .Y1 _+ P. 'b 5a |' -& =% |) 4W (; w; A, D> (> 4) Qc hd Nr 5 .La 6 .z`  v 7 .8 .mH ,' 9 .4) zh 0 .a .b .Gc +0 <b 99 9n c .Fc d .e .Mn f .g .U9 h .&u 6G #X i .j .hr k .tn l .m .n .o .U% .  .  .  .  .  .  .  .  .  .  .  .  %  p .q .r .s .t .B{ u .v .w .x .y .z .A .yp po B .C .Rj D .E .F .WX +G qF eG /L ^L G .l/ B^ 52 #y pM JW vL H ._P *y 2N 5H /U NW {B 5( 6( cn I .OW J .'8 Ux -R !8 99 99 99 99 !8 )8 )8 l7 Wf K .L .*W C|  8 [a M .N .O .P .Q .R .S .T ..  .  .  .  .  .  .  .  .  .  .  .  .  .  .  .  .  .  .  .  .  .  .  .  .  .  .  ",
".  .  .  .  .  .  .  .  .  .  .  .  .  .  .  .  .  .  .  .  .  .  .  .  .  .  .  .  .  .  .  .  .  .  .  .  .  .  .  .  .  .  ~i _f }` U .0U V .R+ W .X .Y .Z .` .,%  ..1- s% -& =% |) p, C; M> }, 9 .z; ...+..@..#..$..:= 7g %..&..*..=..-..Hf m~ ~> L' vq ;..>..,..Gb F8 99 da XY '..)..CX !..~..:@ {..x( ]..^../..(.._..ej |L :..<..sm g' d& .  .  .  .  .  .  .  .  .  .  .  .  .  %+ Qs [..hT }..|..1..2..3..I& B% R+ /Y VI 4r {! 4..5..6..wv 7..=f 5X XX qF (L 6X jw (_ m< __ tu |I wL 8..9..0..%C Ky PJ Fw aX {L zB 7( C| Ey kz $v 6x rS a..-R )8 !8 99 99 99 !8 )8 )8 F8 !v b..tS *W =a sb c..d..e..f..g..lX h..iq $  .  .  .  .  .  .  .  .  .  .  .  .  .  .  .  .  .  .  .  .  .  .  .  .  .  .  ",
".  .  .  .  .  .  .  .  .  .  .  .  .  .  .  .  .  .  .  .  .  .  .  .  .  .  .  .  .  .  .  .  .  .  .  .  .  .  .  .  .  .  .  0$ &o i..j../S bI {. k..l..m..n..o..p..q..r..p% p& q% E, |; R9 #! ]> _9 s..t..u..FO cx v..w..kq x..&..y..E< ,t u( z; D> z..^m A..%t B..op 99 99 cu wX C..D..E..V@ S. F..G..H..I..EX J..K..L..}q 7' M..N..]  *  .  .  .  .  .  .  .  .  .  .  .  .  .  .  $  :k R  O..Bx P..z7 Q..R..2# S..b% :V nX zV #b T..Kd U..V..W..X..fG XX aH rK #B +B `n m< 6( B^ Y..pu Z..`.. +.%C .+.++.`X @+.JH 8( 7( k/ @y @Y #+.$+.bu l7 )8 )8 !8 !8 99 99 !8 )8 )8 `g cu %+.&+.*+.f0 =+.-+.BZ ;+.,4 >+.,+.'+.`  +  .  .  .  .  .  .  .  .  .  .  .  .  .  .  .  .  .  .  .  .  .  .  .  .  .  ",
".  .  .  .  .  .  .  .  .  .  .  .  .  .  .  .  .  .  .  .  .  .  .  .  .  .  .  .  .  .  .  .  .  .  .  .  .  .  .  .  .  .  .  +  )+.J) EY GA 0U /S x& !+.~+.{+.]+.6m my :Y $8 <) w$ q% D5 H- ^+.D- /+.(+.(} _+.:+.<+.[+.}+.j@       |+.1+.2+.]5 3+.K! D> 1> q7 4+.&j 5+.op @0 6+.7+.8+.9+.{+ +% IL 0+.a+.b+.Fr 4P c+.d+.e+.WI %o hn O$ u@ +  .  .  .  .  .  .  .  .  .  .  .  .  .  .  .  .  f+.$. Cu g+.h+.(c i+.j+.k+.b>  - bm l+._..nv 7S m+.n+.o+.p+.Uf @G XX sK UJ MZ Vt LI Sm `n q+.r+.s+.t+.u+.v+.fA *M AN AT w+.CT x+.y+.__ z+.wY A+.B+.C+.ea !8 )8 !8 99 99 99 !8 !8 )8 99 <g JT D+.E+.F+.G+.R  N  H+.I+.J+.@` LS $  .  .  .  .  .  .  .  .  .  .  .  .  .  .  .  .  .  .  .  .  .  .  .  .  .  ",
".  .  .  .  .  .  .  .  .  .  .  .  .  .  .  .  .  .  .  .  .  .  .  .  .  .  .  .  .  .  .  .  .  .  .  .  .  .  .  .  .  .  .  .  .  %+ J) ws r  K+.HS lG L+.M+.N+.O+.m+ Z$ k; P+.:$ p* {{ sG Q+.R+.S+.T+.U+.V+.W+.X+.Y+.%= j@ H^    Z+.`+.;; SY  @..@.$| D> [} @7 +@.@@.#@.;f $@.%@.&@.G} *@.=@.-@.;@.>@.h< ,@.&l '@.)@.!@.~@.1/ ># _. $  .  .  .  .  .  .  .  .  .  .  .  .  .  .  .  .  .  $  C7 6@ {@.RP 1L 4  P$  = DL v# ]@.l= ^@./@.d~ Ea (@._@.:@.<@.[@.@G Jr Jr qF MZ }@.ko jw |@.6E 1@.2@.3@.4@.5@.fA WM rP KW [Z 6@.1v 2A __ =b fX |Z 7@.7n +0 !8 )8 !8 99 99 99 99 !8 )8 F8 sg Z6 Yg 8@.9@.0@.3..a@.Q .b@.c@.Q@ +  .  .  .  .  .  .  .  .  .  .  .  .  .  .  .  .  .  .  .  .  .  .  .  .  .  ",
".  .  .  .  .  .  .  .  .  .  .  .  .  .  .  .  .  .  .  .  .  .  .  .  .  .  .  .  .  .  .  .  .  .  .  .  .  .  .  .  .  .  .  .  .  .  .  D7 d@.e@.f@.0Z cm 2@ g@.h@.i@.j@.+> Af *V iC iO $D $- k@.l@.m@.LM QJ n@.o@.p@.>9 q@.r@.s@.t@.#b u@.hZ v@.w@.xM >] /> E; x@.g< y@.z@.A@.B@.C@.*@.D@.E@.F@.G@.H@.1( I@.J@.K@.L@.M@._X ws ;# .  .  .  .  .  .  .  .  .  .  .  .  .  .  .  .  .  .  .  .  .  6+ #) N@.g. 6+ $  _. B7 O@.[k Pq k .P@.Q@.#E Ea ~e R@.S@.QI T@.9J 0H (F dV U@.V@.W@.X@.WX +G Y@.Z@.`@. #.dL .#.+#.Kw =M -W :G KI G3 :_ =b xL 8A io pp Gb !8 )8 !8 99 99 99 99 !8 <d m` @#.##.$#.%#.&#.*#.=#.jr -#.;#.fh .  .  .  .  .  .  .  .  .  .  .  .  .  .  .  .  .  .  .  .  .  .  .  .  .  .  ",
".  .  .  .  .  .  .  .  .  .  .  .  .  .  .  .  .  .  .  .  .  .  .  .  .  .  .  .  .  .  .  .  .  .  .  .  .  .  .  .  .  .  .  .  .  .  .  +  1% >#.,#.f@.'#.wV )#.p@ !#.~#.o9 Lx {#.]#.^#./#.(#.Jx _#.TS :#.<#.[#.}#.|#.1#.2#.Z; 3#.4#.5#.nv >` 6#.7#.8#.9#.06 }{ /> M^ 0#.a#.b#.c#.d#.e#.f#.g#.h#.b .i#.j#.^2 k#.l#.m#.n#.o#.b  H) b$ %+ .  .  .  .  .  .  .  .  .  .  .  .  .  .  .  .  .  .  .  .  .  *  *  @  .  .  _. >  3# j  3F %# p#.<p 1#.q#.B] a` b` c` d` IW 6E r#.s#.t#.u#.v#.F .Jr XX w#.x#.y#.z#.A#.B#.1N $C $P C#.D#.su tu __ l/ aA {v wy +p op 99 )8 !8 99 99 99 99 )8 fc )8 rS E#.F#.G#.H#.Ak I#.J#.#  .  .  .  .  .  .  .  .  .  .  .  .  .  .  .  .  .  .  .  .  .  .  .  .  .  .  .  ",
".  .  .  .  .  .  .  .  .  .  .  .  .  .  .  .  .  .  .  .  .  .  .  .  .  .  .  .  .  .  .  .  .  .  .  .  .  .  .  .  .  .  .  .  .  .  .  .  @  .u b5 K#.DR IY L#.6r !. u` M#.N#.O#.P#.Q#.R#.S#.T#.U#.V#.W#.X#.Y#.Z#.`#.oU  $..$.+$.7# }| @$.#$.$$.%$.&$.*$.=$.v4 }: -$./+.O1 F} ;$.wG >$.VJ ,$.'$.)$.!$.~$.m1 {$.]$.^$.d! %g G  9@ {< `  +  .  .  .  .  .  .  .  .  .  .  .  .  .  .  .  .  .  .  .  .  .  .  .  .  .  .  @  e- 2  |q hm 8F `m /$.a+ ($._$.:$.<$.[$.}$.|$.QI 1$.2$.Rj 3$.4$.5$.+G 0H KE 6$.Pj 7$.8$.tL 1N i` 9$.) .0$.Nz {B B^ -a `n a$.3U xy .p 99 )8 )8 !8 99 99 !8 `d `d m7 b$.c$.d$.e$.]o |8 f$..  .  .  .  .  .  .  .  .  .  .  .  .  .  .  .  .  .  .  .  .  .  .  .  .  .  .  .  ",
".  .  .  .  .  .  .  .  .  .  .  .  .  .  .  .  .  .  .  .  .  .  .  .  .  .  .  .  .  .  .  .  .  .  .  .  .  .  .  .  .  .  .  .  .  .  .  .  .  @  '@ F% g$.| .0U  n Y# h$.0Y +V h3 i$.8~ j$.k$.l$.6* 2B m$.n$.o$.3..p$.q$.r$.s$.t$..6 oG .A u$.a= v$.w$.7 .nH '] :6 x$.y$.$- z$.A$.B$.C$.D$.k7 99 F8 E$.F$.G$.H$.I$.J$.K$.eI l9 L) L$.[% +  .  .  .  .  .  .  .  .  .  .  .  .  .  .  .  .  .  .  .  .  .  .  .  .  .  .  .  $  $+ 0% 5B 4@ Y% YW M$.N$.O$.P$.Sj Q$.R$.S$.T$.U$.V$.KN tX W$.ZG X$.+G 66 Y$.Z$.`$. %..%.Zy CN 1J +%.@%.#%.$w zB B^ 6( cn 1Z $%.hz '8 F8 )8 !8 !8 [g !8 99 89 { .%%.&%.*%.Qp Q..=%.`C i6 *  .  .  .  .  .  .  .  .  .  .  .  .  .  .  .  .  .  .  .  .  .  .  .  .  .  .  ",
".  .  .  .  .  .  .  .  .  .  .  .  .  .  .  .  .  .  .  .  .  .  .  .  .  .  .  .  .  .  .  .  .  .  .  .  .  .  .  .  .  .  .  .  .  .  .  .  .  .  +  ~i -%.'n U .[W V .A  ;%.dh >%.9* ,%.@Z l9 U' dh 9Q !< %U >%.8; '%.1# )%.!%.~%.6Z dC 6& ay {%.~n ]%.Ch ^%.y2 G5 2z /%.#* >= 4b (%._%.:%.+0 `d +0 _Q <%.[%.}%.7O Q= 6, O  P/ M% ^p _. +  .  .  .  .  .  .  .  .  .  .  .  .  .  .  .  .  .  .  .  .  .  .  .  .  .  .  .  .  *  6+ _% |%.i9 1%.2%.3%.4%.L* 5%.6%.7%.8%.9%.0%.a%.b%.c%.d%.7N e%.f%.@G g%._L h%.i%.j%.;Q hx CN -Q k%.0X oK {L ^U ym C| G .l%.m%.n%.5x l7 !8 )8 )8 !8 op vX o%.p%.49 q%.X- b> %o M, 9$ _. .  .  .  .  .  .  .  .  .  .  .  .  .  .  .  .  .  .  .  .  .  .  .  .  .  .  ",
".  .  .  .  .  .  .  .  .  .  .  .  .  .  .  .  .  .  .  .  .  .  .  .  .  .  .  .  .  .  .  .  .  .  .  .  .  .  .  .  .  .  .  .  .  .  .  .  .  .  .  .  0$ _1 r%.Rl Ql dm tn s%..K t%.q) u%.v%..~ ,G .6 H& 'n w%.x%.@Z 93 T; p! Ag jn h  to c= c! Z! y%.zJ z%.BH d< n^ @* j; A%.B%.C%.D%.E%.F%.m7 G%.H%.I%.J%.K%.L%.[o ]w M%.#$ +A |% @  .  .  .  .  .  .  .  .  .  .  .  .  .  .  .  .  .  .  .  .  .  .  .  .  .  .  .  .  .  .  .  Y= IX N%. -  ~ O%.P%.Q%.4#.R%.S%.T%._* U%.V%.W%.X%.Y%.Z%.`%. &..&.4$.+&.@&.#&.$&.yH %&.hx 1N kF &&.*&.-w Fh rx C6 l/ cn Iv =&.-&.kw gc <d fc ;&.>&.,&.'&.)&.dW p_ !n 6l !&.~&.H) [  .  .  .  .  .  .  .  .  .  .  .  .  .  .  .  .  .  .  .  .  .  .  .  .  .  .  ",
".  .  .  .  .  .  .  .  .  .  .  .  .  .  .  .  .  .  .  .  .  .  .  .  .  .  .  .  .  .  .  .  .  .  .  .  .  .  .  .  .  .  .  .  .  .  .  .  .  .  .  .  .  &  {&.]&.^&./&.(&.U= 0& 0; _&.b& :&.`c <&.[&.X  'G }&.C) |&.a; 1&.Q, 2&.)o 3&.-s .D N% #$ 7; 4&.J| I# 5&.6&.=- 7&.8&.9&._> 0&.a&.b&.c&.d&.e&.f&.g&.h&.y+ ;+ i&.;+ 3% )  @  .  .  .  .  .  .  .  .  .  .  .  .  .  .  .  .  .  .  .  .  .  .  .  .  .  .  .  .  .  .  .  .  .  _. in ^. 6r W  j&.k&.l&.U~ dh }& j. m&.av U+ ;{ n&.o&.p&.q&.r&.s&.t&.u&.v&.w&.x&.y&.FG {C CN Iz lS z&.A&.rz Fy )l 6( /l B&.C&.D&.8h Hb l7 Tr St E&.F&.V$.G&.H&.eh I&.H& $$ J&.%+ .  .  .  .  .  .  .  .  .  .  .  .  .  .  .  .  .  .  .  .  .  .  .  .  .  .  ",
".  .  .  .  .  .  .  .  .  .  .  .  .  .  .  .  .  .  .  .  .  .  .  .  .  .  .  .  .  .  .  .  .  .  .  .  .  .  .  .  .  .  .  .  .  .  .  .  .  .  .  .  .  .  )+.J&.K&.L&.M&.1&.N&.O&.P&.+) MB Q&.X) *) R&.fm NB T&  , S&.cU *Z y# $  a, ^~ -s o  cC b{ T&.@s A+ +& U&.V&.W&.-| ]3 z, |> @7 X&.Y&.Z&.`&. *.N- 0r Qi w+ E& 3% 7@ .  .  .  .  .  .  .  .  .  .  .  .  .  .  .  .  .  .  .  .  .  .  .  .  .  .  .  .  .  .  .  .  .  .  .  +  )  _1 .*.t+ +N to 9Q J. +*.~  |` @*.#*.Si L% $*.%*.&*.**.=*.-*.;*.>*.,*.'*.)*.!*.~*.FG hx =y {*.]*.^*.=5 kT Sa z5 1j zG 6w /*.(*.<r vX _*.:*.<*.[*.}*.;Z ]w 9Q [. 1~ |*.[  +  .  .  .  .  .  .  .  .  .  .  .  .  .  .  .  .  .  .  .  .  .  .  .  .  .  .  ",
".  .  .  .  .  .  .  .  .  .  .  .  .  .  .  .  .  .  .  .  .  .  .  .  .  .  .  .  .  .  .  .  .  .  .  .  .  .  .  .  .  .  .  .  .  .  .  .  .  .  .  .  .  .  .  .  @) Ks *) Wp 1*.2*.T, 0$ e$ 3*.4*.5*.c$ +  @  %+ &  a, 6*.a, +  .  +  E  6@ 7*.dC l9 dh 8*.9*.0*.Mx a*.b*.c*.d*.], /> K' e*.f*.g*.h*.i*.yu yk U~ }. ># Y= +  .  .  .  .  .  .  .  .  .  .  .  .  .  .  .  .  .  .  .  .  .  .  .  .  .  .  .  .  .  .  .  .  .  .  .  .  $  '  ;o bC -k j*.c= c! Yw 0$ '@ FR k*.l*.0@ m*.n*.9r o*.p*.q*.r*.=Z s*.t*.u*.v*.zH w*.x*.y*.z*.A*.B*.C*.D*.vU E*.F*.G*.H*.I*.J*.K*.L*.M*.N*.O*.P*.Q*.0y R*.S*.5~ )o _. .  .  .  .  .  .  .  .  .  .  .  .  .  .  .  .  .  .  .  .  .  .  .  .  .  .  .  .  ",
".  .  .  .  .  .  .  .  .  .  .  .  .  .  .  .  .  .  .  .  .  .  .  .  .  .  .  .  .  .  .  .  .  .  .  .  .  .  .  .  .  .  .  .  .  .  .  .  .  .  .  .  .  .  .  .  .  @  Q@ P$ c' e$ +  .  .  .  +  .  .  .  .  .  .  @  *  @  .  .  .  $  Y= v+ A7 -k uo 3q 3B m9 T*.U*.V*.C` Nx 7) |{ W*.X*.Y*.Z*.`*.$. W+ Qk dh @$ D7 *  .  .  .  .  .  .  .  .  .  .  .  .  .  .  .  .  .  .  .  .  .  .  .  .  .  .  .  .  .  .  .  .  .  .  .  .  .  .  $  :% !  ;7 M% !@ :  *  .  @  7@ FR  =.9+ .=.7e 7$ R; +=.@=.#=.$=.l&.%=.&=.*=.==.-=.;=.>=.,=.'=.)=.!=.~=.{=.]=.^=./=.=G (=._=.:=.<=.[=.6%.}=.|=.1=.HR uM dh qj ~i +  .  .  .  .  .  .  .  .  .  .  .  .  .  .  .  .  .  .  .  .  .  .  .  .  .  .  .  .  ",
".  .  .  .  .  .  .  .  .  .  .  .  .  .  .  .  .  .  .  .  .  .  .  .  .  .  .  .  .  .  .  .  .  .  .  .  .  .  .  .  .  .  .  .  .  .  .  .  .  .  .  .  .  .  .  .  .  .  .  .  .  .  .  .  .  .  .  .  .  .  .  .  .  .  .  .  .  .  .  .  $  E  {< 2=.3=.uo O  !n v .,z 4=.5=.CI 6=.7=.8=.Nh 9=.a=  d Q  Qk +m A# *n +$ .  .  .  .  .  .  .  .  .  .  .  .  .  .  .  .  .  .  .  .  .  .  .  .  .  .  .  .  .  .  .  .  .  .  .  .  .  .  .  .  .  &  ;# d  4B <  .  .  .  @  0=.yZ a=.Z~ b=.c=.d=.f^ e=.f=.Co *#.5$ *@ g=.h=.i=.j=.k=.+6 l=.m=.n=.o=.p=.q=.r=.s=.t=.'p u=.v=.w=.x=.y=.Y; 1=.z=.HR AZ 7- |% $  .  .  .  .  .  .  .  .  .  .  .  .  .  .  .  .  .  .  .  .  .  .  .  .  .  .  .  .  .  ",
".  .  .  .  .  .  .  .  .  .  .  .  .  .  .  .  .  .  .  .  .  .  .  .  .  .  .  .  .  .  .  .  .  .  .  .  .  .  .  .  .  .  .  .  .  .  .  .  .  .  .  .  .  .  .  .  .  .  .  .  .  .  .  .  .  .  .  .  .  .  .  .  .  .  .  .  .  .  .  .  .  $  A=.f$.B=.N% .D C=.K  D=.E=.F=.G=.H=.I=.J=.K=.L=.M=.N=.+m +m :X ]p 0$ .  .  .  .  .  .  .  .  .  .  .  .  .  .  .  .  .  .  .  .  .  .  .  .  .  .  .  .  .  .  .  .  .  .  .  .  .  .  .  .  .  .  .  .  .  .  .  .  .  .  .  +  w) d  ]i I. R/ a' X) O=.P=.Q=.*# hJ so R=.2..S=.T=.Pl .6 U=.V=.4R (~ 7: W=.X=.Y=.w& Z=.`=.=#. -..-.N% xo +-.@-.C& uW `  $  .  .  .  .  .  .  .  .  .  .  .  .  .  .  .  .  .  .  .  .  .  .  .  .  .  .  .  .  .  .  ",
".  .  .  .  .  .  .  .  .  .  .  .  .  .  .  .  .  .  .  .  .  .  .  .  .  .  .  .  .  .  .  .  .  .  .  .  .  .  .  .  .  .  .  .  .  .  .  .  .  .  .  .  .  .  .  .  .  .  .  .  .  .  .  .  .  .  .  .  .  .  .  .  .  .  .  .  .  .  .  .  .  .  .  #-.:.  6 ^1 .D ir )i A{ $-.%-.&-.*-.=-.P- )i --.p$.Ao }& ;-._. .  .  .  .  .  .  .  .  .  .  .  .  .  .  .  .  .  .  .  .  .  .  .  .  .  .  .  .  .  .  .  .  .  .  .  .  .  .  .  .  .  .  .  .  .  .  .  .  .  .  .  .  .  .  [% <o n  T) 2*.O$ P@ 5# >-.hm *# r` !&.3F kl /S  n /1 z{ ,-.9Q %U 3=._X 1l mX 2T qU '-./o )-.]&.2L H  %U Ao !-.~-.$  .  .  .  .  .  .  .  .  .  .  .  .  .  .  .  .  .  .  .  .  .  .  .  .  .  .  .  .  .  .  .  ",
".  .  .  .  .  .  .  .  .  .  .  .  .  .  .  .  .  .  .  .  .  .  .  .  .  .  .  .  .  .  .  .  .  .  .  .  .  .  .  .  .  .  .  .  .  .  .  .  .  .  .  .  .  .  .  .  .  .  .  .  .  .  .  .  .  .  .  .  .  .  .  .  .  .  .  .  .  .  .  .  .  .  .  +  %  4# _  {-.dC ]-.M& 'Y ^-.A  J( H. 5@ i  /-.H& |& (-.C7 +  .  .  .  .  .  .  .  .  .  .  .  .  .  .  .  .  .  .  .  .  .  .  .  .  .  .  .  .  .  .  .  .  .  .  .  .  .  .  .  .  .  .  .  .  .  .  .  .  .  .  .  .  .  .  $  [  c$ e$ b$ @m @  :% D  B=._-.:-.<-.8& [-.0U Q; <. l. [. H  #K b  }-.|-.1-.$m 2-.3-.4-.5-.B7 <. L) z{ .m Yw .  .  .  .  .  .  .  .  .  .  .  .  .  .  .  .  .  .  .  .  .  .  .  .  .  .  .  .  .  .  .  .  .  ",
".  .  .  .  .  .  .  .  .  .  .  .  .  .  .  .  .  .  .  .  .  .  .  .  .  .  .  .  .  .  .  .  .  .  .  .  .  .  .  .  .  .  .  .  .  .  .  .  .  .  .  .  .  .  .  .  .  .  .  .  .  .  .  .  .  .  .  .  .  .  .  .  .  .  .  .  .  .  .  .  .  .  .  .  .  )+.c; 6-.PP  ~ G$ Z# '0 J( nn 7-.(  Ag cI 8-.5' [% $  .  .  .  .  .  .  .  .  .  .  .  .  .  .  .  .  .  .  .  .  .  .  .  .  .  .  .  .  .  .  .  .  .  .  .  .  .  .  .  .  .  .  .  .  .  .  .  .  .  .  .  .  .  .  .  .  .  .  .  .  .  .  +  0$ 9-.0-.a-.Z> b-.sn c-.d-.~  5# ;+ J. $$ >7 =  W, */ e-.f-.g-.h-.E  :% >7 f$ U+ ,  &  .  .  .  .  .  .  .  .  .  .  .  .  .  .  .  .  .  .  .  .  .  .  .  .  .  .  .  .  .  .  .  .  .  ",
".  .  .  .  .  .  .  .  .  .  .  .  .  .  .  .  .  .  .  .  .  .  .  .  .  .  .  .  .  .  .  .  .  .  .  .  .  .  .  .  .  .  .  .  .  .  .  .  .  .  .  .  .  .  .  .  .  .  .  .  .  .  .  .  .  .  .  .  .  .  .  .  .  .  .  .  .  .  .  .  .  .  .  .  .  .  @  6+ j+.1L i-.j-.k-. $ D  a, H% *) g= &Z bN @  .  .  .  .  .  .  .  .  .  .  .  .  .  .  .  .  .  .  .  .  .  .  .  .  .  .  .  .  .  .  .  .  .  .  .  .  .  .  .  .  .  .  .  .  .  .  .  .  .  .  .  .  .  .  .  .  .  .  .  .  .  .  .  .  .  )+.o .l-.g= m-.n-.G% NB &  E  d  }  l  C7 $  C4 d' &o o .o-.p-..  .  @  0$ *  +  .  .  .  .  .  .  .  .  .  .  .  .  .  .  .  .  .  .  .  .  .  .  .  .  .  .  .  .  .  .  .  .  .  .  ",
".  .  .  .  .  .  .  .  .  .  .  .  .  .  .  .  .  .  .  .  .  .  .  .  .  .  .  .  .  .  .  .  .  .  .  .  .  .  .  .  .  .  .  .  .  .  .  .  .  .  .  .  .  .  .  .  .  .  .  .  .  .  .  .  .  .  .  .  .  .  .  .  .  .  .  .  .  .  .  .  .  .  .  .  .  .  .  .  Y= q-.0, AK r-./. `  *  'o s-.t-.u-.*  .  .  .  .  .  .  .  .  .  .  .  .  .  .  .  .  .  .  .  .  .  .  .  .  .  .  .  .  .  .  .  .  .  .  .  .  .  .  .  .  .  .  .  .  .  .  .  .  .  .  .  .  .  .  .  .  .  .  .  .  .  .  .  .  .  .  .  0$ I2 v-.w-.x-.*  $  .  $  #-.#-.%+ +  .  .  .  +  #  +$ +  .  .  .  .  .  .  .  .  .  .  .  .  .  .  .  .  .  .  .  .  .  .  .  .  .  .  .  .  .  .  .  .  .  .  .  .  .  .  .  .  ",
".  .  .  .  .  .  .  .  .  .  .  .  .  .  .  .  .  .  .  .  .  .  .  .  .  .  .  .  .  .  .  .  .  .  .  .  .  .  .  .  .  .  .  .  .  .  .  .  .  .  .  .  .  .  .  .  .  .  .  .  .  .  .  .  .  .  .  .  .  .  .  .  .  .  .  .  .  .  .  .  .  .  .  .  .  .  .  .  *  ;# h= &Z G% 4] @  .  .  .  @  Z' .  .  .  .  .  .  .  .  .  .  .  .  .  .  .  .  .  .  .  .  .  .  .  .  .  .  .  .  .  .  .  .  .  .  .  .  .  .  .  .  .  .  .  .  .  .  .  .  .  .  .  .  .  .  .  .  .  .  .  .  .  .  .  .  .  .  .  .  +  $  @  #  @  .  .  .  .  .  .  .  .  .  .  .  .  .  .  .  .  .  .  .  .  .  .  .  .  .  .  .  .  .  .  .  .  .  .  .  .  .  .  .  .  .  .  .  .  .  .  .  .  .  .  .  .  .  .  .  ",
".  .  .  .  .  .  .  .  .  .  .  .  .  .  .  .  .  .  .  .  .  .  .  .  .  .  .  .  .  .  .  .  .  .  .  .  .  .  .  .  .  .  .  .  .  .  .  .  .  .  .  .  .  .  .  .  .  .  .  .  .  .  .  .  .  .  .  .  .  .  .  .  .  .  .  .  .  .  .  .  .  .  .  .  .  .  .  .  .  $  y-.S, y# $  .  .  .  .  .  .  .  .  .  .  .  .  .  .  .  .  .  .  .  .  .  .  .  .  .  .  .  .  .  .  .  .  .  .  .  .  .  .  .  .  .  .  .  .  .  .  .  .  .  .  .  .  .  .  .  .  .  .  .  .  .  .  .  .  .  .  .  .  .  .  .  .  .  .  .  .  .  .  .  .  .  .  .  .  .  .  .  .  .  .  .  .  .  .  .  .  .  .  .  .  .  .  .  .  .  .  .  .  .  .  .  .  .  .  .  .  .  .  .  .  .  .  .  .  .  .  .  .  .  .  .  .  .  .  ",
".  .  .  .  .  .  .  .  .  .  .  .  .  .  .  .  .  .  .  .  .  .  .  .  .  .  .  .  .  .  .  .  .  .  .  .  .  .  .  .  .  .  .  .  .  .  .  .  .  .  .  .  .  .  .  .  .  .  .  .  .  .  .  .  .  .  .  .  .  .  .  .  .  .  .  .  .  .  .  .  .  .  .  .  .  .  .  .  .  .  .  +  .  .  .  .  .  .  .  .  .  .  .  .  .  .  .  .  .  .  .  .  .  .  .  .  .  .  .  .  .  .  .  .  .  .  .  .  .  .  .  .  .  .  .  .  .  .  .  .  .  .  .  .  .  .  .  .  .  .  .  .  .  .  .  .  .  .  .  .  .  .  .  .  .  .  .  .  .  .  .  .  .  .  .  .  .  .  .  .  .  .  .  .  .  .  .  .  .  .  .  .  .  .  .  .  .  .  .  .  .  .  .  .  .  .  .  .  .  .  .  .  .  .  .  .  .  .  .  .  .  .  .  .  .  .  .  .  ",
".  .  .  .  .  .  .  .  .  .  .  .  .  .  .  .  .  .  .  .  .  .  .  .  .  .  .  .  .  .  .  .  .  .  .  .  .  .  .  .  .  .  .  .  .  .  .  .  .  .  .  .  .  .  .  .  .  .  .  .  .  .  .  .  .  .  .  .  .  .  .  .  .  .  .  .  .  .  .  .  .  .  .  .  .  .  .  .  .  .  .  .  .  .  .  .  .  .  .  .  .  .  .  .  .  .  .  .  .  .  .  .  .  .  .  .  .  .  .  .  .  .  .  .  .  .  .  .  .  .  .  .  .  .  .  .  .  .  .  .  .  .  .  .  .  .  .  .  .  .  .  .  .  .  .  .  .  .  .  .  .  .  .  .  .  .  .  .  .  .  .  .  .  .  .  .  .  .  .  .  .  .  .  .  .  .  .  .  .  .  .  .  .  .  .  .  .  .  .  .  .  .  .  .  .  .  .  .  .  .  .  .  .  .  .  .  .  .  .  .  .  .  .  .  .  .  .  .  ",
".  .  .  .  .  .  .  .  .  .  .  .  .  .  .  .  .  .  .  .  .  .  .  .  .  .  .  .  .  .  .  .  .  .  .  .  .  .  .  .  .  .  .  .  .  .  .  .  .  .  .  .  .  .  .  .  .  .  .  .  .  .  .  .  .  .  .  .  .  .  .  .  .  .  .  .  .  .  .  .  .  .  .  .  .  .  .  .  .  .  .  .  .  .  .  .  .  .  .  .  .  .  .  .  .  .  .  .  .  .  .  .  .  .  .  .  .  .  .  .  .  .  .  .  .  .  .  .  .  .  .  .  .  .  .  .  .  .  .  .  .  .  .  .  .  .  .  .  .  .  .  .  .  .  .  .  .  .  .  .  .  .  .  .  .  .  .  .  .  .  .  .  .  .  .  .  .  .  .  .  .  .  .  .  .  .  .  .  .  .  .  .  .  .  .  .  .  .  .  .  .  .  .  .  .  .  .  .  .  .  .  .  .  .  .  .  .  .  .  .  .  .  .  .  .  .  .  .  ",
".  .  .  .  .  .  .  .  .  .  .  .  .  .  .  .  .  .  .  .  .  .  .  .  .  .  .  .  .  .  .  .  .  .  .  .  .  .  .  .  .  .  .  .  .  .  .  .  .  .  .  .  .  .  .  .  .  .  .  .  .  .  .  .  .  .  .  .  .  .  .  .  .  .  .  .  .  .  .  .  .  .  .  .  .  .  .  .  .  .  .  .  .  .  .  .  .  .  .  .  .  .  .  .  .  .  .  .  .  .  .  .  .  .  .  .  .  .  .  .  .  .  .  .  .  .  .  .  .  .  .  .  .  .  .  .  .  .  .  .  .  .  .  .  .  .  .  .  .  .  .  .  .  .  .  .  .  .  .  .  .  .  .  .  .  .  .  .  .  .  .  .  .  .  .  .  .  .  .  .  .  .  .  .  .  .  .  .  .  .  .  .  .  .  .  .  .  .  .  .  .  .  .  .  .  .  .  .  .  .  .  .  .  .  .  .  .  .  .  .  .  .  .  .  .  .  .  .  ",
".  .  .  .  .  .  .  .  .  .  .  .  .  .  .  .  .  .  .  .  .  .  .  .  .  .  .  .  .  .  .  .  .  .  .  .  .  .  .  .  .  .  .  .  .  .  .  .  .  .  .  .  .  .  .  .  .  .  .  .  .  .  .  .  .  .  .  .  .  .  .  .  .  .  .  .  .  .  .  .  .  .  .  .  .  .  .  .  .  .  .  .  .  .  .  .  .  .  .  .  .  .  .  .  .  .  .  .  .  .  .  .  .  .  .  .  .  .  .  .  .  .  .  .  .  .  .  .  .  .  .  .  .  .  .  .  .  .  .  .  .  .  .  .  .  .  .  .  .  .  .  .  .  .  .  .  .  .  .  .  .  .  .  .  .  .  .  .  .  .  .  .  .  .  .  .  .  .  .  .  .  .  .  .  .  .  .  .  .  .  .  .  .  .  .  .  .  .  .  .  .  .  .  .  .  .  .  .  .  .  .  .  .  .  .  .  .  .  .  .  .  .  .  .  .  .  .  .  ",
".  .  .  .  .  .  .  .  .  .  .  .  .  .  .  .  .  .  .  .  .  .  .  .  .  .  .  .  .  .  .  .  .  .  .  .  .  .  .  .  .  .  .  .  .  .  .  .  .  .  .  .  .  .  .  .  .  .  .  .  .  .  .  .  .  .  .  .  .  .  .  .  .  .  .  .  .  .  .  .  .  .  .  .  .  .  .  .  .  .  .  .  .  .  .  .  .  .  .  .  .  .  .  .  .  .  .  .  .  .  .  .  .  .  .  .  .  .  .  .  .  .  .  .  .  .  .  .  .  .  .  .  .  .  .  .  .  .  .  .  .  .  .  .  .  .  .  .  .  .  .  .  .  .  .  .  .  .  .  .  .  .  .  .  .  .  .  .  .  .  .  .  .  .  .  .  .  .  .  .  .  .  .  .  .  .  .  .  .  .  .  .  .  .  .  .  .  .  .  .  .  .  .  .  .  .  .  .  .  .  .  .  .  .  .  .  .  .  .  .  .  .  .  .  .  .  .  .  ",
".  .  .  .  .  .  .  .  .  .  .  .  .  .  .  .  .  .  .  .  .  .  .  .  .  .  .  .  .  .  .  .  .  .  .  .  .  .  .  .  .  .  .  .  .  .  .  .  .  .  .  .  .  .  .  .  .  .  .  .  .  .  .  .  .  .  .  .  .  .  .  .  .  .  .  .  .  .  .  .  .  .  .  .  .  .  .  .  .  .  .  .  .  .  .  .  .  .  .  .  .  .  .  .  .  .  .  .  .  .  .  .  .  .  .  .  .  .  .  .  .  .  .  .  .  .  .  .  .  .  .  .  .  .  .  .  .  .  .  .  .  .  .  .  .  .  .  .  .  .  .  .  .  .  .  .  .  .  .  .  .  .  .  .  .  .  .  .  .  .  .  .  .  .  .  .  .  .  .  .  .  .  .  .  .  .  .  .  .  .  .  .  .  .  .  .  .  .  .  .  .  .  .  .  .  .  .  .  .  .  .  .  .  .  .  .  .  .  .  .  .  .  .  .  .  .  .  .  ",
".  .  .  .  .  .  .  .  .  .  .  .  .  .  .  .  .  .  .  .  .  .  .  .  .  .  .  .  .  .  .  .  .  .  .  .  .  .  .  .  .  .  .  .  .  .  .  .  .  .  .  .  .  .  .  .  .  .  .  .  .  .  .  .  .  .  .  .  .  .  .  .  .  .  .  .  .  .  .  .  .  .  .  .  .  .  .  .  .  .  .  .  .  .  .  .  .  .  .  .  .  .  .  .  .  .  .  .  .  .  .  .  .  .  .  .  .  .  .  .  .  .  .  .  .  .  .  .  .  .  .  .  .  .  .  .  .  .  .  .  .  .  .  .  .  .  .  .  .  .  .  .  .  .  .  .  .  .  .  .  .  .  .  .  .  .  .  .  .  .  .  .  .  .  .  .  .  .  .  .  .  .  .  .  .  .  .  .  .  .  .  .  .  .  .  .  .  .  .  .  .  .  .  .  .  .  .  .  .  .  .  .  .  .  .  .  .  .  .  .  .  .  .  .  .  .  .  .  ",
".  .  .  .  .  .  .  .  .  .  .  .  .  .  .  .  .  .  .  .  .  .  .  .  .  .  .  .  .  .  .  .  .  .  .  .  .  .  .  .  .  .  .  .  .  .  .  .  .  .  .  .  .  .  .  .  .  .  .  .  .  .  .  .  .  .  .  .  .  .  .  .  .  .  .  .  .  .  .  .  .  .  .  .  .  .  .  .  .  .  .  .  .  .  .  .  .  .  .  .  .  .  .  .  .  .  .  .  .  .  .  .  .  .  .  .  .  .  .  .  .  .  .  .  .  .  .  .  .  .  .  .  .  .  .  .  .  .  .  .  .  .  .  .  .  .  .  .  .  .  .  .  .  .  .  .  .  .  .  .  .  .  .  .  .  .  .  .  .  .  .  .  .  .  .  .  .  .  .  .  .  .  .  .  .  .  .  .  .  .  .  .  .  .  .  .  .  .  .  .  .  .  .  .  .  .  .  .  .  .  .  .  .  .  .  .  .  .  .  .  .  .  .  .  .  .  .  .  ",
".  .  .  .  .  .  .  .  .  .  .  .  .  .  .  .  .  .  .  .  .  .  .  .  .  .  .  .  .  .  .  .  .  .  .  .  .  .  .  .  .  .  .  .  .  .  .  .  .  .  .  .  .  .  .  .  .  .  .  .  .  .  .  .  .  .  .  .  .  .  .  .  .  .  .  .  .  .  .  .  .  .  .  .  .  .  .  .  .  .  .  .  .  .  .  .  .  .  .  .  .  .  .  .  .  .  .  .  .  .  .  .  .  .  .  .  .  .  .  .  .  .  .  .  .  .  .  .  .  .  .  .  .  .  .  .  .  .  .  .  .  .  .  .  .  .  .  .  .  .  .  .  .  .  .  .  .  .  .  .  .  .  .  .  .  .  .  .  .  .  .  .  .  .  .  .  .  .  .  .  .  .  .  .  .  .  .  .  .  .  .  .  .  .  .  .  .  .  .  .  .  .  .  .  .  .  .  .  .  .  .  .  .  .  .  .  .  .  .  .  .  .  .  .  .  .  .  .  ",
".  .  .  .  .  .  .  .  .  .  .  .  .  .  .  .  .  .  .  .  .  .  .  .  .  .  .  .  .  .  .  .  .  .  .  .  .  .  .  .  .  .  .  .  .  .  .  .  .  .  .  .  .  .  .  .  .  .  .  .  .  .  .  .  .  .  .  .  .  .  .  .  .  .  .  .  .  .  .  .  .  .  .  .  .  .  .  .  .  .  .  .  .  .  .  .  .  .  .  .  .  .  .  .  .  .  .  .  .  .  .  .  .  .  .  .  .  .  .  .  .  .  .  .  .  .  .  .  .  .  .  .  .  .  .  .  .  .  .  .  .  .  .  .  .  .  .  .  .  .  .  .  .  .  .  .  .  .  .  .  .  .  .  .  .  .  .  .  .  .  .  .  .  .  .  .  .  .  .  .  .  .  .  .  .  .  .  .  .  .  .  .  .  .  .  .  .  .  .  .  .  .  .  .  .  .  .  .  .  .  .  .  .  .  .  .  .  .  .  .  .  .  .  .  .  .  .  .  ",
".  .  .  .  .  .  .  .  .  .  .  .  .  .  .  .  .  .  .  .  .  .  .  .  .  .  .  .  .  .  .  .  .  .  .  .  .  .  .  .  .  .  .  .  .  .  .  .  .  .  .  .  .  .  .  .  .  .  .  .  .  .  .  .  .  .  .  .  .  .  .  .  .  .  .  .  .  .  .  .  .  .  .  .  .  .  .  .  .  .  .  .  .  .  .  .  .  .  .  .  .  .  .  .  .  .  .  .  .  .  .  .  .  .  .  .  .  .  .  .  .  .  .  .  .  .  .  .  .  .  .  .  .  .  .  .  .  .  .  .  .  .  .  .  .  .  .  .  .  .  .  .  .  .  .  .  .  .  .  .  .  .  .  .  .  .  .  .  .  .  .  .  .  .  .  .  .  .  .  .  .  .  .  .  .  .  .  .  .  .  .  .  .  .  .  .  .  .  .  .  .  .  .  .  .  .  .  .  .  .  .  .  .  .  .  .  .  .  .  .  .  .  .  .  .  .  .  .  ",
".  .  .  .  .  .  .  .  .  .  .  .  .  .  .  .  .  .  .  .  .  .  .  .  .  .  .  .  .  .  .  .  .  .  .  .  .  .  .  .  .  .  .  .  .  .  .  .  .  .  .  .  .  .  .  .  .  .  .  .  .  .  .  .  .  .  .  .  .  .  .  .  .  .  .  .  .  .  .  .  .  .  .  .  .  .  .  .  .  .  .  .  .  .  .  .  .  .  .  .  .  .  .  .  .  .  .  .  .  .  .  .  .  .  .  .  .  .  .  .  .  .  .  .  .  .  .  .  .  .  .  .  .  .  .  .  .  .  .  .  .  .  .  .  .  .  .  .  .  .  .  .  .  .  .  .  .  .  .  .  .  .  .  .  .  .  .  .  .  .  .  .  .  .  .  .  .  .  .  .  .  .  .  .  .  .  .  .  .  .  .  .  .  .  .  .  .  .  .  .  .  .  .  .  .  .  .  .  .  .  .  .  .  .  .  .  .  .  .  .  .  .  .  .  .  .  .  .  ",
".  .  .  .  .  .  .  .  .  .  .  .  .  .  .  .  .  .  .  .  .  .  .  .  .  .  .  .  .  .  .  .  .  .  .  .  .  .  .  .  .  .  .  .  .  .  .  .  .  .  .  .  .  .  .  .  .  .  .  .  .  .  .  .  .  .  .  .  .  .  .  .  .  .  .  .  .  .  .  .  .  .  .  .  .  .  .  .  .  .  .  .  .  .  .  .  .  .  .  .  .  .  .  .  .  .  .  .  .  .  .  .  .  .  .  .  .  .  .  .  .  .  .  .  .  .  .  .  .  .  .  .  .  .  .  .  .  .  .  .  .  .  .  .  .  .  .  .  .  .  .  .  .  .  .  .  .  .  .  .  .  .  .  .  .  .  .  .  .  .  .  .  .  .  .  .  .  .  .  .  .  .  .  .  .  .  .  .  .  .  .  .  .  .  .  .  .  .  .  .  .  .  .  .  .  .  .  .  .  .  .  .  .  .  .  .  .  .  .  .  .  .  .  .  .  .  .  .  ",
".  .  .  .  .  .  .  .  .  .  .  .  .  .  .  .  .  .  .  .  .  .  .  .  .  .  .  .  .  .  .  .  .  .  .  .  .  .  .  .  .  .  .  .  .  .  .  .  .  .  .  .  .  .  .  .  .  .  .  .  .  .  .  .  .  .  .  .  .  .  .  .  .  .  .  .  .  .  .  .  .  .  .  .  .  .  .  .  .  .  .  .  .  .  .  .  .  .  .  .  .  .  .  .  .  .  .  .  .  .  .  .  .  .  .  .  .  .  .  .  .  .  .  .  .  .  .  .  .  .  .  .  .  .  .  .  .  .  .  .  .  .  .  .  .  .  .  .  .  .  .  .  .  .  .  .  .  .  .  .  .  .  .  .  .  .  .  .  .  .  .  .  .  .  .  .  .  .  .  .  .  .  .  .  .  .  .  .  .  .  .  .  .  .  .  .  .  .  .  .  .  .  .  .  .  .  .  .  .  .  .  .  .  .  .  .  .  .  .  .  .  .  .  .  .  .  .  .  ",
".  .  .  .  .  .  .  .  .  .  .  .  .  .  .  .  .  .  .  .  .  .  .  .  .  .  .  .  .  .  .  .  .  .  .  .  .  .  .  .  .  .  .  .  .  .  .  .  .  .  .  .  .  .  .  .  .  .  .  .  .  .  .  .  .  .  .  .  .  .  .  .  .  .  .  .  .  .  .  .  .  .  .  .  .  .  .  .  .  .  .  .  .  .  .  .  .  .  .  .  .  .  .  .  .  .  .  .  .  .  .  .  .  .  .  .  .  .  .  .  .  .  .  .  .  .  .  .  .  .  .  .  .  .  .  .  .  .  .  .  .  .  .  .  .  .  .  .  .  .  .  .  .  .  .  .  .  .  .  .  .  .  .  .  .  .  .  .  .  .  .  .  .  .  .  .  .  .  .  .  .  .  .  .  .  .  .  .  .  .  .  .  .  .  .  .  .  .  .  .  .  .  .  .  .  .  .  .  .  .  .  .  .  .  .  .  .  .  .  .  .  .  .  .  .  .  .  .  ",
".  .  .  .  .  .  .  .  .  .  .  .  .  .  .  .  .  .  .  .  .  .  .  .  .  .  .  .  .  .  .  .  .  .  .  .  .  .  .  .  .  .  .  .  .  .  .  .  .  .  .  .  .  .  .  .  .  .  .  .  .  .  .  .  .  .  .  .  .  .  .  .  .  .  .  .  .  .  .  .  .  .  .  .  .  .  .  .  .  .  .  .  .  .  .  .  .  .  .  .  .  .  .  .  .  .  .  .  .  .  .  .  .  .  .  .  .  .  .  .  .  .  .  .  .  .  .  .  .  .  .  .  .  .  .  .  .  .  .  .  .  .  .  .  .  .  .  .  .  .  .  .  .  .  .  .  .  .  .  .  .  .  .  .  .  .  .  .  .  .  .  .  .  .  .  .  .  .  .  .  .  .  .  .  .  .  .  .  .  .  .  .  .  .  .  .  .  .  .  .  .  .  .  .  .  .  .  .  .  .  .  .  .  .  .  .  .  .  .  .  .  .  .  .  .  .  .  .  ",
".  .  .  .  .  .  .  .  .  .  .  .  .  .  .  .  .  .  .  .  .  .  .  .  .  .  .  .  .  .  .  .  .  .  .  .  .  .  .  .  .  .  .  .  .  .  .  .  .  .  .  .  .  .  .  .  .  .  .  .  .  .  .  .  .  .  .  .  .  .  .  .  .  .  .  .  .  .  .  .  .  .  .  .  .  .  .  .  .  .  .  .  .  .  .  .  .  .  .  .  .  .  .  .  .  .  .  .  .  .  .  .  .  .  .  .  .  .  .  .  .  .  .  .  .  .  .  .  .  .  .  .  .  .  .  .  .  .  .  .  .  .  .  .  .  .  .  .  .  .  .  .  .  .  .  .  .  .  .  .  .  .  .  .  .  .  .  .  .  .  .  .  .  .  .  .  .  .  .  .  .  .  .  .  .  .  .  .  .  .  .  .  .  .  .  .  .  .  .  .  .  .  .  .  .  .  .  .  .  .  .  .  .  .  .  .  .  .  .  .  .  .  .  .  .  .  .  .  ",
".  .  .  .  .  .  .  .  .  .  .  .  .  .  .  .  .  .  .  .  .  .  .  .  .  .  .  .  .  .  .  .  .  .  .  .  .  .  .  .  .  .  .  .  .  .  .  .  .  .  .  .  .  .  .  .  .  .  .  .  .  .  .  .  .  .  .  .  .  .  .  .  .  .  .  .  .  .  .  .  .  .  .  .  .  .  .  .  .  .  .  .  .  .  .  .  .  .  .  .  .  .  .  .  .  .  .  .  .  .  .  .  .  .  .  .  .  .  .  .  .  .  .  .  .  .  .  .  .  .  .  .  .  .  .  .  .  .  .  .  .  .  .  .  .  .  .  .  .  .  .  .  .  .  .  .  .  .  .  .  .  .  .  .  .  .  .  .  .  .  .  .  .  .  .  .  .  .  .  .  .  .  .  .  .  .  .  .  .  .  .  .  .  .  .  .  .  .  .  .  .  .  .  .  .  .  .  .  .  .  .  .  .  .  .  .  .  .  .  .  .  .  .  .  .  .  .  .  ",
".  .  .  .  .  .  .  .  .  .  .  .  .  .  .  .  .  .  .  .  .  .  .  .  .  .  .  .  .  .  .  .  .  .  .  .  .  .  .  .  .  .  .  .  .  .  .  .  .  .  .  .  .  .  .  .  .  .  .  .  .  .  .  .  .  .  .  .  .  .  .  .  .  .  .  .  .  .  .  .  .  .  .  .  .  .  .  .  .  .  .  .  .  .  .  .  .  .  .  .  .  .  .  .  .  .  .  .  .  .  .  .  .  .  .  .  .  .  .  .  .  .  .  .  .  .  .  .  .  .  .  .  .  .  .  .  .  .  .  .  .  .  .  .  .  .  .  .  .  .  .  .  .  .  .  .  .  .  .  .  .  .  .  .  .  .  .  .  .  .  .  .  .  .  .  .  .  .  .  .  .  .  .  .  .  .  .  .  .  .  .  .  .  .  .  .  .  .  .  .  .  .  .  .  .  .  .  .  .  .  .  .  .  .  .  .  .  .  .  .  .  .  .  .  .  .  .  .  ",
".  .  .  .  .  .  .  .  .  .  .  .  .  .  .  .  .  .  .  .  .  .  .  .  .  .  .  .  .  .  .  .  .  .  .  .  .  .  .  .  .  .  .  .  .  .  .  .  .  .  .  .  .  .  .  .  .  .  .  .  .  .  .  .  .  .  .  .  .  .  .  .  .  .  .  .  .  .  .  .  .  .  .  .  .  .  .  .  .  .  .  .  .  .  .  .  .  .  .  .  .  .  .  .  .  .  .  .  .  .  .  .  .  .  .  .  .  .  .  .  .  .  .  .  .  .  .  .  .  .  .  .  .  .  .  .  .  .  .  .  .  .  .  .  .  .  .  .  .  .  .  .  .  .  .  .  .  .  .  .  .  .  .  .  .  .  .  .  .  .  .  .  .  .  .  .  .  .  .  .  .  .  .  .  .  .  .  .  .  .  .  .  .  .  .  .  .  .  .  .  .  .  .  .  .  .  .  .  .  .  .  .  .  .  .  .  .  .  .  .  .  .  .  .  .  .  .  .  ",
"   .  .  .  .  .  .  .  .  .  .  .  .  .  .  .  .  .  .  .  .  .  .  .  .  .  .  .  .  .  .  .  .  .  .  .  .  .  .  .  .  .  .  .  .  .  .  .  .  .  .  .  .  .  .  .  .  .  .  .  .  .  .  .  .  .  .  .  .  .  .  .  .  .  .  .  .  .  .  .  .  .  .  .  .  .  .  .  .  .  .  .  .  .  .  .  .  .  .  .  .  .  .  .  .  .  .  .  .  .  .  .  .  .  .  .  .  .  .  .  .  .  .  .  .  .  .  .  .  .  .  .  .  .  .  .  .  .  .  .  .  .  .  .  .  .  .  .  .  .  .  .  .  .  .  .  .  .  .  .  .  .  .  .  .  .  .  .  .  .  .  .  .  .  .  .  .  .  .  .  .  .  .  .  .  .  .  .  .  .  .  .  .  .  .  .  .  .  .  .  .  .  .  .  .  .  .  .  .  .  .  .  .  .  .  .  .  .  .  .  .  .  .  .  .  .  .  .  ",
"         .  .  .  .  .  .  .  .  .  .  .  .  .  .  .  .  .  .  .  .  .  .  .  .  .  .  .  .  .  .  .  .  .  .  .  .  .  .  .  .  .  .  .  .  .  .  .  .  .  .  .  .  .  .  .  .  .  .  .  .  .  .  .  .  .  .  .  .  .  .  .  .  .  .  .  .  .  .  .  .  .  .  .  .  .  .  .  .  .  .  .  .  .  .  .  .  .  .  .  .  .  .  .  .  .  .  .  .  .  .  .  .  .  .  .  .  .  .  .  .  .  .  .  .  .  .  .  .  .  .  .  .  .  .  .  .  .  .  .  .  .  .  .  .  .  .  .  .  .  .  .  .  .  .  .  .  .  .  .  .  .  .  .  .  .  .  .  .  .  .  .  .  .  .  .  .  .  .  .  .  .  .  .  .  .  .  .  .  .  .  .  .  .  .  .  .  .  .  .  .  .  .  .  .  .  .  .  .  .  .  .  .  .  .  .  .  .  .  .  .  .  .  .  .  .  ",
"            .  .  .  .  .  .  .  .  .  .  .  .  .  .  .  .  .  .  .  .  .  .  .  .  .  .  .  .  .  .  .  .  .  .  .  .  .  .  .  .  .  .  .  .  .  .  .  .  .  .  .  .  .  .  .  .  .  .  .  .  .  .  .  .  .  .  .  .  .  .  .  .  .  .  .  .  .  .  .  .  .  .  .  .  .  .  .  .  .  .  .  .  .  .  .  .  .  .  .  .  .  .  .  .  .  .  .  .  .  .  .  .  .  .  .  .  .  .  .  .  .  .  .  .  .  .  .  .  .  .  .  .  .  .  .  .  .  .  .  .  .  .  .  .  .  .  .  .  .  .  .  .  .  .  .  .  .  .  .  .  .  .  .  .  .  .  .  .  .  .  .  .  .  .  .  .  .  .  .  .  .  .  .  .  .  .  .  .  .  .  .  .  .  .  .  .  .  .  .  .  .  .  .  .  .  .  .  .  .  .  .  .  .  .  .  .  .  .  .  .  .  .  .  .  ",
"               .  .  .  .  .  .  .  .  .  .  .  .  .  .  .  .  .  .  .  .  .  .  .  .  .  .  .  .  .  .  .  .  .  .  .  .  .  .  .  .  .  .  .  .  .  .  .  .  .  .  .  .  .  .  .  .  .  .  .  .  .  .  .  .  .  .  .  .  .  .  .  .  .  .  .  .  .  .  .  .  .  .  .  .  .  .  .  .  .  .  .  .  .  .  .  .  .  .  .  .  .  .  .  .  .  .  .  .  .  .  .  .  .  .  .  .  .  .  .  .  .  .  .  .  .  .  .  .  .  .  .  .  .  .  .  .  .  .  .  .  .  .  .  .  .  .  .  .  .  .  .  .  .  .  .  .  .  .  .  .  .  .  .  .  .  .  .  .  .  .  .  .  .  .  .  .  .  .  .  .  .  .  .  .  .  .  .  .  .  .  .  .  .  .  .  .  .  .  .  .  .  .  .  .  .  .  .  .  .  .  .  .  .  .  .  .  .  .  .  .  .  .  .  ",
"                  .  .  .  .  .  .  .  .  .  .  .  .  .  .  .  .  .  .  .  .  .  .  .  .  .  .  .  .  .  .  .  .  .  .  .  .  .  .  .  .  .  .  .  .  .  .  .  .  .  .  .  .  .  .  .  .  .  .  .  .  .  .  .  .  .  .  .  .  .  .  .  .  .  .  .  .  .  .  .  .  .  .  .  .  .  .  .  .  .  .  .  .  .  .  .  .  .  .  .  .  .  .  .  .  .  .  .  .  .  .  .  .  .  .  .  .  .  .  .  .  .  .  .  .  .  .  .  .  .  .  .  .  .  .  .  .  .  .  .  .  .  .  .  .  .  .  .  .  .  .  .  .  .  .  .  .  .  .  .  .  .  .  .  .  .  .  .  .  .  .  .  .  .  .  .  .  .  .  .  .  .  .  .  .  .  .  .  .  .  .  .  .  .  .  .  .  .  .  .  .  .  .  .  .  .  .  .  .  .  .  .  .  .  .  .  .  .  .  .  .  .  .  ",
"                     .  .  .  .  .  .  .  .  .  .  .  .  .  .  .  .  .  .  .  .  .  .  .  .  .  .  .  .  .  .  .  .  .  .  .  .  .  .  .  .  .  .  .  .  .  .  .  .  .  .  .  .  .  .  .  .  .  .  .  .  .  .  .  .  .  .  .  .  .  .  .  .  .  .  .  .  .  .  .  .  .  .  .  .  .  .  .  .  .  .  .  .  .  .  .  .  .  .  .  .  .  .  .  .  .  .  .  .  .  .  .  .  .  .  .  .  .  .  .  .  .  .  .  .  .  .  .  .  .  .  .  .  .  .  .  .  .  .  .  .  .  .  .  .  .  .  .  .  .  .  .  .  .  .  .  .  .  .  .  .  .  .  .  .  .  .  .  .  .  .  .  .  .  .  .  .  .  .  .  .  .  .  .  .  .  .  .  .  .  .  .  .  .  .  .  .  .  .  .  .  .  .  .  .  .  .  .  .  .  .  .  .  .  .  .  .  .  .  .  .  .  ",
"                        .  .  .  .  .  .  .  .  .  .  .  .  .  .  .  .  .  .  .  .  .  .  .  .  .  .  .  .  .  .  .  .  .  .  .  .  .  .  .  .  .  .  .  .  .  .  .  .  .  .  .  .  .  .  .  .  .  .  .  .  .  .  .  .  .  .  .  .  .  .  .  .  .  .  .  .  .  .  .  .  .  .  .  .  .  .  .  .  .  .  .  .  .  .  .  .  .  .  .  .  .  .  .  .  .  .  .  .  .  .  .  .  .  .  .  .  .  .  .  .  .  .  .  .  .  .  .  .  .  .  .  .  .  .  .  .  .  .  .  .  .  .  .  .  .  .  .  .  .  .  .  .  .  .  .  .  .  .  .  .  .  .  .  .  .  .  .  .  .  .  .  .  .  .  .  .  .  .  .  .  .  .  .  .  .  .  .  .  .  .  .  .  .  .  .  .  .  .  .  .  .  .  .  .  .  .  .  .  .  .  .  .  .  .  .  .  .  .  .  .  ",
"                           .  .  .  .  .  .  .  .  .  .  .  .  .  .  .  .  .  .  .  .  .  .  .  .  .  .  .  .  .  .  .  .  .  .  .  .  .  .  .  .  .  .  .  .  .  .  .  .  .  .  .  .  .  .  .  .  .  .  .  .  .  .  .  .  .  .  .  .  .  .  .  .  .  .  .  .  .  .  .  .  .  .  .  .  .  .  .  .  .  .  .  .  .  .  .  .  .  .  .  .  .  .  .  .  .  .  .  .  .  .  .  .  .  .  .  .  .  .  .  .  .  .  .  .  .  .  .  .  .  .  .  .  .  .  .  .  .  .  .  .  .  .  .  .  .  .  .  .  .  .  .  .  .  .  .  .  .  .  .  .  .  .  .  .  .  .  .  .  .  .  .  .  .  .  .  .  .  .  .  .  .  .  .  .  .  .  .  .  .  .  .  .  .  .  .  .  .  .  .  .  .  .  .  .  .  .  .  .  .  .  .  .  .  .  .  .  .  .     "};
