/* XPM */
static char *start_button[] = {
/* columns rows colors chars-per-pixel */
"200 60 12 1 ",
"  c #000000",
". c #381359",
"X c #3D1861",
"o c #431D6A",
"O c #4B2376",
"+ c #703EAD",
"@ c #572B89",
"# c #7442AF",
"$ c #8F69BE",
"% c #FCFBFD",
"& c #D8CBE8",
"* c #BBA4D7",
/* pixels */
"            ..............................................................................................................................................................................X.            ",
"       ....X................................................................................................................................................................................X...        ",
"     ...........................................................................................................................................................................................X..     ",
"   ...........oooooooooooooooooooooooooooooooooooooooooooooooooooooooooooooooooooooooooooooooooooooooooooooooooooooooooooooooooooooooooooooooooooooooooooooooooooooooooooooooooooooooooooo........X..   ",
"  .X.......o@+######+#+#######################++######################+###########################################+###########################+#######################++###########+#####++@O.......X.  ",
".........O+###+++++++++++++++++++++++++++++++++++++++++++++++++++++++++++++++++++++++++++++++++++++++++++++++++++++++++++++++++++++++++++++++++++++++++++++++++++++++++++++++++++++++++++++##+O........ ",
".......O+#++++++++++++++++++++++++++++++++++++++++++++++++++++++++++++++++++++++++++++++++++++++++++++++++++++++++++++++++++++++++++++++++++++++++++++++++++++++++++++++++++++++++++++++++++++#@........",
"......O#+++++++++++++++++++++++++++++++++++++++++++++++++++++++++++++++++++++++++++++++++++++++++++++++++++++++++++++++++++++++++++++++++++++++++++++++++++++++++++++++++++++++++++++++++++++++++X......",
".....o++++++++++++++++++++++++++++++++++++++++++++++++++++++++++++++++++++++++++++++++++++++++++++++++++++++++++++++++++++++++++++++++++++++++++++++++++++++++++++++++++++++++++++++++++++++++++#@......",
".....@#+++++++++++++++++++++++++++++++++++++++++++++++++++++++++++++++++++++++++++++++++++++++++++++++++++++++++++++++++++++++++++++++++++++++++++++++++++++++++++++++++++++++++++++++++++++++++++......",
".....@#+++++++++++++++++++++++++++++++++++++++++++++++++++++++++++++++++++++++++++++++++++++++++++++++++++++++++++++++++++++++++++++++++++++++++++++++++++++++++++++++++++++++++++++++++++++++++++......",
".....@#+++++++++++++++++++++++++++++++++++++++++++++++++++++++++++++++++++++++++++++++++++++++++++++++++++++++++++++++++++++++++++++++++++++++++++++++++++++++++++++++++++++++++++++++++++++++++++......",
".....@#+++++++++++++++++++++++++++++++++++++++++++++++++++++++++++++++++++++++++++++++++++++++++++++++++++++++++++++++++++++++++++++++++++++++++++++++++++++++++++++++++++++++++++++++++++++++++++......",
".....@#+++++++++++++++++++++++++++++++++++++++++++++++++++++++++++++++++++++++++++++++++++++++++++++++++++++++++++++++++++++++++++++++++++++++++++++++++++++++++++++++++++++++++++++++++++++++++++......",
".....@#+++++++++++++++++++++++++++++++++++++++++++++++++++++++++++++++++++++++++++++++++++++++++++++++++++++++++++++++++++++++++++++++++++++++++++++++++++++++++++++++++++++++++++++++++++++++++++......",
".....@#+++++++++++++++++++++++++++++++++++++++++++++++++++++++++++++++++++++++++++++++++++++++++++++++++++++++++++++++++++++++++++++++++++++++++++++++++++++++++++++++++++++++++++++++++++++++++++......",
".....@#+++++++++++++++++++++++++++++++++++++++++++++++++++++++++++++++++++++++++++++++++++++++++++++++++++++++++++++++++++++++++++++++++++++++++++++++++++++++++++++++++++++++++++++++++++++++++++......",
".....@#+++++++++++++++++++++++++++++++++++#+++++++++++++++++++++++++++++++++++++++++++++++++++++++++++++++++++++++++++++++++++++++++++++++++++++++++++++++++++++++++++++++++++++++++++++++++++++++......",
".....@#++++++++++++++++++++++++++++###++++++++###+++++++++######################+#++++++++++########++++++++++++++++####+##############+++++++++++#####+++#############+#+++++++++++++++++++++++++......",
".....@#+++++++++++++++++++++++++##+++++#####++++++#+++++++++++++++++++++++++++++++++++++++++++++++++++++++++++++++++++++++++++++++++++++##++++++++++++++++++++++++++++++++++++++++++++++++++++++++......",
".....@#++++++++++++++++++++++++#++#$*&%%%%%%&&&*$++++++++*&&&&&&&&&&&&&&&&&&&&&&&&#++++++#+#&&&&&&&*++++++++++++++#+*&&&&&&&&&&&&&***$$#+++#++++#&&&&&&&&&&&&&&&&&&&&&&&&*++++++++++++++++++++++++......",
".....@#+++++++++++++++++++++++#+#*%%%%%%%%%%%%%%%&$++#+++%%%%%%%%%%%%%%%%%%%%%%%%%#+#++++#+&%%%%%%%%*+#+++++++++++#+&%%%%%%%%%%%%%%%%%%%&$++#+#+$%%%%%%%%%%%%%%%%%%%%%%%%&+#++++++++++++++++++++++......",
".....@#++++++++++++++++++++++#+$%%%%%%%%%%%%%%%%%%%&#++++&%%%%%%%%%%%%%%%%%%%%%%%%#+#+++#+$%%%%%%%%%%#+#++++++++++#+&%%%%%%%%%%%%%%%%%%%%%%$++++$%%%%%%%%%%%%%%%%%%%%%%%%&+#++++++++++++++++++++++......",
".....@#+++++++++++++++++++++#+*%%%%%%%&**$***%%%%%%%%#+++&%%%%%%%%%%%%%%%%%%%%%%%%#+#++#++%%%%%%%%%%%&+#++++++++++#+&%%%%%%%&&&&&&&%%%%%%%%%*+#+$%%%%%%%%%%%%%%%%%%%%%%%%&+#++++++++++++++++++++++......",
".....@#++++++++++++++++++++#+#%%%%%%&$+++++++#*%%%%%%*+#+#########&%%%%%%*#########++++#+*%%%%%%%%%%%%$+#+++++++++#+&%%%%%%*+++++++##*%%%%%%%$++#########$%%%%%%%#########+#++++++++++++++++++++++......",
".....@#++++++++++++++++++++#+$%%%%%%$@####+##++*%%%%%&++++++++++++&%%%%%%$++++++++++++#+#%%%%%%&&%%%%%&+++++++++++#+&%%%%%%*+###++++++$%%%%%%&+#+++++++++$%%%%%%&+++++++++#+++++++++++++++++++++++......",
".....@#++++++++++++++++++++++#%%%%%%&#+++++####+######+++########+&%%%%%%$+#+##+++++++#+&%%%%%%$$%%%%%%*+#++++++++#+&%%%%%%*+###++++##+&%%%%%%#+++++####+$%%%%%%&+++#+++####++++++++++++++++++++++......",
".....@#+++++++++++++++++++++#+*%%%%%%%*$#++++++++#++++++++++++###+&%%%%%%$+#+++++++++#+$%%%%%%&++&%%%%%%#+++++++++#+&%%%%%%*+#######++$%%%%%%&+#++++####+$%%%%%%&+++++++####++++++++++++++++++++++......",
".....@#++++++++++++++++++++++++*%%%%%%%%%&&**$$#++++#+++++++++++#+&%%%%%%$+###++#++++++&%%%%%%#++$%%%%%%&+#+++++++#+&%%%%%%*@+++++++#$%%%%%%%$+#++++####+$%%%%%%&+##++++++++++++++++++++++++++++++......",
".....@#++++++++++++++++++++++#++$&%%%%%%%%%%%%%%&*$#++++++++++++#+&%%%%%%$+###++++++#+*%%%%%%*+##+*%%%%%%$+#++++++#+&%%%%%%%&&&&&&&&%%%%%%%%*+#+++++##+#+$%%%%%%%+##++++++++++++++++++++++++++++++......",
".....@#++++++++++++++++++++++++#++$$*&%%%%%%%%%%%%%%*+++++++++++#+&%%%%%%$+##++++++#+#%%%%%%%#+##+#%%%%%%%#+++++++#+&%%%%%%%%%%%%%%%%%%%%%&$+#+++++++++#+$%%%%%%%++#++++++++++++++++++++++++++++++......",
".....@#+++++++++++++++++++++++####++++#$$$*&&%%%%%%%%&++++++++++#+&%%%%%%$+###+++++#+&%%%%%%$@++++@*%%%%%%*+#+++++#+&%%%%%%%%%%%%%%%%%%%&$++#++++++++++#+$%%%%%%&++#++++++++++++++++++++++++++++++......",
".....@#+++++++++++++++++++++++++++++#++++++++#$&%%%%%%&+#+++++++#+&%%%%%%$+#++++++#+$%%%%%%%&&&&&&*&%%%%%%%#+#++++#+&%%%%%%%&&&&%%%%%%%$@++#+++++++++++#+$%%%%%%&+++++++++++++++++++++++++++++++++......",
".....@#++++++++++++++++++++#+#$$$$$$+#+++##+++++*%%%%%%$++++++++#+&%%%%%%$+#++++++++%%%%%%%%%%%%%%%%%%%%%%%&+#++++#+&%%%%%%*@+++$%%%%%%%$+#++++++++++++#+$%%%%%%&+++++++++++++++++++++++++++++++++......",
".....@#++++++++++++++++++++#+*%%%%%%#+###++####@*%%%%%%$++++++++#+&%%%%%%$+#+++++#+*%%%%%%%%%%%%%%%%%%%%%%%%$+#+++#+&%%%%%%*+###+$%%%%%%%$+#+++++++++++#+$%%%%%%&+++++++++++++++++++++++++++++++++......",
".....@#++++++++++++++++++++#+$%%%%%%&$+++++++++*%%%%%%%#++++++++#+&%%%%%%$+#++++#+#%%%%%%%%&&&&&&&&&&%%%%%%%%#++++#+&%%%%%%*+#++#+$%%%%%%%*++++++++++++#+$%%%%%%&+++++++++++++++++++++++++++++++++......",
".....@#+++++++++++++++++++++#+*%%%%%%%&*$$$$*&%%%%%%%%$+#+++++++#+&%%%%%%$+#++++#+&%%%%%%*+#++++++++++&%%%%%%*+#++#+&%%%%%%*+#+++#+#%%%%%%%*++#++++++++#+$%%%%%%%+##++++++++++++++++++++++++++++++......",
".....@#++++++++++++++++++++++++*%%%%%%%%%%%%%%%%%%%%&$+#++++++++#+&%%%%%%$+#+++#+$%%%%%%%#+#++++++++#+$%%%%%%%#+++#+&%%%%%%*+#++++#+#&%%%%%%&++#+++++++#+$%%%%%%&+##++++++++++++++++++++++++++++++......",
".....@#+++++++++++++++++++++++#+$&%%%%%%%%%%%%%%%%&*++#+++++++++#+&%%%%%%$+#+++++%%%%%%%*+#++++++++++#+&%%%%%%&+++#+&%%%%%%*+#+++++#+#&%%%%%%%$+#++++++#+$%%%%%%%+##++++++++++++++++++++++++++++++......",
".....@#++++++++++++++++++++++++#++#$*&%%%%%%%%%&*$+++#++++++++++++*******$+#++#+$*******#+#++++++++++++$*******#++++*******$++++++++#+#********++++++++#+#*******+##++++++++++++++++++++++++++++++......",
".....@#++++++++++++++++++++++++++#++++###$$$###++++#++++++++++++++++++++++#++++#+++++++++#++++++++++++#++++++++++++++++++++++++++++++#+++++++++#++++++++#+++++++++++++++++++++++++++++++++++++++++......",
".....@#++++++++++++++++++++++++++++##++++++++++###++++++++++++++++########+++++++#+######++++++++++++++########+++++########+++++++++++########++++++++++########+++++++++++++++++++++++++++++++++......",
".....@#++++++++++++++++++++++++++++++++#####++++++++++++++++++++++++++++++++++++++++++++++++++++++++++++++++++++++++++++++++++++++++++++++++++++++++++++++++++++++++++++++++++++++++++++++++++++++......",
".....@#+++++++++++++++++++++++++++++++++####++++++++++++++++++++++++++++++++++++++++++++++++++++++++++++++++++++++++++++++++++++++++++++++++++++++++++++++++++++++++++++++++++++++++++++++++++++++......",
".....@#+++++++++++++++++++++++++++++++++++++++++++++++++++++++++++++++++++++++++++++++++++++++++++++++++++++++++++++++++++++++++++++++++++++++++++++++++++++++++++++++++++++++++++++++++++++++++++......",
".....@#+++++++++++++++++++++++++++++++++++++++++++++++++++++++++++++++++++++++++++++++++++++++++++++++++++++++++++++++++++++++++++++++++++++++++++++++++++++++++++++++++++++++++++++++++++++++++++......",
".....@#+++++++++++++++++++++++++++++++++++++++++++++++++++++++++++++++++++++++++++++++++++++++++++++++++++++++++++++++++++++++++++++++++++++++++++++++++++++++++++++++++++++++++++++++++++++++++++......",
".....@#+++++++++++++++++++++++++++++++++++++++++++++++++++++++++++++++++++++++++++++++++++++++++++++++++++++++++++++++++++++++++++++++++++++++++++++++++++++++++++++++++++++++++++++++++++++++++++......",
".....@#+++++++++++++++++++++++++++++++++++++++++++++++++++++++++++++++++++++++++++++++++++++++++++++++++++++++++++++++++++++++++++++++++++++++++++++++++++++++++++++++++++++++++++++++++++++++++++......",
".....@#+++++++++++++++++++++++++++++++++++++++++++++++++++++++++++++++++++++++++++++++++++++++++++++++++++++++++++++++++++++++++++++++++++++++++++++++++++++++++++++++++++++++++++++++++++++++++++......",
".....@#+++++++++++++++++++++++++++++++++++++++++++++++++++++++++++++++++++++++++++++++++++++++++++++++++++++++++++++++++++++++++++++++++++++++++++++++++++++++++++++++++++++++++++++++++++++++++++......",
".....X++++++++++++++++++++++++++++++++++++++++++++++++++++++++++++++++++++++++++++++++++++++++++++++++++++++++++++++++++++++++++++++++++++++++++++++++++++++++++++++++++++++++++++++++++++++++++#@......",
"......o+#++++++++++++++++++++++++++++++++++++++++++++++++++++++++++++++++++++++++++++++++++++++++++++++++++++++++++++++++++++++++++++++++++++++++++++++++++++++++++++++++++++++++++++++++++++++#@.......",
".......X@##++++++++++++++++++++++++++++++++++++++++++++++++++++++++++++++++++++++++++++++++++++++++++++++++++++++++++++++++++++++++++++++++++++++++++++++++++++++++++++++++++++++++++++++++++#+O......X.",
" ........O@###++++++++++++++++++++++++++++++++++++++++++++++++++++++++++++++++++++++++++++++++++++++++++++++++++++++++++++++++++++++++++++++++++++++++++++++++++++++++++++++++++++++++++++##+@.......X. ",
"  .X.......o@@++++++++++++++++++++++++++++++++++++++++++++++++++++++++++++++++++++++++++++++++++++++++++++++++++++++++++++++++++++++++++++++++++++++++++++++++++++++++++++++++++++++++++++@@........X.  ",
"   ...........XXXXXXXXXXXXXXXXXXXXXXXXXXXXXXXXXXXXXXXXXXXXXXXXXXXXXXXXXXXXXXXXXXXXXXXXXXXXXXXXXXXXXXXXXXXXXXXXXXXXXXXXXXXXXXXXXXXXXXXXXXXXXXXXXXXXXXXXXXXXXXXXXXXXXXXXXXXXXXXXXXXXXXXXXXXX........X.    ",
"     ...........................................................................................................................................................................................X..     ",
"       ...XX................................................................................................................................................................................X...        ",
"            ................................................................................................................................................................................            "
};
