/* XPM */
static char *title[] = {
/* columns rows colors chars-per-pixel */
"400 100 16 1 ",
"  c #000000",
". c #1E2223",
"X c #26292B",
"o c #1C1F20",
"O c #4F5050",
"+ c #707171",
"@ c #5F6060",
"# c #3F4041",
"$ c #8F8F8F",
"% c #B0B0B0",
"& c #9FA0A0",
"* c #CFCFCF",
"= c #F4F4F4",
"- c #DFDFE0",
"; c #C0BFC0",
": c #7F8080",
/* pixels */
"                                                                                                                                                                                                                                                                                                                                                                                                                ",
"                                                                                                                                                                                                                                                                                                                                                                                                                ",
"                                      oo.XXXOOOOOOOO                    XOXXXXXX.o         o.X.         oOXXXXXXXXX...ooo                         XOOOOOOXXXXXXXXXXXXXXXXXXXXXXXX..o     OXXXXXXXXXXXX...oooooooooo..XXXX                                                                                   .......ooooo                                                                                        ",
"                             %********---===========O                  +========--********----=%        &=========---------******************&   o===============================-=-.   O============-----------------===X                       X%********************%X             $-**************O    .=-------------****************-@                        +***%%&&&&$$$$$$$$$$$$@                     ",
"                            ;=======================-                 $=========================$       %====================================*   X==================================X   O================================-                      X=======================-o            %===============+    X-===============================+                      $=======================+                    ",
"                           %=========================$               %===========================@      *====================================%   @==================================X   O=================================*                    X=========================*o           &===============$   o.*================================+                    &=========================+                   ",
"                          &===========================X            X-=============================X    o-====================================%   +==================================X   O==================================%                  .-==========================*o          $===============&   . %=================================+                  &===========================$                  ",
"                         +============================$           O===============================*    o=====================================%   +=================================-.   @===================================&                .-============================*          +===============&   . %==================================+                %=============================&                 ",
"                        O=============================+o         +=================================&   .=====================================&   :=================================-o   @====================================$              o-==============================*        o+===============%   X %===================================+              %===============================&                ",
"                       .==============================$.o       &===================================O  O=====================================$ o $=================================-o   +=====================================$             -================================*      oo+===============;  oX %====================================+            %=================================&               ",
"                       *==============================&oX     X-====================================-. +=====================================+ o $=================================-    +======================================+           *==================================*     .o+===============*  oX %=====================================@          %===================================&              ",
"                      O===============================% X.    %======================================+ $=====================================@ o $=================================-    +=======================================+         *====================================*    .o@===============*  oX &======================================O        %=====================================&             ",
"                      &===============================% XX   o-======================================+ $=====================================O . $=================================-    +========================================+       %======================================*   . @===============*  oX $=======================================X      &=======================================$            ",
"                      *===============================% XX.  o=======================================+ &=====================================Ooo &=================================*    +=========================================@     %========================================$  . @===============-o o. $========================================X     -========================================.           ",
"                     X================================% X.Xo X=======================================@ %=====================================Ooo &=================================*    +=========================================$    &=========================================&  . O================X o. +=========================================.  oo%========================================X           ",
"                     @================================% X... O=======================================O *=====================================Ooo &=================================*    +=========================================+   .==========================================&  . @================X o. @=========================================@ oX %========================================O           ",
"                     &================================% XX.X +=======================================O -=====================================Xo  %=================================*o   +=========================================$   o-=========================================&  . @================X o. @=========================================+ .X &========================================+           ",
"                     *================================% X..X +=======================================Xo-====================================-X.  *=================================*    +=========================================+   o-=========================================&  .oO================O o. O=========================================& .X &========================================$           ",
"                    X=================================% XX.X $======================================-oX=====================================-..  *=================================*    +=========================================+   .-=========================================&  .oO================O o. O=========================================% .X $========================================&           ",
"                    @=================================% X..X %===============*++++++++&=============-o.+&%**-----====================-----==*o.  -===============---*%%&&&&&&&&%%%*$o   +===============-*%%%%%%**================+   .-==============%+++++++++@%===============&  .oO================@ o. O================----------===============* ..o@================-O.ooo...oO-============*           ",
"                    &===============-&================% X... *===============$         -============-o.   oooooo @===============$XXXX..XXXX.o.  -==============+ oooooo    ooooooo..   +==============-. oo  o o &===============+   .-==============$      ooo o-==============&  ooO================+ o. O===============OXX...oooo X==============-.o.o#================-oo......X +============-           ",
"                    *===============%@================% X... -===============+oXXXXXXX.*============*o.XXXXXXXXX @===============@ XXXXXXXX.X..  -==============@ XXXXXXXXXXXXXXXXXXX   +==============-XXXXXXXXX &===============+   .-==============&oXXXXXXXXXo*==============&  ooO================$ o.oO===============XoXXXXXXXXXo*==============Xo.oX=================#o.....XX.O=============X          ",
"                   .================$O================% X... -===============+oX.....o.=============& X....XXXXX @===============@oXXXXXXXXXX.. o-==============@ X..XXXXXXXXXXXXXXX.   +==============-X.......X &===============+   .-==============& X...XXXXXo*==============%  ooO================& o.o#===============OoXXXXXXXXX %==============X .oX-================OoX....XX.X=============O          ",
"                   @================OO================& X..oX-===============@oX.....oX=============$ X.....XXXX @===============@oXXXXXXXXXX.. X===============@ X...XXXXXXXXXXXXXX.   +==============-X.......X &===============+   .-==============% X..XXXXXXo*==============%  ooX================& o..X-==============+ XXXXXXXXX %==============O .X *================O X.....X.X=============@          ",
"                   $================oO================& X.. O================OoXX...XoX=============$ X......X.X +===============OoXXXXXXXXXX.. X===============@ X...XXXXXXXXXXXXXX.   +==============-X.......X &===============+   X-==============* X...XXXXXo*==============*  o.X================& o..o*==============+ XXXXXXXXX %==============+ .X %================+ X..XXXXXX-============+          ",
"                   *===============* O================& X.. O================OoX....X @=============$ X.......XX $===============O.XXXXXXXXXX.. O===============OoX...XXXXXXXXXXXXXX.   +==============-.o......X &===============+   .-==============*o........Xo*==============*  o.X================& o.. *==============+ X...XXXXX $==============& .X %================$ XXXXXXXXo*============%          ",
"                  .================$ O================& X.. @================O.XXX..X +=============+ X........X &===============OoX.XXXXXXXXX. O===============Oo.......XXXXXXXXXXX.   $==============-.o......X &===============+   .-==============* ........Xo;==============-  o.X-===============& o.X *==============$ X.....XXXo+==============& .. &================& X.XXXXXX %============*          ",
"                  O================O O================$ X.. +================#.XXXXXX :=============@oX........X %===============X.X..XXXXXXXX. @===============Oo...........XXXXXXX.   $==============-.o......X &===============+   .-==============* ........X %==============-o o.X-===============% o.Xo%==============& X.......Xo@==============% .. +================& XXXXXXXX %============*          ",
"                  &===============*ooO================$ X.. &===============-XXXXXXXX &=============Oo.........X %===============X.X......XXXX. @===============Oo............XX...X.   &==============-.o.....oX &===============+   X===============* ........X %===============o o.X-===============% o.. &==============% X......XXoO==============-oo. @================% X.XXXXXXo&============-.         ",
"                  *===============$ oO================$ X.. %===============*oXXXXXXXo+*%%%*********X..........X %===============.............. @===============Xo...................   &==============-.oooo..oX &===============+   X-==============* ........X %===============o o..-===============%  .. $==============* ......XXXoO===============oo. @================*oX.XXXXXXo@=============X         ",
"                 X================O.oO================+ X.. ;===============* XXXXXXXX.oo   o oooooo...........X %===============o.......X.XX.. @===============Xo..........X...XX.XX   &==============-........X &===============+   X-==============- ........X %===============o  .o-===============;  .X +==============* ........XoO===============Xo. O=================X.XXXXXXXXXO@+++$$&$&&$&.         ",
"                 @===============*oX O================+ ... *================@ oXXXXXXXXXXXXXXXXXXXXX...o      o *==============-o..o           @==============-X.o                     %==============*        o &===============+   .-==============-         . %===============X o.o-===============*  .X +==============-      o..X.X===============O .oX=================XoXXXXXXXXXo   ooo  o o           ",
"                 &===============& X O================+ X.oX-=================%O .XXXXXXXXXXXXXXXXXXX...o        *==============-o..            +==============-..                      %==============*          &===============$   .-==============-         . %===============X o.o-===============*  .X +==============-.     oX.X.X-==============+ .oX-================+ XXXXXXXXXXXXXXXXXXXXX           ",
"                 *===============OoX O================+ ..oX====================%OoXXXXXXXXX..XXXXXXXX..o       o-==============-o..            +==============-oX                      %==============*          %===============$   o-==============-o        . &===============O o. -===============*  .X +===============X     o..XXo-==============+ ..o-=================$ oXXXXXXXXXXXXXXXXXX            ",
"                X===============-XXXoO================@ X.oX======================&XXXXXXXXXX.XXXXXXXX..        X===============*o..            $==============-                        *==============*          %===============$   o-==============-.        . &===============O o. *===============*  .. @===============X      X..X *==============$ ..o-==================*O XXXXXXXXXXXXXXXX.            ",
"                +===============% XXoO================@ X. O=======================&oXXXXXXXX...XXXXXX..        X===============*o..            &===============*%%%%%%%%%%%%%%%*&      *==============*          ;===============$    -===============X        . &===============@ o. *===============-o ..oO===============O      X..X *==============% ..o*====================$ooXXXXXXXXXXXXXX             ",
"                &===============+oXX O================O X. @========================OoXXXX.......XXXXX..        X===============% X.            &================================*      *==============*          -===============$    *===============X        . $===============+ oX *===============-o ..oO===============O      ...X *==============* .X &=====================*O XXXXXXXXXXXXo             ",
"                -===============X.XX O================O X. +========================-O XXX.........XXX..        X===============% X.            %================================*      -==============-$$++$$$&&%================$    *===============O        . +===============+ oX %================. ..oX===============O      ...Xo%==============* .X $=======================$ooXXXXXXXXX.              ",
"               X===============*oXXX O================O .. +==========================+ XXX...........X.        O===============& X.            %================================*      -=========================================$    *===============O        .o+===============+ oX %================o ...X===============@      ...X &==============-.o..X-=======================*O .XXXXXX.               ",
"               +===============& XXX O================O ..o.&==========================%X X.............        +===============$ X.            *================================*      -=========================================$    *===============O        .o@===============+ oX &================. ....===============$      ...X &===============Xo.X..&========================&X XXX..                ",
"               %===============@oXXX O================O ..oo @===========================O .X......XXXX.        $===============$ X.            *================================;      -=======================================-=$    *===============O        oo@===============+ oX &================X ....-==============&      ...X +===============O XXXX @=========================+  XX                 ",
"              o-===============X.XXX O================O ..o.XoX*==========================$                     &===============$ Xo            *================================%      -=========================================O    *===============O        ooO===============$ oX $================X ...o-==============&      o..X +===============O XXXXXoX*========================*O                   ",
"              O===============-oXXXX O================Oo..ooXXXo&==========================*X                   &===============: Xo            *================================%      -=======================================*X     *===============O        ooO===============& oX $================O o...-==============%      o..X +===============@ XXXXXX.o$=========================%X                 ",
"              $===============&oXXXX O================Oo..ooXXXXo+===========================@                  &===============+ Xo            *================================%      -======================================%oo.    *===============@        ooO===============& oX +================@ o..o*==============%      o..XoO===============$ XXXXXXXX O-=========================+                ",
"              *===============+oXXXX O================Oo...oXXXXXoX-==========================$                 %===============@oXo            *================================%      -=====================================$ .Xo    *===============@        ooO===============%  X +================+ o.. %==============%      o..XoO===============& X.XXXXXXXoo&=========================*O              ",
"             o================XXXXXX O================Oo...oXXXXXXXX%==========================&                *===============OoXo            *================================%      -===================================-O X..o    *===============+        ooO===============%  X +================+ o.X &==============*      o....X===============% X.XXXXXXXXX O-=========================&             ",
"             O===============*.XXXXX O================Oo...o.XXXXXXXo$==========================*.              -===============Oo.o           o-================================%      -==================================*. XX..o    *===============$        ooO===============*  X +================+ o.X &==============*o     o.....===============% X..XXXXXXXXXo.%=========================-O           ",
"             $===============&oXXXXX O================Xo...ooXXXXXXXXo@===========================$             ================XoX            .-================================%      -===================================-@ ...o    *===============&        o.X===============*  . +================$ ..X $==============-.      .....===============*o....XXXXXXXXXX @==========================%o         ",
"             *===============O.XXXXX O================Xo...o XXXXXXXXX.O===========================@           o================XoXo           X=================================%      -=====================================&ooXo    *===============&        o.X===============*  X @================$ o.. $===============X      ...X.-==============-.o....XXXXXXXXXXoX%=========================-O        ",
"            X===============-XXXXXXX O================X....o .XXXXXXXXX.X*=========================Oo          o================Xo.            X=================================%      -======================================-X .    *===============%        o.X-==============*  XoO================$ o.. $===============X      ...Xo*===============Xo....XX.XXXXXXXXX +==========================&       ",
"            @===============&oXXXXXX O===============-X....o  XXXXXXXXXXX.*========================O..         X================X..            X=================================&     o-========================================O     %===============%        oXX-==============*  XoO================& o.X $===============X      ...X %===============X o.....XXXXXXXXXXXoX%=========================*.     ",
"            %===============@oXXXXXX O===============-X....o   .XXXXXXXXXXo%=======================O.X         O===============-X..            X================OXXXXXXXXXXXXXXXXXo    o-=========================================O    %===============%        oX.-==============*  .oO================& o.X +===============X      ...X &===============X  o.....XXXXXXXXXXXXo+=========================&     ",
"            -===============XXXXXXXX O===============-X....     XXXXXXXXXXXo$======================X.X.        @===============-X..            X===============- ooooo......oo...Xo    .-=========================================$    %===============%         Xo*==============-  .o#================% oXX @===============O      ...X &===============O    ......XXXXXXXXXXXoX%=======================%     ",
"           O===============& XXXXXXX O===============-.....      .XXXXXXXXXXoO====================-XXX.        +===============*...            O===============*oXXXXXXXXXXXXXXXXXo    .-=========================================+    %===============%         X *==============-o .oX================*  .XoO===============@      ...X $===============@     o......XXXXXXXXXXX +======================*     ",
"           $===============@oXXXXXXX O===============-o....       .XXXXXXXXXXoX*==================-.XX.        +===============*oX.            @===============%oX.XXXXXXXXXXXXXXXo    .==========================================$    &===============%         X *==============-. .oX================*  ..o#===============+      ...X +===============+      o......XXXXXXXXXXXoX%====================-     ",
"           *===============#XXXXXXXX O===============-o....        .XXXXXXXXXXXo&=================* XX.        +===============% X.            +===============& X..XXXX..X...XX.Xo    X================*********-================$    &===============*         X *===============X .oX================-  ..oX===============$      ...X @===============$        .....XXXXXXXXXXXXX +===================-o    ",
"          X===============-o oooo    X===============-o....o        .XXXXXXXXXXX @*===============* XX.        $===============% X.            $===============& X....XX..XXXXXX.Xo    X===============-X oooooooX================$    &===============*         X *===============X .o.================-  ..oX===============$      o..XoO===============$         o.......XXXXXXXXXX O-==================X    ",
"          :================$+$$$$$$:+&===============* ...              .XXXXXXXX O===============% XX.        &===============% X.            &===============$ X........XXXXXX.Xo    X===============-X.XXXXXX..================$    &===============-         X %===============X .o.================-  ..oX===============$      o..XoX===============$          o.X..XXXXXXXXXXXXXo.%=================O    ",
"          *==========================================* .X O%&&&&&&&&&&&&#.XXXXXXXo&===============& XX.        &===============% X.            &===============$ X........X......Xo    X===============-X.........================$    $===============-o        X %===============O .o.================-  o..X===============&      o..XoX===============&                o.XXXXXXXXXXXX *================O    ",
"         X===========================================* .X %=============@oXXXXXXXo*===============& X..        %===============% X.            &===============$ X...............Xo    X===============-X.........================$    $===============-.        X &===============O .o.================-  ...X-==============%      o....X===============%    +++@OOOOOOOOOo XXXXXXXXXXXo+================@    ",
"         +===========================================* .Xo*=============OoXXXXXXXX================$ XX.        *===============& X.            &===============+ X..........XXXXXX.    X===============-.o........================$    +================.        X &===============O .o.-===============-o ...X-==============%      o...X.-==============*   .-============*+o XXXXXXXXXXX================$    ",
"         %===========================================* .. -=============X..X.XXX.X================+ XXo        *===============$ Xo            %===============+ .                     X===============-.o........================$    +================X        X $===============O .o.-===============-. ....*==============*       ..XXo*==============-  .o*==============-@oXXXXXXXXXo*===============&    ",
"        .============================================* ..X-=============X....XXXoO================+ XXo        *===============+ Xo            %===============+ .                     X===============-.o......o.================$    +================X        X +===============@ .o.-================X o.Xo*==============-       ..XX %==============- oX *===============* X.XXXXXXXo&===============%    ",
"        @============================================* XoO==============X......Xo+================+oXXo        *===============@ Xo            %===============@oo                     X===============-oo......o.================$    +================X        X +===============+ ...-================X ..X %===============       ..XXo&===============Xo. *===============*oXXXXXXXXX +===============%    ",
"        &============================================% . O=============-X......X :================@oXXo        -===============O Xo            *===============Ooo                     X===============*o.ooooo.o.================$    +================X        X +===============& ..o*================O o.X %===============       ..XXo+===============O X %===============-X..XXXXXXXo@===============*    ",
"        -============================================% X @=============*o......X $================OoXXo       .-===============OoXo            *===============Ooo                     O===============*o...o...o.================$    +================X        X +===============% ..o*================O o.X %===============.      ...Xo@===============@ X &================Xo.XXXXXXX.O===============*    ",
"       O=============================================& X $=============% X....oX &================X.XXo       X================OoXo           o-===============Xoo                     O===============*         o================$    +================X        X +===============% ..o*================O o.X %===============X      ...Xo@===============+ X $================Xo...XXXXXX.-===============X   ",
"       $=============================================& X %=============% X.X...X &================X.XXo       O================XoX            o================X.o                     O===============*         o================$    +================X        Xo+===============% ..o*================@ ..X &===============O      XXXXo+===============+ X +================O ...XXX..Xo-===============X   ",
"       *=============================================$ X %=============& o       *================.XXXo       O===============-X..            o================o                       O===============*         o================&    +================X        X +===============% .. %================@ ..X $===============@       ooo %===============& . @================@ XXXXXXXXXo%===============X   ",
"      X==============================================$ Xo*=============*&&$$$$$$&================-.XXX        O===============*o..            o================%:++@@@@@OOOOOOOO@@O    O===============*         o================&    +================:o        .*===============% .. %================@ ..X +===============*$&$$$+++@@*================% . @================+       ooo &===============@   ",
"      +==============================================+ .X-=======================================*.XXX        O===============* XX            .===================================-    O===============*         o================&    +=================--*******=================* oX %================+ o.X +===========================================* . O================*@++++++@OOX%===============$   ",
"      %==============================================+ .X========================================%oXXX        @===============* XX            X===================================*    O===============*         o================&    +===========================================* oX &================+ o.X @===========================================* . O============================================&   ",
"     .===============================================+ oX========================================% XXX        :===============%oXX            O===================================*    O===============*         o================&    +===========================================-. X &================$ o.X @===========================================-XooX-===========================================%   ",
"     @================-*-***********-================+ oO========================================& XXX        &===============&oXX            @===================================%    O===============*         o================&    +============================================X X &================& o.X O============================================O .o-===========================================*   ",
"     &================OoX.o         X-===============+ o+========================================& X.X        &===============& X.            +===================================%    O===============*         o================&    +============================================X X &================& o.. O============================================# . *============================================   ",
"     -===============;oXXXXXXXXXXXXX %===============+ o$========================================& XXX        %===============+ X.            +===================================%    O===============*         o================&    +===========================================% oX &================% o.. O===========================================$ .. *============================================o  ",
"    #================+oXXXXXXXXX...Xo%===============+  &========================================+oXX.        %===============+ X.            +===================================&    @===============%         o================&    @==========================================*o oX &================% o..oO==========================================% oo. +============================================X  ",
"    :================#.XXXXXXXXXX..Xo*===============@o.#========================================@oX..        %===============+ X.            $===================================&    @===============%         o================%   oo%=========================================X  oX &================* o..oO=========================================-oooo.X $==========================================-   ",
"    *===============*oXXXXXXXXXXXXXXo*===============OoX +=======================================OoXX.        %===============@oX.            &===================================&    +===============%         o================%   o.o*=======================================Ooo oX &================* o..oX=========================================# .oo..X $=========================================X   ",
"   X================&oXXXXXXXXXXXX.Xo*===============#oXX %=====================================-.XXX.        %===============OoX.            *===================================$    +===============&         o================%    X.X-=====================================+ X  oX &================* o...X-=======================================@ .oo..XXX $=======================================+    ",
"   @================@oXXXXXX.XX.X....*===============X.XXoX=====================================#oXXX.        *===============OoX.            -===================================$    $===============&         o================%    .X.X====================================& Xo   X $================* o....-======================================+ .oo...XXXX &=====================================&     ",
"   %================XXXXXXXXXXX......-===============X..XX @===================================O XXXX.       o*===============X.Xo            -===================================+    &===============&         o================%    .XXoO==================================% XX    X $================* o...o-=====================================$ oooo....XXXXo*===================================*      ",
"   -===============*oXXXXXXXX.......X-===============X....X %=================================+ XXXXX.       .================.XXo            -===================================@    &===============&         o-===============%    .XXXoO================================-.XX.   oX +================*  ..X *====================================&o. ooo.....XXX.X==================================-       ",
"  O================$ XXXXXXXXX.....oX===============-......oo-===============================+ XXXXXX.       X===============-.XXo            -===================================O    &===============&         o-===============*    .XXXX +===============================XoXX.   oX +================*  ..X *===================================% X  oo......XXXXo@=================================X       ",
"  +================+oXXXXXXXX       .===============*.XX.... O==============================+ XXXXXXXo       X===============-.XXo            -===================================O    &===============$         o-===============*    ..XXXX $=============================@ XXX    oX +================-o ..Xo*==================================*oXo   o......XXXXX &===============================O        ",
"  %================X.XXXXXXX.       X===============% XX...o  &============================: XXXXXX.Xo       @===============*oXXo            -===================================O    &===============$         o-===============*    oX.XXXX %===========================$ XXX.    oX @=================. ..Xo*=================================-XX.     ......XXXXXX *=============================+         ",
" o================-XXXXXXXXXo       O===============& XX...o   *==========================$ XXXXXX...        $===============%oXXo            ====================================#    &===============$         o================-     ..XXXXX.*=========================% XXXX      X @=================X X.Xo*=================================X..       ......XXXXX.X============================$          ",
" .%%;*************$oXXXXXXXXo       X***************+oXX...o   X+@@@@@@@@@@@@@@@@+++$&%%%+ XXXXX...X         +-*------------=$ XX             &%%%%%%%%%%%%&&&&&&&$$$$$$$$$$$$&&&&.    O&$&&&%%%%%;****O          %**************-%     o..XXXX.X+++$$$$$$$&&&&%%%;******%.XXXX       ..X++++++++$$$$$$&&&o ..Xo+***********************%;*******OoX         ......XXXXXoO**************************&           ",
"   .              oXXXXXXXXX         o            o oXXXX..o    ooooooooooooooooooooooooooXXXXXXX.Xo         oX...XXXXXXXXXXXXXXX             ooooooooooooooooooooooooooooooooooooX    ooooooooooooo   o          o         oooooo.      oXXXXXXX   ooooooo ooooooo    o  .X.Xo       ..X     oo   ooooooo o..XXo         oo oo                o .X           X....XXXXXX.                        oo            ",
"   .XXXXXXXXXXXXXXXXXXXXXXXX         .XXXXXXXXXXXXXXXXXXX..o     XXXXXXXXXXXXXXXXXXXXXXXXXXXXXXXXXo          oXXXXXXXXXXXXXXXXXXX             .XXXXXXXXXXXXXXXXXXXXXXXXXXXXXXXXXXXX    .XXXXXXXXXXXXXXXX         oXXXXXXXXXXXXXXXXX       .X.XXXXXXXXXXXXXXXXXXXXXXXXXXXXXXXXo        ..XXXXXXXXXXXXXXXXX.  ..XXXXXXXXXXXXXXXXXXXXXXXXXXXXXXXXXXXX            o.....XXXXXXXXXXXXXXXXXXXXXXXXXXXXXXXo            ",
"    .XXXXXXXXXXXXXXXXXXXXXX.          XXXXXXXXXXXXXXXXXXX..o     oXXXXXXXXXXXXXXXXXXXXXXXXXXXXXXXo            XXXXXXXXXXXXXXXXXXX              XXXXXXXXXXXXXXXXXXXXXXXXXXXXXXXXXXXX    .XXXXXXXXXXXXXXX.          XXXXXXXXXXXXXXXXX        .X.XXXXXXXXXXXXXXXXXXXXXXXXXXXX.X.         .XXXXXXXXXXXXXXXXXX   ..XXXXXXXXXXXXXXXXXXXXXXXXXXXXXXXXXXX              o....XXXXXXXXXXXXXXXXXXXXXXXXXXXXXXo             ",
"     XXXXXXXXXXXXXXXXXXXXXX.           XXXXXXXXXXXXXXXXXX..       XXXXXXXXXXXXXXXXXXXXXXXXXXXXXXo             .XXXXXXXXXXXXXXXXXX              XXXXXXXXXXXXXXXXXXXXXXXXXXXXXXXXXXXX    oXXXXXXXXXXXXXXX.          XXXXXXXXXXXXXXXX.         XXXXXXXXXXXXXXXXXXXXXXXXXXXXXXX.          .XXXXXXXXXXXXXXXXX.   ..XXXXXXXXXXXXXXXXXXXXXXXXXXXXXXXXXX                oX..XXXXXXXXXXXXXXXXXXXXXXXXXXXXXo              ",
"      XXXXXXXXXXXXXXXXXXXXXo           .XXXXXXXXXXXXXXXX...        XXXXXXXXXXXXXXXXXXXXXXXXXX.X.              oXXXXXXXXXXXXXXXXXX              .XXXXXXXXXXXXXXXXXXXXXXXXXXXXXXXXXXX    oXXXXXXXXXXXXXXX.          XXXXXXXXXXXXXXXX.         oXXXXXXXXXXXXXXXXXXXXXXXXXXXXXX           XXXXXXXXXXXXXXXXXX    ..XXXXXXXXXXXXXXXXXXXXXXXXXXXXXXXXX                  oX..XXXXXXXXXXXXXXXXXXXXXXXXXXX.               ",
"       XXXXXXXXXXXXXXXXXXXXo            XXXXXXXXXXXXXXXXX..        oXXXXXXXXXXXXXXXXXXXXXXXX.X.                XXXXXXXXXXXXXXXXX.               XXXXXXXXXXXXXXXXXXXXXXXXXXXXXXXXXXX    oXXXXXXXXXXXXXXX.         oXXXXXXXXXXXXXXXXo          oXXXXXXXXXXXXXXXXXXXXXXXXXXXX            XXXXXXXXXXXXXXXXX.    .XXXXXXXXXXXXXXXXXXXXXXXXXXXXXXXXXo                   oX..XXXXXXXXXXXXXXXXXXXXXXXXX.                ",
"        XXXXXXXXXXXXXXXXXXX              XXXXXXXXXXXXXXXX..         XXXXXXXXXXXXXXXXXXXXXXXXX.                 .XXXXXXXXXXXXXXXX.               XXXXXXXXXXXXXXXXXXXXXXXXXXXXXXXXXXX    oXXXXXXXXXXXXXXX.          XXXXXXXXXXXXXXXXo           .XXXXXXXXXXXXXXXXXXXXXXXXXX             XXXXXXXXXXXXXXXXX     XXXXXXXXXXXXXXXXXXXXXXXXXXXXXXXXX.                     oX.XXXXXXXXXXXXXXXXXXXXXXXX.                 ",
"        oXXXXXXXXXXXXXXXXXX              oXXXXXXXXXXXXXXXX.          XXXXXXXXXXXXXXXXXXXXXXX.                  oXXXXXXXXXXXXXXXX.               oXXXXXXXXXXXXXXXXXXXXXXXXXXXXXXXXXX    oXXXXXXXXXXXXXXX.         oXXXXXXXXXXXXXXXXo            XXXXXXXXXXXXXXXXXXXXXXXXX             oXXXXXXXXXXXXXXXX.     XXXXXXXXXXXXXXXXXXXXXXXXXXXXXXXXX                       oXXXXXXXXXXXXXXXXXXXXXXXX.                  ",
"         oX........XXXX.XX.               oXXXXXXXXXXXXXXXX           ....XXXXXXXXXXXXXXXXXX                    .XXXXXXXXXXXXXXX.                XXXXXXXXXXXXXXXXXXXXXXXXXXXXXXXXXX    oXXXXXXXXXXXXXXX.         oX...........XXXXo             ..........XXXXXXXXXXXX.               ................      ................................                         .................XX.....                   ",
"                                                                                       oooo                                                                                                                                                                                                                                                                                                                     ",
"                                                                                                                                                                                                                                                                                                                                                                                                                ",
"                                                                                                                                                                                                                                                                                                                                                                                                                "
};
